presets/film/film-polaroid/look.cube
# Approximate v0 colour conversion; calibrate before claiming visual parity.
LUT_3D_SIZE 5
DOMAIN_MIN 0 0 0
DOMAIN_MAX 1 1 1
0.0335394 0.0257483 0.0557636
0.1514719 0.0383074 0.0641022
0.3558985 0.0942882 0.1149235
0.6653164 0.2119208 0.2094699
0.7918540 0.2488482 0.2416746
0.0405809 0.1222773 0.0839175
0.1595153 0.1850777 0.0881130
0.3392536 0.1941820 0.0930088
0.6403308 0.2898087 0.1868014
0.7827384 0.3367548 0.2374252
0.0855222 0.2828369 0.1293987
0.1559443 0.3215989 0.0847247
0.3348672 0.3584141 0.1107985
0.6406663 0.4294726 0.1418589
0.7396057 0.4323643 0.1688759
0.1162942 0.5367608 0.1953945
0.1391555 0.5499072 0.0990751
0.3157316 0.5911537 0.1167790
0.6155450 0.6352290 0.1393272
0.8245064 0.7267314 0.2015947
0.1127672 0.6588533 0.2184438
0.1298464 0.6678676 0.1192579
0.2513633 0.6987467 0.0894420
0.5690684 0.7591065 0.1431787
0.7478837 0.7836480 0.1796672
0.0421463 0.0356222 0.1639089
0.1013759 0.0235948 0.1476294
0.3290237 0.0845875 0.2264849
0.6367303 0.1875863 0.3084753
0.7722105 0.2257303 0.3490576
0.0650442 0.1524298 0.2009049
0.1332772 0.1404530 0.1552810
0.3276570 0.1576711 0.1663125
0.6487588 0.2799135 0.2778936
0.7808858 0.3152583 0.3207868
0.1007536 0.3210515 0.2465345
0.1604790 0.2893490 0.2012757
0.3276218 0.3502734 0.1858849
0.6165774 0.3919997 0.2090550
0.7554391 0.4240294 0.2776824
0.1078173 0.5509778 0.2980241
0.2036610 0.5382224 0.2597426
0.2880518 0.5711530 0.1813020
0.6124224 0.6276124 0.2066699
0.8181857 0.7099165 0.2702915
0.1054386 0.6703671 0.3198736
0.1986560 0.6576591 0.2808369
0.2286809 0.6762611 0.1655204
0.5593641 0.7502750 0.2185151
0.7543619 0.7831839 0.2542204
0.0852332 0.0761132 0.3065559
0.1265593 0.0364866 0.2933287
0.2385030 0.0467228 0.2912705
0.5880582 0.1368492 0.4381953
0.7391388 0.1812138 0.4789448
0.0969396 0.1762826 0.3376814
0.1717873 0.1829597 0.3208213
0.2543343 0.1518624 0.2866946
0.6101930 0.2498858 0.4108007
0.7549927 0.2912740 0.4496913
0.1173518 0.3577350 0.4011159
0.1970045 0.3736110 0.4028026
0.3756203 0.3887891 0.3822820
0.6251321 0.4002648 0.3807743
0.7737011 0.4287723 0.4286099
0.1128000 0.5942642 0.4247597
0.1995070 0.5688800 0.3952740
0.3107903 0.5362272 0.3456818
0.6112906 0.6235083 0.3402675
0.7902659 0.6749865 0.3882290
0.1117823 0.7080595 0.4409648
0.1970206 0.6811854 0.4090976
0.3106927 0.6564984 0.3662708
0.5429004 0.7321140 0.3206942
0.7605554 0.7793140 0.3636871
0.1678110 0.1461875 0.4841821
0.1750417 0.0715925 0.5006583
0.2603545 0.0676311 0.5044941
0.4391681 0.0828597 0.5233435
0.6671034 0.1147046 0.6618145
0.1777017 0.2536394 0.5273897
0.2277583 0.2272676 0.5080963
0.2718125 0.1633669 0.5037191
0.4606808 0.1785775 0.5256839
0.6998083 0.2091486 0.6659104
0.1624373 0.4129032 0.6322255
0.2362090 0.3931967 0.6050647
0.3475852 0.3769087 0.5824106
0.4971476 0.3165998 0.5402888
0.7076512 0.3423172 0.6359084
0.1706510 0.6292337 0.6307307
0.2444896 0.6350388 0.6337549
0.3652602 0.6466121 0.6445254
0.6554218 0.6686355 0.6600544
0.7573342 0.6321131 0.6244384
0.1614703 0.7747874 0.6490894
0.2502823 0.7688820 0.6386469
0.3588811 0.7552226 0.6256977
0.5430746 0.6708726 0.5590358
0.7654608 0.7756968 0.6261479
0.2090194 0.1936010 0.5991306
0.1985855 0.0971248 0.6121126
0.2774091 0.0882851 0.6250276
0.4315227 0.0875447 0.6403990
0.5448259 0.0970518 0.6531160
0.2247183 0.3102343 0.6666037
0.2764471 0.2787041 0.6528681
0.2913540 0.1837727 0.6284142
0.4471293 0.1795012 0.6416517
0.5657883 0.1877674 0.6542423
0.2264114 0.4410766 0.7206393
0.2860073 0.4185078 0.7051126
0.3695608 0.3894401 0.6803898
0.4744704 0.3079405 0.6537521
0.5955335 0.3113294 0.6594537
0.2438473 0.6412446 0.7321702
0.3057477 0.6380404 0.7367858
0.4032567 0.6319687 0.7407959
0.5903879 0.6195096 0.7211382
0.6543201 0.5517045 0.6725826
0.2030922 0.7695354 0.7479196
0.2962279 0.7735169 0.7501970
0.4067030 0.7803918 0.7578981
0.6227105 0.7861158 0.7727052
0.7986222 0.8044403 0.8098220
