presets/film/film-polaroid/look.cube
# Approximate v0 colour conversion; calibrate before claiming visual parity.
LUT_3D_SIZE 33
DOMAIN_MIN 0 0 0
DOMAIN_MAX 1 1 1
0.0335394 0.0257483 0.0557636
0.0446761 0.0247395 0.0536514
0.0562192 0.0237887 0.0522322
0.0674311 0.0232573 0.0512796
0.0782221 0.0229910 0.0505201
0.0962404 0.0261755 0.0534173
0.1146355 0.0299461 0.0568096
0.1327537 0.0340261 0.0603779
0.1514719 0.0383074 0.0641022
0.1755461 0.0431278 0.0684332
0.2006565 0.0483157 0.0729669
0.2262626 0.0531844 0.0773848
0.2510913 0.0596977 0.0834367
0.2759080 0.0662532 0.0895630
0.3008442 0.0728872 0.0957284
0.3277936 0.0831015 0.1049777
0.3558985 0.0942882 0.1149235
0.3974478 0.1106883 0.1290421
0.4521767 0.1368954 0.1480742
0.5082111 0.1626702 0.1659429
0.5459818 0.1760517 0.1759992
0.5822386 0.1873816 0.1856103
0.6104747 0.1962672 0.1945275
0.6367688 0.2043352 0.2030059
0.6653164 0.2119208 0.2094699
0.6876001 0.2179993 0.2147575
0.7030702 0.2222897 0.2183448
0.7185325 0.2265977 0.2220423
0.7339834 0.2309184 0.2258493
0.7484859 0.2353112 0.2296315
0.7630127 0.2397428 0.2335285
0.7776196 0.2442039 0.2375455
0.7918540 0.2488482 0.2416746
0.0253578 0.0291750 0.0503519
0.0408862 0.0355795 0.0524101
0.0540024 0.0358019 0.0508411
0.0641579 0.0343048 0.0491052
0.0742841 0.0335771 0.0476654
0.0937556 0.0374878 0.0507413
0.1127062 0.0413832 0.0538355
0.1310990 0.0451730 0.0569170
0.1504452 0.0488176 0.0599688
0.1753906 0.0528782 0.0634489
0.2012885 0.0571228 0.0671947
0.2272728 0.0616249 0.0713386
0.2509650 0.0675157 0.0773758
0.2747811 0.0734866 0.0834434
0.2988215 0.0795628 0.0895141
0.3266990 0.0903347 0.0997104
0.3557152 0.1018178 0.1103749
0.3985306 0.1188056 0.1255338
0.4542253 0.1450368 0.1452340
0.5097321 0.1700735 0.1632813
0.5474017 0.1830464 0.1727083
0.5835748 0.1941192 0.1811195
0.6113885 0.2024728 0.1895385
0.6370989 0.2099852 0.1971768
0.6659991 0.2173085 0.2027386
0.6887804 0.2231679 0.2073906
0.7042908 0.2272418 0.2106156
0.7197944 0.2313307 0.2139376
0.7352831 0.2354312 0.2173561
0.7496776 0.2396216 0.2208653
0.7641507 0.2438456 0.2244857
0.7786981 0.2480982 0.2282143
0.7927853 0.2525546 0.2320421
0.0237947 0.0389619 0.0529183
0.0349883 0.0463788 0.0498009
0.0527272 0.0515114 0.0524840
0.0654920 0.0535837 0.0496988
0.0745193 0.0517224 0.0472583
0.0929466 0.0536337 0.0494605
0.1108596 0.0557676 0.0517640
0.1282501 0.0579915 0.0541519
0.1476832 0.0605426 0.0566878
0.1736137 0.0640507 0.0598397
0.2003681 0.0679177 0.0633879
0.2265864 0.0722805 0.0676513
0.2488914 0.0778588 0.0740490
0.2715390 0.0835913 0.0804163
0.2946314 0.0895022 0.0867270
0.3241356 0.1014709 0.0983312
0.3547039 0.1138102 0.1100272
0.4000008 0.1321459 0.1264831
0.4590983 0.1596911 0.1471421
0.5128599 0.1831503 0.1644899
0.5461896 0.1936758 0.1732233
0.5801204 0.2047848 0.1825679
0.6071619 0.2132310 0.1908391
0.6350659 0.2213543 0.1981461
0.6642691 0.2289480 0.2038142
0.6871776 0.2349805 0.2085564
0.7026810 0.2391599 0.2119129
0.7181708 0.2433464 0.2153651
0.7335669 0.2475480 0.2189254
0.7480595 0.2519079 0.2227438
0.7626208 0.2562908 0.2266666
0.7772464 0.2606916 0.2306909
0.7913782 0.2653279 0.2347740
0.0256171 0.0535044 0.0579465
0.0318700 0.0583202 0.0491864
0.0498689 0.0660866 0.0537033
0.0625659 0.0670766 0.0516324
0.0744253 0.0704263 0.0468246
0.0918784 0.0700822 0.0480747
0.1087708 0.0702326 0.0495130
0.1251788 0.0707332 0.0511546
0.1448008 0.0721433 0.0531534
0.1717624 0.0750117 0.0559445
0.1994067 0.0784345 0.0592669
0.2257160 0.0825691 0.0636433
0.2465944 0.0878233 0.0704337
0.2680385 0.0933098 0.0771291
0.2904755 0.0992559 0.0835125
0.3212014 0.1119111 0.0956042
0.3513915 0.1236063 0.1069226
0.3941151 0.1398909 0.1223532
0.4467824 0.1639975 0.1423019
0.4951642 0.1854547 0.1604886
0.5341574 0.2000879 0.1725244
0.5727001 0.2144141 0.1840047
0.6029122 0.2238252 0.1919655
0.6329493 0.2325590 0.1990050
0.6624653 0.2404295 0.2047803
0.6854876 0.2466390 0.2096269
0.7009863 0.2509265 0.2131150
0.7164647 0.2552131 0.2166975
0.7317937 0.2595293 0.2204240
0.7463838 0.2640601 0.2245504
0.7610530 0.2685712 0.2286273
0.7758308 0.2730809 0.2326956
0.7901029 0.2778491 0.2368049
0.0274651 0.0678622 0.0630558
0.0310998 0.0714256 0.0519803
0.0484425 0.0802653 0.0554404
0.0607603 0.0827546 0.0541370
0.0700572 0.0819793 0.0493691
0.0918984 0.0881838 0.0478206
0.1085129 0.0871300 0.0490349
0.1249027 0.0871728 0.0508403
0.1454952 0.0887787 0.0531519
0.1733986 0.0917522 0.0558597
0.2009825 0.0948484 0.0584992
0.2260306 0.0981191 0.0616958
0.2463809 0.1025875 0.0675431
0.2675287 0.1068160 0.0727280
0.2897009 0.1110838 0.0776238
0.3172061 0.1209519 0.0888324
0.3443855 0.1302226 0.0995819
0.3833828 0.1441178 0.1150551
0.4319043 0.1667671 0.1365186
0.4778935 0.1879127 0.1565446
0.5224692 0.2065947 0.1718572
0.5654156 0.2238960 0.1852610
0.5987779 0.2342922 0.1929391
0.6307472 0.2436120 0.1997604
0.6604226 0.2516846 0.2053872
0.6831784 0.2578453 0.2095906
0.6986635 0.2621482 0.2128717
0.7143212 0.2664936 0.2163951
0.7299177 0.2709321 0.2202143
0.7447430 0.2756383 0.2244764
0.7596606 0.2803724 0.2288715
0.7746625 0.2851258 0.2333885
0.7890463 0.2900628 0.2378404
0.0292624 0.0820454 0.0681622
0.0324132 0.0851290 0.0573038
0.0455269 0.0924717 0.0558193
0.0602896 0.0978159 0.0567895
0.0715151 0.0997702 0.0545345
0.0850592 0.1011047 0.0525030
0.1216706 0.1185869 0.0611017
0.1371534 0.1190785 0.0626442
0.1559917 0.1192553 0.0632943
0.1807168 0.1185113 0.0625597
0.2049460 0.1176518 0.0614667
0.2271063 0.1172305 0.0612884
0.2468416 0.1191456 0.0650885
0.2673156 0.1209459 0.0683799
0.2887224 0.1230396 0.0718123
0.3129485 0.1300102 0.0820657
0.3370705 0.1367637 0.0921832
0.3723277 0.1482181 0.1076879
0.4167787 0.1693946 0.1306463
0.4609772 0.1904976 0.1526035
0.5110638 0.2131627 0.1711765
0.5576417 0.2328677 0.1843756
0.5926560 0.2435732 0.1899577
0.6252384 0.2530215 0.1957515
0.6556106 0.2614524 0.2016058
0.6794893 0.2681501 0.2069382
0.6956255 0.2727454 0.2108777
0.7119154 0.2773654 0.2150285
0.7279791 0.2820871 0.2194435
0.7430626 0.2870738 0.2242000
0.7582214 0.2920707 0.2290664
0.7734477 0.2970690 0.2340320
0.7879395 0.3021640 0.2388154
0.0312190 0.0959775 0.0732373
0.0343743 0.0989465 0.0628519
0.0432132 0.1041524 0.0565582
0.0615790 0.1110651 0.0605507
0.0764437 0.1173580 0.0616528
0.0908267 0.1236627 0.0622592
0.1116242 0.1271157 0.0641989
0.1491466 0.1512624 0.0744318
0.1662579 0.1503214 0.0736853
0.1879185 0.1459410 0.0695967
0.2088392 0.1411442 0.0648141
0.2282851 0.1370383 0.0612905
0.2474078 0.1362861 0.0629495
0.2672079 0.1355619 0.0642705
0.2876622 0.1353059 0.0661538
0.3085249 0.1392289 0.0753502
0.3295188 0.1433362 0.0847455
0.3625148 0.1543577 0.1012942
0.4066200 0.1774552 0.1260515
0.4522483 0.1998835 0.1474821
0.5030357 0.2227316 0.1642003
0.5477301 0.2403992 0.1760361
0.5844230 0.2516414 0.1829416
0.6187734 0.2618847 0.1903291
0.6507957 0.2711221 0.1977908
0.6757741 0.2783482 0.2042368
0.6925621 0.2832377 0.2088360
0.7094848 0.2881342 0.2136153
0.7259891 0.2931436 0.2186181
0.7413320 0.2984125 0.2238702
0.7567334 0.3036739 0.2292092
0.7721853 0.3089190 0.2346245
0.7867821 0.3141625 0.2397303
0.0357557 0.1090496 0.0785186
0.0383807 0.1118922 0.0684354
0.0418772 0.1151826 0.0575038
0.0611969 0.1218770 0.0629448
0.0787479 0.1313477 0.0663921
0.0969054 0.1427153 0.0706206
0.1165000 0.1504059 0.0738435
0.1364207 0.1551060 0.0761039
0.1729288 0.1793247 0.0840790
0.1950571 0.1739902 0.0769964
0.2129668 0.1656569 0.0690517
0.2305050 0.1590939 0.0634512
0.2506800 0.1579768 0.0646779
0.2720597 0.1580262 0.0663918
0.2940047 0.1593208 0.0694362
0.3135265 0.1631189 0.0788365
0.3335404 0.1674571 0.0882409
0.3642436 0.1766581 0.1029105
0.4047820 0.1944412 0.1235685
0.4476519 0.2127550 0.1416788
0.4951700 0.2324204 0.1566730
0.5379865 0.2479773 0.1677570
0.5761979 0.2596110 0.1758543
0.6122899 0.2706506 0.1848492
0.6459591 0.2806976 0.1939237
0.6720203 0.2884457 0.2014743
0.6894627 0.2936318 0.2067369
0.7068989 0.2987448 0.2119369
0.7233230 0.3038170 0.2167574
0.7386294 0.3091989 0.2219795
0.7541589 0.3146188 0.2275076
0.7699002 0.3200717 0.2333338
0.7848398 0.3254916 0.2387534
0.0405809 0.1222773 0.0839175
0.0426239 0.1248271 0.0738115
0.0451184 0.1274478 0.0630454
0.0592170 0.1322043 0.0637669
0.0789559 0.1428611 0.0695127
0.1001080 0.1578149 0.0763594
0.1213142 0.1720155 0.0828091
0.1413768 0.1791829 0.0860495
0.1595153 0.1850777 0.0881130
0.1981652 0.1969667 0.0828087
0.2182770 0.1918403 0.0756460
0.2355762 0.1862597 0.0709987
0.2588931 0.1874533 0.0729658
0.2826682 0.1892974 0.0752334
0.3056022 0.1913839 0.0784327
0.3221202 0.1924974 0.0857492
0.3392536 0.1941820 0.0930088
0.3661839 0.1993684 0.1044728
0.4029498 0.2116000 0.1209462
0.4429263 0.2256961 0.1357651
0.4872019 0.2421536 0.1490187
0.5283283 0.2556977 0.1594537
0.5678858 0.2675571 0.1686067
0.6062103 0.2799772 0.1788778
0.6403308 0.2898087 0.1868014
0.6660519 0.2970697 0.1933753
0.6835148 0.3023808 0.1988580
0.7010736 0.3077517 0.2047141
0.7180867 0.3133359 0.2109106
0.7342433 0.3191928 0.2173885
0.7505972 0.3250770 0.2241536
0.7671371 0.3309837 0.2311985
0.7827384 0.3367548 0.2374252
0.0463634 0.1373825 0.0901409
0.0478086 0.1396818 0.0800222
0.0496312 0.1420974 0.0695727
0.0573549 0.1446993 0.0647694
0.0773803 0.1535783 0.0714837
0.0995965 0.1711090 0.0788181
0.1200667 0.1874722 0.0841854
0.1395913 0.1962971 0.0868383
0.1597893 0.2040242 0.0898358
0.1822081 0.2094314 0.0911412
0.2175436 0.2155944 0.0830667
0.2408995 0.2170550 0.0793055
0.2683300 0.2212982 0.0822970
0.2952510 0.2255005 0.0853245
0.3195066 0.2285887 0.0886816
0.3324937 0.2265898 0.0936419
0.3462497 0.2251983 0.0984696
0.3687118 0.2256099 0.1062348
0.4010558 0.2313465 0.1179122
0.4406889 0.2431419 0.1303944
0.4844155 0.2584751 0.1434104
0.5260641 0.2718641 0.1541913
0.5657764 0.2836327 0.1632632
0.6013975 0.2930458 0.1703691
0.6329345 0.2994786 0.1747197
0.6582368 0.3061709 0.1817610
0.6762349 0.3120238 0.1889631
0.6943731 0.3179520 0.1964971
0.7120935 0.3241140 0.2042535
0.7292247 0.3305136 0.2121656
0.7465232 0.3369284 0.2203430
0.7639256 0.3433425 0.2287167
0.7803260 0.3495170 0.2358900
0.0521899 0.1538241 0.0959779
0.0530997 0.1559431 0.0857257
0.0547110 0.1593404 0.0753356
0.0564053 0.1618313 0.0644477
0.0747810 0.1685532 0.0690374
0.0947461 0.1835504 0.0747440
0.1136703 0.1973356 0.0793680
0.1338392 0.2091666 0.0835202
0.1573046 0.2200705 0.0892578
0.1835992 0.2323789 0.0961126
0.2044777 0.2283897 0.0907959
0.2329893 0.2348174 0.0847368
0.2765992 0.2530621 0.0905251
0.3048855 0.2577816 0.0935226
0.3288451 0.2600939 0.0961447
0.3418911 0.2573110 0.0998272
0.3570394 0.2561171 0.1039403
0.3817252 0.2570267 0.1108189
0.4135125 0.2615926 0.1197197
0.4494433 0.2699472 0.1296831
0.4891118 0.2811188 0.1414620
0.5275143 0.2912874 0.1507085
0.5641811 0.3002799 0.1582243
0.5965040 0.3060658 0.1617757
0.6253822 0.3089888 0.1624052
0.6503587 0.3152196 0.1701091
0.6688834 0.3216092 0.1790450
0.6875924 0.3280899 0.1882695
0.7060555 0.3348250 0.1975819
0.7240565 0.3416776 0.2064892
0.7417061 0.3482120 0.2147049
0.7590870 0.3545945 0.2231146
0.7756674 0.3609264 0.2304108
0.0575301 0.1742359 0.1006766
0.0579804 0.1762900 0.0898893
0.0594555 0.1801354 0.0792940
0.0605773 0.1829637 0.0676799
0.0736602 0.1882701 0.0671186
0.0916033 0.1985620 0.0715650
0.1087620 0.2095141 0.0754346
0.1254122 0.2193238 0.0782388
0.1520599 0.2333883 0.0863380
0.1822455 0.2494288 0.0964583
0.2059683 0.2535399 0.0977290
0.2226095 0.2481140 0.0920695
0.2597662 0.2609440 0.0918073
0.3071694 0.2809173 0.0977691
0.3305532 0.2826951 0.0996190
0.3497242 0.2844174 0.1042682
0.3699379 0.2869089 0.1092485
0.3977606 0.2901244 0.1159314
0.4264804 0.2924274 0.1213153
0.4585405 0.2972177 0.1288189
0.4938934 0.3039836 0.1394236
0.5289030 0.3107996 0.1471757
0.5624779 0.3169589 0.1531403
0.5919747 0.3194678 0.1533045
0.6201782 0.3208234 0.1514657
0.6454431 0.3271530 0.1590935
0.6637174 0.3331654 0.1669928
0.6814927 0.3385561 0.1739353
0.6989709 0.3443258 0.1816927
0.7163947 0.3508278 0.1911963
0.7336982 0.3572430 0.2010691
0.7509519 0.3637018 0.2111861
0.7684965 0.3708790 0.2205443
0.0631087 0.1946107 0.1057145
0.0631283 0.1966218 0.0944016
0.0640414 0.2002350 0.0832381
0.0654338 0.2039410 0.0717331
0.0732143 0.2087003 0.0658480
0.0900561 0.2159591 0.0691595
0.1053594 0.2240040 0.0723073
0.1196819 0.2308498 0.0741154
0.1454890 0.2452930 0.0818023
0.1778412 0.2628769 0.0934978
0.2046269 0.2730702 0.0997530
0.2229383 0.2699706 0.0967278
0.2399468 0.2665151 0.0937089
0.2870642 0.2859429 0.0987746
0.3310402 0.3043418 0.1026574
0.3570570 0.3111638 0.1083916
0.3829268 0.3178192 0.1143284
0.4143562 0.3237458 0.1208673
0.4400102 0.3238895 0.1227201
0.4681648 0.3243101 0.1273901
0.5010578 0.3277685 0.1357038
0.5350864 0.3333823 0.1417881
0.5671757 0.3387790 0.1482549
0.5953283 0.3401802 0.1481544
0.6210530 0.3387124 0.1444029
0.6436992 0.3422050 0.1487248
0.6598652 0.3459349 0.1535595
0.6755695 0.3491150 0.1575590
0.6917818 0.3537496 0.1648737
0.7087043 0.3599975 0.1759438
0.7256307 0.3662639 0.1874572
0.7428109 0.3728289 0.1992970
0.7613271 0.3808535 0.2107304
0.0689184 0.2149487 0.1110852
0.0685298 0.2169324 0.0992542
0.0689289 0.2203637 0.0875391
0.0701491 0.2246286 0.0758047
0.0732560 0.2293534 0.0650817
0.0910101 0.2357294 0.0681680
0.1068599 0.2426542 0.0720157
0.1235234 0.2504343 0.0753557
0.1443047 0.2610129 0.0801770
0.1738638 0.2762452 0.0898790
0.2010389 0.2890626 0.0984982
0.2217982 0.2894970 0.0990966
0.2412628 0.2894750 0.0996774
0.2664941 0.2916942 0.1005772
0.3090226 0.3070523 0.1036066
0.3607765 0.3341216 0.1098484
0.3873917 0.3403570 0.1142843
0.4184778 0.3446508 0.1183008
0.4474003 0.3457802 0.1196988
0.4786526 0.3481845 0.1237492
0.5121068 0.3528437 0.1291142
0.5445807 0.3580993 0.1350107
0.5732442 0.3617839 0.1433381
0.5987324 0.3610453 0.1429875
0.6219870 0.3567589 0.1374116
0.6419549 0.3573286 0.1382855
0.6559949 0.3587437 0.1400128
0.6696126 0.3596835 0.1410300
0.6846041 0.3632380 0.1480921
0.7009888 0.3691979 0.1607114
0.7176223 0.3754151 0.1739711
0.7353103 0.3826885 0.1876137
0.7546601 0.3916127 0.2005153
0.0746457 0.2364802 0.1169142
0.0744649 0.2382803 0.1049150
0.0750801 0.2415032 0.0930965
0.0766323 0.2459851 0.0814196
0.0798758 0.2506615 0.0703572
0.0945410 0.2567297 0.0698165
0.1113974 0.2634725 0.0735751
0.1282024 0.2709710 0.0771030
0.1457694 0.2790544 0.0800036
0.1718714 0.2914216 0.0873195
0.1965062 0.3017302 0.0946464
0.2191676 0.3068329 0.0992438
0.2410260 0.3101949 0.1033991
0.2640431 0.3134598 0.1068415
0.2914966 0.3150693 0.1064551
0.3286117 0.3263437 0.1060166
0.3838876 0.3558554 0.1117854
0.4184751 0.3615543 0.1138045
0.4543469 0.3672357 0.1165905
0.4891596 0.3721605 0.1200596
0.5231807 0.3780375 0.1223294
0.5540444 0.3828987 0.1280679
0.5792474 0.3848435 0.1383224
0.6021943 0.3820713 0.1378183
0.6241132 0.3761426 0.1323339
0.6428581 0.3756576 0.1330739
0.6559175 0.3762156 0.1344110
0.6687092 0.3765382 0.1355217
0.6833944 0.3800144 0.1432565
0.6994173 0.3856182 0.1552119
0.7151960 0.3908435 0.1662699
0.7312457 0.3963395 0.1769492
0.7491526 0.4041756 0.1892992
0.0800223 0.2587058 0.1228939
0.0803670 0.2602836 0.1109153
0.0814602 0.2631803 0.0991158
0.0834030 0.2673253 0.0874430
0.0869968 0.2720147 0.0764091
0.0975618 0.2777776 0.0714419
0.1159364 0.2844454 0.0751712
0.1327989 0.2916752 0.0788320
0.1505895 0.2995732 0.0819818
0.1723956 0.3086392 0.0865577
0.1937804 0.3160972 0.0917727
0.2174923 0.3234455 0.0984373
0.2422107 0.3294683 0.1047935
0.2645519 0.3338552 0.1092751
0.2906874 0.3354780 0.1090497
0.3147095 0.3358902 0.1081823
0.3539195 0.3509601 0.1104091
0.4173886 0.3776080 0.1093024
0.4609101 0.3884426 0.1135009
0.4985870 0.3954464 0.1166353
0.5325582 0.4017680 0.1169634
0.5626663 0.4061405 0.1229334
0.5877421 0.4078031 0.1330829
0.6110460 0.4059976 0.1356106
0.6320595 0.4016807 0.1368488
0.6486637 0.3998879 0.1377685
0.6598981 0.3987221 0.1375307
0.6709192 0.3973564 0.1370461
0.6841036 0.3992193 0.1423568
0.6985769 0.4029792 0.1508931
0.7127064 0.4062759 0.1584668
0.7271454 0.4100378 0.1663263
0.7436039 0.4167623 0.1781076
0.0855222 0.2828369 0.1293987
0.0864266 0.2841816 0.1174324
0.0880365 0.2867500 0.1056442
0.0904579 0.2904852 0.0939953
0.0942847 0.2951077 0.0828524
0.1004391 0.3005860 0.0731016
0.1208448 0.3072446 0.0769389
0.1376977 0.3141802 0.0807295
0.1559443 0.3215989 0.0847247
0.1779037 0.3300479 0.0895271
0.1997950 0.3372642 0.0948217
0.2224091 0.3447177 0.1008035
0.2463790 0.3506073 0.1062900
0.2680296 0.3548234 0.1097831
0.2909381 0.3570899 0.1108309
0.3135258 0.3580053 0.1109030
0.3348672 0.3584141 0.1107985
0.3911318 0.3770787 0.1096541
0.4622424 0.4083911 0.1136672
0.5010073 0.4151972 0.1149362
0.5386620 0.4238521 0.1148408
0.5711468 0.4297147 0.1193989
0.5979837 0.4326767 0.1273804
0.6209882 0.4322071 0.1335894
0.6406663 0.4294726 0.1418589
0.6548695 0.4261389 0.1428354
0.6641039 0.4230871 0.1408963
0.6731853 0.4198749 0.1386886
0.6847575 0.4199774 0.1412814
0.6975877 0.4217666 0.1461350
0.7099651 0.4230002 0.1499556
0.7234186 0.4256542 0.1561023
0.7396057 0.4323643 0.1688759
0.0932943 0.3189600 0.1396254
0.0948335 0.3199834 0.1277202
0.0969948 0.3220268 0.1159993
0.0998410 0.3250446 0.1044476
0.1034290 0.3289760 0.0930529
0.1087590 0.3335753 0.0826328
0.1222650 0.3391594 0.0796356
0.1425406 0.3459660 0.0846149
0.1633072 0.3539920 0.0902118
0.1889770 0.3641326 0.0967047
0.2108579 0.3711360 0.1015467
0.2322306 0.3775724 0.1061146
0.2542563 0.3835965 0.1102880
0.2745716 0.3874962 0.1122753
0.2933726 0.3897807 0.1126420
0.3143790 0.3913578 0.1146851
0.3337410 0.3918946 0.1159056
0.3678192 0.3927049 0.1144280
0.4270742 0.4109151 0.1145949
0.5036487 0.4448750 0.1123987
0.5474429 0.4576554 0.1117601
0.5827396 0.4651962 0.1141477
0.6115472 0.4694267 0.1198033
0.6349553 0.4706339 0.1305980
0.6558169 0.4705616 0.1449151
0.6694428 0.4670527 0.1480918
0.6782546 0.4640589 0.1485577
0.6874437 0.4616724 0.1500431
0.6981578 0.4615057 0.1532358
0.7093241 0.4621648 0.1566443
0.7202184 0.4626379 0.1596573
0.7319207 0.4641871 0.1640308
0.7460956 0.4687283 0.1723868
0.1005174 0.3539592 0.1499635
0.1024464 0.3546288 0.1381765
0.1049420 0.3562195 0.1265659
0.1080635 0.3586921 0.1151240
0.1118666 0.3619970 0.1038462
0.1167249 0.3660310 0.0930067
0.1227329 0.3707371 0.0826983
0.1443000 0.3768339 0.0869140
0.1675350 0.3854542 0.0939814
0.1955795 0.3961238 0.1020644
0.2209728 0.4049868 0.1083821
0.2420422 0.4111816 0.1131262
0.2660619 0.4190848 0.1194125
0.2859745 0.4224601 0.1218084
0.3046104 0.4243027 0.1227734
0.3231899 0.4251032 0.1233161
0.3408168 0.4248724 0.1234018
0.3677152 0.4243514 0.1220914
0.4023558 0.4244094 0.1195107
0.4635920 0.4433911 0.1162694
0.5472457 0.4860388 0.1093803
0.5843013 0.4933762 0.1094404
0.6180899 0.5006265 0.1159895
0.6465070 0.5053680 0.1277136
0.6728900 0.5096218 0.1431539
0.6878646 0.5086450 0.1518758
0.6966692 0.5071683 0.1577948
0.7058845 0.5064013 0.1648529
0.7145252 0.5054336 0.1683497
0.7227098 0.5040685 0.1692427
0.7312898 0.5028218 0.1700234
0.7413822 0.5029940 0.1723954
0.7542423 0.5059425 0.1776254
0.1068825 0.3881260 0.1600289
0.1088464 0.3886252 0.1480378
0.1115663 0.3898452 0.1364872
0.1147816 0.3918198 0.1250579
0.1185243 0.3945249 0.1137437
0.1228209 0.3979275 0.1025397
0.1280324 0.4018783 0.0917647
0.1402774 0.4067786 0.0872910
0.1635963 0.4139472 0.0936189
0.1917648 0.4238763 0.1021703
0.2222896 0.4347783 0.1110817
0.2478006 0.4433341 0.1188677
0.2754117 0.4530119 0.1277204
0.2992501 0.4591187 0.1331199
0.3168736 0.4597177 0.1335959
0.3338757 0.4594577 0.1331340
0.3495345 0.4584927 0.1318490
0.3706888 0.4559086 0.1290451
0.4031846 0.4568507 0.1269573
0.4418457 0.4592872 0.1229620
0.4996216 0.4767118 0.1175241
0.5802990 0.5179877 0.1069408
0.6228962 0.5328179 0.1166789
0.6543794 0.5396759 0.1287828
0.6830780 0.5455012 0.1439176
0.7004110 0.5467709 0.1548083
0.7107693 0.5467021 0.1626787
0.7218645 0.5473503 0.1710664
0.7311297 0.5467256 0.1755114
0.7393857 0.5453474 0.1780422
0.7478372 0.5441222 0.1809494
0.7572874 0.5440495 0.1846418
0.7685678 0.5463298 0.1892165
0.1113153 0.4202296 0.1688985
0.1132728 0.4207773 0.1567378
0.1160473 0.4218239 0.1452012
0.1192753 0.4235650 0.1337821
0.1229854 0.4259817 0.1224765
0.1272030 0.4290485 0.1112820
0.1319335 0.4326278 0.1002127
0.1371332 0.4366240 0.0892475
0.1573303 0.4421638 0.0920798
0.1866450 0.4517687 0.1013646
0.2182890 0.4623784 0.1112063
0.2480571 0.4724642 0.1205704
0.2755045 0.4817417 0.1293596
0.3041295 0.4911532 0.1377850
0.3203205 0.4906322 0.1370216
0.3386798 0.4912635 0.1369646
0.3561572 0.4913613 0.1364790
0.3784278 0.4894611 0.1349658
0.4090420 0.4898606 0.1334700
0.4417775 0.4908358 0.1306534
0.4790703 0.4925248 0.1247085
0.5356538 0.5107502 0.1134039
0.6134205 0.5551288 0.1205302
0.6584872 0.5732189 0.1330039
0.6892518 0.5795633 0.1458195
0.7103145 0.5833594 0.1573571
0.7235096 0.5853141 0.1664773
0.7370481 0.5876566 0.1760196
0.7468352 0.5874451 0.1819793
0.7549642 0.5860444 0.1861198
0.7634542 0.5848813 0.1904252
0.7727121 0.5847035 0.1946137
0.7830790 0.5863425 0.1981765
0.1148717 0.4518177 0.1772492
0.1171481 0.4524043 0.1652572
0.1198604 0.4534183 0.1535413
0.1229886 0.4548863 0.1420437
0.1264680 0.4569272 0.1305940
0.1303057 0.4595201 0.1191797
0.1345037 0.4626378 0.1077880
0.1387982 0.4659560 0.0962225
0.1485814 0.4700376 0.0895033
0.1752765 0.4771835 0.0964673
0.2044943 0.4858005 0.1047843
0.2341346 0.4945647 0.1128347
0.2620101 0.5030679 0.1213454
0.2913282 0.5119206 0.1299315
0.3162478 0.5171464 0.1348280
0.3382538 0.5200307 0.1372301
0.3615341 0.5235791 0.1399623
0.3855675 0.5226177 0.1399135
0.4123448 0.5216605 0.1375034
0.4419696 0.5225540 0.1353449
0.4773866 0.5246710 0.1298969
0.5155065 0.5280458 0.1231565
0.5705162 0.5460495 0.1160597
0.6453981 0.5910351 0.1311223
0.6888953 0.6110615 0.1483203
0.7113693 0.6151439 0.1596373
0.7262845 0.6178982 0.1686313
0.7411435 0.6205475 0.1778608
0.7532976 0.6216335 0.1843372
0.7640206 0.6219078 0.1892416
0.7751143 0.6224689 0.1942392
0.7864234 0.6235335 0.1988604
0.7975500 0.6252236 0.2024141
0.1158767 0.4812679 0.1838181
0.1181364 0.4817218 0.1718201
0.1207030 0.4827183 0.1598908
0.1236065 0.4839892 0.1482377
0.1268254 0.4857887 0.1366229
0.1303645 0.4880992 0.1250338
0.1342250 0.4908980 0.1134574
0.1382870 0.4940391 0.1017575
0.1424840 0.4974305 0.0898473
0.1628241 0.5026499 0.0909534
0.1908278 0.5099565 0.0984524
0.2192744 0.5174173 0.1058008
0.2479119 0.5250775 0.1135398
0.2766347 0.5330810 0.1214423
0.3052035 0.5408987 0.1286724
0.3268749 0.5442784 0.1313535
0.3496484 0.5481175 0.1340626
0.3760138 0.5494953 0.1346917
0.4064739 0.5503776 0.1345690
0.4402980 0.5536450 0.1343724
0.4761094 0.5569607 0.1324147
0.5120194 0.5598287 0.1295918
0.5522058 0.5646726 0.1253616
0.6036551 0.5830938 0.1281156
0.6692947 0.6232436 0.1447593
0.7110769 0.6463948 0.1613849
0.7277038 0.6498149 0.1702417
0.7444000 0.6532585 0.1790304
0.7587163 0.6554808 0.1857779
0.7716720 0.6570668 0.1911270
0.7849064 0.6588326 0.1964324
0.7978835 0.6606286 0.2011573
0.8096783 0.6621297 0.2045149
0.1168516 0.5107745 0.1904229
0.1191227 0.5111188 0.1784338
0.1216480 0.5119633 0.1664746
0.1243774 0.5131597 0.1546059
0.1272934 0.5147026 0.1427859
0.1304651 0.5167035 0.1309596
0.1338934 0.5191456 0.1191138
0.1375760 0.5220077 0.1072356
0.1412468 0.5250241 0.0949681
0.1511080 0.5290355 0.0863368
0.1768368 0.5348081 0.0921006
0.2035377 0.5412167 0.0984086
0.2304478 0.5478050 0.1045751
0.2572600 0.5546081 0.1112258
0.2843221 0.5614136 0.1175233
0.3087396 0.5663624 0.1218319
0.3317509 0.5701601 0.1248097
0.3632619 0.5744713 0.1279374
0.3983338 0.5779204 0.1302575
0.4346364 0.5828857 0.1319383
0.4708116 0.5873787 0.1325819
0.5063366 0.5909096 0.1320092
0.5449862 0.5956971 0.1308886
0.5839699 0.6010150 0.1309373
0.6334436 0.6185660 0.1363486
0.6824423 0.6480919 0.1523753
0.7156535 0.6690174 0.1656485
0.7452338 0.6855774 0.1777803
0.7613950 0.6883759 0.1843730
0.7763546 0.6906568 0.1900155
0.7915669 0.6931023 0.1955874
0.8063754 0.6954365 0.2006320
0.8193862 0.6970180 0.2042754
0.1162942 0.5367608 0.1953945
0.1184456 0.5370352 0.1833576
0.1208244 0.5377719 0.1713415
