presets/film/film-polaroid/look.cube
# Approximate v0 colour conversion; calibrate before claiming visual parity.
LUT_3D_SIZE 9
DOMAIN_MIN 0 0 0
DOMAIN_MAX 1 1 1
0.0335394 0.0257483 0.0557636
0.0782221 0.0229910 0.0505201
0.1514719 0.0383074 0.0641022
0.2510913 0.0596977 0.0834367
0.3558985 0.0942882 0.1149235
0.5459818 0.1760517 0.1759992
0.6653164 0.2119208 0.2094699
0.7339834 0.2309184 0.2258493
0.7918540 0.2488482 0.2416746
0.0274651 0.0678622 0.0630558
0.0700572 0.0819793 0.0493691
0.1454952 0.0887787 0.0531519
0.2463809 0.1025875 0.0675431
0.3443855 0.1302226 0.0995819
0.5224692 0.2065947 0.1718572
0.6604226 0.2516846 0.2053872
0.7299177 0.2709321 0.2202143
0.7890463 0.2900628 0.2378404
0.0405809 0.1222773 0.0839175
0.0789559 0.1428611 0.0695127
0.1595153 0.1850777 0.0881130
0.2588931 0.1874533 0.0729658
0.3392536 0.1941820 0.0930088
0.4872019 0.2421536 0.1490187
0.6403308 0.2898087 0.1868014
0.7180867 0.3133359 0.2109106
0.7827384 0.3367548 0.2374252
0.0631087 0.1946107 0.1057145
0.0732143 0.2087003 0.0658480
0.1454890 0.2452930 0.0818023
0.2399468 0.2665151 0.0937089
0.3829268 0.3178192 0.1143284
0.5010578 0.3277685 0.1357038
0.6210530 0.3387124 0.1444029
0.6917818 0.3537496 0.1648737
0.7613271 0.3808535 0.2107304
0.0855222 0.2828369 0.1293987
0.0942847 0.2951077 0.0828524
0.1559443 0.3215989 0.0847247
0.2463790 0.3506073 0.1062900
0.3348672 0.3584141 0.1107985
0.5386620 0.4238521 0.1148408
0.6406663 0.4294726 0.1418589
0.6847575 0.4199774 0.1412814
0.7396057 0.4323643 0.1688759
0.1113153 0.4202296 0.1688985
0.1229854 0.4259817 0.1224765
0.1573303 0.4421638 0.0920798
0.2755045 0.4817417 0.1293596
0.3561572 0.4913613 0.1364790
0.4790703 0.4925248 0.1247085
0.6892518 0.5795633 0.1458195
0.7468352 0.5874451 0.1819793
0.7830790 0.5863425 0.1981765
0.1162942 0.5367608 0.1953945
0.1261348 0.5403308 0.1473671
0.1391555 0.5499072 0.0990751
0.2152794 0.5695679 0.0974190
0.3157316 0.5911537 0.1167790
0.4615125 0.6135907 0.1306607
0.6155450 0.6352290 0.1393272
0.7530686 0.7075175 0.1807883
0.8245064 0.7267314 0.2015947
0.1146781 0.6000060 0.2074050
0.1232326 0.6028125 0.1587338
0.1341519 0.6106830 0.1092386
0.1834645 0.6258022 0.0837113
0.2806953 0.6457777 0.1010185
0.4347649 0.6747002 0.1233639
0.5922954 0.6999614 0.1448992
0.6849564 0.7126997 0.1629288
0.8096323 0.7763415 0.1912656
0.1127672 0.6588533 0.2184438
0.1201930 0.6610092 0.1692901
0.1298464 0.6678676 0.1192579
0.1576113 0.6808150 0.0739904
0.2513633 0.6987467 0.0894420
0.4075369 0.7299931 0.1155980
0.5690684 0.7591065 0.1431787
0.6654372 0.7736400 0.1623792
0.7478837 0.7836480 0.1796672
0.0311579 0.0260046 0.1061690
0.0577381 0.0177220 0.0965722
0.1318784 0.0325999 0.1200172
0.2334466 0.0595487 0.1425491
0.3460631 0.0961383 0.1696948
0.5403933 0.1664376 0.2170600
0.6542659 0.2025611 0.2561270
0.7219303 0.2214247 0.2764020
0.7832094 0.2392051 0.2942042
0.0370863 0.0850098 0.1237038
0.0672850 0.0760982 0.0979390
0.1200779 0.0758545 0.0984912
0.2272511 0.1043568 0.1231463
0.3518437 0.1346213 0.1463187
0.5462269 0.2060465 0.2045193
0.6584947 0.2419276 0.2420061
0.7257752 0.2605765 0.2615168
0.7857035 0.2786480 0.2797803
0.0504070 0.1343515 0.1364056
0.0638523 0.1154045 0.1027452
0.1326114 0.1543636 0.1098182
0.2138977 0.1339172 0.0821848
0.3230627 0.1619329 0.1173359
0.5047418 0.2431225 0.1919625
0.6487126 0.2863111 0.2330845
0.7237855 0.3059160 0.2551158
0.7847436 0.3242730 0.2747000
0.0710293 0.2033478 0.1563107
0.0990790 0.1962917 0.1363326
0.1331288 0.2256610 0.1154577
0.2190532 0.2462918 0.1171995
0.3377380 0.2752744 0.1390299
0.4890857 0.3080655 0.1660410
0.6207304 0.3313573 0.1939792
0.7008133 0.3528615 0.2228772
0.7718969 0.3778763 0.2619722
0.0890417 0.2918223 0.1830957
0.1253903 0.2846673 0.1613226
0.1380164 0.3014003 0.1133998
0.2403493 0.3472396 0.1370528
0.3275609 0.3525081 0.1363093
0.5093895 0.3973672 0.1507889
0.6242507 0.4070287 0.1727292
0.6816193 0.4069174 0.1791793
0.7420377 0.4226268 0.2130812
0.1072046 0.4255348 0.2206736
0.1539920 0.4224769 0.2007223
0.1723152 0.4326388 0.1537194
0.2530043 0.4680913 0.1496832
0.3534550 0.4930532 0.1592204
0.4712943 0.4873225 0.1510513
0.6732516 0.5598920 0.1679164
0.7352328 0.5711984 0.2098703
0.7716235 0.5687245 0.2265669
0.1101047 0.5402643 0.2459050
0.1587591 0.5372592 0.2260021
0.1726621 0.5425033 0.1780739
0.1971359 0.5577921 0.1282361
0.3032081 0.5825522 0.1481369
0.4575091 0.6099182 0.1652951
0.6144946 0.6319064 0.1700134
0.7592231 0.7090919 0.2151234
0.8228918 0.7197176 0.2338139
0.1090304 0.6031610 0.2578977
0.1566183 0.5996987 0.2377011
0.1676424 0.6033489 0.1887299
0.1830959 0.6154919 0.1318046
0.2650160 0.6350958 0.1332615
0.4260670 0.6682295 0.1582042
0.5902920 0.6972893 0.1805493
0.6868851 0.7117808 0.1974962
0.8157570 0.7775708 0.2240599
0.1076847 0.6619045 0.2689582
0.1543504 0.6581882 0.2484098
0.1637628 0.6609910 0.1990563
0.1768936 0.6712817 0.1412352
0.2354342 0.6879627 0.1222907
0.3959043 0.7217779 0.1498602
0.5645621 0.7552337 0.1795477
0.6650590 0.7719457 0.1987820
0.7512189 0.7837269 0.2150839
0.0421463 0.0356222 0.1639089
0.0603828 0.0218611 0.1551075
0.1013759 0.0235948 0.1476294
0.2235600 0.0479416 0.2008859
0.3290237 0.0845875 0.2264849
0.5029328 0.1472008 0.2697159
0.6367303 0.1875863 0.3084753
0.7078019 0.2076310 0.3301487
0.7722105 0.2257303 0.3490576
0.0517578 0.0911186 0.1798235
0.0815758 0.0905343 0.1637833
0.1053197 0.0710446 0.1463654
0.2122086 0.1056663 0.1833626
0.3398082 0.1396057 0.2089815
0.5309934 0.2003581 0.2557589
0.6492698 0.2351684 0.2928704
0.7149044 0.2539987 0.3155837
0.7774376 0.2712514 0.3348805
0.0650442 0.1524298 0.2009049
0.1101725 0.1882466 0.2272872
0.1332772 0.1404530 0.1552810
0.1903125 0.1067776 0.1175074
0.3276570 0.1576711 0.1663125
0.5255508 0.2456415 0.2416153
0.6487588 0.2799135 0.2778936
0.7176269 0.2983682 0.3005052
0.7808858 0.3152583 0.3207868
0.0853409 0.2347567 0.2207000
0.1172432 0.2216312 0.2046401
0.1229956 0.1929692 0.1663054
0.1871046 0.2044769 0.1344605
0.3175310 0.2513034 0.1725308
0.4895055 0.3022042 0.2155178
0.6321172 0.3353422 0.2570263
0.7120602 0.3565167 0.2899122
0.7812886 0.3744861 0.3159229
0.1007536 0.3210515 0.2465345
0.1318718 0.3045612 0.2271303
0.1604790 0.2893490 0.2012757
0.2164094 0.3294024 0.1788591
0.3276218 0.3502734 0.1858849
0.4828529 0.3746082 0.1994261
0.6165774 0.3919997 0.2090550
0.6869413 0.4047370 0.2388359
0.7554391 0.4240294 0.2776824
0.1082868 0.4421519 0.2766119
0.1500412 0.4307186 0.2578568
0.1971596 0.4264737 0.2371338
0.2310207 0.4464371 0.1821124
0.3337097 0.4795317 0.1862869
0.4685918 0.4857665 0.1828078
0.6536758 0.5391614 0.2051659
0.7160271 0.5489796 0.2426848
0.7636133 0.5543618 0.2638573
0.1078173 0.5509778 0.2980241
0.1523144 0.5417204 0.2792321
0.2036610 0.5382224 0.2597426
0.2257338 0.5472418 0.2043029
0.2880518 0.5711530 0.1813020
0.4529634 0.6050973 0.2013227
0.6124224 0.6276124 0.2066699
0.7572613 0.7022541 0.2518979
0.8181857 0.7099165 0.2702915
0.1065159 0.6124571 0.3091948
0.1511274 0.6036641 0.2903054
0.2009824 0.5996048 0.2704576
0.2176612 0.6057121 0.2140820
0.2493902 0.6228139 0.1676963
0.4157475 0.6594648 0.1946918
0.5880172 0.6940201 0.2199808
0.6887087 0.7103426 0.2367036
0.8218212 0.7783270 0.2610907
0.1054386 0.6703671 0.3198736
0.1496904 0.6619112 0.3007300
0.1986560 0.6576591 0.2808369
0.2122972 0.6621988 0.2241271
0.2286809 0.6762611 0.1655204
0.3826702 0.7111916 0.1855450
0.5593641 0.7502750 0.2185151
0.6645032 0.7696959 0.2387882
0.7543619 0.7831839 0.2542204
0.0627411 0.0554685 0.2361498
0.0730569 0.0285046 0.2281708
0.1121279 0.0295231 0.2207556
0.1673695 0.0337895 0.2172128
0.3178332 0.0658214 0.2929273
0.4701076 0.1189525 0.3332559
0.6118930 0.1634501 0.3724044
0.6888601 0.1861491 0.3939768
0.7565616 0.2055552 0.4128372
0.0714822 0.1090671 0.2528526
0.1052377 0.1106133 0.2386095
0.1207350 0.0808352 0.2209419
0.1722111 0.0846024 0.2106900
0.3165069 0.1172659 0.2763174
0.4863965 0.1746540 0.3202144
0.6254520 0.2171750 0.3573408
0.6984894 0.2382732 0.3789400
0.7641038 0.2565551 0.3980614
0.0770424 0.1587490 0.2721151
0.1270154 0.1889581 0.2869537
0.1486716 0.1651071 0.2450936
0.1721942 0.1342124 0.2048519
0.3124418 0.1689724 0.2541313
0.5064753 0.2369310 0.3098534
0.6351096 0.2731537 0.3436520
0.7060058 0.2922367 0.3659813
0.7708306 0.3084000 0.3855402
0.0916337 0.2450187 0.2941861
0.1412057 0.2696339 0.3059979
0.1766830 0.2905285 0.3246990
0.1919695 0.2036816 0.2080965
0.2914806 0.2205129 0.2167993
0.4984928 0.3038376 0.2926554
0.6343465 0.3342098 0.3257258
0.7117649 0.3533755 0.3529075
0.7775880 0.3674836 0.3732469
0.1143254 0.3535679 0.3278602
0.1508586 0.3503830 0.3181482
0.1799202 0.3408250 0.3036375
0.1749294 0.2684567 0.2273640
0.3090760 0.3292053 0.2434726
0.4832135 0.3687174 0.2677452
0.6183146 0.3945238 0.2906578
0.7001377 0.4136227 0.3254750
0.7761445 0.4328918 0.3622436
0.1120360 0.4672229 0.3440171
0.1542074 0.4560169 0.3291364
0.1957415 0.4431130 0.3103307
0.2447385 0.4318771 0.2830612
0.2964608 0.4524001 0.2288789
0.4675495 0.4837027 0.2429609
0.6344424 0.5222676 0.2717502
0.7002911 0.5307403 0.2942515
0.7551839 0.5382658 0.3125305
0.1086428 0.5704739 0.3596531
0.1517641 0.5580085 0.3431181
0.1968247 0.5462162 0.3244418
0.2566430 0.5387668 0.3011591
0.2855534 0.5501371 0.2435233
0.4401486 0.5943218 0.2479273
0.6102961 0.6235688 0.2636789
0.7451028 0.6848937 0.2996826
0.8076270 0.6941956 0.3243089
0.1071431 0.6298537 0.3692751
0.1499866 0.6176188 0.3523114
0.1954784 0.6063896 0.3337525
0.2546082 0.5990944 0.3110958
0.2761573 0.6068469 0.2538759
0.3998147 0.6450894 0.2384913
0.5850527 0.6895121 0.2717248
0.6893959 0.7072172 0.2896637
0.8245510 0.7746965 0.3112385
0.1063886 0.6863972 0.3791124
0.1489846 0.6744318 0.3617992
0.1943446 0.6638349 0.3432807
0.2524314 0.6569876 0.3210516
0.2698164 0.6626462 0.2638094
0.3655434 0.6956277 0.2279959
0.5523082 0.7428329 0.2669654
0.6633369 0.7661226 0.2898572
0.7576058 0.7817139 0.3046539
0.0852332 0.0761132 0.3065559
0.0868219 0.0353650 0.2994064
0.1265593 0.0364866 0.2933287
0.1763582 0.0391360 0.2891540
0.2385030 0.0467228 0.2912705
0.4506550 0.0947438 0.3983592
0.5880582 0.1368492 0.4381953
0.6686323 0.1609296 0.4602153
0.7391388 0.1812138 0.4789448
0.0915362 0.1262149 0.3189268
0.1266450 0.1227662 0.3072476
0.1357564 0.0862306 0.2962570
0.1830957 0.0886128 0.2874696
0.2460607 0.0978227 0.2885545
0.4566291 0.1456090 0.3859849
0.5982500 0.1900429 0.4238873
0.6772818 0.2140004 0.4449135
0.7462597 0.2339703 0.4631493
0.0969396 0.1762826 0.3376814
0.1365250 0.1836546 0.3299993
0.1717873 0.1829597 0.3208213
0.1950548 0.1498217 0.2955704
0.2543343 0.1518624 0.2866946
0.4668724 0.2058797 0.3763553
0.6101930 0.2498858 0.4108007
0.6873784 0.2724646 0.4312611
0.7549927 0.2912740 0.4496913
0.1098601 0.2606497 0.3780222
0.1477817 0.2700490 0.3752209
0.1707822 0.2684357 0.3729508
0.1998956 0.2229754 0.3049648
0.2253616 0.1782563 0.2526819
0.4819997 0.2891452 0.3693737
0.6226119 0.3254867 0.3979278
0.6977557 0.3439918 0.4183037
0.7643778 0.3587747 0.4376040
0.1173518 0.3577350 0.4011159
0.1581734 0.3641564 0.3997991
0.1970045 0.3736110 0.4028026
0.2620944 0.3869704 0.4077680
0.3756203 0.3887891 0.3822820
0.4952230 0.3745887 0.3564074
0.6251321 0.4002648 0.3807743
0.7003916 0.4156010 0.4026762
0.7737011 0.4287723 0.4286099
0.1142692 0.4900171 0.4148913
0.1566517 0.4835355 0.4038120
0.2018747 0.4751402 0.3911405
0.2499726 0.4567302 0.3682564
0.2941282 0.4291087 0.3320241
0.4694160 0.4857474 0.3337861
0.6218584 0.5126877 0.3527805
0.6904144 0.5182799 0.3618931
0.7540603 0.5313492 0.3776993
0.1128000 0.5942642 0.4247597
0.1552681 0.5826941 0.4109486
0.1995070 0.5688800 0.3952740
0.2520796 0.5510401 0.3733961
0.3107903 0.5362272 0.3456818
0.4162014 0.5738719 0.2980829
0.6112906 0.6235083 0.3402675
0.7229644 0.6599611 0.3563948
0.7902659 0.6749865 0.3882290
0.1121651 0.6528321 0.4325062
0.1541418 0.6401542 0.4178195
0.1980029 0.6258561 0.4015029
0.2510522 0.6094337 0.3803234
0.3121896 0.5979478 0.3563528
0.3783182 0.6243164 0.2841460
0.5811972 0.6839613 0.3339914
0.6886460 0.7025740 0.3535510
0.8191399 0.7636305 0.3744046
0.1117823 0.7080595 0.4409648
0.1535672 0.6951152 0.4258136
0.1970206 0.6811854 0.4090976
0.2499055 0.6660714 0.3884320
0.3106927 0.6564984 0.3662708
0.3473146 0.6764019 0.2735626
0.5429004 0.7321140 0.3206942
0.6614935 0.7613044 0.3487987
0.7605554 0.7793140 0.3636871
0.1244351 0.1105267 0.4079116
0.1189976 0.0610659 0.4068395
0.1493639 0.0507106 0.4020040
0.1950105 0.0506072 0.3998061
0.2458630 0.0537353 0.4006663
0.3431226 0.0666581 0.4090370
0.5475149 0.1028802 0.5258840
0.6422080 0.1235067 0.5678355
0.7126196 0.1421910 0.5876103
0.1266473 0.1565430 0.4094036
0.1514359 0.1421090 0.3961094
0.1546566 0.0964829 0.4012844
0.1989913 0.0959473 0.3978512
0.2521442 0.1003787 0.4006842
0.3539424 0.1139350 0.4101524
0.5655116 0.1505045 0.5292997
0.6463566 0.1719437 0.5538746
0.7178159 0.1915858 0.5728257
0.1329734 0.2073132 0.4263624
0.1567629 0.1969229 0.4099088
0.1881449 0.1909444 0.4052362
0.2002970 0.1443763 0.3938019
0.2607055 0.1547148 0.4053537
0.3671245 0.1677103 0.4140159
0.5709509 0.2036535 0.5187158
0.6520133 0.2262863 0.5403172
0.7242769 0.2465882 0.5586043
0.1447532 0.2977762 0.4969374
0.1726877 0.2913683 0.4772760
0.2034436 0.2836075 0.4623147
0.2512331 0.2788386 0.4579731
0.2781267 0.2320467 0.4277823
0.3877262 0.2404348 0.4257877
0.5780361 0.2731941 0.5056404
0.6611356 0.2970540 0.5258236
0.7336588 0.3172115 0.5438280
0.1113352 0.3759149 0.5237671
0.1471011 0.3730630 0.5136361
0.2006444 0.3785855 0.5180606
0.2579448 0.3822588 0.5287890
0.3314630 0.3681829 0.4875527
0.4149574 0.3286554 0.4456584
0.5915230 0.3569864 0.4933355
0.6741962 0.3807581 0.5119719
0.7448412 0.3974901 0.5312365
0.1171745 0.4933713 0.5193758
0.1420226 0.4896757 0.5122656
0.1830006 0.4923197 0.5108334
0.2575529 0.5028736 0.5167451
0.3418047 0.5066863 0.5134376
0.5130286 0.5245760 0.5127569
0.6186289 0.5032527 0.4816925
0.6968659 0.5201209 0.5018939
0.7630639 0.5333420 0.5190857
0.1338199 0.6292952 0.5369526
0.1744847 0.6241970 0.5286341
0.2181758 0.6172412 0.5193009
0.2734714 0.6063820 0.5075289
0.3322697 0.5899067 0.4909669
0.4081470 0.5320715 0.4307050
0.6179803 0.6294932 0.4837180
0.7067159 0.6482702 0.4943824
0.7675057 0.6539051 0.5100370
0.1326880 0.6908702 0.5399462
0.1748140 0.6839359 0.5305162
0.2185680 0.6745427 0.5198822
0.2705713 0.6597081 0.5058795
0.3259062 0.6392688 0.4879626
0.4245895 0.6037970 0.4476844
0.5791728 0.6745245 0.4527397
0.6953553 0.7041941 0.4841433
0.7916364 0.7362680 0.4975789
0.1307890 0.7469647 0.5453575
0.1733491 0.7382529 0.5346940
0.2166428 0.7271225 0.5229979
0.2671716 0.7106908 0.5077767
0.3213209 0.6906970 0.4900515
0.4241376 0.6638123 0.4577208
0.5212171 0.7027830 0.4121397
0.6589047 0.7518159 0.4601474
0.7634944 0.7759489 0.4838526
0.1678110 0.1461875 0.4841821
0.1643597 0.1013101 0.5012538
0.1750417 0.0715925 0.5006583
0.2153832 0.0682630 0.5011658
0.2603545 0.0676311 0.5044941
0.3410521 0.0715287 0.5120832
0.4391681 0.0828597 0.5233435
0.5504989 0.0991105 0.5866243
0.6671034 0.1147046 0.6618145
0.1695245 0.1901440 0.4831704
0.1915264 0.1783133 0.4825831
0.1912182 0.1305068 0.4870619
0.2195216 0.1125526 0.4965597
0.2657347 0.1128885 0.5032146
0.3482212 0.1168817 0.5125625
0.4490283 0.1281469 0.5236767
0.5636430 0.1441741 0.5879690
0.6834044 0.1598229 0.6640827
0.1777017 0.2536394 0.5273897
0.1990964 0.2400996 0.5135891
0.2277583 0.2272676 0.5080963
0.2232709 0.1620866 0.4876431
0.2718125 0.1633669 0.5037191
0.3571855 0.1676919 0.5151337
0.4606808 0.1785775 0.5256839
0.5783591 0.1937134 0.5904037
0.6998083 0.2091486 0.6659104
0.1797603 0.3348207 0.5901143
0.2059076 0.3237322 0.5728107
0.2406110 0.3143795 0.5622256
0.2863424 0.3027804 0.5531540
0.2857728 0.2337785 0.5208148
0.3713928 0.2348631 0.5249568
0.4772578 0.2429933 0.5314566
0.5968715 0.2560048 0.5941701
0.7028634 0.2714542 0.6507342
0.1624373 0.4129032 0.6322255
0.1927104 0.4015353 0.6156543
0.2362090 0.3931967 0.6050647
0.2962874 0.3878739 0.5979540
0.3475852 0.3769087 0.5824106
0.3928208 0.3170383 0.5471247
0.4971476 0.3165998 0.5402888
0.6179395 0.3259810 0.5991695
0.7076512 0.3423172 0.6359084
0.1548443 0.5326197 0.6571953
0.1745354 0.5343473 0.6613103
0.2116932 0.5293655 0.6547309
0.2831132 0.5193247 0.6471014
0.3461786 0.5164363 0.6417326
0.4698816 0.5053051 0.6131588
0.5321362 0.4470368 0.5545332
0.6446412 0.4573492 0.5948755
0.7243408 0.4804106 0.6180517
0.1706510 0.6292337 0.6307307
0.2054473 0.6322285 0.6320070
0.2444896 0.6350388 0.6337549
0.2945615 0.6415199 0.6404956
0.3652602 0.6466121 0.6445254
0.4924560 0.6496254 0.6444651
0.6554218 0.6686355 0.6600544
0.6849502 0.6124444 0.5983136
0.7573342 0.6321131 0.6244384
0.1691916 0.7106397 0.6422767
0.2108035 0.7098854 0.6390472
0.2540939 0.7100760 0.6374184
0.3068955 0.7097793 0.6362887
0.3668715 0.7072536 0.6342923
0.4725335 0.6904806 0.6230877
0.5319923 0.6079904 0.5448199
0.6724343 0.6786870 0.5944033
0.7743922 0.7185204 0.6348399
0.1614703 0.7747874 0.6490894
0.2052359 0.7719845 0.6436530
0.2502823 0.7688820 0.6386469
0.3032398 0.7639026 0.6329332
0.3588811 0.7552226 0.6256977
0.4541753 0.7269660 0.6072990
0.5430746 0.6708726 0.5590358
0.6385384 0.7182670 0.5617416
0.7654608 0.7756968 0.6261479
0.1914790 0.1699576 0.5284530
0.1878792 0.1242694 0.5500958
0.1897012 0.0855380 0.5575732
0.2274792 0.0805625 0.5605890
0.2696449 0.0780329 0.5654172
0.3446756 0.0781380 0.5735237
0.4331098 0.0838476 0.5823057
0.4956963 0.0908395 0.5902625
0.5959893 0.1038060 0.6500171
0.1962134 0.2190594 0.5463452
0.2193835 0.2068747 0.5526480
0.2142984 0.1545709 0.5413763
0.2322915 0.1249618 0.5553167
0.2753512 0.1233265 0.5643267
0.3513176 0.1232028 0.5741846
0.4409278 0.1282210 0.5820556
0.5056388 0.1351575 0.5905180
0.6083036 0.1478249 0.6507762
0.2044468 0.2853498 0.5990519
0.2279683 0.2711193 0.5898059
0.2558754 0.2565261 0.5846266
0.2485856 0.1882413 0.5585653
0.2820279 0.1732937 0.5654417
0.3594003 0.1730557 0.5762540
0.4505521 0.1770621 0.5836287
0.5171906 0.1837181 0.5920988
0.6219956 0.1957074 0.6525450
0.2057198 0.3584911 0.6463524
0.2316555 0.3453246 0.6329066
0.2636006 0.3330866 0.6228543
0.3048017 0.3182673 0.6128569
0.2986254 0.2458402 0.5839604
0.3721349 0.2377045 0.5850115
0.4644634 0.2393342 0.5891850
0.5320629 0.2447520 0.5954177
0.6388336 0.2553364 0.6551759
0.1968669 0.4278112 0.6789804
0.2249770 0.4172188 0.6678588
0.2629802 0.4062524 0.6569231
0.3122266 0.3949026 0.6449649
0.3590883 0.3828282 0.6311103
0.3894878 0.3135078 0.6018845
0.4817389 0.3101563 0.5981517
0.5487934 0.3129305 0.5998665
0.6575821 0.3214515 0.6587421
0.1886261 0.5369344 0.6984072
0.2077656 0.5350398 0.7025935
0.2440480 0.5304272 0.7012710
0.3122625 0.5179775 0.6923899
0.3586382 0.5011820 0.6754407
0.4590772 0.4980531 0.6574027
0.5192040 0.4435583 0.6223016
0.5803576 0.4361908 0.6097548
0.6931895 0.4424477 0.6681887
0.2073839 0.6334752 0.6835389
0.2399979 0.6341384 0.6852713
0.2706046 0.6370026 0.6911490
0.3076544 0.6428921 0.7033594
0.3734893 0.6493006 0.7124727
0.4831754 0.6477189 0.7089526
0.5973619 0.6214744 0.6746965
0.6091414 0.5590877 0.6171860
0.7136685 0.5817792 0.6584893
0.1960310 0.6964502 0.6832260
0.2368290 0.6986479 0.6839655
0.2775857 0.7027141 0.6872737
0.3272871 0.7067198 0.6920618
0.3865107 0.7121373 0.6992332
0.4972857 0.7206091 0.7099379
0.6236544 0.7206132 0.7117142
0.7510344 0.7613426 0.7615185
0.7681894 0.7011245 0.6955634
0.1828423 0.7830738 0.7083546
0.2283452 0.7823660 0.7056182
0.2745036 0.7823690 0.7039955
0.3280087 0.7821967 0.7027367
0.3855726 0.7813388 0.7021770
0.4845229 0.7745148 0.6994930
0.5822410 0.7333103 0.6736142
0.6010280 0.6667394 0.6079677
0.7575058 0.7666839 0.6941604
0.2090194 0.1936010 0.5991306
0.2021971 0.1431322 0.5980120
0.1985855 0.0971248 0.6121126
0.2364382 0.0919062 0.6187932
0.2774091 0.0882851 0.6250276
0.3489677 0.0856735 0.6332050
0.4315227 0.0875447 0.6403990
0.4884452 0.0914534 0.6460745
0.5448259 0.0970518 0.6531160
0.2180482 0.2503511 0.6302079
0.2414314 0.2332334 0.6281646
0.2338792 0.1780209 0.6071492
0.2423149 0.1368696 0.6153102
0.2835962 0.1337422 0.6250613
0.3554974 0.1306134 0.6344233
0.4385781 0.1315530 0.6402797
0.4964863 0.1350419 0.6456372
0.5545763 0.1405547 0.6530631
0.2247183 0.3102343 0.6666037
0.2488462 0.2947087 0.6586025
0.2764471 0.2787041 0.6528681
0.2694112 0.2119608 0.6300293
0.2913540 0.1837727 0.6284142
0.3636269 0.1798744 0.6370768
0.4471293 0.1795012 0.6416517
0.5061683 0.1823883 0.6468012
0.5657883 0.1877674 0.6542423
0.2276673 0.3766524 0.6987201
0.2533616 0.3632967 0.6895527
0.2831154 0.3495197 0.6803414
0.3206845 0.3327008 0.6704075
0.3159636 0.2651901 0.6496071
0.3753374 0.2425898 0.6444458
0.4591261 0.2398164 0.6458968
0.5187957 0.2414675 0.6495320
0.5799253 0.2464812 0.6565104
0.2264114 0.4410766 0.7206393
0.2530186 0.4299508 0.7136650
0.2860073 0.4185078 0.7051126
0.3275122 0.4047261 0.6936585
0.3695608 0.3894401 0.6803898
0.3899460 0.3137785 0.6563904
0.4744704 0.3079405 0.6537521
0.5339533 0.3074617 0.6543483
0.5955335 0.3113294 0.6594537
0.2332877 0.5442428 0.7346144
0.2538139 0.5377555 0.7362120
0.2823103 0.5306680 0.7350421
0.3337662 0.5176177 0.7268803
0.3760642 0.5031814 0.7145036
0.4514881 0.4905288 0.6931120
0.5079043 0.4355044 0.6749432
0.5646984 0.4286298 0.6672437
0.6238602 0.4281013 0.6657921
0.2438473 0.6412446 0.7321702
0.2785413 0.6402679 0.7338931
0.3057477 0.6380404 0.7367858
0.3455636 0.6375220 0.7429841
0.4032567 0.6319687 0.7407959
0.4561855 0.6206416 0.7366830
0.5903879 0.6195096 0.7211382
0.6172228 0.5754661 0.6967349
0.6543201 0.5517045 0.6725826
0.2306582 0.7009280 0.7371603
0.2760481 0.7026152 0.7382887
0.3116275 0.7061552 0.7422459
0.3542046 0.7069589 0.7461804
0.4090463 0.7093660 0.7517592
0.5035853 0.7234832 0.7728120
0.6143956 0.7134213 0.7613259
0.6666231 0.6829794 0.7325445
0.6682525 0.6188566 0.6737665
0.2030922 0.7695354 0.7479196
0.2506549 0.7708177 0.7481719
0.2962279 0.7735169 0.7501970
0.3494268 0.7770307 0.7537163
0.4067030 0.7803918 0.7578981
0.5094330 0.7884112 0.7692007
0.6227105 0.7861158 0.7727052
0.7109713 0.7959282 0.7855437
0.7986222 0.8044403 0.8098220
