presets/film/film-warm/look.cube
# Approximate v0 colour conversion; calibrate before claiming visual parity.
LUT_3D_SIZE 9
DOMAIN_MIN 0 0 0
DOMAIN_MAX 1 1 1
0.0389697 0.0298685 0.0249921
0.1558762 0.0328754 0.0214432
0.3298677 0.0458301 0.0211263
0.4615408 0.0333518 0.0113731
0.5625122 0.0155345 0.0028991
0.6108025 0.0055724 0.0011371
0.6519556 0.0000000 0.0008783
0.6941080 0.0000000 0.0003716
0.7011340 0.0000000 0.0002655
0.0380665 0.1573381 0.0315153
0.1568486 0.1280275 0.0270061
0.3857287 0.1189346 0.0339761
0.5278209 0.1199309 0.0248482
0.6227258 0.1102217 0.0078951
0.6591602 0.1016187 0.0020515
0.6831688 0.0918413 0.0000000
0.7138114 0.0830807 0.0000000
0.7193114 0.0818697 0.0000000
0.0407625 0.2979270 0.0394549
0.2349013 0.3261946 0.0282276
0.3605355 0.2840182 0.0374534
0.4920319 0.2182716 0.0309003
0.6062410 0.1931558 0.0276225
0.6533113 0.1918663 0.0232840
0.6955666 0.1887072 0.0149926
0.7342470 0.1867951 0.0031760
0.7389804 0.1869726 0.0012267
0.0435375 0.3880862 0.0420926
0.2214407 0.4041480 0.0246511
0.4556700 0.4664408 0.0491399
0.4608016 0.3644076 0.0468756
0.5769396 0.2713707 0.0328502
0.6433638 0.2516567 0.0289386
0.6868699 0.2550999 0.0307877
0.7375969 0.2570764 0.0274740
0.7466580 0.2560985 0.0260949
0.0472170 0.4771301 0.0430864
0.2160399 0.4866097 0.0261807
0.4359272 0.5308724 0.0341983
0.5494298 0.5384469 0.0534237
0.5474290 0.4258820 0.0541925
0.6134465 0.3600793 0.0402176
0.6834923 0.3264825 0.0292566
0.7326985 0.3335559 0.0380301
0.7404086 0.3352030 0.0396237
0.0504392 0.5418519 0.0430848
0.2155884 0.5481844 0.0281776
0.4151197 0.5780944 0.0223947
0.5523697 0.6022261 0.0364665
0.5997861 0.5503200 0.0593380
0.5966579 0.4770513 0.0589215
0.6636795 0.4078840 0.0375971
0.7351385 0.3843919 0.0295724
0.7423070 0.3863766 0.0321959
0.0539155 0.6057270 0.0426961
0.2162633 0.6095281 0.0295091
0.4000080 0.6295386 0.0146062
0.5291509 0.6435649 0.0170116
0.6264065 0.6355574 0.0153859
0.6437436 0.5896102 0.0396423
0.6440020 0.5217746 0.0527229
0.7270383 0.4536772 0.0254271
0.7386561 0.4514392 0.0239346
0.0584465 0.6851257 0.0420138
0.2180897 0.6863825 0.0306528
0.3867581 0.6982865 0.0082727
0.5093319 0.7056205 0.0033527
0.6141463 0.7022131 0.0000000
0.6715172 0.6960182 0.0000000
0.6917336 0.6446684 0.0000000
0.7094547 0.5665182 0.0133773
0.7193024 0.5580829 0.0133821
0.0598470 0.7093949 0.0418029
0.2187638 0.7099597 0.0309325
0.3836330 0.7200899 0.0068184
0.5051682 0.7266034 0.0017250
0.6115834 0.7246560 0.0000000
0.6701207 0.7200156 0.0000000
0.7032033 0.6883011 0.0000000
0.7203510 0.6120241 0.0000296
0.7238650 0.5976362 0.0028128
0.0555115 0.0592042 0.1230778
0.1300999 0.0470852 0.0913102
0.3196595 0.0392121 0.1012002
0.4616270 0.0248423 0.0913325
0.5602305 0.0153420 0.0814523
0.6067931 0.0112206 0.0717825
0.6460175 0.0079168 0.0599423
0.6865405 0.0053867 0.0445682
0.6931252 0.0050262 0.0418699
0.0359710 0.1728852 0.1575937
0.1519509 0.1450534 0.1212146
0.3440818 0.1321566 0.1149333
0.5065233 0.1219194 0.1032935
0.5854615 0.1155190 0.0959544
0.6260441 0.1087074 0.0885104
0.6624996 0.1008616 0.0785478
0.7042229 0.0900906 0.0649431
0.7109472 0.0882762 0.0626715
0.0195311 0.3159582 0.1616056
0.1605796 0.2858880 0.1413699
0.3142538 0.2470351 0.1067250
0.4592142 0.2195592 0.0915748
0.5755890 0.2156148 0.0921375
0.6264020 0.2108088 0.0884006
0.6720340 0.2026912 0.0804130
0.7176101 0.1905191 0.0666359
0.7244238 0.1882357 0.0640389
0.0156772 0.4003835 0.1570123
0.1728255 0.3824474 0.1533414
0.3603869 0.4022346 0.1168680
0.4198226 0.3246409 0.0932193
0.5624608 0.2915002 0.0808720
0.6281639 0.2894529 0.0861231
0.6712244 0.2799553 0.0872350
0.7227446 0.2747140 0.0800693
0.7314006 0.2740435 0.0776098
0.0154512 0.4871355 0.1511555
0.1834796 0.4754919 0.1592076
0.3603539 0.4945977 0.1251261
0.5195301 0.5373879 0.1032507
0.5303106 0.4201427 0.0900595
0.6032089 0.3830109 0.0821347
0.6719792 0.3671950 0.0826357
0.7256683 0.3547063 0.0864735
0.7341532 0.3546621 0.0873667
0.0173723 0.5510741 0.1476687
0.1897789 0.5411382 0.1607674
0.3565449 0.5550458 0.1303297
0.5034653 0.5874346 0.1035336
0.5909582 0.5657036 0.0949153
0.5843286 0.4790523 0.0906335
0.6496542 0.4361417 0.0813246
0.7248575 0.4123698 0.0773682
0.7333139 0.4115885 0.0782113
0.0220450 0.6145284 0.1460723
0.1951106 0.6049745 0.1610351
0.3535494 0.6137094 0.1339928
0.4818428 0.6318136 0.1045926
0.5984325 0.6374362 0.0811459
0.6328596 0.6050341 0.0815437
0.6353136 0.5326022 0.0854744
0.7181526 0.4794523 0.0662643
0.7307936 0.4763614 0.0643638
0.0276157 0.6935406 0.1439742
0.2009325 0.6837775 0.1605806
0.3518480 0.6876346 0.1374491
0.4662129 0.6971291 0.1077449
0.5798669 0.7016488 0.0762459
0.6449989 0.6986039 0.0582362
0.6855252 0.6670372 0.0487231
0.7031640 0.5856582 0.0546019
0.7135196 0.5768427 0.0525232
0.0292295 0.7177077 0.1433603
0.2026259 0.7078326 0.1603888
0.3517183 0.7105015 0.1383473
0.4631657 0.7184896 0.1090364
0.5758625 0.7233765 0.0767282
0.6416262 0.7216879 0.0578396
0.6983156 0.7120387 0.0423799
0.7159410 0.6311105 0.0416697
0.7190771 0.6177364 0.0422370
0.0865431 0.1029597 0.2737476
0.1745041 0.0598114 0.2226859
0.2836996 0.0503725 0.1781423
0.4066903 0.0386539 0.1703951
0.5143746 0.0304784 0.1668498
0.5681806 0.0262900 0.1637554
0.6158240 0.0225736 0.1582563
0.6694218 0.0190908 0.1484014
0.6778378 0.0186664 0.1462141
0.0693141 0.2260891 0.3839161
0.1709691 0.1968618 0.2652560
0.2578606 0.1471518 0.1883207
0.4054797 0.1447711 0.1993178
0.5442056 0.1321756 0.1967662
0.6036511 0.1222821 0.1889938
0.6372307 0.1221249 0.1871504
0.6859519 0.1179526 0.1798041
0.6942901 0.1170877 0.1782658
0.0225307 0.3411954 0.3373029
0.1009015 0.3292946 0.3034987
0.2674574 0.2529347 0.2131152
0.4060030 0.2528712 0.2141008
0.5375681 0.2438884 0.2074836
0.6070458 0.2370424 0.1996062
0.6535317 0.2324937 0.1944317
0.7014031 0.2275479 0.1895101
0.7095731 0.2265663 0.1884305
0.0149053 0.4257916 0.3141835
0.1288533 0.4058728 0.2824555
0.2745980 0.3598604 0.2278222
0.3875043 0.3235925 0.2030271
0.5158839 0.3094061 0.1927016
0.5918972 0.3079632 0.1864656
0.6492346 0.3073117 0.1824482
0.7021286 0.3053828 0.1847089
0.7111336 0.3047351 0.1844803
0.0148977 0.5072842 0.2959824
0.1472243 0.4905398 0.2773124
0.2962630 0.4647824 0.2535168
0.4323990 0.4755276 0.2202032
0.4697944 0.3786282 0.1740889
0.5614748 0.3777185 0.1742459
0.6397144 0.3832687 0.1753603
0.7103300 0.3975862 0.1871397
0.7193791 0.3988352 0.1885089
0.0168036 0.5693021 0.2869838
0.1577082 0.5530673 0.2743485
0.3094763 0.5341595 0.2628204
0.4301436 0.5407841 0.2293241
0.5429248 0.5369552 0.1851624
0.5504829 0.4655681 0.1682973
0.6199271 0.4465539 0.1598662
0.7094365 0.4585634 0.1737353
0.7220783 0.4623028 0.1766201
0.0194902 0.6316472 0.2795647
0.1663519 0.6150610 0.2713297
0.3190489 0.5992484 0.2671273
0.4291903 0.6028170 0.2377378
0.5502998 0.6132193 0.1957278
0.6080190 0.6065338 0.1748556
0.6174118 0.5427087 0.1604051
0.6998568 0.5236468 0.1533313
0.7155433 0.5241432 0.1543334
0.0230138 0.7093137 0.2712975
0.1752070 0.6925353 0.2676791
0.3279702 0.6783907 0.2691971
0.4301738 0.6794104 0.2455687
0.5421509 0.6873208 0.2099064
0.6123800 0.6922299 0.1879142
0.6750070 0.6912303 0.1695657
0.6895622 0.6174075 0.1511521
0.6998108 0.6113104 0.1481677
0.0239513 0.7330415 0.2690946
0.1775569 0.7163203 0.2666655
0.3303979 0.7025024 0.2695980
0.4308749 0.7030429 0.2476577
0.5402155 0.7102367 0.2135238
0.6099247 0.7152198 0.1912902
0.6768070 0.7194331 0.1722494
0.7055461 0.6619357 0.1533779
0.7082624 0.6495958 0.1503861
0.1238385 0.1466146 0.4137835
0.1894744 0.0772996 0.3486936
0.3289853 0.0504068 0.3127500
0.3782434 0.0467288 0.2492705
0.4764812 0.0421061 0.2375667
0.5335895 0.0381114 0.2344845
0.5866143 0.0340042 0.2317670
0.6466968 0.0296588 0.2272760
0.6565638 0.0289898 0.2264461
0.1326559 0.2912247 0.5138993
0.1899413 0.2471742 0.4053850
0.2998591 0.1722737 0.3210680
0.3559428 0.1555582 0.2638120
0.4769669 0.1524965 0.2662931
0.5466436 0.1478699 0.2675848
0.6049163 0.1429072 0.2661404
0.6641714 0.1390437 0.2641588
0.6736889 0.1384297 0.2636190
0.0531472 0.3824056 0.5017368
0.0824249 0.3905314 0.4740375
0.2973001 0.3146449 0.3685505
0.3374119 0.2500790 0.2766959
0.4867823 0.2754895 0.3131702
0.5710671 0.2777621 0.3243649
0.6299620 0.2670215 0.3128740
0.6853449 0.2603057 0.3038446
0.6944914 0.2597630 0.3029763
0.0282227 0.4451929 0.4520512
0.0907107 0.4505331 0.4407108
0.2723734 0.4048608 0.3828982
0.3776286 0.3482608 0.3202657
0.5036602 0.3571034 0.3328786
0.5787546 0.3599691 0.3364965
0.6348483 0.3525727 0.3281638
0.6925450 0.3410308 0.3153742
0.7020375 0.3398626 0.3139834
0.0237555 0.5293145 0.4267806
0.1104114 0.5244229 0.4029451
0.2804222 0.4884800 0.3768740
0.3758778 0.4451336 0.3271019
0.4909495 0.4239087 0.3188031
0.5639576 0.4194229 0.3173583
0.6325254 0.4247643 0.3171807
0.7007984 0.4271147 0.3108111
0.7119582 0.4283534 0.3110156
0.0251302 0.5904052 0.4115328
0.1245428 0.5802562 0.3849957
0.2899426 0.5496007 0.3750656
0.3886770 0.5228426 0.3462748
0.5115801 0.5210485 0.3156247
0.5348943 0.4622349 0.2980276
0.6127258 0.4669877 0.2977894
0.7010820 0.4879775 0.3027264
0.7157618 0.4935561 0.3052033
0.0289408 0.6509981 0.3990649
0.1379492 0.6372101 0.3728408
0.2989268 0.6089646 0.3700310
0.3990059 0.5891092 0.3545604
0.5120827 0.5916254 0.3232904
0.5799140 0.5895757 0.2949328
0.5851444 0.5197550 0.2755366
0.6872755 0.5360574 0.2806010
0.7045092 0.5429801 0.2853330
0.0335447 0.7266111 0.3864506
0.1522822 0.7103298 0.3626822
0.3096658 0.6852310 0.3654312
0.4098687 0.6701108 0.3591437
0.5126016 0.6721729 0.3337672
0.5825813 0.6781802 0.3107631
0.6529685 0.6864129 0.2896489
0.6740787 0.6214457 0.2642716
0.6845942 0.6171267 0.2614573
0.0347239 0.7498380 0.3831500
0.1558049 0.7332062 0.3605718
0.3126740 0.7088891 0.3643226
0.4128942 0.6948807 0.3602222
0.5133211 0.6966799 0.3367980
0.5818923 0.7027796 0.3151757
0.6518913 0.7108755 0.2939132
0.6980424 0.6782232 0.2745936
0.6992751 0.6638579 0.2703280
0.1599622 0.1881871 0.5344251
0.2137280 0.0984038 0.4782980
0.3416429 0.0681547 0.4313779
0.4280545 0.0534173 0.4021081
0.4590948 0.0495367 0.3249874
0.5113455 0.0485869 0.3133498
0.5637292 0.0468170 0.3062975
0.6261813 0.0441213 0.3010865
0.6364245 0.0436390 0.3004244
0.1713297 0.3328027 0.5896161
0.2282467 0.2818978 0.5161924
0.3219528 0.2043944 0.4515939
0.4057151 0.1773322 0.4087087
0.4496352 0.1650230 0.3436591
0.5075278 0.1636797 0.3364726
0.5665685 0.1617242 0.3344908
0.6351645 0.1588379 0.3343594
0.6460529 0.1583853 0.3344175
0.0925253 0.4165613 0.6104507
0.1505322 0.4240868 0.5674941
0.3310330 0.3628557 0.4960445
0.3892291 0.3002292 0.4270328
0.4345199 0.2715200 0.3598682
0.5087084 0.2795561 0.3711590
0.5822282 0.2832747 0.3815517
0.6545626 0.2800294 0.3824600
0.6656988 0.2797310 0.3827294
0.0549767 0.4830995 0.5817823
0.0518227 0.5122493 0.5937811
0.3122706 0.4562949 0.5305233
0.4057830 0.4040635 0.4727699
0.4324929 0.3375459 0.3741413
0.5276699 0.3659373 0.4089084
0.6099786 0.3792335 0.4284772
0.6759961 0.3742524 0.4239716
0.6862010 0.3730196 0.4231206
0.0438496 0.5454176 0.5437931
0.0742576 0.5678603 0.5583521
0.2624983 0.5340070 0.5265028
0.3887614 0.4942025 0.4909139
0.4955387 0.4564281 0.4454390
0.5702923 0.4677009 0.4564796
0.6376566 0.4752261 0.4604456
0.6963756 0.4700644 0.4511599
0.7047272 0.4685425 0.4492470
0.0497994 0.6065486 0.5284289
0.1097337 0.6075741 0.5160897
0.2643643 0.5906985 0.5058343
0.3838729 0.5437781 0.4691442
0.4738947 0.5050765 0.4260367
0.5558767 0.5135374 0.4457333
0.6389548 0.5295726 0.4643840
0.7141060 0.5425135 0.4730315
0.7233335 0.5420762 0.4709106
0.0544760 0.6666732 0.5136658
0.1203001 0.6610533 0.4883654
0.2768140 0.6403734 0.4822917
0.3887476 0.6032125 0.4631230
0.4862270 0.5844269 0.4455707
0.5707052 0.6001158 0.4480156
0.6233643 0.5796647 0.4524083
0.7038327 0.5891743 0.4592703
0.7161559 0.5916297 0.4597143
0.0571006 0.7428451 0.4987079
0.1308479 0.7321400 0.4658051
0.2931264 0.7083864 0.4656953
0.3975280 0.6804991 0.4585234
0.4940537 0.6638245 0.4511343
0.5650318 0.6752143 0.4476176
0.6386691 0.6863167 0.4357709
0.6825972 0.6496478 0.4292077
0.6931747 0.6475522 0.4294208
0.0575842 0.7660221 0.4945620
0.1341945 0.7543047 0.4607796
0.2974683 0.7303607 0.4626620
0.4006707 0.7046557 0.4578021
0.4966464 0.6886512 0.4524346
0.5639548 0.6973177 0.4473296
0.6359593 0.7085199 0.4358032
0.7014745 0.6998819 0.4239954
0.7037574 0.6882907 0.4232003
0.1692042 0.2022471 0.5830620
0.2222457 0.1077800 0.5334993
0.3470265 0.0773409 0.4861946
0.4340818 0.0617326 0.4554724
0.4673556 0.0530651 0.3821861
0.5073134 0.0524374 0.3566508
0.5573516 0.0519150 0.3453247
0.6192424 0.0506247 0.3373069
0.6294776 0.0503637 0.3363699
0.1739915 0.3443383 0.6231814
0.2456685 0.2978832 0.5660853
0.3307411 0.2174482 0.5078860
0.4149485 0.1905372 0.4656823
0.4602064 0.1721200 0.4014948
0.5016466 0.1692699 0.3765891
0.5557751 0.1680930 0.3690271
0.6231514 0.1665164 0.3664958
0.6340740 0.1662869 0.3664590
0.1156708 0.4287727 0.6441489
0.1900427 0.4359344 0.6070812
0.3497069 0.3842447 0.5503633
0.4061399 0.3232186 0.4924903
0.4538987 0.2846451 0.4226815
0.4954443 0.2812476 0.4002085
0.5616526 0.2860071 0.4058406
0.6369642 0.2858392 0.4099790
0.6489483 0.2855278 0.4104691
0.0752000 0.4982964 0.6332681
0.1050077 0.5151945 0.6341423
0.3333372 0.4761725 0.5768466
0.4247242 0.4311724 0.5372101
0.4535702 0.3571682 0.4386183
0.4953647 0.3541976 0.4179857
0.5775969 0.3713687 0.4410536
0.6585583 0.3773617 0.4512219
0.6698838 0.3772454 0.4518111
0.0707508 0.5684805 0.6047409
0.0943488 0.5807263 0.6188886
0.2560350 0.5614976 0.6019403
0.4100288 0.5195870 0.5624531
0.4726291 0.4448079 0.4715664
0.5316183 0.4489599 0.4691453
0.6196274 0.4768439 0.4957906
0.6911935 0.4834726 0.4996085
0.7006444 0.4832010 0.4993793
0.0698580 0.6125680 0.5777052
0.1231437 0.6144591 0.5750423
0.2432546 0.6137574 0.5790417
0.3810066 0.5648499 0.5350836
0.4653054 0.5023504 0.4740473
0.5534951 0.5199769 0.4925185
0.6417488 0.5489437 0.5254989
0.7183936 0.5628910 0.5362693
0.7275476 0.5616673 0.5339395
0.0746151 0.6725295 0.5634907
0.1282268 0.6688904 0.5455334
0.2642232 0.6572088 0.5419194
0.3837428 0.6217703 0.5193163
0.4763600 0.5769401 0.4862973
0.5489847 0.5858376 0.4878315
0.6243045 0.5933154 0.5116224
0.7178219 0.6203148 0.5415013
0.7285787 0.6211340 0.5413221
0.0742680 0.7492198 0.5487049
0.1291146 0.7413526 0.5179581
0.2844666 0.7224212 0.5165402
0.3932268 0.6949151 0.5078958
0.4868158 0.6647750 0.4948830
0.5570527 0.6729021 0.5018103
0.6383027 0.6928611 0.5071876
0.7010766 0.6814015 0.5163550
0.7096727 0.6777747 0.5152223
0.0735318 0.7726258 0.5447737
0.1308979 0.7635677 0.5112313
0.2896729 0.7435456 0.5114520
0.3967164 0.7175752 0.5057962
0.4898730 0.6908976 0.4963948
0.5569120 0.6942898 0.5012088
0.6346935 0.7131151 0.5048417
0.7101081 0.7177675 0.4995090
0.7129081 0.7073035 0.5001592
0.1756618 0.2142368 0.6292628
0.2294682 0.1168796 0.5867630
0.3526881 0.0868394 0.5403692
0.4399903 0.0707014 0.5092119
0.5099539 0.0594247 0.4718785
0.5073693 0.0557466 0.4048745
0.5545743 0.0561951 0.3883204
0.6147706 0.0562211 0.3759761
0.6248641 0.0561792 0.3745408
0.1726888 0.3525677 0.6571626
0.2625314 0.3121948 0.6138032
0.3403366 0.2299540 0.5625749
0.4241750 0.2041091 0.5220888
0.5012572 0.1833089 0.4866683
0.5019370 0.1750380 0.4238394
0.5501586 0.1738571 0.4085800
0.6141523 0.1732026 0.4008081
0.6249115 0.1731342 0.4002762
0.1209087 0.4399372 0.6747228
0.2256495 0.4462775 0.6439070
0.3669568 0.4023760 0.5997890
0.4187680 0.3417634 0.5505543
0.4882919 0.3045436 0.4994628
0.4975890 0.2883272 0.4456606
0.5506983 0.2884903 0.4360412
0.6218981 0.2898914 0.4365463
0.6337128 0.2900517 0.4371736
0.1000944 0.5112986 0.6709651
0.1667616 0.5135646 0.6594965
0.3544703 0.5003380 0.6274063
0.4426194 0.4539320 0.5895318
0.4910169 0.3918871 0.5193899
0.4976801 0.3625116 0.4620120
0.5554724 0.3670523 0.4591358
0.6371992 0.3764495 0.4717949
0.6498951 0.3771165 0.4730741
0.1055253 0.5808042 0.6486565
0.1461850 0.5739341 0.6494240
0.2762401 0.5830568 0.6623735
0.4320431 0.5426705 0.6155769
0.5259788 0.5058593 0.5705419
0.4978573 0.4290543 0.4749769
0.5730521 0.4491803 0.4922070
0.6710204 0.4774343 0.5211106
0.6823999 0.4789810 0.5232473
0.1037660 0.6258160 0.6278161
0.1609507 0.6242450 0.6303080
0.2452705 0.6316992 0.6446015
0.3950618 0.6052579 0.6232706
0.5123356 0.5652778 0.5793808
0.4924048 0.4689430 0.4778519
0.6295744 0.5523893 0.5625487
0.7096892 0.5722440 0.5800945
0.7208970 0.5734332 0.5809281
0.1006860 0.6777821 0.6098324
0.1508180 0.6738558 0.6002553
0.2566333 0.6714905 0.6031513
0.3799999 0.6469503 0.5868404
0.4796471 0.5948770 0.5428080
0.5217099 0.5591359 0.5137392
0.6156240 0.5914174 0.5479865
0.7244272 0.6407885 0.6036513
0.7379924 0.6448907 0.6081357
0.0954299 0.7547711 0.5964617
0.1371438 0.7489975 0.5711698
0.2803080 0.7354178 0.5698816
0.3880440 0.7138758 0.5620862
0.4877568 0.6767396 0.5444477
0.5451241 0.6622809 0.5401961
0.6279370 0.6869831 0.5583081
0.7069762 0.6951861 0.5789380
0.7150658 0.6915549 0.5785292
0.0928765 0.7784678 0.5930897
0.1350688 0.7718240 0.5636247
0.2862822 0.7561767 0.5626432
0.3920695 0.7350130 0.5572936
0.4912549 0.7017121 0.5452308
0.5504866 0.6905160 0.5455864
0.6306416 0.7134531 0.5631291
0.7174315 0.7312198 0.5679956
0.7199657 0.7210814 0.5690573
0.1844020 0.2288262 0.6862016
0.2370661 0.1278423 0.6515411
0.3602866 0.0990047 0.6076047
0.4474620 0.0823046 0.5765944
0.5293012 0.0698556 0.5482679
0.5580681 0.0643793 0.5134761
0.5562804 0.0607052 0.4481662
0.6133180 0.0620318 0.4289088
0.6230706 0.0622303 0.4265778
0.1791810 0.3642212 0.7039634
0.2837855 0.3294550 0.6724291
0.3531311 0.2447238 0.6291926
0.4351139 0.2193447 0.5912886
0.5139738 0.1982777 0.5559305
0.5569709 0.1880035 0.5346559
0.5518189 0.1808431 0.4670735
0.6088189 0.1804821 0.4492339
0.6190032 0.1805445 0.4476103
0.1412974 0.4534068 0.7099827
0.2614722 0.4613961 0.6923220
0.3858554 0.4222367 0.6584536
0.4345760 0.3616684 0.6190861
0.5054154 0.3261587 0.5724760
0.5461435 0.3080065 0.5459558
0.5508639 0.2956383 0.4897687
0.6109367 0.2950165 0.4763011
0.6217912 0.2952578 0.4757697
0.1430122 0.5287266 0.7156897
0.2245831 0.5214720 0.6981862
0.3751471 0.5239031 0.6828557
0.4611900 0.4778770 0.6495498
0.5126223 0.4222144 0.5972797
0.5469351 0.3936764 0.5616348
0.5542767 0.3733065 0.5082733
0.6179473 0.3750734 0.5005635
0.6295371 0.3758609 0.5011246
0.1775265 0.5991534 0.6971050
0.2035583 0.5797193 0.6923204
0.2902040 0.5973084 0.7054327
0.4691518 0.5883166 0.6868920
0.5434144 0.5338028 0.6419163
0.5628873 0.4903735 0.5919774
0.5583373 0.4466137 0.5253183
0.6325128 0.4594065 0.5316754
0.6471212 0.4632573 0.5356350
0.1711598 0.6469050 0.6838170
0.2090688 0.6325039 0.6838036
0.1936932 0.6583550 0.7155728
0.4198001 0.6498095 0.7104224
0.5478094 0.6049978 0.6585077
0.6001041 0.5848016 0.6397885
0.5574379 0.4923208 0.5327060
0.6628803 0.5380233 0.5774860
0.6800733 0.5455569 0.5853990
0.1440089 0.6833100 0.6617069
0.1965977 0.6799111 0.6627735
0.2525306 0.6852899 0.6756723
0.3799209 0.6869262 0.6831724
0.5062091 0.6490252 0.6507498
0.5833608 0.6432343 0.6447966
0.6471529 0.6345420 0.6373655
0.7135872 0.6428241 0.6445969
0.7238397 0.6436170 0.6452561
0.1273188 0.7606425 0.6527124
0.1604893 0.7570411 0.6376406
0.2920383 0.7467950 0.6379404
0.3875664 0.7395440 0.6386269
0.4927570 0.7095037 0.6208095
0.5511914 0.6844500 0.6061142
0.5981303 0.6581873 0.5911688
0.6973212 0.6877462 0.6216257
0.7047657 0.6828605 0.6189954
0.1215225 0.7848014 0.6506511
0.1512475 0.7805972 0.6304618
0.2935669 0.7688671 0.6301114
0.3917058 0.7582376 0.6288627
0.4958266 0.7311025 0.6168316
0.5530778 0.7068586 0.6054475
0.6128801 0.6975809 0.6086995
0.7119974 0.7261557 0.6301255
0.7211878 0.7244654 0.6306169
0.1898428 0.2365870 0.7158490
0.2406202 0.1333544 0.6844561
0.3641646 0.1053085 0.6420278
0.4513432 0.0884339 0.6114495
0.5341064 0.0756575 0.5829591
0.5823798 0.0695465 0.5672445
0.5789610 0.0651348 0.5003584
0.6142455 0.0646512 0.4586749
0.6237495 0.0649513 0.4557829
0.1866893 0.3719427 0.7306246
0.2942269 0.3383323 0.7028346
0.3594341 0.2519641 0.6630734
0.4406466 0.2269125 0.6264716
0.5198810 0.2059011 0.5915115
0.5657543 0.1953216 0.5716973
0.5762011 0.1871722 0.5201060
0.6101213 0.1839543 0.4780484
0.6197522 0.1840365 0.4755821
0.1604686 0.4632063 0.7331198
0.2778036 0.4702705 0.7194502
0.3959877 0.4319145 0.6886764
0.4412158 0.3697948 0.6528927
0.5126419 0.3359473 0.6084205
0.5543737 0.3181228 0.5821990
0.5761886 0.3035973 0.5420019
0.6097313 0.2982009 0.5015554
0.6198197 0.2982928 0.4999356
0.1655076 0.5339731 0.7348709
0.2487972 0.5299450 0.7222885
0.3888264 0.5339029 0.7109306
0.4709041 0.4897270 0.6809309
0.5212291 0.4340508 0.6338118
0.5579316 0.4077105 0.6011895
0.5833176 0.3847051 0.5633334
0.6141049 0.3768296 0.5220344
0.6245537 0.3772154 0.5212155
0.2179107 0.6078338 0.7196889
0.2332960 0.5864448 0.7161622
0.3144012 0.6055762 0.7283093
0.4801427 0.6023812 0.7162332
0.5471430 0.5434651 0.6732503
0.5767634 0.5089691 0.6346151
0.5934845 0.4688856 0.5867764
0.6219763 0.4559428 0.5451020
0.6342813 0.4581294 0.5465951
0.2178205 0.6557949 0.7082798
0.2407864 0.6373639 0.7079016
0.2290953 0.6597861 0.7366113
0.4336827 0.6618661 0.7379993
0.5704600 0.6328389 0.6999426
0.6122105 0.6008445 0.6772786
0.6062867 0.5367108 0.6078130
0.6326990 0.5150647 0.5678336
0.6503403 0.5229424 0.5759142
0.1850308 0.7046172 0.6998532
0.2360979 0.6951939 0.6999442
0.2899930 0.6916582 0.7076280
0.3848523 0.7034678 0.7245624
0.5271999 0.6803171 0.7055856
0.6094741 0.6728209 0.6955048
0.6663264 0.6610105 0.6821806
0.6811363 0.6123759 0.6329781
0.7018564 0.6260448 0.6470422
0.1450812 0.7633347 0.6806692
0.1792079 0.7603503 0.6707910
0.3079255 0.7495832 0.6718013
0.3934048 0.7483581 0.6766498
0.5043178 0.7330180 0.6698689
0.5614534 0.7092322 0.6529568
0.6142428 0.6817968 0.6369125
0.6950315 0.6879288 0.6457743
0.7061316 0.6880852 0.6484234
0.1372878 0.7876910 0.6793832
0.1659648 0.7844215 0.6642950
0.3052756 0.7729638 0.6644490
0.3964153 0.7672618 0.6662102
0.5036567 0.7501834 0.6598462
0.5621317 0.7288214 0.6484213
0.6163481 0.7047359 0.6393142
0.7014791 0.7148899 0.6510928
0.7176183 0.7216908 0.6553589
