presets/film/film-warm/look.cube
# Approximate v0 colour conversion; calibrate before claiming visual parity.
LUT_3D_SIZE 33
DOMAIN_MIN 0 0 0
DOMAIN_MAX 1 1 1
0.0389697 0.0298685 0.0249921
0.0589304 0.0223874 0.0182575
0.0820137 0.0227884 0.0176854
0.1077777 0.0295063 0.0218954
0.1558762 0.0328754 0.0214432
0.1974159 0.0380550 0.0224825
0.2287130 0.0454135 0.0259612
0.2821190 0.0464147 0.0239255
0.3298677 0.0458301 0.0211263
0.3675117 0.0425681 0.0184123
0.4051384 0.0393111 0.0156991
0.4351888 0.0362771 0.0134283
0.4615408 0.0333518 0.0113731
0.4880352 0.0298772 0.0091954
0.5149014 0.0248285 0.0066713
0.5417589 0.0197935 0.0041503
0.5625122 0.0155345 0.0028991
0.5750358 0.0129093 0.0022443
0.5875565 0.0102859 0.0015851
0.5995459 0.0078199 0.0011831
0.6108025 0.0055724 0.0011371
0.6220590 0.0033283 0.0010842
0.6333152 0.0010877 0.0010244
0.6431499 0.0000000 0.0009568
0.6519556 0.0000000 0.0008783
0.6625747 0.0000000 0.0007735
0.6731683 0.0000000 0.0006566
0.6836390 0.0000000 0.0005200
0.6941080 0.0000000 0.0003716
0.7005438 0.0000000 0.0002746
0.7007545 0.0000000 0.0002713
0.7009653 0.0000000 0.0002681
0.7011340 0.0000000 0.0002655
0.0407981 0.0562970 0.0266789
0.0612737 0.0508111 0.0200218
0.0853061 0.0473932 0.0170087
0.1101871 0.0462855 0.0168963
0.1548051 0.0480513 0.0202574
0.1976241 0.0524064 0.0241488
0.2378691 0.0600135 0.0288525
0.2992527 0.0627712 0.0272036
0.3524536 0.0639643 0.0247028
0.3928099 0.0625220 0.0212524
0.4331214 0.0610591 0.0178130
0.4645921 0.0584188 0.0149858
0.4926099 0.0553306 0.0124004
0.5195524 0.0517134 0.0098910
0.5441759 0.0469128 0.0075359
0.5688264 0.0421107 0.0051779
0.5865708 0.0381109 0.0031425
0.5974011 0.0356195 0.0018749
0.6082437 0.0331275 0.0006119
0.6180790 0.0305539 0.0000000
0.6269671 0.0279060 0.0000000
0.6358721 0.0252610 0.0000000
0.6447937 0.0226187 0.0000000
0.6529457 0.0209102 0.0000000
0.6608969 0.0197564 0.0000000
0.6705022 0.0183754 0.0000000
0.6800767 0.0171216 0.0000000
0.6895002 0.0163335 0.0000000
0.6989329 0.0155522 0.0000000
0.7047369 0.0150752 0.0000000
0.7049270 0.0150596 0.0000000
0.7051171 0.0150440 0.0000000
0.7052694 0.0150316 0.0000000
0.0410699 0.0861963 0.0282701
0.0681299 0.0899212 0.0241052
0.0871776 0.0757729 0.0200927
0.1108277 0.0655344 0.0145346
0.1514798 0.0648097 0.0204712
0.1961483 0.0674176 0.0264282
0.2458384 0.0746943 0.0317771
0.3145122 0.0794454 0.0310741
0.3737961 0.0826877 0.0291232
0.4173426 0.0832497 0.0250268
0.4606992 0.0837821 0.0209290
0.4945490 0.0816396 0.0175762
0.5246566 0.0784629 0.0145197
0.5522715 0.0749089 0.0117895
0.5746639 0.0705373 0.0097367
0.5970845 0.0661649 0.0076806
0.6119637 0.0625430 0.0047181
0.6210154 0.0602810 0.0027882
0.6300816 0.0580188 0.0008642
0.6376558 0.0553637 0.0000000
0.6440159 0.0523906 0.0000000
0.6503961 0.0494216 0.0000000
0.6567961 0.0464564 0.0000000
0.6633883 0.0439360 0.0000000
0.6703326 0.0415699 0.0000000
0.6787238 0.0387285 0.0000000
0.6870868 0.0361956 0.0000000
0.6953372 0.0345931 0.0000000
0.7035979 0.0329992 0.0000000
0.7086819 0.0320233 0.0000000
0.7088485 0.0319914 0.0000000
0.7090150 0.0319595 0.0000000
0.7091484 0.0319340 0.0000000
0.0388146 0.1210044 0.0296049
0.0678496 0.1204316 0.0260773
0.1009492 0.1182825 0.0223791
0.1132143 0.0966814 0.0195467
0.1543579 0.0964249 0.0236600
0.2023000 0.0972969 0.0280015
0.2598082 0.0972641 0.0312695
0.3250245 0.0991474 0.0318972
0.3801364 0.1010607 0.0316521
0.4208309 0.1018716 0.0291131
0.4615085 0.1026681 0.0265562
0.4957623 0.1014908 0.0232545
0.5269974 0.0993846 0.0196203
0.5557925 0.0968452 0.0160585
0.5788020 0.0932938 0.0126639
0.6017898 0.0897323 0.0092912
0.6180970 0.0864462 0.0062814
0.6280025 0.0843727 0.0043894
0.6378973 0.0822985 0.0024973
0.6458130 0.0798232 0.0013942
0.6520327 0.0770031 0.0009728
0.6582513 0.0741825 0.0005553
0.6644688 0.0713617 0.0001418
0.6706200 0.0689010 0.0000000
0.6769702 0.0665445 0.0000000
0.6846394 0.0637005 0.0000000
0.6924364 0.0611253 0.0000000
0.7006028 0.0593634 0.0000000
0.7087678 0.0576034 0.0000000
0.7137871 0.0565224 0.0000000
0.7139514 0.0564870 0.0000000
0.7141158 0.0564516 0.0000000
0.7142474 0.0564232 0.0000000
0.0380665 0.1573381 0.0315153
0.0702717 0.1552866 0.0284660
0.1072273 0.1563119 0.0235338
0.1539500 0.1621738 0.0261617
0.1568486 0.1280275 0.0270061
0.2069554 0.1271561 0.0297220
0.2719185 0.1198326 0.0309393
0.3347734 0.1184039 0.0325386
0.3857287 0.1189346 0.0339761
0.4236171 0.1200443 0.0329953
0.4614363 0.1211251 0.0320047
0.4957066 0.1209214 0.0290216
0.5278209 0.1199309 0.0248482
0.5577988 0.1185104 0.0205279
0.5813231 0.1158244 0.0157545
0.6048210 0.1131214 0.0109985
0.6227258 0.1102217 0.0078951
0.6335607 0.1083503 0.0060832
0.6443837 0.1064761 0.0042713
0.6529506 0.1042379 0.0029191
0.6591602 0.1016187 0.0020515
0.6653675 0.0989977 0.0011877
0.6715727 0.0963751 0.0003277
0.6773856 0.0940549 0.0000000
0.6831688 0.0918413 0.0000000
0.6901527 0.0891685 0.0000000
0.6974165 0.0866918 0.0000000
0.7056152 0.0848857 0.0000000
0.7138114 0.0830807 0.0000000
0.7188494 0.0819714 0.0000000
0.7190144 0.0819351 0.0000000
0.7191793 0.0818988 0.0000000
0.7193114 0.0818697 0.0000000
0.0384480 0.1950435 0.0338022
0.0740988 0.1931257 0.0309637
0.1155991 0.1973392 0.0248458
0.1693673 0.2079420 0.0265258
0.2181774 0.2165163 0.0302825
0.2152157 0.1723416 0.0302087
0.2658506 0.1633797 0.0316859
0.3277703 0.1535963 0.0310857
0.3831762 0.1447306 0.0297212
0.4225752 0.1430904 0.0296098
0.4614619 0.1419115 0.0296095
0.4948245 0.1409570 0.0288838
0.5236731 0.1401952 0.0275693
0.5515654 0.1391563 0.0257916
0.5752771 0.1369707 0.0219134
0.5989710 0.1347645 0.0180297
0.6185155 0.1327709 0.0141618
0.6303601 0.1315225 0.0116959
0.6421951 0.1302665 0.0092330
0.6525077 0.1286463 0.0072176
0.6606363 0.1265078 0.0058426
0.6687499 0.1243634 0.0044705
0.6768476 0.1222134 0.0031015
0.6835249 0.1201809 0.0021294
0.6892653 0.1181715 0.0014566
0.6961900 0.1157419 0.0006515
0.7032378 0.1134827 0.0000000
0.7108479 0.1119961 0.0000000
0.7184606 0.1105045 0.0000000
0.7231426 0.1095851 0.0000000
0.7232959 0.1095550 0.0000000
0.7234492 0.1095248 0.0000000
0.7235720 0.1095007 0.0000000
0.0391513 0.2317733 0.0360352
0.0767401 0.2302132 0.0335860
0.1190267 0.2346876 0.0277625
0.1728561 0.2457946 0.0262444
0.2330129 0.2619662 0.0301843
0.2666290 0.2541061 0.0330876
0.2611577 0.2081020 0.0324158
0.3199174 0.1900224 0.0300303
0.3797511 0.1714906 0.0259082
0.4210648 0.1661070 0.0261258
0.4609613 0.1626666 0.0271026
0.4941487 0.1605783 0.0283217
0.5197248 0.1600473 0.0298281
0.5450607 0.1593703 0.0308850
0.5688926 0.1576924 0.0279404
0.5927098 0.1559888 0.0249960
0.6136966 0.1548544 0.0206392
0.6265048 0.1542502 0.0175250
0.6393073 0.1536373 0.0144103
0.6512610 0.1527034 0.0116849
0.6613492 0.1510728 0.0098180
0.6714279 0.1494345 0.0079519
0.6814958 0.1477888 0.0060872
0.6894501 0.1461093 0.0044734
0.6951819 0.1443282 0.0031000
0.7020949 0.1421709 0.0014469
0.7090124 0.1401350 0.0000000
0.7159948 0.1390208 0.0000000
0.7229776 0.1378989 0.0000000
0.7272711 0.1372055 0.0000000
0.7274117 0.1371828 0.0000000
0.7275523 0.1371600 0.0000000
0.7276649 0.1371418 0.0000000
0.0399771 0.2681839 0.0382653
0.0789053 0.2670987 0.0362059
0.1214464 0.2713946 0.0305453
0.1746043 0.2826524 0.0259005
0.2395075 0.3014181 0.0296093
0.3113171 0.3305789 0.0365537
0.3297647 0.3073108 0.0379605
0.3268745 0.2498091 0.0341599
0.3685391 0.2308108 0.0318005
0.4027031 0.2193926 0.0312945
0.4369179 0.2092689 0.0312791
0.4710943 0.1997235 0.0310034
0.5056098 0.1909897 0.0302857
0.5400512 0.1822123 0.0295006
0.5643136 0.1797158 0.0282449
0.5885663 0.1771732 0.0270194
0.6095928 0.1759463 0.0246631
0.6220663 0.1755870 0.0227780
0.6345331 0.1752178 0.0208983
0.6466107 0.1746953 0.0190192
0.6571350 0.1735822 0.0171272
0.6676567 0.1724613 0.0152328
0.6781754 0.1713325 0.0133364
0.6877096 0.1701370 0.0114317
0.6957894 0.1687799 0.0094418
0.7055338 0.1671314 0.0070390
0.7151408 0.1655323 0.0046754
0.7221451 0.1651705 0.0031258
0.7291435 0.1647969 0.0015811
0.7334435 0.1645614 0.0006346
0.7335842 0.1645536 0.0006037
0.7337250 0.1645458 0.0005727
0.7338377 0.1645396 0.0005480
0.0407625 0.2979270 0.0394549
0.0802253 0.2970493 0.0377456
0.1224610 0.3008046 0.0324339
0.1723006 0.3102277 0.0254413
0.2349013 0.3261946 0.0282276
0.3066314 0.3526554 0.0346223
0.3591603 0.3643252 0.0395874
0.3554628 0.3233317 0.0397834
0.3605355 0.2840182 0.0374534
0.3866448 0.2676263 0.0365371
0.4159117 0.2509011 0.0354166
0.4492090 0.2345326 0.0337786
0.4920319 0.2182716 0.0309003
0.5350319 0.2018521 0.0279657
0.5604916 0.1979758 0.0280198
0.5851041 0.1946635 0.0282567
0.6062410 0.1931558 0.0276225
0.6183781 0.1929789 0.0268308
0.6305072 0.1927928 0.0260501
0.6425037 0.1925514 0.0251717
0.6533113 0.1918663 0.0232840
0.6641180 0.1911737 0.0213936
0.6749234 0.1904736 0.0195005
0.6854484 0.1897017 0.0174748
0.6955666 0.1887072 0.0149926
0.7077822 0.1874954 0.0119919
0.7199975 0.1862712 0.0089875
0.7271898 0.1865204 0.0060810
0.7342470 0.1867951 0.0031760
0.7385829 0.1869579 0.0013904
0.7387248 0.1869631 0.0013320
0.7388667 0.1869684 0.0012735
0.7389804 0.1869726 0.0012267
0.0413874 0.3208608 0.0403141
0.0811997 0.3201312 0.0388475
0.1232754 0.3235120 0.0337964
0.1714820 0.3316235 0.0266680
0.2312234 0.3454055 0.0271612
0.3021485 0.3693880 0.0330490
0.3670708 0.3920594 0.0398531
0.3986265 0.3849346 0.0436004
0.3802491 0.3353099 0.0414155
0.3841754 0.3051969 0.0398353
0.4093712 0.2859805 0.0385408
0.4390817 0.2670896 0.0367423
0.4816268 0.2475008 0.0333693
0.5238212 0.2281291 0.0300525
0.5517774 0.2202449 0.0297076
0.5782749 0.2133956 0.0296245
0.6011847 0.2094318 0.0291290
0.6140743 0.2085177 0.0286058
0.6269979 0.2075571 0.0280777
0.6399262 0.2065625 0.0275337
0.6507757 0.2063145 0.0260753
0.6616197 0.2060627 0.0246299
0.6724585 0.2058060 0.0231956
0.6831952 0.2055094 0.0216350
0.6938872 0.2050387 0.0194032
0.7067848 0.2044624 0.0167163
0.7196759 0.2038758 0.0140340
0.7283004 0.2039153 0.0109043
0.7365414 0.2039929 0.0077308
0.7416101 0.2040315 0.0057782
0.7417761 0.2040327 0.0057142
0.7419421 0.2040338 0.0056503
0.7420750 0.2040347 0.0055990
0.0420514 0.3435656 0.0410725
0.0821716 0.3430094 0.0398500
0.1240900 0.3460184 0.0350357
0.1709577 0.3529715 0.0279776
0.2277293 0.3647877 0.0262260
0.2963006 0.3858273 0.0312972
0.3627633 0.4083900 0.0381248
0.4145540 0.4193447 0.0440530
0.4209575 0.3944711 0.0453842
0.4100601 0.3529071 0.0428579
0.4162330 0.3242288 0.0413652
0.4399192 0.3065826 0.0404981
0.4729710 0.2864233 0.0380748
0.5057964 0.2666847 0.0357145
0.5365266 0.2519340 0.0336952
0.5669876 0.2379246 0.0316763
0.5935559 0.2287522 0.0300533
0.6082017 0.2261921 0.0292998
0.6228862 0.2235852 0.0285408
0.6376073 0.2209317 0.0277765
0.6486333 0.2209783 0.0271415
0.6593586 0.2212410 0.0265329
0.6700783 0.2215017 0.0259392
0.6807327 0.2217552 0.0252682
0.6912409 0.2219788 0.0237706
0.7039160 0.2222438 0.0219739
0.7165838 0.2225016 0.0201862
0.7271803 0.2220189 0.0174707
0.7374401 0.2213858 0.0145938
0.7437549 0.2209848 0.0128239
0.7439618 0.2209715 0.0127659
0.7441686 0.2209583 0.0127080
0.7443343 0.2209476 0.0126616
0.0427918 0.3658247 0.0415802
0.0831050 0.3653834 0.0405839
0.1247617 0.3680518 0.0360607
0.1705469 0.3741650 0.0292128
0.2244979 0.3843947 0.0254228
0.2898474 0.4022076 0.0294780
0.3558335 0.4225592 0.0359929
0.4124541 0.4364820 0.0429962
0.4405007 0.4324683 0.0473171
0.4380894 0.4059424 0.0470035
0.4337187 0.3743205 0.0456369
0.4419264 0.3467832 0.0441967
0.4653305 0.3257899 0.0427140
0.4887414 0.3054895 0.0412958
0.5207682 0.2845128 0.0379131
0.5552346 0.2632487 0.0339454
0.5856061 0.2483190 0.0310175
0.6020089 0.2440981 0.0300336
0.6184507 0.2398361 0.0290441
0.6349321 0.2355295 0.0280489
0.6464949 0.2354717 0.0280605
0.6571011 0.2362402 0.0282844
0.6677014 0.2370107 0.0285263
0.6782840 0.2377834 0.0287656
0.6886085 0.2386945 0.0279976
0.7010610 0.2397938 0.0270858
0.7135053 0.2408902 0.0261877
0.7257880 0.2400853 0.0239629
0.7380546 0.2387463 0.0213817
0.7456083 0.2379089 0.0197940
0.7458557 0.2378813 0.0197420
0.7461032 0.2378537 0.0196901
0.7463014 0.2378316 0.0196484
0.0435375 0.3880862 0.0420926
0.0840340 0.3877586 0.0413039
0.1254768 0.3901206 0.0370416
0.1702978 0.3954506 0.0303852
0.2214407 0.4041480 0.0246511
0.2833672 0.4186655 0.0276756
0.3484486 0.4365968 0.0338094
0.4100507 0.4539393 0.0418127
0.4556700 0.4664408 0.0491399
0.4678031 0.4533293 0.0511680
0.4605802 0.4209325 0.0495071
0.4534813 0.3890592 0.0478269
0.4608016 0.3644076 0.0468756
0.4760190 0.3440089 0.0463468
0.5070211 0.3186334 0.0422787
0.5439088 0.2915822 0.0369089
0.5769396 0.2713707 0.0328502
0.5948350 0.2652265 0.0315276
0.6127290 0.2590064 0.0301814
0.6306258 0.2526926 0.0288085
0.6433638 0.2516567 0.0289386
0.6544284 0.2523528 0.0295544
0.6655543 0.2529831 0.0301444
0.6767389 0.2535479 0.0307096
0.6868699 0.2550999 0.0307877
0.6989417 0.2570668 0.0308787
0.7109835 0.2590408 0.0310090
0.7240882 0.2585335 0.0295432
0.7375969 0.2570764 0.0274740
0.7458970 0.2561806 0.0262105
0.7461687 0.2561513 0.0261692
0.7464404 0.2561220 0.0261279
0.7466580 0.2560985 0.0260949
0.0443559 0.4102253 0.0424844
0.0849852 0.4099695 0.0418838
0.1262402 0.4120550 0.0378706
0.1702776 0.4167250 0.0314201
0.2189847 0.4242497 0.0239313
0.2788020 0.4368259 0.0262388
0.3424381 0.4530798 0.0314058
0.4044850 0.4697996 0.0386934
0.4526046 0.4828692 0.0460007
0.4805851 0.4850190 0.0495401
0.4863785 0.4664187 0.0517389
0.4820675 0.4361786 0.0514116
0.4744193 0.4010000 0.0493109
0.4834223 0.3786517 0.0486304
0.5082292 0.3561314 0.0460675
0.5376646 0.3312247 0.0422838
0.5663351 0.3096232 0.0386067
0.5847278 0.2993478 0.0361878
0.6031084 0.2890448 0.0337541
0.6214841 0.2786803 0.0312990
0.6366390 0.2741220 0.0302275
0.6501725 0.2725600 0.0298610
0.6637685 0.2709381 0.0294679
0.6774271 0.2692527 0.0290483
0.6874487 0.2710438 0.0300725
0.6986207 0.2739849 0.0316646
0.7097597 0.2769405 0.0333019
0.7222473 0.2776878 0.0331874
0.7354464 0.2772743 0.0321548
0.7435556 0.2770229 0.0315311
0.7438210 0.2770147 0.0315108
0.7440864 0.2770065 0.0314905
0.7442990 0.2769999 0.0314742
0.0452609 0.4322105 0.0427236
0.0859699 0.4319399 0.0422652
0.1270458 0.4337860 0.0385077
0.1704568 0.4379624 0.0323136
0.2175523 0.4445899 0.0243640
0.2749246 0.4556002 0.0249332
0.3364492 0.4698117 0.0289883
0.3985030 0.4855535 0.0355052
0.4489780 0.4991355 0.0427556
0.4821986 0.5057055 0.0477516
0.5132198 0.5114530 0.0526784
0.5088932 0.4830449 0.0531786
0.5038486 0.4547558 0.0533968
0.4963707 0.4189793 0.0515431
0.5103596 0.3938844 0.0497130
0.5322295 0.3709806 0.0475210
0.5555550 0.3489008 0.0446085
0.5744678 0.3343918 0.0410745
0.5933529 0.3199289 0.0375402
0.6122211 0.3054580 0.0339945
0.6294451 0.2970059 0.0316963
0.6454546 0.2931606 0.0303457
0.6615217 0.2892692 0.0289698
0.6776507 0.2853226 0.0275672
0.6881365 0.2867980 0.0291464
0.6984096 0.2906991 0.0322355
0.7086475 0.2946232 0.0353741
0.7204340 0.2966114 0.0366754
0.7333239 0.2972305 0.0366741
0.7412424 0.2976175 0.0366867
0.7415016 0.2976302 0.0366872
0.7417607 0.2976429 0.0366878
0.7419683 0.2976531 0.0366883
0.0461693 0.4541964 0.0429648
0.0869504 0.4539102 0.0426378
0.1278685 0.4555350 0.0391153
0.1707035 0.4592402 0.0331514
0.2165882 0.4650248 0.0253074
0.2711299 0.4744495 0.0236429
0.3304195 0.4865937 0.0265900
0.3922518 0.5013673 0.0322766
0.4439992 0.5150161 0.0390821
0.4804618 0.5242559 0.0447186
0.5150487 0.5328413 0.0501775
0.5346378 0.5274742 0.0543921
0.5307793 0.4983033 0.0552801
0.5235482 0.4661165 0.0544401
0.5165032 0.4344487 0.0535161
0.5276276 0.4109965 0.0526320
0.5445585 0.3893750 0.0508854
0.5640209 0.3704987 0.0462107
0.5834340 0.3517725 0.0415570
0.6028136 0.3331168 0.0369073
0.6217569 0.3203755 0.0333530
0.6402580 0.3142105 0.0310134
0.6588043 0.3080226 0.0286525
0.6774058 0.3017959 0.0262669
0.6889406 0.3023875 0.0280037
0.6983141 0.3072329 0.0325884
0.7076519 0.3121109 0.0372244
0.7186515 0.3153231 0.0400078
0.7312627 0.3169294 0.0409705
0.7390160 0.3179076 0.0415494
0.7392696 0.3179397 0.0415687
0.7395232 0.3179718 0.0415879
0.7397263 0.3179976 0.0416034
0.0472170 0.4771301 0.0430864
0.0880342 0.4768183 0.0428824
0.1287993 0.4782275 0.0395877
0.1711375 0.4815076 0.0338585
0.2160399 0.4866097 0.0261807
0.2681207 0.4948890 0.0224233
0.3258800 0.5057367 0.0245750
0.3858558 0.5188337 0.0289135
0.4359272 0.5308724 0.0341983
0.4726789 0.5394679 0.0392521
0.5079814 0.5475815 0.0442685
0.5354301 0.5493780 0.0489346
0.5494298 0.5384469 0.0534237
0.5495867 0.5141917 0.0572877
0.5431580 0.4808718 0.0563741
0.5361243 0.4468972 0.0548131
0.5474290 0.4258820 0.0541925
0.5636762 0.4085350 0.0506827
0.5799770 0.3913719 0.0471768
0.5962764 0.3743875 0.0436923
0.6134465 0.3600793 0.0402176
0.6321108 0.3500743 0.0367195
0.6507497 0.3400898 0.0332168
0.6693671 0.3300834 0.0296996
0.6834923 0.3264825 0.0292566
0.6961380 0.3279652 0.0314465
0.7088954 0.3293416 0.0335485
0.7211755 0.3311219 0.0356969
0.7326985 0.3335559 0.0380301
0.7397616 0.3350642 0.0394890
0.7399926 0.3351138 0.0395370
0.7402236 0.3351633 0.0395851
0.7404086 0.3352030 0.0396237
0.0480158 0.4936256 0.0431147
0.0888453 0.4932770 0.0429796
0.1295048 0.4945395 0.0398390
0.1715282 0.4975583 0.0342844
0.2158082 0.5022475 0.0267530
0.2661358 0.5097754 0.0215662
0.3226630 0.5196319 0.0231432
0.3811690 0.5314622 0.0264952
0.4298964 0.5422845 0.0306503
0.4667876 0.5503812 0.0352535
0.5025334 0.5581174 0.0399277
0.5343213 0.5634385 0.0457296
0.5655082 0.5691159 0.0521042
0.5658769 0.5448801 0.0554048
0.5614834 0.5167254 0.0579497
0.5553573 0.4844813 0.0579956
0.5514383 0.4516231 0.0560822
0.5649526 0.4359657 0.0536608
0.5785824 0.4205038 0.0512247
0.5922566 0.4052354 0.0487968
0.6074148 0.3907100 0.0457853
0.6260151 0.3776293 0.0413827
0.6445844 0.3646276 0.0369891
0.6631272 0.3516491 0.0325913
0.6789268 0.3446095 0.0305207
0.6941592 0.3434005 0.0308199
0.7094932 0.3421073 0.0310370
0.7231183 0.3424196 0.0324078
0.7338298 0.3454632 0.0357751
0.7403943 0.3473493 0.0378694
0.7406089 0.3474112 0.0379383
0.7408235 0.3474731 0.0380072
0.7409954 0.3475228 0.0380624
0.0487975 0.5097443 0.0431427
0.0896355 0.5093593 0.0430711
0.1301973 0.5104842 0.0400727
0.1719254 0.5132531 0.0346762
0.2156297 0.5175510 0.0272800
0.2642425 0.5243513 0.0207325
0.3195520 0.5332449 0.0217558
0.3765689 0.5438266 0.0241482
0.4238940 0.5534266 0.0271809
0.4608528 0.5610061 0.0313181
0.4970391 0.5684821 0.0357020
0.5319998 0.5763849 0.0421404
0.5656338 0.5839645 0.0487127
0.5854931 0.5788257 0.0550365
0.5793778 0.5477092 0.0568187
0.5731725 0.5168592 0.0582255
0.5677073 0.4860334 0.0586865
0.5666092 0.4628285 0.0564444
0.5775875 0.4490050 0.0550642
0.5886664 0.4353869 0.0536753
0.6014804 0.4212990 0.0513958
0.6200261 0.4051448 0.0460939
0.6385341 0.3891401 0.0408179
0.6570100 0.3732140 0.0355504
0.6741637 0.3626683 0.0319669
0.6919364 0.3588013 0.0304111
0.7097947 0.3548799 0.0287831
0.7250988 0.3533953 0.0290814
0.7350152 0.3570271 0.0334615
0.7410917 0.3592778 0.0361775
0.7412903 0.3593517 0.0362667
0.7414890 0.3594256 0.0363560
0.7416481 0.3594849 0.0364275
0.0495839 0.5258566 0.0431655
0.0904234 0.5254407 0.0431596
0.1308922 0.5264332 0.0402959
0.1723373 0.5289543 0.0350435
0.2155130 0.5328705 0.0277691
0.2624983 0.5389984 0.0199167
0.3167941 0.5470855 0.0204947
0.3727705 0.5567658 0.0222442
0.4193820 0.5656520 0.0246912
0.4560382 0.5727794 0.0282248
0.4917550 0.5796552 0.0318216
0.5261085 0.5866032 0.0372082
0.5591604 0.5931570 0.0426484
0.5807634 0.5902261 0.0458988
0.5910779 0.5754392 0.0540829
0.5896344 0.5480943 0.0578385
0.5840335 0.5171841 0.0585063
0.5805825 0.4978159 0.0588460
0.5773950 0.4783013 0.0589483
0.5854190 0.4655869 0.0584477
0.5954967 0.4526027 0.0571879
0.6139962 0.4332975 0.0509689
0.6324505 0.4142268 0.0447962
0.6508662 0.3953022 0.0386481
0.6690910 0.3810966 0.0336275
0.6894208 0.3745384 0.0302068
0.7098136 0.3679646 0.0267280
0.7271642 0.3643171 0.0256394
0.7362826 0.3685292 0.0310361
0.7418699 0.3711399 0.0343750
0.7420526 0.3712257 0.0344846
0.7422352 0.3713114 0.0345943
0.7423815 0.3713801 0.0346821
0.0504392 0.5418519 0.0430848
0.0912654 0.5413905 0.0431272
0.1316426 0.5422553 0.0403914
0.1728521 0.5445659 0.0352914
0.2155884 0.5481844 0.0281776
0.2614561 0.5537912 0.0198151
0.3144641 0.5611957 0.0193840
0.3694000 0.5700191 0.0205763
0.4151197 0.5780944 0.0223947
0.4511297 0.5845555 0.0251345
0.4862965 0.5907923 0.0279148
0.5199691 0.5967384 0.0321964
0.5523697 0.6022261 0.0364665
0.5758181 0.6004096 0.0393571
0.5930765 0.5931225 0.0432916
0.5985248 0.5737216 0.0531260
0.5997861 0.5503200 0.0593380
0.5964779 0.5300721 0.0593439
0.5932453 0.5100183 0.0592906
0.5900830 0.4901397 0.0591813
0.5966579 0.4770513 0.0589215
0.6131876 0.4589095 0.0535055
0.6297787 0.4409180 0.0480768
0.6463842 0.4230834 0.0426548
0.6636795 0.4078840 0.0375971
0.6847456 0.3980839 0.0329723
0.7057877 0.3883488 0.0283420
0.7245182 0.3814098 0.0255992
0.7351385 0.3843919 0.0295724
0.7417035 0.3862106 0.0319769
0.7419189 0.3862699 0.0320551
0.7421344 0.3863291 0.0321333
0.7423070 0.3863766 0.0321959
0.0512951 0.5578465 0.0430039
0.0921057 0.5573368 0.0430901
0.1323942 0.5580764 0.0404747
0.1733730 0.5601823 0.0355195
0.2156883 0.5635086 0.0285564
0.2607596 0.5686078 0.0202176
0.3121722 0.5753340 0.0182795
0.3660455 0.5833012 0.0189210
0.4108269 0.5905522 0.0201062
0.4461416 0.5963312 0.0220461
0.4807004 0.6019081 0.0239942
0.5136274 0.6068168 0.0271301
0.5453111 0.6112021 0.0301966
0.5709886 0.6108552 0.0328046
0.5948742 0.6095032 0.0353078
0.6054792 0.5953485 0.0425238
0.6078265 0.5742740 0.0519193
0.6090372 0.5606794 0.0575200
0.6087282 0.5442075 0.0606499
0.6062841 0.5229763 0.0598175
0.6041456 0.5017656 0.0588623
0.6135906 0.4839870 0.0554945
0.6279957 0.4678006 0.0511025
0.6424528 0.4517734 0.0467022
0.6581554 0.4365828 0.0420845
0.6796917 0.4232620 0.0363065
0.7011904 0.4100877 0.0305429
0.7211754 0.3993555 0.0260989
0.7336090 0.4007830 0.0283637
0.7412828 0.4016577 0.0297224
0.7415345 0.4016862 0.0297664
0.7417862 0.4017147 0.0298104
0.7419878 0.4017375 0.0298456
0.0521516 0.5738403 0.0429226
0.0929433 0.5732814 0.0430503
0.1331457 0.5738991 0.0405493
0.1738986 0.5758026 0.0357292
0.2158081 0.5788412 0.0289072
0.2601179 0.5834474 0.0205943
0.3099192 0.5894993 0.0171806
0.3627151 0.5966135 0.0172787
0.4065204 0.6030303 0.0178278
0.4411191 0.6081299 0.0189822
0.4752628 0.6132059 0.0203041
0.5077639 0.6173954 0.0226271
0.5391867 0.6211832 0.0249686
0.5662376 0.6216759 0.0273124
0.5913737 0.6210598 0.0294414
0.6125325 0.6167599 0.0309684
0.6177491 0.5968856 0.0399444
0.6184343 0.5819720 0.0451820
0.6190032 0.5670835 0.0502604
0.6194619 0.5522178 0.0551885
0.6196775 0.5357215 0.0586590
0.6194674 0.5126890 0.0567707
0.6265135 0.4946719 0.0540047
0.6387976 0.4804382 0.0506350
0.6525300 0.4659037 0.0467410
0.6745490 0.4489893 0.0397929
0.6965142 0.4323185 0.0328832
0.7176124 0.4175430 0.0267921
0.7318707 0.4173907 0.0273402
0.7406582 0.4173088 0.0276498
0.7409463 0.4173061 0.0276595
0.7412344 0.4173034 0.0276692
0.7414652 0.4173013 0.0276769
0.0530170 0.5898167 0.0428304
0.0937835 0.5892133 0.0430004
0.1339017 0.5897144 0.0406091
0.1744388 0.5914191 0.0359153
0.2159756 0.5941812 0.0292274
0.2596175 0.5983452 0.0209647
0.3079483 0.6038335 0.0161849
0.3599589 0.6103224 0.0159408
0.4031892 0.6162221 0.0161680
0.4374127 0.6209130 0.0169628
0.4710937 0.6254797 0.0178112
0.5031773 0.6291311 0.0194168
0.5342412 0.6323843 0.0209998
0.5613811 0.6326479 0.0224735
0.5868515 0.6319749 0.0237011
0.6093987 0.6286604 0.0236080
0.6236247 0.6177512 0.0281887
0.6287565 0.6070375 0.0344766
0.6306447 0.5929087 0.0397444
0.6305720 0.5767270 0.0443011
0.6303980 0.5605792 0.0487165
0.6301278 0.5444603 0.0529987
0.6297853 0.5282889 0.0570962
0.6354259 0.5091063 0.0544523
0.6467938 0.4958991 0.0515772
0.6693095 0.4753090 0.0434396
0.6917526 0.4550762 0.0353691
0.7138211 0.4359954 0.0276837
0.7299184 0.4342347 0.0265046
0.7398261 0.4331814 0.0257606
0.7401507 0.4331471 0.0257359
0.7404753 0.4331129 0.0257111
0.7407354 0.4330854 0.0256913
0.0539155 0.6057270 0.0426961
0.0946535 0.6050728 0.0428993
0.1346942 0.6054641 0.0406096
