presets/film/film-warm/look.cube
# Approximate v0 colour conversion; calibrate before claiming visual parity.
LUT_3D_SIZE 5
DOMAIN_MIN 0 0 0
DOMAIN_MAX 1 1 1
0.0389697 0.0298685 0.0249921
0.3298677 0.0458301 0.0211263
0.5625122 0.0155345 0.0028991
0.6519556 0.0000000 0.0008783
0.7011340 0.0000000 0.0002655
0.0407625 0.2979270 0.0394549
0.3605355 0.2840182 0.0374534
0.6062410 0.1931558 0.0276225
0.6955666 0.1887072 0.0149926
0.7389804 0.1869726 0.0012267
0.0472170 0.4771301 0.0430864
0.4359272 0.5308724 0.0341983
0.5474290 0.4258820 0.0541925
0.6834923 0.3264825 0.0292566
0.7404086 0.3352030 0.0396237
0.0539155 0.6057270 0.0426961
0.4000080 0.6295386 0.0146062
0.6264065 0.6355574 0.0153859
0.6440020 0.5217746 0.0527229
0.7386561 0.4514392 0.0239346
0.0598470 0.7093949 0.0418029
0.3836330 0.7200899 0.0068184
0.6115834 0.7246560 0.0000000
0.7032033 0.6883011 0.0000000
0.7238650 0.5976362 0.0028128
0.0865431 0.1029597 0.2737476
0.2836996 0.0503725 0.1781423
0.5143746 0.0304784 0.1668498
0.6158240 0.0225736 0.1582563
0.6778378 0.0186664 0.1462141
0.0225307 0.3411954 0.3373029
0.2674574 0.2529347 0.2131152
0.5375681 0.2438884 0.2074836
0.6535317 0.2324937 0.1944317
0.7095731 0.2265663 0.1884305
0.0148977 0.5072842 0.2959824
0.2962630 0.4647824 0.2535168
0.4697944 0.3786282 0.1740889
0.6397144 0.3832687 0.1753603
0.7193791 0.3988352 0.1885089
0.0194902 0.6316472 0.2795647
0.3190489 0.5992484 0.2671273
0.5502998 0.6132193 0.1957278
0.6174118 0.5427087 0.1604051
0.7155433 0.5241432 0.1543334
0.0239513 0.7330415 0.2690946
0.3303979 0.7025024 0.2695980
0.5402155 0.7102367 0.2135238
0.6768070 0.7194331 0.1722494
0.7082624 0.6495958 0.1503861
0.1599622 0.1881871 0.5344251
0.3416429 0.0681547 0.4313779
0.4590948 0.0495367 0.3249874
0.5637292 0.0468170 0.3062975
0.6364245 0.0436390 0.3004244
0.0925253 0.4165613 0.6104507
0.3310330 0.3628557 0.4960445
0.4345199 0.2715200 0.3598682
0.5822282 0.2832747 0.3815517
0.6656988 0.2797310 0.3827294
0.0438496 0.5454176 0.5437931
0.2624983 0.5340070 0.5265028
0.4955387 0.4564281 0.4454390
0.6376566 0.4752261 0.4604456
0.7047272 0.4685425 0.4492470
0.0544760 0.6666732 0.5136658
0.2768140 0.6403734 0.4822917
0.4862270 0.5844269 0.4455707
0.6233643 0.5796647 0.4524083
0.7161559 0.5916297 0.4597143
0.0575842 0.7660221 0.4945620
0.2974683 0.7303607 0.4626620
0.4966464 0.6886512 0.4524346
0.6359593 0.7085199 0.4358032
0.7037574 0.6882907 0.4232003
0.1756618 0.2142368 0.6292628
0.3526881 0.0868394 0.5403692
0.5099539 0.0594247 0.4718785
0.5545743 0.0561951 0.3883204
0.6248641 0.0561792 0.3745408
0.1209087 0.4399372 0.6747228
0.3669568 0.4023760 0.5997890
0.4882919 0.3045436 0.4994628
0.5506983 0.2884903 0.4360412
0.6337128 0.2900517 0.4371736
0.1055253 0.5808042 0.6486565
0.2762401 0.5830568 0.6623735
0.5259788 0.5058593 0.5705419
0.5730521 0.4491803 0.4922070
0.6823999 0.4789810 0.5232473
0.1006860 0.6777821 0.6098324
0.2566333 0.6714905 0.6031513
0.4796471 0.5948770 0.5428080
0.6156240 0.5914174 0.5479865
0.7379924 0.6448907 0.6081357
0.0928765 0.7784678 0.5930897
0.2862822 0.7561767 0.5626432
0.4912549 0.7017121 0.5452308
0.6306416 0.7134531 0.5631291
0.7199657 0.7210814 0.5690573
0.1898428 0.2365870 0.7158490
0.3641646 0.1053085 0.6420278
0.5341064 0.0756575 0.5829591
0.5789610 0.0651348 0.5003584
0.6237495 0.0649513 0.4557829
0.1604686 0.4632063 0.7331198
0.3959877 0.4319145 0.6886764
0.5126419 0.3359473 0.6084205
0.5761886 0.3035973 0.5420019
0.6198197 0.2982928 0.4999356
0.2179107 0.6078338 0.7196889
0.3144012 0.6055762 0.7283093
0.5471430 0.5434651 0.6732503
0.5934845 0.4688856 0.5867764
0.6342813 0.4581294 0.5465951
0.1850308 0.7046172 0.6998532
0.2899930 0.6916582 0.7076280
0.5271999 0.6803171 0.7055856
0.6663264 0.6610105 0.6821806
0.7018564 0.6260448 0.6470422
0.1372878 0.7876910 0.6793832
0.3052756 0.7729638 0.6644490
0.5036567 0.7501834 0.6598462
0.6163481 0.7047359 0.6393142
0.7176183 0.7216908 0.6553589
