catalog/styles/film/film-polaroid/look.cube
# film-polaroid iteration 20
LUT_3D_SIZE 9
DOMAIN_MIN 0 0 0
DOMAIN_MAX 1 1 1
0.1529248 0.1621432 0.1640573
0.1571326 0.1539318 0.1502108
0.2212255 0.1702327 0.1723466
0.4561456 0.2105429 0.2122216
0.6831221 0.2277650 0.1869297
0.8132209 0.2220691 0.1455326
0.9031799 0.1961960 0.1090807
0.9634474 0.1458184 0.0552454
1.0000000 0.0830963 0.0000000
0.1448374 0.1767030 0.1533519
0.1601023 0.1720388 0.1688440
0.2677322 0.2063726 0.1529158
0.4011073 0.2108435 0.1703779
0.5599794 0.2202943 0.1842216
0.7190094 0.2437701 0.1627203
0.8588398 0.2641675 0.1282410
0.9603737 0.2634477 0.0838855
1.0000000 0.2580375 0.0350960
0.1099650 0.1956069 0.1152642
0.1957934 0.2620586 0.1598928
0.2637090 0.2610839 0.1574068
0.5215403 0.3862854 0.0987066
0.5594119 0.2937504 0.1195709
0.6936956 0.2871373 0.1422856
0.8395057 0.3340781 0.1337777
0.9736012 0.3846432 0.1045126
1.0000000 0.4258278 0.0621678
0.0877794 0.2655482 0.1006186
0.1909300 0.3443550 0.1234360
0.3031121 0.4093889 0.1505302
0.3706412 0.3847328 0.1238591
0.6272434 0.5138733 0.0779258
0.6939626 0.4143643 0.1121861
0.8438081 0.4346089 0.1134192
0.9934459 0.5043045 0.0864701
1.0000000 0.5547881 0.0259793
0.0567546 0.3471335 0.0867026
0.1337461 0.3881107 0.0943223
0.2268715 0.4314775 0.1172417
0.3379794 0.4680900 0.1448932
0.4346667 0.4613295 0.1061735
0.6041071 0.4806526 0.0714931
0.7923483 0.5198084 0.0337776
0.9696136 0.5818000 0.0000000
1.0000000 0.6343394 0.0000000
0.0034090 0.4153318 0.0779065
0.0649099 0.4324735 0.0700969
0.1343164 0.4509103 0.0658335
0.2207781 0.4648446 0.0617804
0.3349643 0.4748058 0.0364779
0.5018329 0.5065647 0.0000000
0.6972402 0.5561219 0.0000000
0.8896598 0.6127811 0.0000000
1.0000000 0.6733180 0.0000000
0.0000000 0.4761492 0.0792782
0.0000000 0.4811358 0.0490087
0.0654908 0.4856165 0.0164108
0.1496841 0.4920368 0.0000000
0.2684702 0.5099954 0.0000000
0.4252260 0.5439647 0.0000000
0.6062101 0.5888599 0.0000000
0.7954883 0.6409651 0.0000000
0.9884454 0.7004063 0.0000000
0.0000000 0.5360057 0.0865841
0.0000000 0.5326986 0.0316735
0.0125190 0.5304252 0.0000000
0.1022545 0.5341967 0.0000000
0.2160018 0.5508734 0.0000000
0.3578956 0.5828211 0.0000000
0.5245753 0.6278271 0.0000000
0.7072017 0.6825607 0.0000000
0.8953844 0.7421347 0.0000000
0.0000000 0.5957512 0.0956179
0.0000000 0.5854144 0.0162729
0.0000000 0.5781018 0.0000000
0.0584232 0.5786631 0.0000000
0.1660705 0.5917880 0.0000000
0.2934740 0.6213011 0.0000000
0.4457491 0.6681775 0.0000000
0.6198588 0.7274183 0.0000000
0.8038694 0.7910971 0.0000000
0.1958898 0.1956922 0.2263538
0.1822832 0.1835893 0.2132000
0.1943873 0.1629557 0.1713215
0.3348766 0.1816364 0.1832415
0.5312688 0.2063105 0.1960460
0.7129018 0.2242154 0.2006564
0.8494066 0.2265476 0.2017114
0.9313035 0.2169471 0.1837441
0.9651464 0.1951327 0.1285602
0.1601287 0.1919936 0.1798942
0.1870554 0.1944911 0.1996205
0.1755457 0.1827126 0.2103353
0.2561491 0.1719257 0.1944498
0.4385238 0.1947651 0.1836497
0.6210216 0.2239143 0.1873317
0.7705699 0.2404396 0.1813239
0.8936270 0.2544531 0.1656415
1.0000000 0.2705219 0.1432362
0.1404956 0.2081486 0.1631590
0.1932456 0.2446560 0.1895037
0.2096777 0.2300003 0.1903017
0.2830192 0.2268926 0.1921849
0.3758081 0.1966010 0.1605011
0.5435200 0.2336602 0.1671107
0.7170038 0.2693512 0.1622338
0.8759295 0.3089778 0.1514804
1.0000000 0.3387111 0.1321470
0.1216688 0.2685999 0.1538919
0.1832980 0.3138261 0.1787614
0.2423729 0.3303983 0.1984013
0.2874504 0.3026650 0.1923095
0.4009651 0.3119823 0.1928720
0.5218838 0.3077176 0.1648787
0.7003858 0.3355346 0.1413161
0.8853561 0.4167612 0.1439786
1.0000000 0.4385647 0.1123399
0.0989196 0.3574519 0.1605485
0.1539586 0.3811772 0.1647100
0.1982702 0.3896641 0.1633887
0.2536257 0.3829115 0.1575605
0.3720339 0.3898365 0.1529149
0.5368093 0.4283664 0.1525176
0.7061097 0.4627184 0.1252147
0.8689664 0.5090868 0.0812610
0.9789710 0.5259351 0.0584961
0.0612647 0.4403022 0.1703256
0.1171946 0.4499843 0.1565870
0.1743465 0.4594031 0.1402660
0.2461563 0.4689617 0.1179474
0.3468031 0.4700153 0.0935206
0.4876581 0.4902653 0.0785114
0.6740301 0.5465635 0.0494516
0.8275646 0.5815281 0.0151331
0.9465158 0.6009144 0.0000000
0.0127373 0.5157078 0.1800052
0.0764875 0.5176530 0.1488887
0.1444098 0.5212221 0.1164078
0.2209046 0.5241330 0.0785420
0.3132855 0.5261438 0.0367741
0.4404054 0.5458579 0.0013120
0.6063075 0.5958149 0.0000000
0.7804553 0.6516082 0.0000000
0.9375085 0.6936046 0.0000000
0.0000000 0.5875403 0.1881749
0.0337591 0.5825228 0.1403726
0.1085940 0.5784556 0.0916067
0.1890491 0.5765604 0.0397165
0.2824026 0.5816294 0.0000000
0.4008774 0.6034619 0.0000000
0.5504625 0.6481498 0.0000000
0.7234108 0.7087217 0.0000000
0.9054629 0.7731216 0.0000000
0.0000000 0.6582372 0.1955218
0.0000000 0.6459757 0.1316496
0.0719799 0.6356039 0.0674964
0.1580870 0.6321540 0.0027589
0.2546057 0.6411918 0.0000000
0.3678841 0.6652836 0.0000000
0.5051656 0.7063163 0.0000000
0.6701509 0.7662662 0.0000000
0.8519876 0.8382936 0.0000000
0.2032775 0.1968187 0.2964170
0.1874356 0.1864640 0.2439233
0.1706347 0.1547199 0.1715930
0.2471272 0.1538933 0.1679539
0.4071567 0.1708431 0.1980956
0.5985229 0.1957007 0.2355866
0.7654964 0.2217606 0.2710699
0.8841765 0.2552322 0.2943315
0.9624819 0.3104376 0.3094910
0.1821925 0.2168163 0.2328474
0.2240762 0.2289833 0.2660861
0.2228271 0.2062582 0.2426831
0.2483920 0.1718534 0.1977994
0.3871886 0.1788050 0.1933473
0.5815178 0.2218766 0.2271767
0.7280384 0.2450891 0.2508136
0.8513195 0.2650405 0.2612382
0.9720877 0.2919888 0.2673118
0.1703249 0.2498203 0.2302385
0.1869896 0.2365517 0.2238684
0.2223051 0.2351214 0.2331197
0.2641417 0.2143964 0.2110040
0.3728988 0.2092399 0.1885939
0.5330785 0.2419261 0.2012823
0.6784105 0.2694652 0.2184980
0.8222087 0.2907636 0.2288025
0.9708843 0.2924538 0.2246877
0.1434964 0.2758067 0.2125942
0.1849988 0.3102630 0.2345734
0.2352620 0.3176121 0.2389252
0.2981493 0.3091061 0.2329394
0.3926206 0.3129424 0.2304091
0.4825608 0.2880620 0.1679347
0.6346588 0.3101345 0.1657758
0.7933119 0.3451670 0.1933702
0.9426889 0.3569875 0.2157069
0.1332236 0.3677702 0.2348308
0.1836401 0.3874156 0.2410779
0.2304487 0.3914930 0.2342197
0.2937571 0.3901841 0.2238579
0.4032595 0.4075519 0.2256590
0.5258485 0.4372464 0.2412291
0.6307311 0.4333330 0.2214098
0.7585222 0.4312632 0.1846182
0.8867389 0.4496553 0.2144477
0.1168232 0.4691938 0.2640338
0.1718457 0.4727197 0.2477042
0.2283391 0.4758337 0.2281307
0.2979997 0.4803869 0.2061310
0.3917649 0.4865703 0.1956572
0.5116155 0.5098023 0.2163769
0.6442725 0.5465084 0.2367882
0.7699517 0.5765354 0.2700979
0.8668280 0.5663736 0.2570687
0.0888237 0.5574466 0.2811755
0.1515921 0.5538008 0.2498966
0.2178549 0.5527625 0.2187708
0.2898673 0.5525954 0.1872441
0.3676458 0.5483944 0.1591199
0.4682573 0.5581647 0.1536056
0.6059105 0.6042472 0.1726449
0.7610033 0.6653342 0.2057118
0.9007003 0.6915970 0.1841291
0.0595905 0.6387545 0.2896016
0.1289616 0.6300881 0.2487539
0.1998196 0.6228485 0.2089522
0.2732899 0.6176941 0.1714694
0.3527323 0.6167035 0.1385939
0.4498941 0.6298254 0.1177845
0.5791751 0.6707030 0.1187038
0.7344198 0.7300739 0.1212813
0.9054678 0.7905825 0.0748522
0.0321739 0.7186861 0.2952892
0.1057248 0.7041085 0.2466323
0.1794398 0.6910741 0.1994638
0.2556877 0.6840178 0.1567975
0.3403527 0.6888353 0.1208161
0.4408937 0.7087496 0.0918683
0.5650947 0.7449738 0.0658806
0.7191428 0.8027902 0.0424517
0.8937332 0.8809019 0.0293627
0.2197073 0.2079008 0.4234385
0.1841941 0.1802399 0.2849607
0.1619428 0.1517925 0.1915532
0.2045008 0.1409901 0.1767099
0.3182066 0.1363002 0.2076597
0.4903445 0.1554252 0.2630926
0.6706870 0.1981007 0.3252053
0.8280599 0.2577137 0.3834323
0.9682810 0.3290062 0.4407526
0.1782331 0.2083647 0.2834334
0.2183000 0.2268507 0.3134593
0.2181205 0.2026896 0.2749554
0.2245135 0.1533909 0.2115759
0.3333278 0.1520063 0.2136652
0.5170881 0.1999226 0.2669902
0.6878714 0.2511404 0.3231776
0.8239891 0.2905055 0.3641039
0.9559530 0.3318475 0.4015317
0.1810733 0.2689103 0.2954931
0.2035891 0.2489913 0.2920093
0.2264735 0.2382600 0.2852757
0.2587921 0.2085068 0.2524175
0.3567967 0.2046934 0.2399738
0.5264444 0.2543692 0.2685687
0.6833190 0.3037849 0.3088511
0.8117232 0.3292111 0.3397799
0.9447041 0.3534864 0.3754535
0.1574413 0.3120000 0.3019736
0.2166447 0.3388434 0.3256045
0.2643655 0.3452528 0.3221363
0.3119515 0.3221646 0.3020485
0.4010566 0.3239950 0.2955205
0.5215883 0.3361515 0.2757600
0.6633408 0.3640137 0.2698791
0.7956422 0.3893449 0.3162028
0.9262938 0.4005205 0.3720300
0.1693477 0.4039921 0.3286170
0.2226184 0.4161515 0.3357350
0.2767309 0.4194310 0.3251097
0.3241181 0.4061181 0.2978357
0.4057740 0.4103951 0.2901279
0.5298394 0.4408568 0.3086107
0.6512222 0.4495009 0.2571654
0.7916256 0.4926437 0.3399957
0.8967219 0.4920976 0.4095787
0.1722336 0.5109378 0.3662702
0.2221298 0.5028373 0.3466781
0.2800529 0.4980024 0.3258146
0.3491464 0.4980744 0.3074499
0.4374946 0.5096070 0.3054503
0.5524411 0.5425146 0.3356296
0.6405117 0.5526426 0.3624768
0.7448907 0.5781334 0.4056026
0.8641005 0.6022586 0.4623524
0.1637720 0.6021111 0.3850922
0.2206825 0.5900620 0.3537088
0.2817237 0.5806457 0.3248933
0.3526036 0.5780107 0.3050658
0.4391240 0.5884290 0.3065972
0.5347491 0.6091907 0.3307868
0.6278576 0.6313283 0.3670695
0.7298343 0.6601691 0.4135399
0.8566359 0.6994338 0.4855039
0.1589836 0.6888859 0.3933158
0.2198322 0.6740720 0.3573005
0.2829794 0.6615914 0.3253791
0.3513268 0.6550612 0.3034842
0.4283969 0.6586500 0.2974816
0.5172397 0.6750911 0.3087711
0.6228228 0.7069687 0.3352334
0.7454039 0.7477363 0.3697163
0.8803080 0.7841717 0.4136992
0.1566872 0.7744723 0.3976821
0.2190970 0.7559911 0.3596207
0.2817383 0.7395609 0.3255827
0.3464141 0.7290128 0.3005378
0.4177843 0.7288123 0.2864041
0.5051208 0.7444082 0.2846959
0.6187286 0.7794843 0.2965314
0.7592087 0.8324728 0.3266708
0.9150609 0.9028942 0.3917891
0.2247949 0.2094730 0.5100123
0.1886804 0.1765081 0.3451132
0.1733179 0.1554814 0.2513685
0.1943165 0.1371587 0.2197600
0.2720434 0.1211391 0.2412377
0.4153692 0.1347291 0.3014024
0.5914227 0.1816850 0.3779171
0.7694137 0.2465141 0.4558256
0.9443495 0.3164059 0.5329135
0.1727841 0.2003489 0.3747902
0.2082131 0.2178821 0.3692607
0.2151986 0.2006114 0.3273576
0.2143773 0.1492729 0.2651599
0.2952644 0.1399257 0.2653037
0.4532151 0.1835776 0.3200911
0.6299140 0.2485498 0.3918121
0.7895175 0.3094962 0.4578668
0.9391200 0.3664439 0.5199101
0.1661865 0.2423198 0.3553623
0.2173833 0.2615832 0.3789824
0.2306678 0.2380598 0.3535759
0.2450337 0.1953910 0.3101077
0.3333402 0.1950616 0.3070279
0.4937127 0.2527984 0.3483782
0.6616724 0.3225114 0.4050131
0.8040341 0.3749847 0.4586377
0.9350056 0.4231813 0.5139869
0.2009567 0.3543408 0.4174219
0.2370422 0.3433822 0.4079885
0.2520927 0.3152959 0.3774219
0.3451169 0.3476495 0.3989455
0.4116871 0.3293506 0.3801302
0.5354160 0.3583051 0.3899167
0.6842232 0.4096810 0.4194096
0.8137702 0.4497669 0.4595728
0.9341020 0.4884098 0.5201928
0.2257841 0.4894428 0.4658333
0.2437505 0.4386697 0.4348960
0.2731614 0.4235394 0.4120787
0.3657916 0.4491226 0.4127546
0.4529635 0.4555993 0.4101521
0.5572065 0.4615492 0.4130710
0.6896597 0.4970616 0.4317617
0.8267807 0.5453246 0.4640919
0.9268364 0.5589161 0.5354812
0.2314216 0.5666066 0.4809229
0.2597329 0.5344115 0.4503313
0.3021549 0.5143695 0.4226668
0.3746785 0.5169221 0.4091803
0.4653824 0.5318873 0.4112617
0.6074307 0.5870016 0.4688125
0.6610057 0.5717131 0.4520649
0.8068693 0.6298675 0.4745279
0.8911380 0.6415378 0.5506359
0.2444708 0.6516827 0.4954202
0.2842056 0.6276182 0.4619854
0.3357235 0.6098486 0.4352396
0.4034846 0.6046451 0.4236995
0.4920510 0.6215479 0.4401087
0.6170432 0.6805367 0.5110619
0.7000809 0.6981230 0.5397236
0.7426685 0.6704939 0.5145995
0.8667975 0.7141659 0.5569107
0.2612207 0.7381143 0.5025503
0.3061065 0.7144773 0.4683339
0.3561724 0.6947330 0.4405802
0.4173550 0.6857333 0.4289022
0.4943533 0.6954902 0.4431967
0.5859907 0.7234293 0.4822739
0.6806122 0.7549861 0.5269830
0.7666150 0.7707002 0.5559387
0.8727758 0.7825987 0.5795435
0.2786653 0.8219638 0.5042838
0.3269965 0.7985971 0.4707910
0.3747576 0.7766058 0.4425505
0.4240980 0.7601531 0.4261855
0.4805934 0.7543162 0.4257236
0.5531327 0.7651099 0.4432086
0.6541105 0.7993914 0.4848626
0.7807565 0.8488044 0.5516633
0.9074091 0.8937148 0.6398405
0.2468686 0.2201917 0.5597206
0.2147226 0.1888650 0.4348139
0.1934407 0.1591010 0.3407727
0.2030886 0.1365568 0.2951262
0.2604372 0.1238162 0.3044003
0.3780652 0.1386659 0.3589237
0.5369929 0.1830729 0.4361370
0.7123088 0.2415955 0.5212091
0.8916238 0.3037147 0.6077338
0.2099570 0.2277727 0.5182630
0.2231752 0.2269641 0.4563859
0.2265724 0.2062086 0.3964158
0.2311848 0.1660617 0.3454512
0.2931938 0.1559915 0.3443407
0.4238648 0.1940692 0.3946528
0.5861544 0.2573495 0.4671073
0.7493313 0.3235666 0.5429535
0.9082550 0.3877090 0.6181887
0.1849612 0.2467137 0.4680877
0.2390644 0.2769071 0.4704956
0.2625321 0.2661688 0.4441426
0.2701469 0.2222019 0.3978568
0.3388321 0.2182219 0.3955110
0.4761951 0.2686472 0.4394977
0.6361924 0.3395519 0.5019503
0.7835180 0.4057797 0.5641358
0.9222172 0.4676585 0.6262011
0.2262947 0.3535633 0.4920852
0.2613316 0.3533098 0.4898573
0.2812419 0.3343425 0.4721009
0.3603466 0.3586938 0.4859476
0.4301877 0.3532393 0.4772126
0.5364584 0.3742525 0.4909930
0.6764741 0.4299797 0.5350910
0.8083734 0.4870224 0.5805264
0.9324690 0.5422115 0.6286454
0.2686279 0.5138654 0.5617918
0.2629222 0.4436593 0.5115248
0.2576017 0.4088734 0.4847153
0.3944203 0.4756960 0.5300648
0.5299640 0.5164365 0.5577911
0.5917211 0.4956606 0.5353216
0.6907058 0.5147519 0.5516159
0.8122265 0.5613975 0.5830180
0.9376375 0.6142581 0.6252831
0.3122045 0.6268414 0.5982626
0.2967277 0.5618113 0.5494351
0.3233052 0.5389512 0.5269831
0.4087682 0.5561211 0.5336048
0.5448210 0.6092554 0.5789246
0.6299587 0.6150086 0.5819334
0.6834495 0.5928174 0.5578672
0.7937673 0.6259667 0.5749720
0.9289696 0.6868344 0.6298799
0.3404729 0.7071502 0.6112264
0.3438960 0.6632070 0.5741476
0.3711305 0.6329963 0.5443258
0.4434915 0.6360961 0.5415476
0.5439019 0.6657651 0.5715702
0.6654583 0.7231119 0.6398746
0.7546572 0.7456521 0.6693066
0.7712545 0.6914253 0.5979389
0.8916203 0.7398134 0.6417743
0.3657625 0.7835151 0.6164474
0.3878529 0.7504468 0.5823333
0.4171993 0.7210614 0.5521620
0.4648057 0.7062833 0.5394456
0.5364885 0.7160331 0.5579604
0.6297134 0.7500840 0.6075090
0.7315193 0.7943324 0.6690083
0.7905574 0.7931042 0.6727749
0.8803964 0.7969265 0.6694518
0.3907126 0.8585503 0.6188205
0.4244823 0.8308759 0.5827010
0.4560394 0.8031514 0.5523711
0.4859973 0.7776264 0.5343528
0.5234815 0.7626645 0.5350943
0.5816209 0.7692838 0.5608330
0.6683514 0.8005481 0.6131985
0.7830921 0.8478089 0.6811633
0.8978462 0.8884457 0.7321747
0.3106698 0.2787873 0.6964001
0.2691223 0.2293947 0.5680409
0.2350465 0.1819813 0.4602672
0.2336400 0.1513640 0.3994425
0.2801515 0.1445507 0.3959562
0.3757578 0.1627787 0.4375192
0.5078146 0.2010077 0.5049915
0.6614692 0.2482963 0.5870795
0.8219553 0.2968958 0.6730293
0.2896700 0.3004378 0.6920464
0.2741440 0.2713850 0.5771823
0.2643529 0.2364484 0.4948846
0.2747998 0.2064165 0.4481129
0.3276841 0.2018214 0.4469546
0.4301513 0.2313387 0.4879946
0.5641736 0.2818629 0.5516200
0.7100409 0.3386311 0.6240891
0.8579578 0.3960477 0.6988721
0.2479844 0.3165791 0.6348612
0.2833561 0.3213910 0.5800373
0.3097844 0.3119253 0.5386461
0.3306282 0.2856685 0.5062154
0.3865371 0.2823420 0.5075930
0.4904376 0.3147161 0.5438913
0.6209331 0.3683386 0.5986155
0.7563380 0.4281496 0.6586164
0.8900570 0.4878193 0.7189764
0.1870130 0.2893014 0.5104580
0.2931613 0.3799214 0.5657100
0.3595178 0.4052501 0.5772286
0.4142702 0.4145247 0.5915968
0.4753572 0.4124699 0.5931012
0.5592641 0.4216394 0.6037334
0.6726316 0.4606777 0.6404840
0.7931154 0.5135792 0.6846905
0.9126340 0.5681200 0.7275210
0.2706417 0.4642337 0.5629018
0.2874903 0.4358832 0.5424607
0.3776558 0.4993826 0.6155889
0.4947233 0.5656252 0.6848752
0.5745047 0.5676316 0.6850651
0.6319896 0.5490342 0.6660344
0.7143302 0.5592363 0.6751554
0.8136472 0.5927691 0.6988670
0.9238703 0.6388541 0.7255993
0.3762451 0.6560222 0.6766571
0.3323571 0.5680100 0.6267458
0.3475404 0.5679034 0.6495269
0.4528952 0.6008009 0.6527441
0.6269192 0.6880062 0.7356430
0.7097377 0.6954370 0.7432474
0.7439474 0.6609339 0.7079068
0.8157395 0.6637285 0.7023853
0.9308044 0.7118244 0.7299182
0.4304663 0.7414673 0.7035225
0.4077856 0.6927431 0.6828757
0.4040903 0.6517072 0.6511651
0.4545078 0.6440147 0.6303155
0.5923734 0.7116040 0.6878880
0.7426599 0.7938687 0.7815882
0.7487514 0.7397553 0.7288380
0.8014888 0.7257155 0.7044353
0.9327236 0.7875595 0.7502619
0.4664010 0.8151841 0.7267231
0.4608400 0.7758221 0.6919322
0.4684867 0.7398449 0.6557652
0.5012877 0.7208340 0.6356321
0.5613488 0.7258524 0.6459587
0.6486356 0.7584073 0.6905361
0.7334500 0.7889339 0.7286365
0.7909161 0.7884875 0.7268806
0.8998351 0.8216709 0.7546897
0.4933507 0.8878756 0.7513638
0.5100951 0.8564606 0.7059760
0.5243771 0.8254907 0.6690804
0.5361841 0.7936067 0.6435137
0.5545944 0.7682508 0.6321749
0.5999053 0.7684461 0.6471511
0.6815908 0.8008751 0.6941138
0.7787501 0.8395927 0.7402495
0.8843538 0.8793977 0.7642114
0.4154507 0.3746066 0.8562277
0.3573051 0.3008194 0.7259219
0.3069783 0.2348212 0.6105841
0.2933853 0.1951721 0.5365956
0.3255452 0.1859917 0.5120227
0.3967981 0.1992048 0.5322876
0.4981313 0.2267995 0.5854868
0.6177118 0.2611411 0.6564306
0.7422893 0.2960541 0.7317512
0.4117879 0.4172970 0.8347947
0.3494913 0.3431585 0.7135296
0.3294479 0.2958171 0.6246512
0.3408273 0.2692709 0.5744605
0.3850521 0.2668718 0.5672523
0.4606429 0.2854501 0.5951083
0.5602757 0.3175504 0.6444280
0.6739586 0.3560248 0.7044914
0.7928566 0.3964574 0.7683858
0.3275620 0.4143842 0.7744853
0.3388837 0.3864644 0.6954360
0.3593180 0.3621471 0.6358169
0.3955401 0.3538594 0.6169067
0.4503963 0.3609077 0.6289200
0.5273457 0.3809551 0.6596332
0.6232170 0.4124052 0.7020912
0.7303999 0.4514467 0.7509763
0.8413894 0.4932080 0.8019687
0.2616445 0.4570395 0.7609239
0.3139040 0.4103239 0.6415226
0.3868999 0.4280002 0.6363290
0.4552341 0.4565056 0.6717732
0.5210137 0.4734812 0.6992332
0.5961329 0.4882390 0.7234100
0.6857196 0.5132052 0.7556179
0.7837925 0.5469704 0.7922635
0.8823632 0.5820389 0.8273854
0.1475314 0.4028436 0.6088520
0.3139884 0.4378460 0.5843654
0.3787667 0.4867234 0.6526415
0.4973228 0.5649730 0.7334613
0.5874485 0.5938597 0.7634488
0.6660194 0.6070671 0.7839078
0.7468046 0.6219467 0.8055569
0.8295039 0.6415563 0.8259036
0.9118836 0.6626299 0.8424637
0.2226262 0.5324674 0.6198571
0.4134092 0.5862661 0.7014412
0.4320340 0.6174341 0.7698977
0.4790110 0.6186131 0.7442361
0.6145730 0.6760586 0.7801676
0.7341613 0.7327941 0.8405974
0.7989957 0.7319349 0.8500910
0.8545565 0.7242476 0.8426200
0.9365457 0.7454395 0.8564640
0.4740661 0.7161772 0.7359852
0.4480730 0.6877351 0.7436150
0.4615067 0.6710358 0.7336664
0.4907650 0.6593282 0.7079876
0.6012876 0.7035942 0.7377500
0.7227484 0.7760826 0.8261342
0.7928201 0.7883250 0.8388405
0.8507155 0.7842943 0.8359606
0.9583198 0.8338120 0.8758777
0.5395531 0.8212609 0.8277916
0.5158794 0.7839168 0.7919921
0.5113311 0.7519490 0.7556789
0.5343476 0.7354967 0.7303434
0.5817705 0.7361270 0.7239915
0.6466108 0.7500011 0.7374696
0.7265280 0.7787336 0.7674029
0.8206212 0.8173928 0.8095443
0.9439769 0.8874856 0.8733519
0.6033505 0.9164285 0.9037904
0.5934976 0.8840355 0.8542993
0.5870652 0.8530528 0.8120906
0.5875957 0.8234095 0.7778290
0.5972520 0.7961604 0.7480871
0.6326592 0.7871215 0.7355310
0.7074535 0.8134720 0.7588807
0.7958915 0.8509783 0.7948256
0.8719744 0.8690283 0.8113784
0.5484558 0.4797313 1.0000000
0.4616891 0.3844313 0.8851872
0.3958683 0.3056641 0.7769539
0.3677137 0.2553157 0.6890106
0.3800624 0.2350593 0.6382370
0.4275656 0.2392606 0.6359387
0.4981219 0.2562326 0.6731769
0.5770018 0.2760826 0.7275813
0.6574567 0.2952502 0.7862459
0.4861017 0.5021873 0.9411403
0.4332366 0.4250066 0.8492178
0.4056178 0.3671866 0.7656401
0.4145625 0.3405685 0.7114961
0.4492742 0.3373847 0.6944890
0.5002476 0.3453190 0.7079780
0.5646830 0.3581774 0.7411829
0.6402486 0.3748704 0.7853406
0.7214817 0.3940252 0.8339195
0.4199701 0.5355672 0.9101748
0.3967353 0.4582949 0.8098576
0.4070599 0.4148333 0.7408360
0.4546439 0.4176445 0.7279363
0.5143136 0.4384111 0.7501640
0.5735292 0.4545552 0.7809240
0.6361024 0.4651833 0.8116441
0.7078100 0.4777218 0.8451436
0.7860415 0.4935358 0.8816625
0.3737353 0.5937420 0.9044797
0.3677004 0.4841808 0.7654273
0.4015618 0.4433299 0.7013046
0.4737821 0.4754685 0.7304350
0.5595752 0.5269622 0.7933270
0.6385775 0.5611741 0.8449400
0.7097886 0.5770025 0.8791826
0.7796756 0.5863579 0.9051089
0.8495395 0.5937993 0.9282839
0.3425319 0.6106230 0.8460458
0.3722926 0.5086715 0.7142475
0.4244226 0.4877562 0.6783658
0.4710588 0.5159445 0.7177882
0.5597485 0.5771764 0.7918125
0.6751665 0.6436335 0.8727438
0.7760376 0.6855564 0.9319117
0.8491813 0.6971450 0.9586109
0.9075507 0.6938654 0.9687046
0.2667670 0.5275907 0.7050322
0.3956193 0.5451004 0.6815849
0.4495393 0.5558565 0.6933333
0.4711694 0.5664828 0.7112784
0.5225278 0.5861645 0.7352243
0.6614364 0.6753868 0.8377283
0.8121163 0.7685463 0.9482362
0.8984352 0.7945933 0.9881580
0.9584307 0.7966485 1.0000000
0.2606665 0.6351640 0.7740228
0.4569479 0.6422345 0.7510457
0.4786680 0.6505109 0.7608277
0.5052095 0.6545713 0.7631061
0.5529408 0.6545839 0.7523289
0.6222591 0.6773106 0.7727297
0.7862273 0.7895479 0.8966260
0.9110760 0.8616600 0.9793595
1.0000000 0.9048842 1.0000000
0.5706722 0.7949731 0.9228862
0.5574408 0.7836099 0.8939057
0.5599186 0.7722105 0.8789793
0.5799226 0.7675858 0.8601308
0.6191408 0.7702910 0.8381984
0.6640817 0.7591940 0.8097179
0.7425259 0.7869890 0.8316631
0.8914257 0.8945357 0.9401036
1.0000000 0.9818410 1.0000000
0.7319666 0.9485494 1.0000000
0.6819363 0.9157766 1.0000000
0.6504060 0.8853386 0.9734457
0.6445653 0.8630368 0.9287359
0.6533742 0.8419597 0.8788175
0.6780982 0.8212123 0.8300743
0.7358833 0.8289192 0.8204020
0.8528584 0.9001528 0.8899060
1.0000000 1.0000000 1.0000000
