catalog/styles/film/film-polaroid/look.cube
# film-polaroid iteration 20
LUT_3D_SIZE 33
DOMAIN_MIN 0 0 0
DOMAIN_MAX 1 1 1
0.1529248 0.1621432 0.1640573
0.1960060 0.1993107 0.1912031
0.2005702 0.1985094 0.1871316
0.1787860 0.1747606 0.1664260
0.1571326 0.1539318 0.1502108
0.1523383 0.1487096 0.1473996
0.1632394 0.1536188 0.1529943
0.1860433 0.1614221 0.1616509
0.2212255 0.1702327 0.1723466
0.2685791 0.1802004 0.1850863
0.3260063 0.1909187 0.1976902
0.3900205 0.2013961 0.2074029
0.4561456 0.2105429 0.2122216
0.5209473 0.2177923 0.2115805
0.5813820 0.2228878 0.2061366
0.6356940 0.2260498 0.1973919
0.6831221 0.2277650 0.1869297
0.7236678 0.2280965 0.1758542
0.7579912 0.2270832 0.1649511
0.7872542 0.2250142 0.1547797
0.8132209 0.2220691 0.1455326
0.8373470 0.2180417 0.1369080
0.8605408 0.2125244 0.1283264
0.8827509 0.2052883 0.1192206
0.9031799 0.1961960 0.1090807
0.9214225 0.1854772 0.0976607
0.9374964 0.1733950 0.0848704
0.9514273 0.1601148 0.0706773
0.9634474 0.1458184 0.0552454
0.9740143 0.1307180 0.0389200
0.9836494 0.1150697 0.0220900
0.9928157 0.0991318 0.0050586
1.0000000 0.0830963 0.0000000
0.1815544 0.1999640 0.1952489
0.2009864 0.2091633 0.1996242
0.2084606 0.2084395 0.1963904
0.1998640 0.1959143 0.1845253
0.1844433 0.1810643 0.1721409
0.1724461 0.1705834 0.1636412
0.1709917 0.1660707 0.1609015
0.1838817 0.1664908 0.1638103
0.2129570 0.1711754 0.1716074
0.2563346 0.1786870 0.1819987
0.3102601 0.1874165 0.1919705
0.3697571 0.1961085 0.1995129
0.4305854 0.2040626 0.2036991
0.4899430 0.2109545 0.2043335
0.5459752 0.2165792 0.2016126
0.5975279 0.2208812 0.1960589
0.6439367 0.2239747 0.1884602
0.6853594 0.2260371 0.1796742
0.7223263 0.2272351 0.1704117
0.7556170 0.2276806 0.1611669
0.7861621 0.2273495 0.1521375
0.8148000 0.2260560 0.1432546
0.8418945 0.2234324 0.1342251
0.8672597 0.2192228 0.1247326
0.8905569 0.2132860 0.1144383
0.9115848 0.2057003 0.1031167
0.9303552 0.1966891 0.0906728
0.9470607 0.1865006 0.0771194
0.9620465 0.1753916 0.0625950
0.9757721 0.1636184 0.0473463
0.9887096 0.1514301 0.0316609
1.0000000 0.1390377 0.0157796
1.0000000 0.1265816 0.0000000
0.1792775 0.2020255 0.1934033
0.1890522 0.2016323 0.1930236
0.2003684 0.2047396 0.1953653
0.2066685 0.2064389 0.1958333
0.2000334 0.1992790 0.1880036
0.1852733 0.1859714 0.1746414
0.1764664 0.1750605 0.1647208
0.1833231 0.1707339 0.1626419
0.2085018 0.1727899 0.1675566
0.2493688 0.1786098 0.1755216
0.3000285 0.1855573 0.1832329
0.3545874 0.1925800 0.1895763
0.4096147 0.1994623 0.1941785
0.4633814 0.2059255 0.1966470
0.5148999 0.2116990 0.1966315
0.5634353 0.2166237 0.1939775
0.6085781 0.2207408 0.1889904
0.6503576 0.2242430 0.1823011
0.6892946 0.2273844 0.1745666
0.7258826 0.2301802 0.1662378
0.7603741 0.2324426 0.1575661
0.7930532 0.2339134 0.1486591
0.8238765 0.2342540 0.1394689
0.8524585 0.2330872 0.1298245
0.8785935 0.2302411 0.1195217
0.9022454 0.2257372 0.1083919
0.9235892 0.2197985 0.0963698
0.9429778 0.2127325 0.0834907
0.9608574 0.2048626 0.0698806
0.9776957 0.1964776 0.0557183
0.9939086 0.1878123 0.0412014
1.0000000 0.1790300 0.0265122
1.0000000 0.1702185 0.0117682
0.1622558 0.1882703 0.1741662
0.1672281 0.1847258 0.1753697
0.1738185 0.1844689 0.1782893
0.1815050 0.1881190 0.1823525
0.1858370 0.1909541 0.1829707
0.1839751 0.1879304 0.1759229
0.1833923 0.1818989 0.1658200
0.1946434 0.1793656 0.1602287
0.2209797 0.1815995 0.1608195
0.2592282 0.1857076 0.1645741
0.3038232 0.1900361 0.1698758
0.3507454 0.1948259 0.1764606
0.3983018 0.2000972 0.1830641
0.4455527 0.2052963 0.1880699
0.4919083 0.2101297 0.1906260
0.5367770 0.2146476 0.1904920
0.5799580 0.2190830 0.1878343
0.6212865 0.2235216 0.1830563
0.6612012 0.2281678 0.1767308
0.6999575 0.2330004 0.1693414
0.7374893 0.2377236 0.1612322
0.7735431 0.2419594 0.1526513
0.8076045 0.2452273 0.1436832
0.8391201 0.2470309 0.1342320
0.8678778 0.2471550 0.1241690
0.8939215 0.2456157 0.1133850
0.9176352 0.2426863 0.1018744
0.9395489 0.2387509 0.0897085
0.9601968 0.2341828 0.0770147
0.9800401 0.2292749 0.0639333
0.9994316 0.2242280 0.0506051
1.0000000 0.2191514 0.0371487
1.0000000 0.2140796 0.0236501
0.1448374 0.1767030 0.1533519
0.1498222 0.1743192 0.1583772
0.1532540 0.1718349 0.1621960
0.1553621 0.1701992 0.1651967
0.1601023 0.1720388 0.1688440
0.1724820 0.1785438 0.1702654
0.1952705 0.1871888 0.1659094
0.2303138 0.1982623 0.1593003
0.2677322 0.2063726 0.1529158
0.2993703 0.2077858 0.1489685
0.3298136 0.2076165 0.1517571
0.3639566 0.2090511 0.1605999
0.4011073 0.2108435 0.1703779
0.4399864 0.2124043 0.1779313
0.4797040 0.2141419 0.1826728
0.5197951 0.2166897 0.1847375
0.5599794 0.2202943 0.1842216
0.5999408 0.2249153 0.1813082
0.6398485 0.2305178 0.1763881
0.6796090 0.2368988 0.1700016
0.7190094 0.2437701 0.1627203
0.7574293 0.2505869 0.1549044
0.7940021 0.2566301 0.1466246
0.8279137 0.2612613 0.1377767
0.8588398 0.2641675 0.1282410
0.8869570 0.2654433 0.1179906
0.9128198 0.2654558 0.1070931
0.9371015 0.2646612 0.0956764
0.9603737 0.2634477 0.0838855
0.9830635 0.2620753 0.0718438
1.0000000 0.2606909 0.0596519
1.0000000 0.2593488 0.0473872
1.0000000 0.2580375 0.0350960
0.1318983 0.1728802 0.1373317
0.1405878 0.1747523 0.1465603
0.1470012 0.1754320 0.1538496
0.1494642 0.1737760 0.1584277
0.1490843 0.1691314 0.1609420
0.1592858 0.1694059 0.1628530
0.1994562 0.1855702 0.1617664
0.2730550 0.2175796 0.1550867
0.3411667 0.2430030 0.1405031
0.3670741 0.2464186 0.1288118
0.3793825 0.2451948 0.1323108
0.3972583 0.2427881 0.1442844
0.4205496 0.2369031 0.1558076
0.4480129 0.2305333 0.1646992
0.4790401 0.2262298 0.1711984
0.5130120 0.2247306 0.1754288
0.5492145 0.2259304 0.1770955
0.5871074 0.2296956 0.1761768
0.6261285 0.2354890 0.1728998
0.6658428 0.2427646 0.1678106
0.7058763 0.2512143 0.1617513
0.7454489 0.2601226 0.1551669
0.7835101 0.2685824 0.1480523
0.8190235 0.2757708 0.1402227
0.8515765 0.2812774 0.1315225
0.8814642 0.2853055 0.1220217
0.9093423 0.2882979 0.1118753
0.9358929 0.2907099 0.1012627
0.9616550 0.2928853 0.0903414
0.9869843 0.2950208 0.0792296
1.0000000 0.2972079 0.0680134
1.0000000 0.2994629 0.0567498
1.0000000 0.3017548 0.0454641
0.1227848 0.1759343 0.1266137
0.1363832 0.1831585 0.1387426
0.1484969 0.1896507 0.1494988
0.1572309 0.1937228 0.1576864
0.1605416 0.1919304 0.1622298
0.1635298 0.1836053 0.1630147
0.1925837 0.1871118 0.1602266
0.2685759 0.2194193 0.1529590
0.3607974 0.2638530 0.1380810
0.4160874 0.2925211 0.1237257
0.4399103 0.3054759 0.1246261
0.4477386 0.2986633 0.1309920
0.4543508 0.2804802 0.1375271
0.4679938 0.2626597 0.1460455
0.4882498 0.2492204 0.1542663
0.5146830 0.2410142 0.1608080
0.5464343 0.2379305 0.1649802
0.5819156 0.2393865 0.1664690
0.6195405 0.2441922 0.1653648
0.6584059 0.2513750 0.1622340
0.6979645 0.2604712 0.1580391
0.7374579 0.2706723 0.1532106
0.7759096 0.2809584 0.1476891
0.8121747 0.2903402 0.1412311
0.8459019 0.2983922 0.1337020
0.8774529 0.3053379 0.1252392
0.9073581 0.3115155 0.1160403
0.9361521 0.3172494 0.1062976
0.9642537 0.3227825 0.0961727
0.9919490 0.3282512 0.0857905
1.0000000 0.3337209 0.0752542
1.0000000 0.3392118 0.0646341
1.0000000 0.3447172 0.0539797
0.1159109 0.1839834 0.1198738
0.1340897 0.1963828 0.1329687
0.1516048 0.2086571 0.1452845
0.1675159 0.2198815 0.1558596
0.1799872 0.2271396 0.1636094
0.1861971 0.2236510 0.1669645
0.1941304 0.2116575 0.1642144
0.2333240 0.2190601 0.1568523
0.3133430 0.2609426 0.1487777
0.4062653 0.3200951 0.1422914
0.4707980 0.3590349 0.1330907
0.4925137 0.3580112 0.1205656
0.4947107 0.3356796 0.1158590
0.4969124 0.3094679 0.1216593
0.5050386 0.2856149 0.1304477
0.5228394 0.2684988 0.1389306
0.5499175 0.2592142 0.1459596
0.5830091 0.2566492 0.1508531
0.6189044 0.2586743 0.1530293
0.6561486 0.2639296 0.1529391
0.6941812 0.2719166 0.1513648
0.7325448 0.2820915 0.1487362
0.7704179 0.2934577 0.1451593
0.8068958 0.3048410 0.1404373
0.8417494 0.3157087 0.1344954
0.8750710 0.3259458 0.1274301
0.9070803 0.3355622 0.1193924
0.9380591 0.3446602 0.1105479
0.9682776 0.3533655 0.1010612
0.9979681 0.3617910 0.0910962
1.0000000 0.3700363 0.0808119
1.0000000 0.3781835 0.0703494
1.0000000 0.3862946 0.0598123
0.1099650 0.1956069 0.1152642
0.1318888 0.2122682 0.1278783
0.1537392 0.2292591 0.1400360
0.1753526 0.2463783 0.1509783
0.1957934 0.2620586 0.1598928
0.2117427 0.2712315 0.1659250
0.2179645 0.2648773 0.1680468
0.2251760 0.2510356 0.1648513
0.2637090 0.2610839 0.1574068
0.3387470 0.3022492 0.1470854
0.4232736 0.3505857 0.1304273
0.4867362 0.3801246 0.1086148
0.5215403 0.3862854 0.0987066
0.5292081 0.3665525 0.0988786
0.5289065 0.3355855 0.1029674
0.5379140 0.3098714 0.1102019
0.5594119 0.2937504 0.1195709
0.5899900 0.2859415 0.1292355
0.6239283 0.2830901 0.1367488
0.6585387 0.2834412 0.1409853
0.6936956 0.2871373 0.1422856
0.7299430 0.2951526 0.1418317
0.7667233 0.3066662 0.1403364
0.8034039 0.3200674 0.1377213
0.8395057 0.3340781 0.1337777
0.8746456 0.3478554 0.1284131
0.9086737 0.3609423 0.1216586
0.9416139 0.3731926 0.1136304
0.9736012 0.3846432 0.1045126
1.0000000 0.3954379 0.0945471
1.0000000 0.4057737 0.0840077
1.0000000 0.4158491 0.0731477
1.0000000 0.4258278 0.0621678
0.1042769 0.2099571 0.1114368
0.1288930 0.2295937 0.1227484
0.1536697 0.2496530 0.1336927
0.1788296 0.2703447 0.1436853
0.2041655 0.2911812 0.1522143
0.2277782 0.3095508 0.1589200
0.2445146 0.3183978 0.1638922
0.2501210 0.3099765 0.1666017
0.2578294 0.2954317 0.1635245
0.2901163 0.2980407 0.1506984
0.3533239 0.3256851 0.1307841
0.4330988 0.3681205 0.1106010
0.5035419 0.4041816 0.0954780
0.5409709 0.4105687 0.0842048
0.5534501 0.3916757 0.0785886
0.5621529 0.3661560 0.0809471
0.5788359 0.3456868 0.0913816
0.6051893 0.3326918 0.1063636
0.6349604 0.3223889 0.1199635
0.6649228 0.3137654 0.1286556
0.6958280 0.3093067 0.1322890
0.7294177 0.3124822 0.1334278
0.7652055 0.3229017 0.1338288
0.8022188 0.3378455 0.1333741
0.8395507 0.3547669 0.1315537
0.8762985 0.3718052 0.1279350
0.9119959 0.3879465 0.1223725
0.9464646 0.4027676 0.1149119
0.9797568 0.4162651 0.1057842
1.0000000 0.4286800 0.0953591
1.0000000 0.4403533 0.0840658
1.0000000 0.4516200 0.0722988
1.0000000 0.4627401 0.0603597
0.0987667 0.2267137 0.1078420
0.1248288 0.2477711 0.1174383
0.1510551 0.2691246 0.1266927
0.1777369 0.2910666 0.1351823
0.2049768 0.3135066 0.1426218
0.2320831 0.3352062 0.1488917
0.2564801 0.3524052 0.1541121
0.2739634 0.3586149 0.1590039
0.2825113 0.3489936 0.1622931
0.2900071 0.3315442 0.1565082
0.3164065 0.3276886 0.1392921
0.3716592 0.3489313 0.1177068
0.4439318 0.3859363 0.0976717
0.5106468 0.4181977 0.0795641
0.5575298 0.4313401 0.0651690
0.5871278 0.4264982 0.0604465
0.6087754 0.4126279 0.0705424
0.6300981 0.3959409 0.0899217
0.6516506 0.3764502 0.1076655
0.6739228 0.3564671 0.1189536
0.6996390 0.3419987 0.1240567
0.7304781 0.3378878 0.1257583
0.7656124 0.3449516 0.1268294
0.8032518 0.3600543 0.1278677
0.8416086 0.3787827 0.1277355
0.8795128 0.3981009 0.1255178
0.9163215 0.4163373 0.1207770
0.9517638 0.4327845 0.1134601
0.9858760 0.4474514 0.1038875
1.0000000 0.4607185 0.0925947
1.0000000 0.4730675 0.0801698
1.0000000 0.4849333 0.0671362
1.0000000 0.4966328 0.0538846
0.0933476 0.2454415 0.1042409
0.1196466 0.2664310 0.1120485
0.1460120 0.2875371 0.1195415
0.1726947 0.3089220 0.1264609
0.1999599 0.3305793 0.1327106
0.2278526 0.3519350 0.1384104
0.2556085 0.3711584 0.1438147
0.2812586 0.3849707 0.1495950
0.3013197 0.3885590 0.1563007
0.3123837 0.3784410 0.1592014
0.3205788 0.3615040 0.1505821
0.3434445 0.3558280 0.1309859
0.3911095 0.3718740 0.1071067
0.4581761 0.4051183 0.0843382
0.5304410 0.4424078 0.0660132
0.5913282 0.4687263 0.0562646
0.6330140 0.4771313 0.0645283
0.6558412 0.4639973 0.0853282
0.6670815 0.4339162 0.1022950
0.6796769 0.4023835 0.1126925
0.6999599 0.3795403 0.1178488
0.7291406 0.3698012 0.1197770
0.7651902 0.3733412 0.1205777
0.8044436 0.3869881 0.1214287
0.8440472 0.4060008 0.1219257
0.8828133 0.4261740 0.1203752
0.9202330 0.4451643 0.1158145
0.9561903 0.4621239 0.1081274
0.9908123 0.4771248 0.0977403
1.0000000 0.4906454 0.0853258
1.0000000 0.5032358 0.0715921
1.0000000 0.5153560 0.0571509
1.0000000 0.5273201 0.0424577
0.0877794 0.2655482 0.1006186
0.1133173 0.2852793 0.1067318
0.1388571 0.3049822 0.1126136
0.1646108 0.3246856 0.1181548
0.1909300 0.3443550 0.1234360
0.2182343 0.3637595 0.1287659
0.2466737 0.3821908 0.1346524
0.2756390 0.3982093 0.1417824
0.3031121 0.4093889 0.1505302
0.3249086 0.4118554 0.1585257
0.3380974 0.4030891 0.1591977
0.3477869 0.3886223 0.1465969
0.3706412 0.3847328 0.1238591
0.4177141 0.4019806 0.0989833
0.4863720 0.4381865 0.0793489
0.5628311 0.4817459 0.0713134
0.6272434 0.5138733 0.0779258
0.6600618 0.5113790 0.0913771
0.6674382 0.4770399 0.1016443
0.6756507 0.4403898 0.1084389
0.6939626 0.4143643 0.1121861
0.7230672 0.4023689 0.1134971
0.7605287 0.4040354 0.1136055
0.8021372 0.4163638 0.1136016
0.8438081 0.4346089 0.1134192
0.8838065 0.4543629 0.1114884
0.9218744 0.4729449 0.1063967
0.9583069 0.4895377 0.0978924
0.9934459 0.5043045 0.0864701
1.0000000 0.5177505 0.0728697
1.0000000 0.5303978 0.0578436
1.0000000 0.5426555 0.0420480
1.0000000 0.5547881 0.0259793
0.0817206 0.2863983 0.0970513
0.1058094 0.3040371 0.1016269
0.1299077 0.3215995 0.1061174
0.1542089 0.3390156 0.1105397
0.1790896 0.3562342 0.1150879
0.2050892 0.3732156 0.1202059
0.2327403 0.3898341 0.1265097
0.2621189 0.4056573 0.1346019
0.2923065 0.4196244 0.1446069
0.3207685 0.4296098 0.1551840
0.3439921 0.4325575 0.1621612
0.3585945 0.4253261 0.1582528
0.3722903 0.4157963 0.1418848
0.3999297 0.4178921 0.1197089
0.4491275 0.4386916 0.1000893
0.5141914 0.4731356 0.0898686
0.5778699 0.5042420 0.0899517
0.6207205 0.5110835 0.0950292
0.6416852 0.4912737 0.1005198
0.6578314 0.4636934 0.1044993
0.6804635 0.4422275 0.1061177
0.7118177 0.4317669 0.1056775
0.7508632 0.4332223 0.1042392
0.7943595 0.4445754 0.1027264
0.8383091 0.4617545 0.1010681
0.8802495 0.4805354 0.0978958
0.9196300 0.4982433 0.0917284
0.9570084 0.5141438 0.0821585
0.9929964 0.5284782 0.0696517
1.0000000 0.5417499 0.0549362
1.0000000 0.5544157 0.0387485
1.0000000 0.5668054 0.0217560
1.0000000 0.5791134 0.0044783
0.0747400 0.3072895 0.0935346
0.0970530 0.3224360 0.0968073
0.1194157 0.3375086 0.1001408
0.1420147 0.3524094 0.1036452
0.1652326 0.3671209 0.1075945
0.1896093 0.3816988 0.1124722
0.2156959 0.3962421 0.1188012
0.2437922 0.4107325 0.1270078
0.2737025 0.4248574 0.1371325
0.3042355 0.4376273 0.1482858
0.3331554 0.4471762 0.1580802
0.3565998 0.4499949 0.1613571
0.3740705 0.4458821 0.1540799
0.3931269 0.4419764 0.1380578
0.4241571 0.4476753 0.1201885
0.4688695 0.4637752 0.1066003
0.5193019 0.4818897 0.0993658
0.5641364 0.4905822 0.0972986
0.5988354 0.4857345 0.0982108
0.6281995 0.4732038 0.0995531
0.6593219 0.4614406 0.0985134
0.6952995 0.4556966 0.0951691
0.7366089 0.4584897 0.0911951
0.7815868 0.4693063 0.0874781
0.8273329 0.4853475 0.0837606
0.8713944 0.5031251 0.0788080
0.9127569 0.5201256 0.0712878
0.9517316 0.5355233 0.0606516
0.9890554 0.5495409 0.0471834
1.0000000 0.5626844 0.0315157
1.0000000 0.5753817 0.0143495
1.0000000 0.5879089 0.0000000
1.0000000 0.6004004 0.0000000
0.0664846 0.3276580 0.0900489
0.0869999 0.3402627 0.0923060
0.1076003 0.3528276 0.0946974
0.1284726 0.3652777 0.0974078
0.1499746 0.3776224 0.1007535
0.1725820 0.3899712 0.1051684
0.1967843 0.4024956 0.1110586
0.2229268 0.4152902 0.1186713
0.2511296 0.4283085 0.1279584
0.2809001 0.4410650 0.1383091
0.3108917 0.4524166 0.1482140
0.3389147 0.4605161 0.1550041
0.3626672 0.4632842 0.1550983
0.3823437 0.4608676 0.1465477
0.4041243 0.4586759 0.1323875
0.4336676 0.4609177 0.1176862
0.4712071 0.4670160 0.1057466
0.5127766 0.4732098 0.0979543
0.5540155 0.4761303 0.0939567
0.5935188 0.4754284 0.0918131
0.6328865 0.4734865 0.0877981
0.6741132 0.4735504 0.0809171
0.7182197 0.4787536 0.0739002
0.7646545 0.4896176 0.0674041
0.8117261 0.5046680 0.0611245
0.8576040 0.5215211 0.0540314
0.9011312 0.5380817 0.0449863
0.9421870 0.5533604 0.0333353
0.9813395 0.5673819 0.0190881
1.0000000 0.5805872 0.0027019
1.0000000 0.5933983 0.0000000
1.0000000 0.6060870 0.0000000
1.0000000 0.6187656 0.0000000
0.0567546 0.3471335 0.0867026
0.0756260 0.3573901 0.0881408
0.0946087 0.3676526 0.0897299
0.1138795 0.3778845 0.0916868
0.1337461 0.3881107 0.0943223
0.1546071 0.3984614 0.0979928
0.1768816 0.4090997 0.1029880
0.2009135 0.4201222 0.1094448
0.2268715 0.4314775 0.1172417
0.2546059 0.4428932 0.1259702
0.2833506 0.4536596 0.1346608
0.3117401 0.4626015 0.1417191
0.3379794 0.4680900 0.1448932
0.3607634 0.4687816 0.1420373
0.3815793 0.4655995 0.1328936
0.4048681 0.4620303 0.1197817
0.4346667 0.4613295 0.1061735
0.4719242 0.4644405 0.0946151
0.5144074 0.4698938 0.0859443
0.5589845 0.4755292 0.0789815
0.6041071 0.4806526 0.0714931
0.6497191 0.4861630 0.0621297
0.6964436 0.4941248 0.0523986
0.7442495 0.5054714 0.0429561
0.7923483 0.5198084 0.0337776
0.8396033 0.5358264 0.0242213
0.8850485 0.5520359 0.0134093
0.9283030 0.5674432 0.0006424
0.9696136 0.5818000 0.0000000
1.0000000 0.5953521 0.0000000
1.0000000 0.6084634 0.0000000
1.0000000 0.6214142 0.0000000
1.0000000 0.6343394 0.0000000
0.0454685 0.3655533 0.0836685
0.0629486 0.3737795 0.0843429
0.0805649 0.3820622 0.0851724
0.0984688 0.3903899 0.0863440
0.1168968 0.3988037 0.0881190
0.1361755 0.4074170 0.0907763
0.1566496 0.4163149 0.0945084
0.1786183 0.4255511 0.0993606
0.2022837 0.4350586 0.1052404
0.2276338 0.4446233 0.1118588
0.2542189 0.4537330 0.1185761
0.2811134 0.4615163 0.1243221
0.3071177 0.4668275 0.1276648
0.3313412 0.4686741 0.1271068
0.3540737 0.4669999 0.1216266
0.3774962 0.4634869 0.1114342
0.4053844 0.4614348 0.0986453
0.4401530 0.4631445 0.0854526
0.4816451 0.4688551 0.0733112
0.5275798 0.4770306 0.0621888
0.5754793 0.4860537 0.0511580
0.6238866 0.4953916 0.0394514
0.6725344 0.5056830 0.0272694
0.7213862 0.5176565 0.0150415
0.7701780 0.5315000 0.0029353
0.8183430 0.5467395 0.0000000
0.8652362 0.5625168 0.0000000
0.9104362 0.5780258 0.0000000
0.9539206 0.5928413 0.0000000
0.9960079 0.6069525 0.0000000
1.0000000 0.6205769 0.0000000
1.0000000 0.6339628 0.0000000
1.0000000 0.6472790 0.0000000
0.0326524 0.3829060 0.0810855
0.0490693 0.3894898 0.0809600
0.0655987 0.3961326 0.0809552
0.0823924 0.4028701 0.0812385
0.0996373 0.4097487 0.0819990
0.1175958 0.4168395 0.0834318
0.1365263 0.4241649 0.0856371
0.1566789 0.4317048 0.0886299
0.1782895 0.4393961 0.0923664
0.2013777 0.4470146 0.0966325
0.2256702 0.4541337 0.1009710
0.2506574 0.4601805 0.1046845
0.2756993 0.4644767 0.1068473
0.3003870 0.4665093 0.1063969
0.3249519 0.4663194 0.1023951
0.3506195 0.4649083 0.0944127
0.3796765 0.4643171 0.0831354
0.4141341 0.4664702 0.0698524
0.4546848 0.4722820 0.0558984
0.5002170 0.4811589 0.0419559
0.5486463 0.4917657 0.0280419
0.5981326 0.5030745 0.0139224
0.6477429 0.5148313 0.0000000
0.6971699 0.5272990 0.0000000
0.7462997 0.5407814 0.0000000
0.7949287 0.5552926 0.0000000
0.8427318 0.5705002 0.0000000
0.8893904 0.5858930 0.0000000
0.9347526 0.6010311 0.0000000
0.9789161 0.6157103 0.0000000
1.0000000 0.6299610 0.0000000
1.0000000 0.6439390 0.0000000
1.0000000 0.6578120 0.0000000
0.0185588 0.3994200 0.0791349
0.0342065 0.4046824 0.0780934
0.0499365 0.4099916 0.0771349
0.0658897 0.4154028 0.0763827
0.0822303 0.4209640 0.0759704
0.0991509 0.4267053 0.0760055
0.1168662 0.4326172 0.0765446
0.1355969 0.4386414 0.0775961
0.1555177 0.4446537 0.0791040
0.1766934 0.4504492 0.0809176
0.1990330 0.4557241 0.0827375
0.2223700 0.4601603 0.0841195
0.2465130 0.4634709 0.0844498
0.2714313 0.4655404 0.0829716
0.2974273 0.4665871 0.0789424
0.3253042 0.4673187 0.0718373
0.3562578 0.4688404 0.0615963
0.3915096 0.4723497 0.0487353
0.4317030 0.4786411 0.0341255
0.4763873 0.4876603 0.0186031
0.5241705 0.4986018 0.0026655
0.5734695 0.5105386 0.0000000
0.6231342 0.5228879 0.0000000
0.6726086 0.5355464 0.0000000
0.7217276 0.5487032 0.0000000
0.7704457 0.5625531 0.0000000
0.8186697 0.5771013 0.0000000
0.8662361 0.5921304 0.0000000
0.9129864 0.6073119 0.0000000
0.9588836 0.6223711 0.0000000
1.0000000 0.6371888 0.0000000
1.0000000 0.6517971 0.0000000
1.0000000 0.6663063 0.0000000
0.0034090 0.4153318 0.0779065
0.0185694 0.4195153 0.0758006
0.0337906 0.4237365 0.0737459
0.0491893 0.4280439 0.0718198
0.0649099 0.4324735 0.0700969
0.0811061 0.4370322 0.0686333
0.0979571 0.4416881 0.0674482
0.1156436 0.4463594 0.0665336
0.1343164 0.4509103 0.0658335
0.1540871 0.4551740 0.0652465
0.1750283 0.4589774 0.0645849
0.1972194 0.4622045 0.0635649
0.2207781 0.4648446 0.0617804
0.2459184 0.4670370 0.0587127
0.2729777 0.4690884 0.0537862
0.3024534 0.4714739 0.0464768
0.3349643 0.4748058 0.0364779
0.3711225 0.4797249 0.0238644
0.4112534 0.4866962 0.0090814
0.4551103 0.4957789 0.0000000
0.5018329 0.5065647 0.0000000
0.5502574 0.5184079 0.0000000
0.5993378 0.5307425 0.0000000
0.6484187 0.5433006 0.0000000
0.6972402 0.5561219 0.0000000
0.7457771 0.5694038 0.0000000
0.7940585 0.5833052 0.0000000
0.8420524 0.5978212 0.0000000
0.8896598 0.6127811 0.0000000
0.9368012 0.6279476 0.0000000
0.9834934 0.6431300 0.0000000
1.0000000 0.6582483 0.0000000
1.0000000 0.6733180 0.0000000
0.0000000 0.4308245 0.0773834
0.0023342 0.4341177 0.0740778
0.0173185 0.4374367 0.0707948
0.0324402 0.4408143 0.0675730
0.0478225 0.4442702 0.0644410
0.0635998 0.4477969 0.0614154
0.0799190 0.4513514 0.0584887
0.0969376 0.4548537 0.0556363
0.1148172 0.4581957 0.0528184
0.1337220 0.4612721 0.0499651
0.1538421 0.4640222 0.0469541
0.1754126 0.4664751 0.0435985
0.1987238 0.4687760 0.0396387
0.2240994 0.4711764 0.0347178
0.2518679 0.4739893 0.0283989
0.2823417 0.4775433 0.0202211
0.3158105 0.4821646 0.0098209
0.3525042 0.4881494 0.0000000
0.3924943 0.4957002 0.0000000
0.4355620 0.5048388 0.0000000
0.4811439 0.5153485 0.0000000
0.5284260 0.5268273 0.0000000
0.5765802 0.5388471 0.0000000
0.6249837 0.5511278 0.0000000
0.6733143 0.5636183 0.0000000
0.7215123 0.5764516 0.0000000
0.7696299 0.5898133 0.0000000
0.8177082 0.6038098 0.0000000
0.8657187 0.6184050 0.0000000
0.9135968 0.6334448 0.0000000
0.9612981 0.6487393 0.0000000
1.0000000 0.6641362 0.0000000
1.0000000 0.6795554 0.0000000
0.0000000 0.4460548 0.0774969
0.0000000 0.4485910 0.0728768
0.0006393 0.4511408 0.0682591
0.0157337 0.4537195 0.0636491
0.0310385 0.4563313 0.0590385
0.0466702 0.4589604 0.0544158
0.0627620 0.4615669 0.0497545
0.0794676 0.4640917 0.0450289
0.0969712 0.4664736 0.0402096
0.1154864 0.4686790 0.0352459
0.1352745 0.4707356 0.0300499
0.1566525 0.4727597 0.0245010
0.1799743 0.4749595 0.0184253
0.2055840 0.4776033 0.0115721
0.2337707 0.4809645 0.0036186
0.2647360 0.4852733 0.0000000
0.2985916 0.4906979 0.0000000
0.3353676 0.4973458 0.0000000
0.3749883 0.5052618 0.0000000
0.4172259 0.5144109 0.0000000
0.4616702 0.5246482 0.0000000
0.5077493 0.5357250 0.0000000
0.5548437 0.5473538 0.0000000
0.6024271 0.5593099 0.0000000
0.6501657 0.5715134 0.0000000
0.6979458 0.5840322 0.0000000
0.7457929 0.5970177 0.0000000
0.7937545 0.6106036 0.0000000
0.8418447 0.6248298 0.0000000
0.8900271 0.6396214 0.0000000
0.9382439 0.6548214 0.0000000
0.9864627 0.6702516 0.0000000
1.0000000 0.6857647 0.0000000
0.0000000 0.4611383 0.0781577
0.0000000 0.4630075 0.0721358
0.0000000 0.4648797 0.0661008
0.0000000 0.4667558 0.0600299
0.0145678 0.4686293 0.0538939
0.0302964 0.4704816 0.0476608
0.0464305 0.4722856 0.0412979
0.0631335 0.4740138 0.0347779
0.0806090 0.4756556 0.0280724
0.0991021 0.4772406 0.0211378
0.1189127 0.4788584 0.0139181
0.1403813 0.4806681 0.0063290
0.1638620 0.4828849 0.0000000
0.1896749 0.4857484 0.0000000
0.2180564 0.4894762 0.0000000
0.2491380 0.4942272 0.0000000
0.2829494 0.5000854 0.0000000
0.3194334 0.5070688 0.0000000
0.3584539 0.5151453 0.0000000
0.3997836 0.5242409 0.0000000
0.4431029 0.5342378 0.0000000
0.4879965 0.5449708 0.0000000
0.5340086 0.5562547 0.0000000
0.5807211 0.5679327 0.0000000
0.6278219 0.5799296 0.0000000
0.6751533 0.5922707 0.0000000
0.7226829 0.6050548 0.0000000
0.7704290 0.6183939 0.0000000
0.8184009 0.6323473 0.0000000
0.8665824 0.6468843 0.0000000
0.9149230 0.6618843 0.0000000
0.9633644 0.6771736 0.0000000
1.0000000 0.6925783 0.0000000
0.0000000 0.4761492 0.0792782
0.0000000 0.4774117 0.0717838
0.0000000 0.4786697 0.0642694
0.0000000 0.4799153 0.0566945
0.0000000 0.4811358 0.0490087
