catalog/styles/film/film-polaroid/look.cube
# film-polaroid iteration 20
LUT_3D_SIZE 5
DOMAIN_MIN 0 0 0
DOMAIN_MAX 1 1 1
0.1529248 0.1621432 0.1640573
0.2212255 0.1702327 0.1723466
0.6831221 0.2277650 0.1869297
0.9031799 0.1961960 0.1090807
1.0000000 0.0830963 0.0000000
0.1099650 0.1956069 0.1152642
0.2637090 0.2610839 0.1574068
0.5594119 0.2937504 0.1195709
0.8395057 0.3340781 0.1337777
1.0000000 0.4258278 0.0621678
0.0567546 0.3471335 0.0867026
0.2268715 0.4314775 0.1172417
0.4346667 0.4613295 0.1061735
0.7923483 0.5198084 0.0337776
1.0000000 0.6343394 0.0000000
0.0000000 0.4761492 0.0792782
0.0654908 0.4856165 0.0164108
0.2684702 0.5099954 0.0000000
0.6062101 0.5888599 0.0000000
0.9884454 0.7004063 0.0000000
0.0000000 0.5957512 0.0956179
0.0000000 0.5781018 0.0000000
0.1660705 0.5917880 0.0000000
0.4457491 0.6681775 0.0000000
0.8038694 0.7910971 0.0000000
0.2032775 0.1968187 0.2964170
0.1706347 0.1547199 0.1715930
0.4071567 0.1708431 0.1980956
0.7654964 0.2217606 0.2710699
0.9624819 0.3104376 0.3094910
0.1703249 0.2498203 0.2302385
0.2223051 0.2351214 0.2331197
0.3728988 0.2092399 0.1885939
0.6784105 0.2694652 0.2184980
0.9708843 0.2924538 0.2246877
0.1332236 0.3677702 0.2348308
0.2304487 0.3914930 0.2342197
0.4032595 0.4075519 0.2256590
0.6307311 0.4333330 0.2214098
0.8867389 0.4496553 0.2144477
0.0888237 0.5574466 0.2811755
0.2178549 0.5527625 0.2187708
0.3676458 0.5483944 0.1591199
0.6059105 0.6042472 0.1726449
0.9007003 0.6915970 0.1841291
0.0321739 0.7186861 0.2952892
0.1794398 0.6910741 0.1994638
0.3403527 0.6888353 0.1208161
0.5650947 0.7449738 0.0658806
0.8937332 0.8809019 0.0293627
0.2247949 0.2094730 0.5100123
0.1733179 0.1554814 0.2513685
0.2720434 0.1211391 0.2412377
0.5914227 0.1816850 0.3779171
0.9443495 0.3164059 0.5329135
0.1661865 0.2423198 0.3553623
0.2306678 0.2380598 0.3535759
0.3333402 0.1950616 0.3070279
0.6616724 0.3225114 0.4050131
0.9350056 0.4231813 0.5139869
0.2257841 0.4894428 0.4658333
0.2731614 0.4235394 0.4120787
0.4529635 0.4555993 0.4101521
0.6896597 0.4970616 0.4317617
0.9268364 0.5589161 0.5354812
0.2444708 0.6516827 0.4954202
0.3357235 0.6098486 0.4352396
0.4920510 0.6215479 0.4401087
0.7000809 0.6981230 0.5397236
0.8667975 0.7141659 0.5569107
0.2786653 0.8219638 0.5042838
0.3747576 0.7766058 0.4425505
0.4805934 0.7543162 0.4257236
0.6541105 0.7993914 0.4848626
0.9074091 0.8937148 0.6398405
0.3106698 0.2787873 0.6964001
0.2350465 0.1819813 0.4602672
0.2801515 0.1445507 0.3959562
0.5078146 0.2010077 0.5049915
0.8219553 0.2968958 0.6730293
0.2479844 0.3165791 0.6348612
0.3097844 0.3119253 0.5386461
0.3865371 0.2823420 0.5075930
0.6209331 0.3683386 0.5986155
0.8900570 0.4878193 0.7189764
0.2706417 0.4642337 0.5629018
0.3776558 0.4993826 0.6155889
0.5745047 0.5676316 0.6850651
0.7143302 0.5592363 0.6751554
0.9238703 0.6388541 0.7255993
0.4304663 0.7414673 0.7035225
0.4040903 0.6517072 0.6511651
0.5923734 0.7116040 0.6878880
0.7487514 0.7397553 0.7288380
0.9327236 0.7875595 0.7502619
0.4933507 0.8878756 0.7513638
0.5243771 0.8254907 0.6690804
0.5545944 0.7682508 0.6321749
0.6815908 0.8008751 0.6941138
0.8843538 0.8793977 0.7642114
0.5484558 0.4797313 1.0000000
0.3958683 0.3056641 0.7769539
0.3800624 0.2350593 0.6382370
0.4981219 0.2562326 0.6731769
0.6574567 0.2952502 0.7862459
0.4199701 0.5355672 0.9101748
0.4070599 0.4148333 0.7408360
0.5143136 0.4384111 0.7501640
0.6361024 0.4651833 0.8116441
0.7860415 0.4935358 0.8816625
0.3425319 0.6106230 0.8460458
0.4244226 0.4877562 0.6783658
0.5597485 0.5771764 0.7918125
0.7760376 0.6855564 0.9319117
0.9075507 0.6938654 0.9687046
0.2606665 0.6351640 0.7740228
0.4786680 0.6505109 0.7608277
0.5529408 0.6545839 0.7523289
0.7862273 0.7895479 0.8966260
1.0000000 0.9048842 1.0000000
0.7319666 0.9485494 1.0000000
0.6504060 0.8853386 0.9734457
0.6533742 0.8419597 0.8788175
0.7358833 0.8289192 0.8204020
1.0000000 1.0000000 1.0000000
