presets/series/movie/series-movie-roseglass/look.cube
# Approximate v0 colour conversion; calibrate before claiming visual parity.
LUT_3D_SIZE 5
DOMAIN_MIN 0 0 0
DOMAIN_MAX 1 1 1
0.0391786 0.0412802 0.0511591
0.1966229 0.0709637 0.0827056
0.5043568 0.1095427 0.1235888
0.6271528 0.1388208 0.1495805
0.6586692 0.1492711 0.1576238
0.0045546 0.2153086 0.0247497
0.1851348 0.2139981 0.0816273
0.5643607 0.2651792 0.1245842
0.6855204 0.2947065 0.1345907
0.7083628 0.3057221 0.1447985
0.0010474 0.4389029 0.0460293
0.1554374 0.4389046 0.0338700
0.5650913 0.4854962 0.1189018
0.6812292 0.5055158 0.1359302
0.7080950 0.5150451 0.1445747
0.0165927 0.6298255 0.0661745
0.1428693 0.6255394 0.0269529
0.4866221 0.6281169 0.0896105
0.6372151 0.6385929 0.1113474
0.7141862 0.6883590 0.1195866
0.0189720 0.6658213 0.0693451
0.1398667 0.6612691 0.0243163
0.4778419 0.6633608 0.0785585
0.6337776 0.6730440 0.1075005
0.6833029 0.6866429 0.1149377
0.0301654 0.0304388 0.2502947
0.1925010 0.0153375 0.2297136
0.4614759 0.0464395 0.2204674
0.5961383 0.0736639 0.2368445
0.6334971 0.0825503 0.2427133
0.0377572 0.2355658 0.2693642
0.2001914 0.2379512 0.2578924
0.5006834 0.2606940 0.2513585
0.6333562 0.2888307 0.2746535
0.6628037 0.2984960 0.2833189
0.0013359 0.4597370 0.2648990
0.1721601 0.4445610 0.2381757
0.5349461 0.4507432 0.2502766
0.6444197 0.4803288 0.2744259
0.6742978 0.4920804 0.2812097
0.0189503 0.6471825 0.2776939
0.1487453 0.6323201 0.2247862
0.4845649 0.6081347 0.2316753
0.6229542 0.6165408 0.2541842
0.6918323 0.6600514 0.2700829
0.0218681 0.6826638 0.2804526
0.1423796 0.6681905 0.2208946
0.4748790 0.6453812 0.2308404
0.6238691 0.6538763 0.2545361
0.6752928 0.6715369 0.2644426
0.0253211 0.0225086 0.3475256
0.1916213 0.0047294 0.3212321
0.4476525 0.0083507 0.2888625
0.5831911 0.0339122 0.2966297
0.6222240 0.0428274 0.3008857
0.0339879 0.2420510 0.3756558
0.1364653 0.2241141 0.3651031
0.4564483 0.2290166 0.2970338
0.6112877 0.2566114 0.3200126
0.6464185 0.2646675 0.3268134
0.0258751 0.4733744 0.3843278
0.2006003 0.4684141 0.3628000
0.5136175 0.4359939 0.3172304
0.6354249 0.4743275 0.3402793
0.6655820 0.4851403 0.3469483
0.0218364 0.6606064 0.3843526
0.1667549 0.6459649 0.3482122
0.4814070 0.6057864 0.3018356
0.6130795 0.6052234 0.3214217
0.6664559 0.6351856 0.3386142
0.0251864 0.6957122 0.3864715
0.1586536 0.6806977 0.3445949
0.4704142 0.6427675 0.3037526
0.6136429 0.6432775 0.3234120
0.6606133 0.6571568 0.3362929
0.0264591 0.0078734 0.5860399
0.2032971 0.0000000 0.5541979
0.4702860 0.0000000 0.5176762
0.5726930 0.0000000 0.4945722
0.6114534 0.0001339 0.4948706
0.0792650 0.2229542 0.6267275
0.1850399 0.1836238 0.5644756
0.4598068 0.1668925 0.5062340
0.5741023 0.1660045 0.4916830
0.6132423 0.1682671 0.4922622
0.0781036 0.4937947 0.6756948
0.2206648 0.5030094 0.6473287
0.4734678 0.4133835 0.5023181
0.5805498 0.4044955 0.4821435
0.6216912 0.4187254 0.4901099
0.0953830 0.6865731 0.6587621
0.2537557 0.6833095 0.6574384
0.5159832 0.6359682 0.6174221
0.6095742 0.5941185 0.5414006
0.6463896 0.6120112 0.5582873
0.0920962 0.7233024 0.6581621
0.2559675 0.7163406 0.6538972
0.5006611 0.6609169 0.6106451
0.6195602 0.6407867 0.5677623
0.6563456 0.6473407 0.5811901
0.0282609 0.0070522 0.6044372
0.2053808 0.0000000 0.5724036
0.4725791 0.0000000 0.5351179
0.5730598 0.0000000 0.5104126
0.6116207 0.0001531 0.5106265
0.0909335 0.2221397 0.6448566
0.1896833 0.1837574 0.5827389
0.4616781 0.1648480 0.5251222
0.5740411 0.1631982 0.5081030
0.6128458 0.1638727 0.5082257
0.0842244 0.4955176 0.6970727
0.2250464 0.5024866 0.6673330
0.4826654 0.4197593 0.5218187
0.5799198 0.4016050 0.4990692
0.6199797 0.4122470 0.5052527
0.1039990 0.6873530 0.6776069
0.2560979 0.6853005 0.6776990
0.4897265 0.6139866 0.6130740
0.6070338 0.5900699 0.5531325
0.6391144 0.6032560 0.5641248
0.1018277 0.7244502 0.6774942
0.2607068 0.7185063 0.6741194
0.4755489 0.6410809 0.6098756
0.6139853 0.6353368 0.5774707
0.6534534 0.6427339 0.5935458
