presets/series/movie/series-movie-roseglass/look.cube
# Approximate v0 colour conversion; calibrate before claiming visual parity.
LUT_3D_SIZE 33
DOMAIN_MIN 0 0 0
DOMAIN_MAX 1 1 1
0.0391786 0.0412802 0.0511591
0.0569084 0.0446155 0.0550045
0.0777535 0.0485047 0.0575355
0.0989130 0.0526469 0.0594652
0.1191742 0.0568978 0.0629591
0.1376896 0.0601717 0.0686195
0.1557568 0.0633418 0.0743643
0.1742423 0.0666427 0.0796602
0.1966229 0.0709637 0.0827056
0.2345805 0.0785205 0.0874118
0.2749263 0.0842552 0.0919554
0.3158295 0.0891930 0.0958254
0.3563742 0.0930808 0.1009643
0.3973032 0.0966851 0.1061888
0.4339044 0.1004985 0.1117672
0.4699542 0.1045100 0.1173386
0.5043568 0.1095427 0.1235888
0.5242197 0.1126512 0.1271340
0.5401971 0.1160303 0.1303500
0.5559026 0.1195501 0.1335408
0.5715376 0.1231465 0.1366952
0.5865673 0.1268872 0.1398590
0.6001939 0.1308397 0.1431068
0.6137195 0.1348183 0.1463460
0.6271528 0.1388208 0.1495805
0.6328774 0.1405957 0.1509891
0.6365790 0.1418356 0.1519405
0.6402749 0.1430754 0.1528905
0.6439652 0.1443151 0.1538394
0.6476498 0.1455545 0.1547871
0.6513287 0.1467937 0.1557337
0.6550018 0.1480325 0.1566792
0.6586692 0.1492711 0.1576238
0.0360803 0.0590154 0.0476698
0.0567902 0.0620884 0.0542221
0.0788272 0.0670876 0.0583998
0.0996279 0.0713297 0.0622470
0.1192840 0.0751656 0.0669978
0.1372633 0.0785126 0.0726297
0.1547116 0.0818005 0.0782624
0.1732449 0.0854152 0.0832233
0.1965109 0.0902481 0.0862248
0.2361139 0.0987316 0.0907515
0.2777130 0.1043531 0.0950498
0.3196987 0.1090620 0.0985389
0.3616505 0.1125094 0.1039213
0.4053049 0.1153332 0.1096550
0.4428926 0.1181753 0.1154022
0.4789792 0.1214612 0.1209303
0.5129493 0.1270716 0.1271002
0.5324937 0.1305451 0.1305739
0.5479752 0.1342650 0.1337057
0.5633455 0.1380728 0.1368069
0.5786596 0.1419535 0.1398784
0.5931468 0.1459557 0.1429872
0.6062647 0.1500774 0.1461915
0.6193015 0.1542181 0.1493956
0.6322661 0.1583754 0.1526036
0.6377571 0.1602209 0.1539948
0.6413613 0.1614884 0.1549277
0.6449595 0.1627553 0.1558599
0.6485517 0.1640217 0.1567912
0.6521378 0.1652874 0.1577218
0.6557179 0.1665524 0.1586518
0.6592918 0.1678167 0.1595812
0.6628596 0.1690802 0.1605101
0.0306753 0.0813955 0.0406825
0.0528503 0.0822320 0.0507724
0.0751552 0.0832732 0.0574287
0.0996666 0.0903327 0.0643570
0.1189256 0.0936205 0.0703386
0.1364912 0.0968638 0.0759399
0.1534164 0.1001268 0.0814248
0.1722122 0.1039734 0.0860775
0.1964048 0.1092280 0.0890353
0.2377572 0.1186185 0.0934070
0.2813194 0.1242147 0.0975984
0.3259251 0.1283466 0.1008930
0.3708367 0.1307552 0.1068783
0.4163806 0.1326890 0.1131904
0.4528362 0.1348627 0.1186840
0.4877967 0.1380255 0.1239488
0.5213075 0.1442306 0.1300508
0.5404162 0.1481063 0.1334644
0.5555186 0.1521313 0.1365202
0.5705719 0.1562268 0.1395485
0.5855828 0.1603916 0.1425533
0.5998264 0.1647549 0.1454288
0.6130543 0.1692850 0.1482317
0.6260389 0.1737918 0.1511584
0.6387625 0.1782757 0.1542239
0.6441543 0.1802407 0.1555116
0.6477556 0.1815679 0.1563532
0.6513454 0.1828905 0.1571950
0.6549236 0.1842085 0.1580371
0.6584900 0.1855219 0.1588796
0.6620444 0.1868307 0.1597227
0.6655866 0.1881350 0.1605664
0.6691164 0.1894349 0.1614110
0.0239302 0.1034633 0.0343664
0.0469784 0.1046578 0.0440438
0.0727770 0.1049870 0.0553956
0.0937124 0.1048045 0.0633786
0.1181255 0.1125389 0.0727640
0.1354514 0.1154509 0.0781727
0.1519065 0.1181987 0.0828883
0.1710415 0.1218134 0.0867486
0.1964562 0.1277834 0.0898966
0.2402449 0.1395293 0.0958162
0.2861192 0.1441922 0.0998617
0.3328564 0.1472680 0.1028993
0.3800607 0.1486129 0.1094427
0.4272402 0.1496751 0.1162887
0.4625413 0.1511904 0.1215065
0.4964445 0.1543252 0.1265333
0.5298593 0.1614111 0.1319037
0.5493652 0.1659559 0.1346985
0.5649151 0.1705520 0.1372037
0.5805429 0.1752254 0.1397139
0.5962447 0.1799626 0.1422284
0.6102404 0.1846444 0.1450014
0.6225109 0.1892259 0.1481062
0.6344948 0.1937827 0.1513690
0.6461744 0.1983151 0.1548050
0.6513048 0.2002717 0.1560792
0.6547649 0.2015855 0.1569109
0.6582118 0.2028946 0.1577437
0.6616455 0.2041992 0.1585776
0.6650656 0.2054993 0.1594128
0.6684721 0.2067950 0.1602494
0.6718646 0.2080862 0.1610875
0.6752431 0.2093730 0.1619274
0.0168930 0.1253963 0.0285083
0.0406461 0.1260168 0.0381072
0.0675060 0.1265797 0.0502476
0.0918340 0.1264193 0.0620321
0.1120434 0.1259018 0.0704446
0.1346939 0.1338181 0.0766548
0.1503030 0.1356136 0.0813926
0.1696979 0.1392353 0.0855417
0.1964591 0.1464755 0.0899458
0.2426765 0.1607012 0.0980284
0.2909414 0.1641148 0.1018028
0.3398098 0.1660520 0.1046281
0.3893456 0.1662805 0.1117376
0.4364516 0.1673933 0.1183031
0.4699583 0.1688352 0.1217986
0.5047740 0.1717627 0.1256290
0.5398883 0.1795093 0.1308397
0.5601592 0.1844193 0.1337587
0.5757796 0.1893632 0.1362817
0.5914718 0.1943557 0.1388058
0.6072318 0.1993830 0.1413303
0.6204231 0.2041864 0.1443164
0.6317236 0.2088180 0.1477357
0.6426950 0.2134239 0.1513469
0.6533358 0.2180027 0.1551459
0.6582797 0.2199395 0.1563636
0.6615973 0.2212406 0.1571874
0.6649001 0.2225372 0.1580131
0.6681880 0.2238294 0.1588408
0.6714607 0.2251172 0.1596707
0.6747180 0.2264006 0.1605028
0.6779598 0.2276797 0.1613374
0.6811858 0.2289545 0.1621745
0.0118324 0.1476551 0.0251092
0.0337728 0.1475412 0.0319308
0.0600362 0.1478780 0.0437686
0.0874037 0.1478188 0.0570249
0.1107481 0.1474828 0.0682785
0.1276016 0.1462442 0.0739681
0.1486692 0.1535675 0.0789278
0.1682107 0.1570723 0.0837993
0.1962940 0.1655102 0.0896390
0.2449806 0.1821660 0.1000305
0.2950214 0.1839656 0.1031666
0.3442286 0.1860512 0.1054458
0.3926310 0.1875943 0.1113835
0.4387479 0.1893545 0.1164872
0.4755312 0.1876191 0.1198491
0.5130980 0.1892860 0.1240394
0.5499914 0.1974658 0.1295753
0.5709091 0.2027391 0.1325969
0.5865924 0.2080101 0.1351350
0.6023415 0.2133016 0.1376705
0.6181525 0.2185994 0.1402026
0.6303922 0.2234827 0.1434448
0.6406642 0.2281655 0.1471055
0.6505880 0.2328316 0.1501312
0.6609592 0.2373915 0.1529064
0.6658959 0.2393192 0.1536977
0.6692222 0.2406183 0.1542484
0.6725445 0.2419164 0.1548134
0.6758626 0.2432137 0.1553932
0.6791765 0.2445106 0.1559884
0.6824858 0.2458072 0.1565995
0.6857904 0.2471038 0.1572271
0.6890901 0.2484006 0.1578718
0.0092977 0.1700308 0.0251679
0.0273221 0.1696348 0.0259952
0.0515826 0.1695278 0.0366733
0.0809133 0.1693676 0.0503388
0.1071754 0.1691763 0.0633692
0.1258071 0.1674293 0.0714082
0.1408651 0.1652287 0.0762594
0.1688618 0.1767741 0.0813320
0.1970537 0.1852134 0.0881888
0.2425265 0.1995492 0.0983302
0.2942198 0.2029936 0.1020731
0.3457816 0.2076062 0.1052913
0.3945283 0.2098891 0.1102870
0.4411395 0.2111703 0.1144724
0.4812594 0.2062021 0.1177356
0.5214685 0.2067738 0.1223134
0.5601713 0.2153602 0.1281671
0.5804779 0.2216073 0.1311537
0.5948640 0.2276571 0.1333942
0.6096822 0.2332249 0.1354521
0.6249385 0.2383300 0.1373102
0.6365025 0.2430390 0.1397295
0.6471543 0.2476245 0.1422250
0.6581682 0.2521145 0.1445391
0.6695022 0.2565291 0.1466533
0.6744103 0.2584708 0.1475724
0.6777155 0.2597814 0.1482143
0.6810153 0.2610927 0.1488746
0.6843096 0.2624049 0.1495536
0.6875981 0.2637184 0.1502521
0.6908806 0.2650332 0.1509706
0.6941571 0.2663497 0.1517095
0.6973966 0.2676704 0.1525140
0.0069176 0.1925317 0.0249853
0.0248002 0.1920598 0.0257552
0.0443057 0.1918545 0.0288585
0.0736055 0.1916747 0.0417681
0.1017188 0.1915047 0.0550745
0.1244434 0.1904848 0.0656361
0.1424650 0.1887614 0.0730140
0.1580652 0.1868640 0.0779974
0.1974640 0.2045242 0.0851597
0.2388400 0.2159867 0.0952310
0.2934948 0.2226696 0.1009502
0.3472702 0.2295469 0.1049972
0.3963293 0.2324850 0.1090329
0.4436425 0.2329657 0.1123312
0.4868147 0.2272891 0.1162926
0.5266918 0.2310976 0.1214317
0.5626607 0.2399651 0.1264832
0.5820239 0.2447013 0.1287315
0.5974797 0.2496282 0.1305318
0.6133812 0.2541113 0.1321130
0.6297350 0.2581693 0.1334575
0.6420234 0.2625372 0.1353328
0.6537657 0.2669326 0.1371539
0.6658648 0.2712391 0.1387426
0.6779921 0.2755301 0.1403394
0.6828694 0.2774845 0.1413914
0.6861521 0.2788059 0.1421281
0.6894280 0.2801297 0.1428871
0.6926969 0.2814563 0.1436689
0.6959587 0.2827857 0.1444742
0.6992130 0.2841184 0.1453035
0.7024363 0.2854574 0.1461898
0.7054636 0.2868227 0.1473548
0.0045546 0.2153086 0.0247497
0.0224122 0.2147874 0.0254389
0.0406007 0.2145339 0.0261410
0.0657107 0.2144250 0.0330515
0.0951113 0.2142979 0.0459419
0.1213551 0.2139770 0.0579320
0.1433890 0.2132141 0.0677044
0.1625833 0.2122730 0.0753503
0.1851348 0.2139981 0.0816273
0.2351526 0.2331211 0.0914130
0.2929760 0.2434189 0.0998205
0.3481514 0.2523590 0.1045371
0.3990118 0.2573598 0.1091671
0.4492556 0.2607024 0.1141250
0.4912248 0.2577342 0.1173919
0.5294538 0.2607153 0.1210789
0.5643607 0.2651792 0.1245842
0.5836602 0.2679063 0.1261453
0.6002046 0.2716841 0.1274979
0.6172068 0.2750602 0.1285938
0.6346743 0.2780520 0.1294157
0.6477151 0.2821728 0.1307185
0.6605592 0.2863656 0.1318475
0.6737537 0.2904771 0.1326921
0.6855204 0.2947065 0.1345907
0.6895795 0.2966727 0.1362771
0.6923181 0.2979869 0.1374182
0.6950567 0.2992912 0.1385609
0.6977951 0.3005858 0.1397043
0.7005333 0.3018707 0.1408474
0.7032712 0.3031462 0.1419894
0.7058355 0.3044374 0.1433714
0.7083628 0.3057221 0.1447985
0.0016544 0.2432867 0.0244821
0.0195931 0.2427224 0.0250842
0.0378064 0.2424071 0.0256957
0.0580186 0.2423216 0.0264982
0.0861685 0.2423304 0.0352244
0.1147982 0.2423190 0.0474621
0.1411432 0.2425824 0.0590994
0.1647938 0.2428012 0.0693234
0.1872144 0.2434199 0.0774621
0.2209026 0.2446315 0.0868145
0.2944995 0.2725568 0.0970752
0.3469743 0.2814623 0.1034970
0.4031286 0.2899349 0.1106357
0.4562852 0.2960607 0.1167137
0.4963102 0.2955344 0.1185137
0.5326219 0.2969749 0.1203966
0.5662241 0.2959275 0.1220109
0.5858922 0.2966564 0.1232582
0.6034483 0.2997088 0.1250691
0.6205016 0.3023652 0.1266079
0.6369828 0.3045556 0.1278581
0.6489212 0.3085185 0.1297491
0.6606850 0.3121497 0.1314931
0.6723885 0.3153689 0.1330530
0.6832230 0.3186873 0.1352459
0.6873771 0.3204171 0.1367328
0.6901787 0.3215738 0.1377304
0.6929793 0.3227222 0.1387225
0.6957789 0.3238624 0.1397080
0.6985773 0.3249947 0.1406860
0.7013124 0.3261287 0.1417544
0.7039452 0.3272690 0.1429805
0.7065889 0.3283976 0.1441879
0.0000000 0.2713659 0.0257905
0.0169533 0.2708021 0.0247509
0.0354492 0.2704678 0.0253031
0.0548677 0.2703532 0.0259354
0.0782277 0.2705337 0.0269841
0.1071235 0.2707432 0.0373437
0.1356813 0.2713530 0.0493816
0.1619158 0.2720827 0.0605545
0.1868132 0.2734398 0.0703880
0.2253055 0.2771608 0.0832339
0.2739033 0.2844748 0.0925422
0.3459412 0.3109187 0.1019803
0.4070150 0.3228438 0.1117736
0.4616133 0.3302187 0.1185578
0.5005321 0.3298858 0.1200446
0.5376436 0.3300705 0.1227452
0.5714224 0.3289704 0.1251631
0.5901344 0.3299881 0.1266454
0.6058063 0.3316285 0.1279938
0.6208178 0.3327270 0.1290265
0.6350091 0.3333326 0.1297759
0.6467812 0.3360676 0.1313349
0.6584894 0.3383744 0.1326894
0.6701352 0.3402318 0.1338260
0.6808875 0.3426379 0.1357318
0.6851388 0.3441249 0.1370116
0.6880048 0.3451198 0.1378604
0.6908688 0.3461083 0.1386963
0.6937309 0.3470904 0.1395183
0.6965908 0.3480661 0.1403256
0.6993690 0.3490488 0.1412727
0.7021191 0.3500284 0.1422786
0.7048845 0.3509976 0.1432637
0.0000000 0.2994450 0.0291049
0.0142255 0.2988785 0.0244381
0.0330471 0.2985352 0.0249338
0.0521125 0.2983787 0.0254358
0.0750371 0.2986107 0.0263661
0.0984463 0.2989869 0.0273485
0.1284196 0.2997300 0.0393685
0.1569020 0.3009406 0.0510419
0.1837072 0.3025648 0.0617895
0.2273287 0.3087325 0.0776072
0.2722556 0.3137874 0.0894653
0.3291976 0.3272621 0.0986168
0.4027637 0.3469891 0.1094782
0.4579833 0.3535829 0.1171599
0.5036828 0.3582262 0.1223914
0.5434890 0.3616032 0.1266227
0.5766835 0.3625307 0.1286610
0.5939721 0.3633330 0.1297908
0.6077610 0.3635510 0.1306935
0.6207254 0.3630744 0.1312327
0.6328084 0.3621776 0.1315358
0.6445347 0.3636023 0.1327447
0.6567769 0.3648160 0.1337265
0.6688311 0.3659969 0.1347312
0.6798546 0.3684401 0.1367390
0.6842740 0.3699900 0.1379594
0.6872329 0.3710339 0.1387699
0.6901731 0.3720758 0.1395699
0.6930944 0.3731153 0.1403593
0.6959964 0.3741519 0.1411378
0.6987980 0.3751886 0.1420567
0.7015626 0.3762165 0.1430140
0.7043193 0.3772328 0.1439572
0.0000000 0.3274939 0.0324986
0.0114756 0.3268998 0.0243038
0.0307947 0.3265376 0.0248001
0.0503297 0.3263530 0.0253017
0.0724354 0.3265355 0.0261708
0.0955171 0.3269145 0.0271573
0.1200322 0.3274604 0.0299963
0.1499003 0.3287647 0.0422154
0.1777879 0.3301362 0.0537215
0.2226651 0.3355934 0.0711467
0.2672887 0.3408914 0.0852415
0.3131180 0.3441562 0.0953888
0.3893141 0.3653496 0.1056619
0.4538658 0.3773050 0.1151466
0.5063786 0.3868116 0.1242594
0.5483120 0.3927218 0.1296919
0.5803459 0.3934902 0.1307140
0.5967668 0.3931996 0.1313702
0.6097629 0.3921738 0.1317019
0.6224137 0.3909617 0.1317105
0.6347058 0.3900473 0.1316989
0.6467175 0.3914967 0.1331952
0.6585075 0.3929218 0.1347257
0.6700543 0.3943262 0.1363097
0.6805424 0.3968002 0.1385326
0.6847963 0.3981874 0.1396440
0.6876406 0.3991186 0.1403792
0.6904638 0.4000453 0.1411024
0.6932657 0.4009671 0.1418135
0.6960460 0.4018837 0.1425123
0.6987305 0.4027850 0.1433085
0.7013582 0.4036666 0.1441531
0.7039741 0.4045318 0.1449805
0.0000000 0.3555479 0.0358621
0.0085607 0.3549155 0.0241803
0.0284154 0.3545381 0.0246870
0.0484648 0.3543297 0.0251984
0.0700771 0.3544504 0.0260123
0.0928885 0.3548286 0.0270432
0.1159713 0.3553210 0.0280859
0.1418694 0.3564173 0.0331395
0.1710382 0.3578571 0.0452861
0.2166868 0.3622144 0.0638631
0.2607473 0.3674430 0.0796711
0.3063290 0.3710324 0.0920008
0.3589131 0.3742125 0.1013924
0.4457133 0.3994607 0.1117059
0.5004261 0.4090323 0.1210231
0.5441354 0.4146805 0.1265999
0.5809017 0.4183067 0.1299315
0.5984792 0.4190443 0.1311245
0.6118120 0.4186732 0.1314639
0.6247208 0.4181335 0.1314151
0.6370923 0.4179431 0.1315133
0.6487214 0.4195910 0.1335450
0.6600693 0.4212260 0.1356394
0.6711158 0.4228519 0.1378170
0.6811064 0.4252676 0.1401583
0.6851968 0.4264875 0.1411636
0.6879277 0.4273026 0.1418253
0.6906351 0.4281108 0.1424733
0.6933186 0.4289116 0.1431076
0.6960007 0.4296917 0.1436930
0.6986546 0.4304560 0.1442955
0.7012303 0.4312047 0.1450017
0.7038144 0.4319571 0.1457127
0.0000000 0.3834886 0.0392751
0.0054855 0.3828111 0.0241359
0.0259712 0.3824041 0.0246865
0.0466308 0.3821580 0.0252406
0.0680976 0.3821822 0.0260426
0.0906819 0.3825194 0.0272057
0.1135206 0.3829695 0.0283816
0.1368801 0.3838095 0.0299991
0.1635973 0.3850446 0.0372575
0.2106125 0.3884743 0.0578990
0.2546398 0.3932592 0.0765093
0.2999419 0.3965682 0.0900975
0.3512981 0.3993524 0.1006240
0.4084478 0.4011486 0.1071386
0.4923423 0.4302520 0.1161601
0.5395638 0.4369784 0.1230234
0.5811109 0.4433703 0.1287626
0.5998380 0.4450999 0.1305108
0.6134783 0.4453347 0.1308911
0.6259967 0.4449958 0.1306319
0.6381215 0.4451334 0.1308594
0.6492312 0.4466462 0.1330562
0.6602714 0.4482113 0.1351300
0.6712458 0.4498303 0.1370644
0.6813494 0.4522734 0.1392402
0.6855825 0.4535222 0.1402659
0.6884341 0.4543821 0.1409656
0.6912820 0.4552561 0.1416719
0.6941267 0.4561443 0.1423852
0.6969681 0.4570467 0.1431057
0.6998065 0.4579634 0.1438339
0.7025543 0.4588708 0.1447225
0.7052928 0.4597757 0.1456348
0.0000000 0.4113825 0.0426991
0.0021988 0.4106566 0.0241122
0.0233702 0.4102088 0.0247280
0.0447006 0.4099141 0.0253471
0.0663686 0.4098268 0.0261356
0.0887636 0.4100987 0.0274848
0.1113946 0.4104820 0.0288471
0.1343939 0.4111392 0.0306291
0.1577940 0.4121130 0.0329640
0.2039907 0.4147082 0.0516811
0.2485892 0.4189111 0.0742901
0.2935966 0.4216514 0.0886178
0.3423108 0.4238568 0.0991231
0.3980560 0.4252141 0.1052535
0.4550545 0.4309981 0.1114163
0.5317437 0.4583505 0.1183195
0.5741851 0.4649242 0.1244702
0.5931542 0.4668549 0.1264221
0.6076785 0.4677542 0.1273655
0.6221283 0.4687412 0.1280770
0.6358631 0.4700822 0.1291273
0.6476448 0.4720509 0.1313043
0.6593278 0.4740719 0.1332865
0.6709190 0.4761471 0.1350615
0.6815005 0.4790883 0.1376342
0.6859512 0.4805368 0.1389135
0.6889491 0.4815328 0.1397860
0.6919433 0.4825439 0.1406665
0.6949339 0.4835702 0.1415554
0.6979212 0.4846118 0.1424531
0.7009052 0.4856687 0.1433600
0.7038670 0.4867374 0.1443236
0.7067643 0.4877975 0.1454448
0.0010474 0.4389029 0.0460293
0.0010019 0.4381423 0.0252909
0.0212416 0.4376491 0.0247098
0.0429267 0.4373084 0.0253939
0.0648201 0.4371147 0.0261279
0.0870729 0.4373047 0.0276631
0.1095450 0.4376039 0.0292110
0.1322941 0.4380818 0.0310668
0.1554374 0.4389046 0.0338700
0.1970388 0.4406732 0.0443529
0.2439692 0.4439910 0.0706014
0.2890339 0.4465176 0.0875475
0.3354922 0.4482445 0.0985516
0.3899539 0.4492005 0.1042583
0.4425932 0.4512719 0.1090563
0.5073678 0.4644705 0.1145004
0.5650913 0.4854962 0.1189018
0.5855430 0.4882289 0.1216179
0.6018590 0.4902708 0.1235358
0.6182074 0.4925216 0.1252471
0.6334844 0.4949670 0.1270888
0.6459646 0.4973870 0.1293059
0.6583118 0.4998603 0.1312447
0.6703455 0.5022689 0.1329048
0.6812292 0.5055158 0.1359302
0.6858695 0.5070887 0.1374265
0.6890131 0.5081721 0.1384360
0.6921676 0.5092736 0.1394456
0.6953335 0.5103932 0.1404551
0.6985114 0.5115311 0.1414645
0.7017017 0.5126874 0.1424738
0.7049049 0.5138622 0.1434829
0.7080950 0.5150451 0.1445747
0.0030728 0.4631839 0.0489240
0.0030748 0.4623994 0.0282514
0.0201885 0.4618495 0.0246268
0.0418121 0.4614605 0.0253653
0.0636214 0.4611988 0.0261079
0.0857831 0.4612582 0.0277148
0.1081675 0.4614469 0.0294289
0.1307782 0.4617504 0.0312691
0.1538162 0.4623864 0.0345349
0.1923230 0.4635928 0.0400001
0.2402160 0.4659968 0.0667882
0.2869362 0.4684301 0.0875592
0.3326142 0.4700185 0.1000190
0.3854988 0.4705511 0.1044651
0.4364069 0.4719919 0.1079346
0.4877993 0.4747390 0.1116558
0.5484211 0.4957174 0.1148968
0.5786692 0.5076537 0.1170044
0.5959996 0.5103717 0.1196072
0.6131250 0.5132171 0.1218630
0.6288365 0.5160482 0.1240576
0.6417946 0.5186784 0.1264829
0.6547593 0.5214207 0.1287316
0.6677833 0.5242953 0.1308475
0.6796782 0.5280483 0.1342248
0.6847652 0.5298243 0.1358249
0.6882119 0.5310467 0.1369015
0.6916707 0.5322885 0.1379758
0.6951423 0.5335498 0.1390478
0.6986273 0.5348308 0.1401176
0.7021261 0.5361315 0.1411851
0.7056392 0.5374520 0.1422503
0.7091671 0.5387924 0.1433133
0.0050846 0.4874680 0.0518111
0.0051339 0.4866612 0.0311967
0.0191511 0.4860600 0.0245280
0.0407239 0.4856254 0.0253208
0.0624700 0.4853139 0.0261176
0.0845410 0.4852470 0.0277163
0.1068526 0.4853287 0.0295960
0.1293618 0.4855040 0.0314904
0.1522873 0.4859391 0.0350496
0.1906340 0.4868447 0.0412768
0.2350999 0.4884100 0.0617034
0.2836124 0.4905395 0.0869904
0.3291357 0.4922160 0.1018460
0.3804146 0.4920710 0.1042291
0.4296886 0.4928993 0.1065506
0.4782325 0.4946513 0.1085465
0.5217208 0.4967147 0.1123138
0.5618667 0.5146697 0.1138849
0.5892552 0.5306298 0.1149911
0.6067362 0.5336935 0.1176036
0.6229976 0.5368243 0.1202098
0.6369962 0.5398687 0.1231368
0.6510478 0.5430844 0.1258890
0.6652067 0.5464869 0.1285165
0.6781166 0.5507239 0.1322624
0.6836533 0.5526997 0.1339809
0.6874048 0.5540590 0.1351338
0.6911700 0.5554393 0.1362817
0.6949493 0.5568407 0.1374246
0.6987433 0.5582633 0.1385626
0.7025525 0.5597071 0.1396959
0.7063776 0.5611722 0.1408244
0.7102189 0.5626587 0.1419483
0.0071793 0.5116490 0.0544526
0.0072013 0.5108296 0.0338905
0.0181077 0.5101843 0.0241530
0.0396295 0.5097023 0.0249589
0.0613139 0.5093391 0.0257691
0.0833025 0.5091615 0.0272257
0.1055616 0.5091369 0.0291304
0.1280075 0.5092038 0.0310494
0.1508620 0.5094371 0.0343479
0.1891662 0.5100267 0.0406303
0.2295587 0.5109050 0.0518546
0.2800254 0.5123973 0.0804686
0.3273761 0.5143554 0.0995605
0.3775864 0.5142848 0.1027481
0.4257111 0.5148829 0.1053918
0.4723202 0.5161494 0.1064004
0.5152138 0.5181099 0.1096603
0.5393785 0.5195099 0.1116038
0.5676023 0.5310945 0.1127391
0.5963850 0.5490715 0.1136225
0.6172053 0.5579118 0.1159027
0.6322143 0.5613095 0.1193744
0.6473945 0.5648908 0.1226471
0.6626912 0.5685926 0.1256848
0.6765835 0.5729601 0.1295544
0.6825413 0.5749439 0.1312456
0.6865721 0.5762958 0.1323606
0.6906124 0.5776584 0.1334548
0.6946629 0.5790313 0.1345284
0.6987239 0.5804146 0.1355816
0.7027961 0.5818079 0.1366146
0.7068800 0.5832111 0.1376275
0.7109760 0.5846242 0.1386204
0.0092868 0.5358261 0.0570793
0.0092783 0.5349918 0.0365542
0.0170737 0.5343073 0.0237442
0.0385503 0.5337764 0.0245485
0.0601796 0.5333605 0.0253568
0.0820850 0.5330866 0.0266444
0.1043039 0.5329564 0.0285370
0.1266995 0.5329158 0.0304432
0.1494859 0.5329744 0.0334048
0.1877880 0.5332481 0.0395824
0.2283144 0.5335699 0.0498272
0.2755003 0.5341837 0.0718318
0.3254512 0.5361326 0.0940326
0.3747003 0.5365723 0.1005596
0.4215711 0.5369722 0.1032231
0.4665712 0.5379913 0.1040995
0.5085237 0.5397071 0.1066326
0.5321700 0.5410500 0.1083715
0.5528201 0.5423203 0.1096430
0.5734647 0.5478717 0.1114688
0.6033905 0.5666341 0.1125939
0.6288252 0.5824714 0.1152661
0.6446323 0.5860497 0.1186939
0.6604871 0.5898236 0.1218365
0.6751190 0.5941468 0.1256263
0.6814268 0.5961043 0.1272500
0.6856956 0.5974407 0.1283148
0.6899754 0.5987895 0.1293554
0.6942669 0.6001502 0.1303719
0.6985705 0.6015227 0.1313648
0.7028869 0.6029067 0.1323343
0.7072165 0.6043019 0.1332807
0.7115599 0.6057082 0.1342042
0.0113153 0.5599890 0.0595884
0.0112873 0.5591435 0.0391042
0.0159798 0.5584308 0.0232322
0.0374182 0.5578562 0.0240272
0.0590003 0.5573925 0.0248268
0.0808184 0.5570433 0.0259347
0.1029988 0.5568183 0.0277860
0.1253466 0.5566805 0.0296511
0.1480396 0.5566072 0.0322457
0.1863146 0.5566061 0.0381942
0.2268303 0.5565320 0.0473108
0.2697075 0.5563704 0.0612245
0.3215055 0.5579618 0.0857730
0.3708828 0.5588110 0.0964973
0.4170449 0.5592083 0.0999291
0.4609854 0.5602297 0.1012105
0.5021867 0.5617043 0.1031962
0.5254098 0.5629670 0.1048726
0.5457202 0.5641838 0.1060128
0.5636631 0.5653042 0.1083451
0.5812342 0.5664296 0.1103596
0.6109820 0.5842740 0.1120889
0.6388958 0.6036310 0.1146176
0.6582421 0.6112754 0.1175810
0.6736168 0.6155138 0.1213385
0.6802722 0.6174324 0.1229165
0.6847775 0.6187456 0.1239450
0.6892956 0.6200733 0.1249449
0.6938270 0.6214152 0.1259168
0.6983723 0.6227707 0.1268611
0.7029320 0.6241396 0.1277782
0.7075068 0.6255216 0.1286686
0.7120971 0.6269161 0.1295326
0.0132127 0.5841280 0.0619148
0.0131619 0.5832730 0.0414520
0.0147492 0.5825413 0.0225113
0.0361372 0.5819298 0.0232490
0.0576608 0.5814258 0.0239909
0.0793699 0.5810245 0.0248699
0.1014805 0.5807331 0.0265570
0.1237497 0.5805273 0.0282565
0.1462896 0.5803866 0.0303489
0.1843984 0.5802462 0.0355980
0.2245801 0.5801053 0.0429516
0.2658102 0.5799109 0.0525286
0.3149045 0.5804305 0.0723095
0.3651185 0.5810538 0.0876455
0.4118580 0.5815907 0.0937542
0.4558073 0.5828571 0.0965526
0.4970983 0.5844288 0.0992934
0.5202077 0.5856290 0.1012992
0.5403292 0.5867833 0.1026895
0.5587253 0.5879346 0.1052055
0.5766089 0.5891028 0.1075196
0.5941688 0.5902821 0.1094881
0.6181217 0.6020123 0.1117260
0.6470740 0.6218190 0.1139898
0.6725740 0.6370997 0.1172687
0.6795612 0.6389349 0.1189553
0.6842852 0.6401921 0.1200585
0.6890175 0.6414637 0.1211347
0.6937583 0.6427487 0.1221850
0.6985079 0.6440466 0.1232100
0.7032666 0.6453566 0.1242106
0.7080346 0.6466782 0.1251875
0.7128121 0.6480106 0.1261414
0.0151164 0.6082674 0.0642428
0.0150428 0.6074036 0.0437980
0.0149800 0.6066583 0.0232535
0.0348717 0.6060123 0.0224876
0.0563426 0.6054697 0.0231722
0.0779498 0.6050241 0.0238603
0.0999961 0.6046683 0.0253790
0.1221950 0.6043964 0.0269146
0.1445919 0.6041947 0.0285882
0.1825496 0.6039177 0.0331457
0.2224260 0.6036975 0.0389732
0.2634152 0.6034365 0.0467168
0.3077774 0.6032658 0.0584963
0.3588898 0.6032488 0.0778988
0.4062225 0.6040192 0.0867990
0.4501601 0.6053770 0.0910242
0.4915259 0.6071703 0.0948162
0.5145725 0.6083195 0.0971790
0.5345271 0.6094103 0.0988398
0.5532984 0.6105589 0.1014801
0.5714866 0.6117482 0.1041070
0.5893311 0.6129635 0.1063613
0.6064773 0.6142285 0.1085857
0.6256870 0.6199460 0.1111509
0.6566248 0.6403076 0.1139120
0.6696924 0.6492829 0.1155324
0.6785792 0.6553404 0.1166003
0.6875781 0.6613904 0.1176061
0.6938953 0.6642483 0.1186679
0.6987950 0.6654719 0.1197553
0.7037043 0.6667099 0.1208139
0.7086236 0.6679614 0.1218445
0.7135531 0.6692256 0.1228480
0.0165927 0.6298255 0.0661745
0.0165154 0.6289547 0.0457485
0.0164466 0.6281986 0.0252264
