presets/series/movie/series-movie-roseglass/look.cube
# Approximate v0 colour conversion; calibrate before claiming visual parity.
LUT_3D_SIZE 9
DOMAIN_MIN 0 0 0
DOMAIN_MAX 1 1 1
0.0391786 0.0412802 0.0511591
0.1191742 0.0568978 0.0629591
0.1966229 0.0709637 0.0827056
0.3563742 0.0930808 0.1009643
0.5043568 0.1095427 0.1235888
0.5715376 0.1231465 0.1366952
0.6271528 0.1388208 0.1495805
0.6439652 0.1443151 0.1538394
0.6586692 0.1492711 0.1576238
0.0168930 0.1253963 0.0285083
0.1120434 0.1259018 0.0704446
0.1964591 0.1464755 0.0899458
0.3893456 0.1662805 0.1117376
0.5398883 0.1795093 0.1308397
0.6072318 0.1993830 0.1413303
0.6533358 0.2180027 0.1551459
0.6681880 0.2238294 0.1588408
0.6811858 0.2289545 0.1621745
0.0045546 0.2153086 0.0247497
0.0951113 0.2142979 0.0459419
0.1851348 0.2139981 0.0816273
0.3990118 0.2573598 0.1091671
0.5643607 0.2651792 0.1245842
0.6346743 0.2780520 0.1294157
0.6855204 0.2947065 0.1345907
0.6977951 0.3005858 0.1397043
0.7083628 0.3057221 0.1447985
0.0000000 0.3274939 0.0324986
0.0724354 0.3265355 0.0261708
0.1777879 0.3301362 0.0537215
0.3893141 0.3653496 0.1056619
0.5803459 0.3934902 0.1307140
0.6347058 0.3900473 0.1316989
0.6805424 0.3968002 0.1385326
0.6932657 0.4009671 0.1418135
0.7039741 0.4045318 0.1449805
0.0010474 0.4389029 0.0460293
0.0648201 0.4371147 0.0261279
0.1554374 0.4389046 0.0338700
0.3354922 0.4482445 0.0985516
0.5650913 0.4854962 0.1189018
0.6334844 0.4949670 0.1270888
0.6812292 0.5055158 0.1359302
0.6953335 0.5103932 0.1404551
0.7080950 0.5150451 0.1445747
0.0092868 0.5358261 0.0570793
0.0601796 0.5333605 0.0253568
0.1494859 0.5329744 0.0334048
0.3254512 0.5361326 0.0940326
0.5085237 0.5397071 0.1066326
0.6033905 0.5666341 0.1125939
0.6751190 0.5941468 0.1256263
0.6942669 0.6001502 0.1303719
0.7115599 0.6057082 0.1342042
0.0165927 0.6298255 0.0661745
0.0549820 0.6269625 0.0223061
0.1428693 0.6255394 0.0269529
0.3017888 0.6244664 0.0476992
0.4866221 0.6281169 0.0896105
0.5678173 0.6325663 0.1007813
0.6372151 0.6385929 0.1113474
0.6781012 0.6655897 0.1157922
0.7141862 0.6883590 0.1195866
0.0178081 0.6482306 0.0677946
0.0537482 0.6453238 0.0215167
0.1413204 0.6438050 0.0255873
0.2988167 0.6427989 0.0424812
0.4822701 0.6461412 0.0841252
0.5648599 0.6505583 0.0976443
0.6353285 0.6558966 0.1095198
0.6620034 0.6640071 0.1130735
0.6991006 0.6881405 0.1173322
0.0189720 0.6658213 0.0693451
0.0525799 0.6628758 0.0207745
0.1398667 0.6612691 0.0243163
0.2960632 0.6603079 0.0376937
0.4778419 0.6633608 0.0785585
0.5617511 0.6677415 0.0943213
0.6337776 0.6730440 0.1075005
0.6561037 0.6749394 0.1110203
0.6833029 0.6866429 0.1149377
0.0367163 0.0375010 0.1509480
0.1089257 0.0291544 0.1373407
0.1874118 0.0401778 0.1401132
0.3362911 0.0615966 0.1502072
0.4824575 0.0786091 0.1642528
0.5508507 0.0896950 0.1735750
0.6106709 0.1016763 0.1834008
0.6291893 0.1058322 0.1867366
0.6450728 0.1096798 0.1897784
0.0401296 0.1389492 0.1634839
0.1152736 0.1290945 0.1529807
0.1882672 0.1456444 0.1618680
0.3488033 0.1697850 0.1820977
0.5123925 0.1887367 0.1936334
0.5839752 0.2039634 0.2056449
0.6380736 0.2195510 0.2163024
0.6539591 0.2248646 0.2204144
0.6675190 0.2295828 0.2243146
0.0192382 0.2251525 0.1554106
0.0923917 0.2146339 0.1390804
0.1681631 0.1932902 0.1503949
0.3571795 0.2356479 0.1695881
0.5383085 0.2666757 0.1908732
0.6074730 0.2809025 0.2006199
0.6610309 0.2962611 0.2107194
0.6726740 0.3018048 0.2169626
0.6835383 0.3065550 0.2220825
0.0000000 0.3357731 0.1464035
0.0754064 0.3283757 0.1303303
0.1658984 0.3270552 0.1337301
0.3754342 0.3555910 0.1673050
0.5721079 0.3935662 0.1996743
0.6212273 0.3846187 0.2038081
0.6642097 0.3913876 0.2121614
0.6764091 0.3948163 0.2154381
0.6869921 0.3973961 0.2181329
0.0013692 0.4463927 0.1554521
0.0603695 0.4401611 0.1211344
0.1382746 0.4386597 0.1086715
0.3365150 0.4460531 0.1599553
0.5840004 0.4853895 0.1981704
0.6403473 0.4971688 0.2133678
0.6776531 0.5073017 0.2213925
0.6886714 0.5090613 0.2231783
0.6990846 0.5113940 0.2253342
0.0094428 0.5428841 0.1643337
0.0461369 0.5369472 0.1116910
0.1091937 0.5336065 0.0817011
0.3270067 0.5328135 0.1662270
0.5149907 0.5322162 0.1776095
0.6120350 0.5628415 0.1902492
0.6751228 0.5873105 0.2074681
0.6925403 0.5939726 0.2128132
0.7088709 0.6004194 0.2175801
0.0173690 0.6365256 0.1723286
0.0301808 0.6308850 0.1001710
0.0775279 0.6270739 0.0517648
0.2986034 0.6226835 0.1293993
0.4892140 0.6193898 0.1683550
0.5709232 0.6257345 0.1787653
0.6396844 0.6339346 0.1887611
0.6808118 0.6628819 0.1926200
0.7116508 0.6804859 0.1948194
0.0187149 0.6548630 0.1738422
0.0267737 0.6492971 0.0977530
0.0711049 0.6454574 0.0460638
0.2906841 0.6414489 0.1195182
0.4846472 0.6382369 0.1648914
0.5678018 0.6439516 0.1769748
0.6379027 0.6512650 0.1876312
0.6644434 0.6604475 0.1907121
0.7028542 0.6865640 0.1922293
0.0200073 0.6723910 0.1753058
0.0235121 0.6668973 0.0954493
0.0649690 0.6630328 0.0406502
0.2832797 0.6592928 0.1103177
0.4799272 0.6562161 0.1611154
0.5644834 0.6613605 0.1749259
0.6364048 0.6684483 0.1862902
0.6586091 0.6710880 0.1891038
0.6865993 0.6842068 0.1909305
0.0301654 0.0304388 0.2502947
0.1125384 0.0202075 0.2384594
0.1925010 0.0153375 0.2297136
0.3200467 0.0242128 0.2139285
0.4614759 0.0464395 0.2204674
0.5321756 0.0595950 0.2280922
0.5961383 0.0736639 0.2368445
0.6163596 0.0782859 0.2398774
0.6334971 0.0825503 0.2427133
0.0373963 0.1448218 0.2648441
0.1136342 0.1304986 0.2551681
0.1858470 0.1148184 0.2348203
0.3154363 0.1355696 0.2253859
0.4760368 0.1570433 0.2359520
0.5512389 0.1687003 0.2450415
0.6144499 0.1808744 0.2544021
0.6336595 0.1849556 0.2574698
0.6491145 0.1887306 0.2604286
0.0377572 0.2355658 0.2693642
0.1233697 0.2354825 0.2682725
0.2001914 0.2379512 0.2578924
0.3154436 0.2298485 0.2374328
0.5006834 0.2606940 0.2513585
0.5764457 0.2744428 0.2621846
0.6333562 0.2888307 0.2746535
0.6493655 0.2938460 0.2792041
0.6628037 0.2984960 0.2833189
0.0216015 0.3514076 0.2708350
0.0997784 0.3455556 0.2623440
0.1783802 0.3330199 0.2427482
0.3485254 0.3370425 0.2404404
0.5276987 0.3600446 0.2548875
0.5945005 0.3681484 0.2600982
0.6416694 0.3826524 0.2723672
0.6551104 0.3878839 0.2771261
0.6670471 0.3925193 0.2811904
0.0013359 0.4597370 0.2648990
0.0788547 0.4526788 0.2506404
0.1721601 0.4445610 0.2381757
0.3487923 0.4427986 0.2255359
0.5349461 0.4507432 0.2502766
0.5960786 0.4621583 0.2630665
0.6444197 0.4803288 0.2744259
0.6592564 0.4860173 0.2776861
0.6742978 0.4920804 0.2812097
0.0099923 0.5547255 0.2708521
0.0620167 0.5474308 0.2405328
0.1633655 0.5393278 0.2335159
0.3257653 0.5343942 0.2251072
0.5090257 0.5213378 0.2345905
0.5897404 0.5431269 0.2501155
0.6457862 0.5615318 0.2689918
0.6651147 0.5700623 0.2749499
0.6828253 0.5776797 0.2804814
0.0189503 0.6471825 0.2776939
0.0438457 0.6400546 0.2291951
0.1487453 0.6323201 0.2247862
0.2920776 0.6226750 0.2044095
0.4845649 0.6081347 0.2316753
0.5604676 0.6116119 0.2408429
0.6229542 0.6165408 0.2541842
0.6664373 0.6482851 0.2638933
0.6918323 0.6600514 0.2700829
0.0205266 0.6653154 0.2790999
0.0400998 0.6582598 0.2268658
0.1454659 0.6506702 0.2228040
0.2840635 0.6414340 0.1981831
0.4798003 0.6270996 0.2314836
0.5581132 0.6303400 0.2419254
0.6233247 0.6352980 0.2545041
0.6499039 0.6453325 0.2602775
0.6916832 0.6742811 0.2674913
0.0218681 0.6826638 0.2804526
0.0365160 0.6756848 0.2246486
0.1423796 0.6681905 0.2208946
0.2766992 0.6592734 0.1921953
0.4748790 0.6453812 0.2308404
0.5554748 0.6482575 0.2425819
0.6238691 0.6538763 0.2545361
0.6456212 0.6568152 0.2589012
0.6752928 0.6715369 0.2644426
0.0273923 0.0264293 0.2990801
0.1095260 0.0165617 0.2865327
0.1926778 0.0090972 0.2752288
0.3153976 0.0083565 0.2533670
0.4536099 0.0274609 0.2527548
0.5243567 0.0405845 0.2581590
0.5888672 0.0540280 0.2655753
0.6096519 0.0587879 0.2682597
0.6273816 0.0633573 0.2708056
0.0335510 0.1415416 0.3137128
0.1078236 0.1240643 0.3017659
0.1865644 0.1109379 0.2803321
0.3089355 0.1134519 0.2567537
0.4608179 0.1381520 0.2626709
0.5375079 0.1519097 0.2711746
0.6032497 0.1654578 0.2804032
0.6234629 0.1699176 0.2835440
0.6400302 0.1740713 0.2865637
0.0370046 0.2406836 0.3232248
0.1149527 0.2389303 0.3199809
0.1805624 0.2285695 0.2955588
0.2953581 0.2186508 0.2565504
0.4783680 0.2466286 0.2728560
0.5612365 0.2575805 0.2833926
0.6236471 0.2687584 0.2929794
0.6415536 0.2726886 0.2965148
0.6555612 0.2763260 0.2997761
0.0329975 0.3572465 0.3290206
0.1136049 0.3550479 0.3233357
0.1909526 0.3485905 0.3074281
0.3313911 0.3261125 0.2737482
0.5124564 0.3575394 0.2880487
0.5807059 0.3671470 0.2931177
0.6345387 0.3817448 0.3046626
0.6492526 0.3870854 0.3092897
0.6619939 0.3918246 0.3132860
0.0090531 0.4670344 0.3237819
0.0959495 0.4620156 0.3153337
0.1812700 0.4539577 0.2996711
0.3461443 0.4416988 0.2638912
0.5207110 0.4406108 0.2823348
0.5844025 0.4538972 0.2940616
0.6378431 0.4736427 0.3052966
0.6543664 0.4793696 0.3081820
0.6690172 0.4836976 0.3103286
0.0103586 0.5617103 0.3248143
0.0767966 0.5548940 0.3053576
0.1700853 0.5464114 0.2926864
0.3215361 0.5325355 0.2568955
0.5071220 0.5169732 0.2664436
0.5783277 0.5317234 0.2800295
0.6300318 0.5475546 0.2982264
0.6479859 0.5548612 0.3039437
0.6637355 0.5609409 0.3088538
0.0201460 0.6537035 0.3306911
0.0563852 0.6465325 0.2941433
0.1535073 0.6380552 0.2844209
0.2887485 0.6236742 0.2440799
0.4823197 0.6058269 0.2637900
0.5576925 0.6074972 0.2719609
0.6181776 0.6113831 0.2864970
0.6588772 0.6410619 0.2971150
0.6789530 0.6475052 0.3033533
0.0219158 0.6717429 0.3319982
0.0522672 0.6645869 0.2918383
0.1499456 0.6561985 0.2825965
0.2815676 0.6425262 0.2399492
0.4770821 0.6245266 0.2648560
0.5546926 0.6259258 0.2737771
0.6181536 0.6299071 0.2870225
0.6435804 0.6391986 0.2933875
0.6823901 0.6652626 0.3019027
0.0232728 0.6889803 0.3332363
0.0482107 0.6818668 0.2896065
0.1466212 0.6735520 0.2808113
0.2748316 0.6603433 0.2357190
0.4719115 0.6425776 0.2653757
0.5512829 0.6434327 0.2750900
0.6182760 0.6482444 0.2872185
0.6395218 0.6508941 0.2921910
0.6676361 0.6641099 0.2986764
0.0253211 0.0225086 0.3475256
0.1066089 0.0130264 0.3343434
0.1916213 0.0047294 0.3212321
0.3132565 0.0000000 0.2959204
0.4476525 0.0083507 0.2888625
0.5180055 0.0204447 0.2913399
0.5831911 0.0339122 0.2966297
0.6041903 0.0385501 0.2987773
0.6222240 0.0428274 0.3008857
0.0310215 0.1364707 0.3624044
0.1032697 0.1174323 0.3489872
0.1840048 0.1051401 0.3266214
0.3061958 0.1001079 0.2943782
0.4493986 0.1156633 0.2934412
0.5249831 0.1308030 0.2998803
0.5925203 0.1458420 0.3079151
0.6138023 0.1507467 0.3108107
0.6314534 0.1552609 0.3136243
0.0339879 0.2420510 0.3756558
0.0989673 0.2335891 0.3743712
0.1364653 0.2241141 0.3651031
0.2878369 0.2077921 0.2804652
0.4564483 0.2290166 0.2970338
0.5431780 0.2429383 0.3088996
0.6112877 0.2566114 0.3200126
0.6313511 0.2610893 0.3237726
0.6464185 0.2646675 0.3268134
0.0381043 0.3562928 0.3791906
0.1150012 0.3582852 0.3762188
0.1862753 0.3593389 0.3641419
0.2980287 0.3029329 0.2910823
0.4880131 0.3507078 0.3150213
0.5646614 0.3668194 0.3264903
0.6246863 0.3794619 0.3364260
0.6413025 0.3842758 0.3405346
0.6547725 0.3891889 0.3447949
0.0258751 0.4733744 0.3843278
0.1129457 0.4721760 0.3781577
0.2006003 0.4684141 0.3628000
0.3396158 0.4417404 0.3052253
0.5136175 0.4359939 0.3172304
0.5816618 0.4547847 0.3295370
0.6354249 0.4743275 0.3402793
0.6514546 0.4802831 0.3438993
0.6655820 0.4851403 0.3469483
0.0110407 0.5687182 0.3799725
0.0961059 0.5641656 0.3702991
0.1866104 0.5575359 0.3566274
0.3409293 0.5391049 0.3109954
0.5007206 0.5090960 0.3018066
0.5683641 0.5203466 0.3123308
0.6185063 0.5375026 0.3311638
0.6371527 0.5456786 0.3373876
0.6537456 0.5527268 0.3427160
0.0218364 0.6606064 0.3843526
0.0742573 0.6541663 0.3599785
0.1667549 0.6459649 0.3482122
0.3196912 0.6267476 0.3112299
0.4814070 0.6057864 0.3018356
0.5565438 0.6040379 0.3076998
0.6130795 0.6052234 0.3214217
0.6481856 0.6300625 0.3325451
0.6664559 0.6351856 0.3386142
0.0236728 0.6785634 0.3854234
0.0698875 0.6720065 0.3577695
0.1627004 0.6636713 0.3464145
0.3154502 0.6451636 0.3110576
0.4759231 0.6247270 0.3030803
0.5532673 0.6227914 0.3107193
0.6133564 0.6243751 0.3227550
0.6366544 0.6320317 0.3296613
0.6709407 0.6539917 0.3385247
0.0251864 0.6957122 0.3864715
0.0653006 0.6890559 0.3555195
0.1586536 0.6806977 0.3445949
0.3114525 0.6627388 0.3107631
0.4704142 0.6427675 0.3037526
0.5497536 0.6407620 0.3133382
0.6136429 0.6432775 0.3234120
0.6335019 0.6446408 0.3293286
0.6606133 0.6571568 0.3362929
0.0230045 0.0141753 0.4653604
0.1047944 0.0055798 0.4510633
0.1925226 0.0000000 0.4353225
0.3324393 0.0000000 0.4143029
0.4417402 0.0000000 0.3911851
0.5093530 0.0000000 0.3897998
0.5740233 0.0000000 0.3892544
0.5951512 0.0000000 0.3890505
0.6136553 0.0000000 0.3888645
0.0320850 0.1225747 0.4806788
0.1034685 0.1022193 0.4642510
0.1837175 0.0902477 0.4416573
0.3233961 0.0797793 0.4105570
0.4404951 0.0784301 0.3889643
0.5099079 0.0821354 0.3877229
0.5759697 0.0927981 0.3895687
0.5974348 0.0971982 0.3907421
0.6160888 0.1013655 0.3920220
0.0383520 0.2348878 0.5016830
0.0979571 0.2108549 0.4859619
0.1581922 0.1918182 0.4540036
0.3119463 0.1908930 0.3907223
0.4372476 0.1854723 0.3804712
0.5129188 0.1919609 0.3857506
0.5830190 0.2057792 0.3927848
0.6053135 0.2109371 0.3955651
0.6237206 0.2154154 0.3978652
0.0421888 0.3661291 0.5265459
0.0809133 0.3885423 0.5259855
0.1301059 0.4017663 0.5166857
0.3148868 0.3127139 0.3790825
0.4310247 0.2988616 0.3619509
0.5185733 0.3180135 0.3789314
0.5936200 0.3375503 0.3957352
0.6161030 0.3438743 0.4011295
0.6329898 0.3489177 0.4051391
0.0496683 0.4803775 0.5235353
0.1122642 0.4955772 0.5226045
0.2144916 0.4956649 0.5001664
0.3816402 0.4615378 0.4494105
0.4400545 0.3866113 0.3625758
0.5456362 0.4286934 0.3935577
0.6147006 0.4573255 0.4105279
0.6330944 0.4644062 0.4155843
0.6469398 0.4690016 0.4194567
0.0507091 0.5822341 0.5253539
0.1368751 0.5857694 0.5230540
0.2300742 0.5876618 0.5104031
0.4041369 0.5620070 0.4663472
0.4798251 0.5100442 0.3967259
0.5645604 0.5164887 0.4083459
0.6308833 0.5504262 0.4334836
0.6493883 0.5592891 0.4406668
0.6654604 0.5668458 0.4467773
0.0370741 0.6759200 0.5204612
0.1287238 0.6727969 0.5162487
0.2197800 0.6696599 0.5093433
0.3908482 0.6544642 0.4863121
0.5001628 0.6268970 0.4339697
0.5657451 0.6128832 0.4417317
0.6178932 0.6110733 0.4506256
0.6467531 0.6294576 0.4612493
0.6635356 0.6344788 0.4649677
0.0328853 0.6941185 0.5191141
0.1245042 0.6901823 0.5145023
0.2145888 0.6860293 0.5073735
0.3850417 0.6719770 0.4885918
0.4973510 0.6481590 0.4398337
0.5661233 0.6360952 0.4505304
0.6220391 0.6332691 0.4607513
0.6442254 0.6405807 0.4647750
0.6668130 0.6509617 0.4690053
0.0342282 0.7114546 0.5191558
0.1203338 0.7068928 0.5127489
0.2097765 0.7016761 0.5052706
0.3755476 0.6873153 0.4867656
0.4938410 0.6678481 0.4442631
0.5659483 0.6581446 0.4582031
0.6254204 0.6547377 0.4689281
0.6432553 0.6544171 0.4705659
0.6656005 0.6625302 0.4717612
0.0264591 0.0078734 0.5860399
0.1123065 0.0000000 0.5712656
0.2032971 0.0000000 0.5541979
0.3445534 0.0000000 0.5299338
0.4702860 0.0000000 0.5176762
0.5326816 0.0000000 0.5154286
0.5726930 0.0000000 0.4945722
0.5932525 0.0000000 0.4946851
0.6114534 0.0001339 0.4948706
0.0484826 0.1128351 0.6014907
0.1175908 0.0914929 0.5834913
0.1942381 0.0793709 0.5614661
0.3315868 0.0663516 0.5307727
0.4628031 0.0584061 0.5162064
0.5290462 0.0596425 0.5136244
0.5726920 0.0595029 0.4928888
0.5933029 0.0598801 0.4921209
0.6115439 0.0607794 0.4916561
0.0792650 0.2229542 0.6267275
0.1310226 0.1971349 0.5964678
0.1850399 0.1836238 0.5644756
0.3275763 0.1791277 0.5218587
0.4598068 0.1668925 0.5062340
0.5259777 0.1659021 0.5059350
0.5741023 0.1660045 0.4916830
0.5950314 0.1668909 0.4920562
0.6132423 0.1682671 0.4922622
0.0749912 0.3638744 0.6828600
0.1262413 0.3644528 0.6508358
0.1936399 0.3611147 0.6077280
0.3318714 0.3157820 0.5056793
0.4605737 0.2982014 0.4863768
0.5256771 0.2933080 0.4923426
0.5785554 0.2943374 0.4876736
0.6002856 0.2969781 0.4906260
0.6187133 0.2999625 0.4926481
0.0781036 0.4937947 0.6756948
0.1239960 0.5106597 0.6733568
0.2206648 0.5030094 0.6473287
0.3832115 0.4768046 0.6067759
0.4734678 0.4133835 0.5023181
0.5233020 0.3968446 0.4857209
0.5805498 0.4044955 0.4821435
0.6032664 0.4122002 0.4860751
0.6216912 0.4187254 0.4901099
0.0898573 0.5885830 0.6598384
0.1443593 0.6023849 0.6731801
0.2279339 0.6033990 0.6697093
0.3911077 0.5660806 0.6314349
0.5395083 0.5585121 0.5978147
0.5339966 0.4818297 0.5014483
0.5828748 0.4838620 0.4839532
0.6097009 0.5029604 0.4887889
0.6288084 0.5143340 0.4971307
0.0953830 0.6865731 0.6587621
0.1776536 0.6858253 0.6587201
0.2537557 0.6833095 0.6574384
0.3751643 0.6333816 0.6159500
0.5159832 0.6359682 0.6174221
0.5764304 0.6261617 0.5909246
0.6095742 0.5941185 0.5414006
0.6308650 0.6056572 0.5526495
0.6463896 0.6120112 0.5582873
0.0939205 0.7054157 0.6585808
0.1785587 0.7034643 0.6575950
0.2550215 0.7002467 0.6557908
0.3811514 0.6608332 0.6247119
0.5080952 0.6485536 0.6140080
0.5814998 0.6526405 0.6070034
0.6147851 0.6168242 0.5549150
0.6372906 0.6261536 0.5664459
0.6523534 0.6309503 0.5719421
0.0920962 0.7233024 0.6581621
0.1787908 0.7202915 0.6563827
0.2559675 0.7163406 0.6538972
0.3849480 0.6848319 0.6307035
0.5006611 0.6609169 0.6106451
0.5841309 0.6754701 0.6186683
0.6195602 0.6407867 0.5677623
0.6379629 0.6408655 0.5748654
0.6563456 0.6473407 0.5811901
0.0273643 0.0074099 0.5961570
0.1137164 0.0000000 0.5813213
0.2044470 0.0000000 0.5642419
0.3456456 0.0000000 0.5398691
0.4715592 0.0000000 0.5272935
0.5338334 0.0000000 0.5247864
0.5728846 0.0000000 0.5033097
0.5933787 0.0000000 0.5033913
0.6115353 0.0001443 0.5035703
0.0509969 0.1126010 0.6116246
0.1191357 0.0909052 0.5935679
0.1953412 0.0786566 0.5715771
0.3322377 0.0654188 0.5410512
0.4635041 0.0570168 0.5261063
0.5296927 0.0576920 0.5231423
0.5728656 0.0581296 0.5020634
0.5933866 0.0581162 0.5011568
0.6115620 0.0586727 0.5005631
0.0856753 0.2224819 0.6367186
0.1344024 0.1974650 0.6058819
0.1875951 0.1836248 0.5744276
0.3285904 0.1781938 0.5329013
0.4608666 0.1657496 0.5166579
0.5267886 0.1639912 0.5157422
0.5740402 0.1643490 0.5007081
0.5948536 0.1647559 0.5009629
0.6129956 0.1657363 0.5010340
0.0796501 0.3640255 0.6919799
0.1313166 0.3631676 0.6587448
0.1979580 0.3591426 0.6167340
0.3335880 0.3157578 0.5182087
0.4628166 0.2984021 0.4985315
0.5273458 0.2922030 0.5033793
0.5784257 0.2926220 0.4968332
0.5998263 0.2944659 0.4994861
0.6181776 0.2969654 0.5013058
0.0815037 0.4947588 0.6875019
0.1316291 0.5085363 0.6823958
0.2231211 0.5027453 0.6583642
0.3830804 0.4756879 0.6174563
0.4785228 0.4168894 0.5131358
0.5274987 0.3992221 0.4981399
0.5797772 0.4025451 0.4911513
0.6021466 0.4091016 0.4945214
0.6205545 0.4149874 0.4981867
0.0936038 0.5904103 0.6714761
0.1467028 0.6036833 0.6847660
0.2280840 0.6061412 0.6840657
0.3908030 0.5686190 0.6464352
0.5424683 0.5623109 0.6128082
0.5379988 0.4907797 0.5198999
0.5792102 0.4771657 0.4925494
0.6064719 0.4966758 0.4956167
0.6260894 0.5085405 0.5029544
0.1001550 0.6869793 0.6691901
0.1810114 0.6863517 0.6692170
0.2551630 0.6844210 0.6686555
0.3683419 0.6285305 0.6224327
0.5020254 0.6244706 0.6158668
0.5826754 0.6335341 0.6123082
0.6081738 0.5918802 0.5478760
0.6276148 0.6014853 0.5570203
0.6426445 0.6075265 0.5621140
0.0989650 0.7059117 0.6691645
0.1823988 0.7040935 0.6682280
0.2571100 0.7014050 0.6670004
0.3770760 0.6582745 0.6331385
0.4946726 0.6379317 0.6137605
0.5803452 0.6528454 0.6206559
0.6124468 0.6138477 0.5603198
0.6346887 0.6227583 0.5726010
0.6494082 0.6273723 0.5776938
0.0973835 0.7238743 0.6688834
0.1830744 0.7209975 0.6671353
0.2586828 0.7175407 0.6651008
0.3833045 0.6842242 0.6407268
0.4874943 0.6506922 0.6111644
0.5770689 0.6699217 0.6242209
0.6165423 0.6377173 0.5730454
0.6356989 0.6379120 0.5811545
0.6535533 0.6438333 0.5876070
0.0282609 0.0070522 0.6044372
0.1148753 0.0000000 0.5895078
0.2053808 0.0000000 0.5724036
0.3465149 0.0000000 0.5479469
0.4725791 0.0000000 0.5351179
0.5348065 0.0000000 0.5324412
0.5730598 0.0000000 0.5104126
0.5935003 0.0000000 0.5104595
0.6116207 0.0001531 0.5106265
0.0530200 0.1124088 0.6198610
0.1204785 0.0905614 0.6018262
0.1962322 0.0780761 0.5797949
0.3327433 0.0646611 0.5494019
0.4640397 0.0559576 0.5341425
0.5302233 0.0561954 0.5309214
0.5730348 0.0571538 0.5095635
0.5934824 0.0568268 0.5085444
0.6116042 0.0571058 0.5078481
0.0909335 0.2221397 0.6448566
0.1371392 0.1977122 0.6135266
0.1896833 0.1837574 0.5827389
0.3293870 0.1774228 0.5418617
0.4616781 0.1648480 0.5251222
0.5274526 0.1625338 0.5237659
0.5740411 0.1631982 0.5081030
0.5947607 0.1632177 0.5082622
0.6128458 0.1638727 0.5082257
0.0834247 0.3641103 0.6994349
0.1354227 0.3621067 0.6651423
0.2014817 0.3575197 0.6240329
0.3347152 0.3155161 0.5285424
0.4645317 0.2985324 0.5083509
0.5286418 0.2913667 0.5123530
0.5783979 0.2915062 0.5043698
0.5995288 0.2927039 0.5067877
0.6178122 0.2947958 0.5084500
0.0842244 0.4955176 0.6970727
0.1376781 0.5068174 0.6897579
0.2250464 0.5024866 0.6673330
0.3830497 0.4747057 0.6260662
0.4826654 0.4197593 0.5218187
0.5306848 0.4011762 0.5081915
0.5799198 0.4016050 0.4990692
0.6017157 0.4070266 0.5019253
0.6199797 0.4122470 0.5052527
0.0965508 0.5918784 0.6808913
0.1484023 0.6047461 0.6941706
0.2279413 0.6084166 0.6958061
0.3904014 0.5706801 0.6586308
0.5444906 0.5650478 0.6247392
0.5397346 0.4961138 0.5350931
0.5785402 0.4754610 0.5004333
0.6045651 0.4925169 0.5020244
0.6242342 0.5041550 0.5083019
0.1039990 0.6873530 0.6776069
0.1835458 0.6867271 0.6776584
0.2560979 0.6853005 0.6776990
0.3624564 0.6241073 0.6270432
0.4897265 0.6139866 0.6130740
0.5875025 0.6367577 0.6245438
0.6070338 0.5900699 0.5531325
0.6244633 0.5974374 0.5594707
0.6391144 0.6032560 0.5641248
0.1031336 0.7064255 0.6777003
0.1854232 0.7045980 0.6767310
0.2586001 0.7023257 0.6760364
0.3734599 0.6557404 0.6393467
0.4825618 0.6279769 0.6118236
0.5744127 0.6472989 0.6225131
0.6103407 0.6113332 0.5644172
0.6325767 0.6200024 0.5775494
0.6481503 0.6253846 0.5826543
0.1018277 0.7244502 0.6774942
0.1865407 0.7215724 0.6756968
0.2607068 0.7185063 0.6741194
0.3817625 0.6833762 0.6483248
0.4755489 0.6410809 0.6098756
0.5664787 0.6608148 0.6229260
0.6139853 0.6353368 0.5774707
0.6338305 0.6355000 0.5861854
0.6534534 0.6427339 0.5935458
