presets/series/late-summer/series-late-summer-neutral/look.cube
# Approximate v0 colour conversion; calibrate before claiming visual parity.
LUT_3D_SIZE 5
DOMAIN_MIN 0 0 0
DOMAIN_MAX 1 1 1
0.0147560 0.0192737 0.0207919
0.1848097 0.0558803 0.0446355
0.5922044 0.0636045 0.0622701
0.7196610 0.0846720 0.0821186
0.8268182 0.1109304 0.0971490
0.0538317 0.1661956 0.0706790
0.1489421 0.1489276 0.0534939
0.6059176 0.1805920 0.0731192
0.7353853 0.2165561 0.0923083
0.8383273 0.2633823 0.1151279
0.1147957 0.5254256 0.1470808
0.2236030 0.5235598 0.0914206
0.5363543 0.4635973 0.0995439
0.7009439 0.4944634 0.1278095
0.8425249 0.5106836 0.1305745
0.1485039 0.7477774 0.2156876
0.2302821 0.7464494 0.1282340
0.5953737 0.7098272 0.1339081
0.6999543 0.6383203 0.1237874
0.8570457 0.6453009 0.1218454
0.1840229 0.9651209 0.2817364
0.2365573 0.9660299 0.1669573
0.6246873 0.9302228 0.1767887
0.8164056 0.9056946 0.1646163
0.8741987 0.8103348 0.1423791
0.0641798 0.0954638 0.2299485
0.1776386 0.0629153 0.2008456
0.5664152 0.0513552 0.1870443
0.7178169 0.0689188 0.1954493
0.8463775 0.0895400 0.2048031
0.0665868 0.1734488 0.1984354
0.1310594 0.1618854 0.1799346
0.5812136 0.1794119 0.1847388
0.7149256 0.2158043 0.2129099
0.8353885 0.2481812 0.2385199
0.1372094 0.5080648 0.3044195
0.2605200 0.5144923 0.2747776
0.5011188 0.4703557 0.2194927
0.6784717 0.5004937 0.2611267
0.8338796 0.5292493 0.2892766
0.1607901 0.7309949 0.3858383
0.2843458 0.7341193 0.3570230
0.5631085 0.7028207 0.2801701
0.6790709 0.6389594 0.2585335
0.8398569 0.6466854 0.2506223
0.1941771 0.9490127 0.4556341
0.3168666 0.9565456 0.4268558
0.5924152 0.9353343 0.3308884
0.7957566 0.9059066 0.3204497
0.8672180 0.8191612 0.2832092
0.1437117 0.2028702 0.4847488
0.2307694 0.1330215 0.4495314
0.5356704 0.0804790 0.4069581
0.7185413 0.0848117 0.4054131
0.8694326 0.1008073 0.4072617
0.1323830 0.3541636 0.4915760
0.2245254 0.2951567 0.4535062
0.5367482 0.2243597 0.4124890
0.7092069 0.2330819 0.4090376
0.8476677 0.2510392 0.4143509
0.1427915 0.5017576 0.4626148
0.2379582 0.4902241 0.4621425
0.4932260 0.4647195 0.4123281
0.6610150 0.4992682 0.4400354
0.8033479 0.5244588 0.4533923
0.1781931 0.6989180 0.5411167
0.2975790 0.6867443 0.5331672
0.5403489 0.7048862 0.4936466
0.6402436 0.6253410 0.4491757
0.8436917 0.6654870 0.4959577
0.2190955 0.9086118 0.6191119
0.3296856 0.9173527 0.6172822
0.5575226 0.9465137 0.5400683
0.7780381 0.9170385 0.5452545
0.8708621 0.8438009 0.5231085
0.2089883 0.3035231 0.7227762
0.2669440 0.1998698 0.7009868
0.5641447 0.1521262 0.6622452
0.7051718 0.1198460 0.6244065
0.8752294 0.1212455 0.6294909
0.2122587 0.4704414 0.7330471
0.3159301 0.4034162 0.7029244
0.5504949 0.2931785 0.6563922
0.7011208 0.2651591 0.6305663
0.8669777 0.2679718 0.6350855
0.1471901 0.6549687 0.7188643
0.2706506 0.6276680 0.7072280
0.5583604 0.5545682 0.6726451
0.6770156 0.5232981 0.6343226
0.8249788 0.5311908 0.6336216
0.1710205 0.6979330 0.6748953
0.2774902 0.6726548 0.6619459
0.5073553 0.6025396 0.6054809
0.6353035 0.6252557 0.6224539
0.8292558 0.6751338 0.6721964
0.2451900 0.8673651 0.7398428
0.3437226 0.8609246 0.7388203
0.5815472 0.8800299 0.7608570
0.7740781 0.9513423 0.7815192
0.8927943 0.8756882 0.7548696
0.2471644 0.3634258 0.8763837
0.2829225 0.2390680 0.8615806
0.5811568 0.2002675 0.8171890
0.7565432 0.1678992 0.8149367
0.8660910 0.1441480 0.7678795
0.2597743 0.5273433 0.8822696
0.3583073 0.4615733 0.8614289
0.5659722 0.3362375 0.8123861
0.7402097 0.3100714 0.8091203
0.8618553 0.2886701 0.7760106
0.2513031 0.7107184 0.8585210
0.3703850 0.6841648 0.8503826
0.5891841 0.6129671 0.8362820
0.7177865 0.5739985 0.8037543
0.8570348 0.5589733 0.7962543
0.2588679 0.7677542 0.8188504
0.3189618 0.7760421 0.8368153
0.5844699 0.7500882 0.8320560
0.7238558 0.7397276 0.8434499
0.8691575 0.7176810 0.8206696
0.2666115 0.8535136 0.8112171
0.3559000 0.8443090 0.8108583
0.5570859 0.8221528 0.8067304
0.7033431 0.8246831 0.8141930
0.9135985 0.8979717 0.8774202
