presets/series/late-summer/series-late-summer-neutral/look.cube
# Approximate v0 colour conversion; calibrate before claiming visual parity.
LUT_3D_SIZE 33
DOMAIN_MIN 0 0 0
DOMAIN_MAX 1 1 1
0.0147560 0.0192737 0.0207919
0.0312898 0.0228745 0.0230229
0.0470911 0.0263217 0.0247712
0.0622059 0.0295842 0.0260612
0.0850401 0.0365962 0.0302848
0.1088971 0.0438029 0.0349938
0.1316155 0.0501581 0.0393347
0.1570077 0.0537391 0.0422932
0.1848097 0.0558803 0.0446355
0.2446453 0.0597662 0.0494824
0.3116102 0.0614539 0.0527608
0.3727276 0.0602517 0.0529826
0.4289681 0.0592608 0.0531374
0.4765651 0.0599419 0.0543579
0.5182340 0.0610361 0.0567345
0.5574098 0.0621293 0.0594392
0.5922044 0.0636045 0.0622701
0.6107640 0.0656875 0.0647589
0.6271817 0.0680138 0.0672595
0.6436256 0.0706283 0.0697925
0.6599354 0.0734610 0.0723073
0.6763821 0.0764531 0.0749016
0.6908657 0.0790176 0.0772842
0.7052606 0.0816135 0.0797050
0.7196610 0.0846720 0.0821186
0.7331066 0.0880436 0.0843417
0.7464109 0.0914490 0.0865564
0.7604782 0.0945248 0.0884459
0.7745965 0.0975694 0.0902970
0.7888052 0.1008408 0.0921977
0.8040410 0.1048090 0.0940720
0.8193233 0.1088935 0.0961009
0.8268182 0.1109304 0.0971490
0.0195648 0.0392212 0.0307602
0.0329075 0.0377799 0.0266709
0.0460253 0.0390151 0.0265603
0.0597936 0.0417836 0.0267722
0.0806561 0.0475622 0.0303800
0.1023362 0.0533641 0.0345527
0.1229225 0.0583627 0.0383693
0.1475495 0.0615846 0.0413737
0.1756005 0.0639919 0.0441083
0.2363590 0.0683955 0.0495017
0.3063068 0.0704180 0.0527151
0.3696669 0.0696868 0.0532729
0.4271565 0.0701430 0.0540887
0.4760186 0.0719397 0.0557299
0.5195549 0.0730335 0.0580025
0.5596933 0.0742634 0.0604408
0.5947481 0.0763251 0.0630805
0.6132968 0.0789611 0.0656609
0.6296652 0.0818253 0.0683085
0.6460946 0.0848278 0.0709321
0.6624246 0.0879012 0.0734939
0.6788792 0.0911433 0.0761509
0.6931043 0.0937860 0.0786499
0.7071781 0.0964330 0.0811724
0.7212638 0.0996031 0.0836624
0.7346319 0.1034560 0.0859221
0.7479950 0.1074113 0.0881848
0.7620368 0.1110934 0.0902209
0.7762669 0.1148776 0.0923153
0.7906166 0.1188557 0.0945211
0.8057594 0.1229553 0.0966032
0.8209323 0.1271454 0.0988324
0.8283675 0.1292246 0.0999759
0.0235720 0.0592777 0.0398235
0.0352982 0.0581434 0.0329821
0.0471858 0.0550734 0.0297458
0.0580352 0.0542977 0.0284273
0.0772447 0.0586329 0.0312955
0.0966687 0.0628896 0.0346859
0.1150797 0.0664850 0.0378282
0.1391883 0.0692915 0.0407628
0.1673891 0.0719569 0.0438150
0.2289736 0.0768664 0.0496312
0.3014421 0.0809639 0.0533433
0.3656250 0.0822428 0.0548248
0.4246516 0.0832317 0.0561058
0.4760065 0.0841816 0.0574290
0.5210509 0.0848779 0.0592878
0.5620725 0.0862701 0.0614744
0.5973628 0.0889183 0.0639184
0.6158696 0.0921091 0.0665862
0.6322077 0.0954850 0.0693684
0.6486129 0.0988823 0.0720818
0.6649587 0.1022016 0.0746917
0.6813063 0.1058955 0.0772981
0.6953874 0.1089104 0.0798533
0.7094989 0.1120082 0.0824932
0.7237456 0.1157468 0.0851105
0.7370853 0.1199416 0.0874511
0.7503742 0.1241577 0.0897943
0.7642385 0.1282132 0.0920425
0.7782889 0.1323717 0.0943758
0.7924619 0.1366833 0.0968195
0.8075082 0.1409125 0.0991068
0.8225681 0.1452061 0.1015338
0.8299421 0.1473265 0.1027713
0.0270908 0.0772362 0.0469599
0.0355692 0.0756426 0.0378005
0.0494073 0.0736026 0.0346233
0.0596210 0.0708177 0.0313341
0.0740773 0.0701111 0.0329979
0.0914336 0.0725204 0.0355531
0.1084373 0.0748519 0.0381460
0.1332418 0.0779060 0.0411982
0.1621349 0.0816096 0.0445870
0.2248102 0.0890697 0.0507893
0.2967898 0.0937038 0.0548188
0.3617760 0.0952114 0.0566083
0.4224989 0.0961159 0.0581172
0.4762744 0.0962680 0.0591411
0.5227203 0.0966209 0.0606133
0.5645399 0.0982083 0.0625621
0.6000383 0.1014480 0.0648032
0.6184364 0.1057320 0.0675667
0.6347568 0.1096938 0.0702189
0.6511180 0.1134484 0.0727286
0.6672817 0.1172121 0.0753424
0.6834443 0.1211446 0.0781095
0.6977126 0.1244255 0.0808922
0.7119853 0.1277889 0.0837682
0.7262811 0.1318091 0.0865639
0.7395570 0.1362876 0.0889863
0.7527696 0.1407600 0.0914077
0.7664647 0.1451769 0.0938591
0.7803384 0.1497040 0.0964281
0.7943397 0.1543482 0.0991057
0.8092855 0.1587032 0.1015952
0.8242287 0.1630968 0.1042169
0.8315396 0.1652568 0.1055471
0.0309429 0.0905667 0.0511237
0.0368008 0.0888924 0.0410485
0.0510635 0.0872848 0.0395549
0.0662022 0.0862795 0.0388135
0.0779222 0.0838811 0.0376505
0.0897592 0.0823401 0.0383569
0.1052448 0.0845170 0.0401255
0.1303376 0.0882413 0.0429075
0.1589085 0.0927405 0.0461354
0.2211326 0.1013440 0.0520642
0.2925820 0.1063536 0.0563407
0.3583476 0.1080292 0.0584125
0.4206915 0.1088408 0.0601438
0.4768260 0.1082430 0.0608905
0.5237601 0.1091270 0.0622267
0.5652061 0.1127937 0.0644746
0.6020475 0.1169072 0.0663154
0.6209578 0.1207545 0.0686253
0.6373327 0.1244270 0.0708919
0.6536756 0.1281168 0.0732551
0.6696747 0.1321221 0.0760356
0.6856468 0.1362913 0.0789567
0.7000744 0.1398329 0.0819608
0.7144969 0.1434624 0.0850684
0.7288341 0.1477671 0.0880381
0.7420442 0.1525226 0.0905393
0.7551785 0.1572449 0.0930357
0.7687108 0.1620124 0.0956840
0.7824110 0.1669009 0.0984850
0.7962199 0.1723450 0.1011652
0.8110464 0.1775630 0.1036266
0.8258763 0.1829842 0.1062407
0.8331360 0.1856930 0.1075763
0.0353373 0.1045325 0.0552545
0.0384750 0.1025218 0.0441141
0.0526240 0.1020336 0.0443313
0.0680883 0.1018184 0.0444342
0.0822626 0.1012668 0.0436751
0.0921457 0.0979236 0.0421018
0.1021870 0.0952448 0.0421822
0.1279120 0.0994568 0.0448476
0.1560813 0.1044922 0.0478656
0.2178263 0.1137945 0.0534156
0.2887045 0.1189580 0.0578845
0.3552973 0.1207427 0.0602436
0.4179485 0.1223218 0.0622858
0.4737091 0.1232414 0.0634196
0.5210984 0.1256142 0.0650129
0.5647788 0.1291651 0.0669648
0.6042965 0.1322588 0.0678798
0.6235515 0.1356966 0.0697332
0.6399847 0.1390871 0.0716219
0.6563035 0.1427210 0.0738471
0.6721312 0.1469641 0.0767860
0.6879063 0.1513666 0.0798535
0.7024725 0.1551627 0.0830734
0.7170323 0.1590577 0.0864081
0.7312999 0.1637875 0.0894944
0.7442472 0.1691849 0.0919486
0.7572430 0.1744415 0.0944440
0.7706388 0.1800487 0.0970470
0.7842426 0.1859594 0.0996905
0.7980162 0.1920122 0.1023669
0.8127697 0.1978514 0.1050743
0.8275209 0.2037957 0.1079363
0.8347400 0.2067249 0.1093939
0.0415581 0.1246839 0.0608489
0.0424740 0.1225929 0.0481907
0.0558524 0.1209016 0.0482735
0.0702777 0.1199272 0.0485434
0.0838209 0.1188833 0.0480912
0.0954042 0.1174554 0.0467176
0.1085302 0.1140072 0.0456462
0.1258950 0.1118440 0.0467712
0.1535957 0.1170579 0.0496060
0.2139411 0.1261468 0.0546275
0.2822878 0.1319262 0.0590508
0.3487297 0.1351967 0.0619267
0.4128898 0.1375906 0.0646163
0.4696137 0.1392370 0.0662122
0.5187836 0.1420373 0.0678385
0.5646513 0.1454457 0.0695012
0.6068233 0.1475218 0.0695034
0.6262138 0.1505818 0.0708952
0.6427104 0.1536976 0.0724151
0.6589957 0.1572915 0.0745190
0.6744871 0.1619823 0.0775758
0.6897305 0.1671797 0.0806498
0.7040731 0.1717164 0.0839114
0.7183833 0.1762686 0.0872556
0.7325829 0.1814381 0.0903795
0.7458176 0.1869275 0.0930047
0.7590247 0.1922499 0.0956699
0.7724838 0.1983885 0.0982881
0.7860868 0.2049112 0.1009159
0.7998268 0.2115085 0.1036082
0.8145049 0.2179396 0.1065592
0.8291752 0.2243787 0.1096669
0.8363527 0.2275145 0.1112455
0.0480949 0.1466201 0.0663938
0.0474085 0.1454132 0.0524544
0.0596966 0.1409979 0.0511895
0.0729512 0.1388254 0.0515847
0.0859642 0.1375192 0.0522263
0.0976573 0.1358568 0.0520094
0.1186084 0.1362168 0.0515917
0.1333516 0.1324264 0.0506084
0.1484186 0.1288282 0.0510286
0.2045911 0.1368560 0.0551208
0.2733804 0.1457691 0.0599230
0.3421905 0.1500152 0.0636189
0.4081646 0.1528751 0.0669107
0.4659121 0.1552050 0.0690079
0.5168475 0.1584268 0.0707089
0.5648647 0.1616500 0.0720855
0.6091395 0.1628649 0.0711704
0.6273534 0.1663645 0.0721559
0.6436075 0.1699547 0.0732240
0.6598585 0.1742016 0.0750597
0.6751994 0.1793671 0.0780990
0.6906855 0.1845367 0.0811884
0.7051681 0.1891473 0.0845740
0.7195718 0.1937671 0.0880485
0.7339437 0.1990223 0.0913148
0.7474441 0.2045912 0.0941070
0.7608412 0.2099678 0.0969382
0.7743507 0.2166285 0.0995695
0.7879436 0.2237362 0.1021851
0.8016454 0.2308518 0.1048992
0.8162461 0.2378423 0.1080916
0.8308334 0.2447444 0.1114426
0.8379683 0.2480717 0.1131411
0.0538317 0.1661956 0.0706790
0.0529181 0.1666578 0.0570214
0.0631410 0.1598167 0.0534650
0.0752994 0.1569770 0.0543620
0.0877504 0.1560457 0.0564823
0.1004951 0.1550238 0.0577004
0.1189340 0.1545331 0.0564477
0.1357761 0.1538139 0.0548564
0.1489421 0.1489276 0.0534939
0.1956738 0.1487343 0.0558982
0.2646802 0.1604002 0.0608155
0.3360894 0.1650751 0.0652931
0.4037877 0.1682024 0.0691341
0.4626346 0.1711641 0.0717886
0.5143627 0.1750182 0.0736943
0.5621343 0.1785820 0.0747299
0.6059176 0.1805920 0.0731192
0.6255307 0.1840154 0.0735554
0.6433444 0.1874174 0.0740599
0.6604814 0.1916016 0.0756514
0.6760565 0.1967537 0.0787063
0.6917863 0.2018771 0.0818007
0.7063801 0.2065485 0.0853084
0.7208562 0.2112215 0.0889066
0.7353853 0.2165561 0.0923083
0.7491267 0.2221898 0.0952633
0.7626901 0.2276071 0.0982569
0.7762345 0.2347861 0.1008970
0.7896900 0.2422209 0.1034641
0.8029395 0.2485967 0.1061127
0.8171268 0.2547416 0.1095355
0.8313552 0.2606098 0.1132229
0.8383273 0.2633823 0.1151279
0.0690501 0.2125550 0.0801649
0.0678958 0.2131933 0.0654082
0.0762469 0.2107805 0.0597413
0.0893523 0.2086550 0.0614420
0.1024992 0.2066584 0.0640611
0.1157158 0.2041464 0.0660858
0.1296827 0.2006830 0.0660995
0.1427090 0.1972465 0.0653836
0.1582402 0.1948394 0.0641658
0.1920766 0.1825739 0.0604066
0.2466228 0.1866747 0.0626827
0.3194174 0.1909662 0.0679292
0.3875116 0.1960029 0.0726747
0.4519075 0.2021095 0.0779564
0.5048880 0.2065055 0.0797138
0.5546318 0.2100620 0.0794658
0.6009087 0.2128850 0.0767898
0.6229712 0.2160867 0.0762219
0.6435206 0.2191269 0.0757296
0.6620106 0.2232043 0.0769818
0.6780130 0.2282714 0.0800342
0.6932077 0.2336907 0.0838614
0.7071187 0.2382689 0.0876970
0.7213727 0.2421207 0.0907461
0.7358076 0.2465242 0.0934834
0.7491630 0.2514636 0.0962541
0.7622859 0.2561018 0.0989498
0.7756490 0.2621995 0.1016730
0.7892408 0.2682664 0.1045991
0.8030825 0.2740724 0.1078116
0.8174500 0.2805253 0.1120334
0.8317846 0.2867159 0.1165541
0.8387818 0.2896512 0.1188796
0.0804372 0.2583574 0.0868896
0.0797612 0.2601083 0.0732662
0.0852069 0.2598532 0.0637925
0.0995257 0.2585202 0.0658152
0.1139878 0.2565919 0.0684287
0.1279341 0.2537487 0.0710019
0.1404203 0.2495745 0.0730870
0.1517583 0.2450005 0.0747356
0.1653187 0.2406769 0.0748110
0.1940871 0.2321522 0.0717059
0.2224123 0.2114047 0.0671698
0.2941777 0.2171358 0.0716503
0.3671823 0.2260856 0.0777185
0.4417688 0.2354853 0.0856108
0.4960185 0.2394299 0.0859896
0.5473725 0.2442391 0.0846524
0.5937757 0.2501939 0.0840835
0.6154365 0.2551282 0.0852710
0.6353650 0.2600524 0.0870552
0.6531400 0.2644284 0.0893380
0.6698061 0.2675685 0.0911142
0.6870329 0.2698975 0.0922183
0.7028514 0.2716312 0.0928165
0.7189957 0.2728700 0.0928318
0.7343269 0.2759765 0.0941962
0.7478198 0.2804561 0.0967978
0.7611308 0.2847218 0.0993109
0.7750582 0.2901353 0.1025025
0.7892647 0.2954516 0.1059618
0.8036745 0.3008169 0.1097634
0.8178125 0.3080782 0.1145753
0.8321002 0.3149293 0.1191820
0.8391493 0.3181618 0.1213620
0.0878811 0.3012849 0.0908965
0.0869834 0.3035429 0.0777617
0.0891821 0.3047312 0.0654628
0.1052530 0.3048720 0.0674753
0.1217896 0.3045666 0.0699054
0.1384912 0.3037172 0.0726588
0.1548350 0.3021453 0.0755553
0.1701813 0.2999403 0.0779308
0.1873102 0.2978385 0.0807171
0.2204882 0.2924347 0.0844454
0.2677121 0.2866222 0.0810907
0.2832758 0.2527208 0.0763266
0.3551080 0.2607914 0.0816341
0.4290593 0.2702295 0.0871043
0.4875101 0.2764407 0.0889835
0.5389995 0.2839669 0.0916996
0.5826147 0.2927544 0.0959008
0.6041292 0.2987225 0.0989499
0.6239869 0.3044796 0.1023524
0.6430306 0.3067880 0.1031822
0.6621459 0.3065786 0.1019302
0.6815419 0.3057874 0.1000805
0.6982594 0.3066224 0.0987433
0.7145758 0.3085092 0.0985900
0.7293287 0.3129902 0.1011075
0.7427789 0.3174536 0.1039168
0.7566177 0.3207455 0.1058389
0.7710541 0.3250421 0.1081772
0.7858127 0.3289042 0.1100695
0.8008486 0.3330355 0.1119701
0.8160429 0.3397153 0.1154418
0.8313947 0.3462799 0.1187114
0.8389675 0.3494790 0.1202380
0.0922108 0.3453869 0.0983417
0.0910165 0.3472458 0.0831669
0.0900345 0.3486167 0.0673806
0.1063673 0.3490970 0.0675998
0.1246613 0.3491186 0.0693672
0.1433078 0.3487888 0.0715043
0.1620084 0.3481649 0.0740179
0.1802868 0.3472216 0.0765370
0.2000320 0.3461822 0.0794886
0.2398787 0.3431334 0.0844707
0.2832599 0.3378197 0.0842760
0.3343166 0.3346273 0.0830122
0.3461202 0.2994954 0.0844863
0.4174223 0.3076670 0.0882486
0.4802483 0.3152919 0.0927200
0.5304011 0.3235086 0.0973476
0.5727734 0.3317241 0.1017098
0.5953635 0.3370045 0.1041464
0.6165124 0.3420469 0.1066205
0.6358796 0.3443250 0.1071651
0.6541955 0.3466089 0.1081457
0.6716733 0.3498975 0.1101784
0.6874385 0.3536106 0.1122598
0.7028740 0.3581508 0.1154623
0.7187581 0.3606912 0.1170227
0.7344802 0.3608627 0.1165838
0.7506969 0.3597231 0.1151076
0.7664052 0.3613033 0.1147800
0.7823404 0.3626408 0.1140830
0.7984589 0.3652387 0.1139909
0.8146537 0.3717214 0.1162840
0.8308659 0.3788297 0.1191349
0.8390369 0.3822526 0.1204511
0.0970209 0.3905312 0.1089207
0.0959002 0.3919735 0.0921998
0.0950219 0.3929496 0.0748608
0.1076348 0.3934983 0.0698525
0.1272438 0.3936549 0.0711175
0.1473573 0.3936164 0.0728200
0.1677014 0.3934569 0.0749584
0.1879028 0.3930355 0.0771612
0.2091918 0.3923890 0.0796543
0.2528904 0.3902901 0.0841318
0.2978402 0.3871505 0.0865368
0.3469021 0.3840630 0.0865366
0.3904541 0.3781428 0.0852084
0.4103066 0.3447629 0.0872401
0.4696980 0.3503891 0.0911751
0.5197948 0.3573032 0.0948525
0.5653200 0.3649934 0.0982458
0.5892966 0.3708096 0.1014825
0.6115687 0.3764376 0.1045606
0.6293216 0.3819147 0.1090005
0.6457542 0.3884100 0.1149516
0.6614126 0.3953935 0.1213937
0.6767923 0.4003551 0.1256763
0.6925760 0.4046673 0.1295630
0.7106319 0.4031328 0.1279276
0.7280317 0.4005321 0.1254298
0.7449476 0.3988628 0.1237840
0.7607194 0.4007568 0.1239611
0.7763649 0.4032397 0.1248620
0.7926493 0.4069842 0.1261560
0.8106374 0.4118220 0.1265766
0.8291889 0.4160292 0.1261958
0.8385538 0.4183258 0.1264052
0.1021379 0.4363318 0.1209785
0.1011128 0.4372645 0.1032252
0.1005749 0.4378592 0.0848023
0.1089009 0.4381767 0.0742456
0.1295556 0.4382890 0.0750384
0.1507236 0.4382340 0.0762602
0.1721741 0.4380259 0.0778391
0.1937095 0.4375517 0.0794854
0.2160427 0.4369800 0.0816581
0.2623638 0.4349849 0.0857549
0.3084307 0.4316759 0.0885234
0.3561325 0.4283221 0.0895167
0.4024398 0.4252691 0.0889754
0.4377374 0.4126710 0.0881538
0.4583050 0.3859939 0.0899804
0.5098462 0.3912928 0.0930864
0.5569144 0.3982234 0.0965955
0.5814726 0.4037691 0.1004594
0.6041997 0.4090553 0.1039634
0.6215103 0.4148403 0.1097032
0.6388706 0.4207938 0.1155301
0.6560077 0.4261617 0.1204337
0.6726274 0.4306686 0.1241234
0.6894097 0.4353289 0.1278556
0.7068358 0.4365150 0.1292382
0.7229190 0.4378838 0.1310917
0.7384586 0.4401415 0.1336325
0.7538773 0.4432898 0.1359372
0.7691975 0.4468068 0.1389298
0.7865229 0.4499570 0.1398885
0.8068986 0.4518092 0.1369765
0.8280725 0.4524610 0.1326393
0.8384945 0.4532763 0.1315082
0.1082720 0.4813025 0.1338847
0.1071434 0.4818810 0.1154046
0.1067709 0.4823450 0.0963611
0.1102507 0.4824973 0.0803239
0.1315378 0.4825146 0.0808980
0.1533000 0.4823281 0.0818209
0.1753874 0.4819213 0.0829906
0.1977027 0.4812500 0.0842636
0.2204064 0.4804422 0.0859641
0.2679157 0.4780479 0.0894442
0.3158625 0.4747659 0.0922905
0.3632001 0.4713927 0.0938520
0.4088011 0.4683054 0.0940780
0.4516099 0.4655455 0.0930049
0.4755425 0.4470166 0.0921396
0.4999793 0.4248628 0.0935364
0.5453342 0.4309436 0.0980514
0.5711268 0.4359916 0.1019503
0.5946024 0.4409805 0.1056497
0.6135883 0.4462940 0.1105651
0.6328754 0.4517825 0.1153185
0.6513446 0.4568760 0.1193337
0.6689196 0.4613931 0.1226925
0.6866170 0.4656994 0.1258750
0.7032292 0.4688573 0.1302479
0.7188442 0.4718239 0.1344086
0.7345834 0.4743984 0.1377594
0.7509531 0.4762343 0.1395027
0.7674339 0.4782325 0.1414497
0.7866505 0.4793709 0.1397942
0.8081819 0.4798075 0.1349380
0.8298391 0.4804020 0.1299685
0.8403927 0.4817447 0.1300121
0.1147957 0.5254256 0.1470808
0.1138611 0.5259632 0.1280874
0.1132804 0.5262354 0.1085829
0.1132485 0.5263620 0.0886835
0.1332491 0.5262876 0.0875371
0.1553397 0.5259779 0.0882480
0.1778169 0.5254044 0.0891245
0.2006119 0.5245679 0.0901140
0.2236030 0.5235598 0.0914206
0.2720368 0.5207901 0.0942544
0.3211531 0.5173409 0.0969873
0.3686979 0.5138413 0.0989107
0.4140451 0.5105905 0.0997142
0.4561008 0.5076972 0.0993497
0.4950893 0.5053199 0.0980448
0.5130222 0.4805059 0.0970482
0.5363543 0.4635973 0.0995439
0.5628669 0.4675108 0.1032912
0.5863130 0.4714820 0.1067738
0.6065422 0.4756525 0.1107356
0.6268387 0.4799841 0.1145673
0.6459838 0.4839259 0.1177955
0.6646280 0.4876762 0.1206497
0.6833392 0.4913980 0.1235383
0.7009439 0.4944634 0.1278095
0.7175149 0.4974182 0.1318417
0.7341525 0.5000063 0.1349349
0.7511454 0.5021833 0.1368770
0.7682348 0.5045135 0.1389041
0.7882750 0.5060830 0.1366815
0.8099340 0.5073926 0.1322685
0.8316598 0.5091126 0.1287240
0.8425249 0.5106836 0.1305745
0.1193737 0.5553462 0.1562545
0.1185532 0.5559308 0.1370206
0.1179230 0.5561831 0.1172555
0.1178865 0.5563228 0.0971391
0.1343727 0.5561991 0.0923610
0.1566248 0.5557943 0.0929530
0.1792950 0.5551059 0.0936752
0.2023006 0.5541584 0.0945175
0.2254197 0.5530269 0.0956182
0.2742180 0.5500261 0.0981207
0.3237327 0.5463940 0.1007392
0.3714851 0.5426821 0.1028208
0.4169978 0.5392058 0.1039539
0.4593523 0.5360788 0.1040029
0.4986704 0.5333411 0.1029745
0.5319431 0.5287091 0.1016871
0.5366350 0.4918238 0.1010386
0.5578934 0.4888091 0.1037445
0.5808729 0.4919729 0.1071047
0.6016794 0.4954035 0.1106537
0.6225345 0.4990558 0.1140445
0.6422739 0.5024404 0.1168902
0.6617656 0.5057994 0.1194797
0.6811947 0.5091550 0.1222716
0.6995250 0.5122007 0.1264612
0.7168127 0.5151534 0.1303637
0.7341193 0.5176771 0.1330833
0.7517362 0.5198478 0.1347511
0.7695558 0.5220606 0.1363293
0.7902970 0.5233647 0.1337443
0.8120852 0.5244250 0.1300238
0.8339004 0.5255809 0.1266662
0.8449341 0.5268448 0.1281214
0.1235849 0.5829972 0.1646574
0.1228592 0.5836329 0.1453010
0.1223214 0.5839571 0.1254434
0.1221588 0.5840754 0.1051999
0.1352012 0.5839708 0.0970241
0.1574610 0.5835321 0.0975581
0.1801716 0.5828070 0.0982077
0.2032361 0.5818242 0.0989780
0.2264115 0.5806352 0.0999576
0.2754718 0.5774972 0.1022240
0.3254035 0.5736885 0.1046691
0.3735382 0.5697253 0.1067339
0.4192318 0.5659654 0.1080180
0.4616684 0.5624996 0.1083044
0.5007898 0.5593530 0.1075293
0.5366584 0.5567423 0.1061727
0.5544768 0.5356128 0.1051647
0.5568716 0.5126880 0.1047431
0.5763626 0.5114758 0.1074490
0.5978315 0.5141860 0.1107276
0.6193016 0.5172323 0.1138503
0.6396475 0.5201632 0.1165194
0.6598188 0.5231943 0.1190175
0.6797237 0.5262314 0.1217770
0.6987561 0.5290161 0.1254120
0.7166441 0.5316722 0.1286592
0.7346341 0.5339067 0.1307104
0.7529742 0.5358933 0.1319811
0.7715178 0.5379098 0.1332844
0.7926301 0.5389712 0.1306747
0.8143291 0.5398704 0.1273469
0.8360769 0.5408604 0.1243514
0.8472571 0.5417741 0.1250834
0.1277476 0.6105563 0.1731620
0.1271257 0.6112521 0.1536983
0.1266886 0.6116504 0.1337475
0.1264469 0.6117718 0.1133722
0.1360356 0.6117132 0.1017706
0.1583062 0.6112321 0.1022510
0.1810512 0.6104659 0.1028392
0.2041470 0.6094441 0.1035469
0.2273443 0.6081994 0.1044212
0.2765185 0.6049474 0.1064971
0.3266636 0.6010023 0.1088134
0.3751163 0.5968270 0.1108635
0.4211556 0.5927951 0.1122699
0.4641444 0.5890634 0.1128011
0.5039315 0.5856696 0.1123660
0.5404392 0.5826463 0.1110947
0.5731302 0.5790684 0.1089999
0.5741720 0.5553313 0.1085605
0.5766855 0.5346436 0.1083815
0.5955821 0.5334831 0.1110261
0.6171829 0.5359095 0.1139737
0.6377192 0.5383011 0.1164935
0.6582087 0.5408939 0.1188683
0.6784233 0.5434961 0.1214206
0.6980998 0.5459103 0.1243502
0.7165824 0.5482324 0.1269025
0.7352676 0.5501384 0.1282903
0.7543507 0.5519279 0.1292321
0.7736676 0.5537805 0.1301622
0.7950172 0.5545590 0.1274225
0.8166064 0.5552448 0.1242776
0.8383508 0.5559937 0.1214481
0.8496377 0.5564874 0.1213008
0.1319628 0.6380696 0.1817062
0.1313557 0.6387607 0.1620745
0.1310028 0.6392219 0.1420649
0.1308197 0.6394088 0.1216401
0.1368081 0.6393722 0.1065707
0.1590377 0.6388766 0.1070165
0.1817637 0.6381047 0.1075692
0.2048379 0.6370769 0.1082374
0.2280284 0.6358095 0.1090387
0.2772811 0.6324885 0.1109611
0.3276806 0.6283512 0.1130848
0.3764345 0.6239053 0.1150361
0.4227240 0.6195366 0.1164727
0.4659978 0.6153973 0.1171066
0.5062092 0.6116292 0.1168475
0.5435094 0.6082721 0.1157188
0.5778218 0.6051698 0.1137490
0.5943190 0.5985356 0.1124079
0.5947724 0.5768197 0.1120123
0.5957707 0.5559343 0.1115651
0.6149845 0.5548523 0.1140016
0.6357728 0.5566538 0.1164539
0.6565916 0.5587610 0.1187580
0.6771868 0.5608833 0.1210285
0.6974800 0.5628494 0.1231767
0.7166023 0.5648858 0.1251048
0.7360606 0.5666813 0.1262149
0.7557514 0.5684654 0.1270963
0.7755204 0.5703351 0.1279849
0.7968441 0.5711646 0.1255600
0.8182342 0.5720946 0.1231263
0.8398999 0.5731545 0.1211603
0.8510403 0.5737265 0.1210089
0.1361544 0.6655489 0.1902627
0.1355343 0.6662096 0.1704654
0.1352606 0.6667290 0.1504183
0.1351538 0.6669847 0.1299660
0.1375561 0.6669912 0.1114142
0.1597292 0.6664904 0.1118354
0.1824159 0.6657260 0.1123667
0.2054498 0.6647036 0.1130061
0.2286301 0.6634223 0.1137459
0.2779118 0.6600418 0.1155262
0.3284094 0.6558334 0.1175477
0.3774401 0.6512634 0.1194662
0.4241856 0.6466940 0.1209622
0.4681242 0.6423162 0.1217451
0.5090177 0.6381748 0.1216257
0.5469588 0.6343330 0.1205528
0.5819862 0.6307605 0.1185706
0.6032649 0.6285953 0.1168475
0.6153054 0.6193944 0.1153633
0.6156995 0.5979746 0.1151471
0.6162098 0.5771840 0.1147275
0.6349120 0.5758922 0.1168233
0.6560183 0.5775295 0.1190605
0.6769456 0.5792578 0.1211383
0.6977582 0.5810361 0.1230840
0.7172569 0.5828825 0.1247965
0.7370110 0.5844294 0.1256435
0.7569201 0.5860247 0.1263309
0.7769842 0.5876582 0.1268184
0.7983234 0.5885074 0.1247377
0.8196920 0.5894771 0.1227319
0.8414100 0.5904940 0.1210595
0.8524745 0.5909323 0.1205521
0.1403090 0.6930036 0.1988124
0.1397289 0.6936562 0.1789048
0.1395016 0.6942046 0.1587967
0.1394525 0.6945148 0.1383216
0.1395538 0.6945798 0.1174976
0.1604610 0.6941039 0.1166993
0.1831131 0.6933530 0.1172131
0.2060926 0.6923371 0.1178242
0.2292254 0.6910537 0.1185174
0.2784589 0.6876582 0.1201991
0.3290382 0.6833821 0.1221154
0.3783064 0.6786606 0.1239611
0.4254273 0.6738329 0.1254494
0.4699199 0.6691990 0.1263281
0.5115671 0.6647745 0.1263530
0.5503579 0.6606120 0.1254270
0.5864260 0.6567330 0.1235540
0.6083163 0.6543503 0.1218610
0.6277043 0.6521840 0.1199506
0.6374140 0.6406518 0.1185427
0.6364803 0.6185767 0.1177497
0.6367319 0.5979825 0.1174923
0.6557962 0.5968113 0.1193955
0.6769855 0.5980645 0.1213045
0.6981701 0.5994976 0.1230006
0.7180106 0.6010661 0.1244574
0.7380454 0.6023254 0.1250242
0.7581758 0.6036964 0.1254730
0.7785403 0.6050659 0.1255453
0.7998574 0.6059216 0.1239188
0.8212085 0.6068895 0.1223555
0.8429672 0.6077639 0.1207366
0.8539649 0.6080293 0.1197690
0.1444325 0.7203931 0.2072345
0.1439311 0.7210958 0.1873365
0.1436825 0.7216235 0.1671300
0.1436875 0.7219889 0.1466587
0.1438402 0.7221171 0.1258453
0.1612033 0.7217205 0.1215916
0.1837861 0.7209959 0.1220944
0.2066810 0.7200048 0.1226874
0.2297504 0.7187441 0.1233512
0.2788964 0.7153959 0.1249707
0.3295276 0.7111412 0.1268268
0.3790480 0.7063920 0.1286495
0.4266540 0.7014606 0.1301736
0.4717965 0.6965931 0.1311265
0.5142135 0.6918495 0.1312565
0.5538334 0.6872986 0.1304285
0.5908027 0.6829983 0.1286110
0.6132876 0.6803300 0.1268952
0.6332494 0.6779361 0.1249651
0.6525116 0.6756241 0.1227815
0.6597936 0.6617244 0.1214454
0.6586988 0.6398174 0.1207604
0.6577059 0.6184842 0.1198747
0.6771276 0.6171940 0.1213753
0.6987271 0.6182896 0.1229203
0.7189460 0.6195912 0.1242117
0.7392342 0.6206476 0.1246784
0.7595782 0.6218929 0.1250854
0.7801851 0.6231562 0.1251013
0.8014910 0.6241133 0.1239932
0.8228326 0.6251978 0.1228747
0.8445952 0.6261487 0.1214830
0.8554944 0.6264956 0.1206234
0.1485039 0.7477774 0.2156876
0.1480965 0.7485245 0.1957876
0.1478527 0.7490374 0.1754991
