presets/series/late-summer/series-late-summer-neutral/look.cube
# Approximate v0 colour conversion; calibrate before claiming visual parity.
LUT_3D_SIZE 9
DOMAIN_MIN 0 0 0
DOMAIN_MAX 1 1 1
0.0147560 0.0192737 0.0207919
0.0850401 0.0365962 0.0302848
0.1848097 0.0558803 0.0446355
0.4289681 0.0592608 0.0531374
0.5922044 0.0636045 0.0622701
0.6599354 0.0734610 0.0723073
0.7196610 0.0846720 0.0821186
0.7745965 0.0975694 0.0902970
0.8268182 0.1109304 0.0971490
0.0309429 0.0905667 0.0511237
0.0779222 0.0838811 0.0376505
0.1589085 0.0927405 0.0461354
0.4206915 0.1088408 0.0601438
0.6020475 0.1169072 0.0663154
0.6696747 0.1321221 0.0760356
0.7288341 0.1477671 0.0880381
0.7824110 0.1669009 0.0984850
0.8331360 0.1856930 0.1075763
0.0538317 0.1661956 0.0706790
0.0877504 0.1560457 0.0564823
0.1489421 0.1489276 0.0534939
0.4037877 0.1682024 0.0691341
0.6059176 0.1805920 0.0731192
0.6760565 0.1967537 0.0787063
0.7353853 0.2165561 0.0923083
0.7896900 0.2422209 0.1034641
0.8383273 0.2633823 0.1151279
0.0922108 0.3453869 0.0983417
0.1246613 0.3491186 0.0693672
0.2000320 0.3461822 0.0794886
0.3461202 0.2994954 0.0844863
0.5727734 0.3317241 0.1017098
0.6541955 0.3466089 0.1081457
0.7187581 0.3606912 0.1170227
0.7823404 0.3626408 0.1140830
0.8390369 0.3822526 0.1204511
0.1147957 0.5254256 0.1470808
0.1332491 0.5262876 0.0875371
0.2236030 0.5235598 0.0914206
0.4140451 0.5105905 0.0997142
0.5363543 0.4635973 0.0995439
0.6268387 0.4799841 0.1145673
0.7009439 0.4944634 0.1278095
0.7682348 0.5045135 0.1389041
0.8425249 0.5106836 0.1305745
0.1319628 0.6380696 0.1817062
0.1368081 0.6393722 0.1065707
0.2280284 0.6358095 0.1090387
0.4227240 0.6195366 0.1164727
0.5778218 0.6051698 0.1137490
0.6149845 0.5548523 0.1140016
0.6974800 0.5628494 0.1231767
0.7755204 0.5703351 0.1279849
0.8510403 0.5737265 0.1210089
0.1485039 0.7477774 0.2156876
0.1481145 0.7496354 0.1342200
0.2302821 0.7464494 0.1282340
0.4277350 0.7290938 0.1349066
0.5953737 0.7098272 0.1339081
0.6784252 0.6995616 0.1257643
0.6999543 0.6383203 0.1237874
0.7819538 0.6421354 0.1257436
0.8570457 0.6453009 0.1218454
0.1665101 0.8621945 0.2505824
0.1663516 0.8643604 0.1691184
0.2329952 0.8622166 0.1486925
0.4318659 0.8460013 0.1552079
0.6127423 0.8247104 0.1564835
0.7061907 0.8124405 0.1502131
0.7877524 0.8011508 0.1384061
0.7905543 0.7266056 0.1314041
0.8649844 0.7284750 0.1304255
0.1840229 0.9651209 0.2817364
0.1837654 0.9674443 0.2004271
0.2365573 0.9660299 0.1669573
0.4351855 0.9513116 0.1733528
0.6246873 0.9302228 0.1767887
0.7265954 0.9174548 0.1732594
0.8164056 0.9056946 0.1646163
0.8830351 0.8871954 0.1533084
0.8741987 0.8103348 0.1423791
0.0358747 0.0572905 0.1246414
0.0866602 0.0422512 0.1101666
0.1757404 0.0433379 0.1067209
0.4126537 0.0447830 0.1049115
0.5783718 0.0487361 0.1112500
0.6515123 0.0551748 0.1169549
0.7172224 0.0635987 0.1225433
0.7785894 0.0731038 0.1269711
0.8342297 0.0823482 0.1306469
0.0389765 0.0956936 0.1151005
0.0769906 0.0969236 0.1091477
0.1469477 0.0931023 0.1016783
0.4082803 0.1012657 0.1097334
0.5808091 0.1189819 0.1251713
0.6555035 0.1340028 0.1365801
0.7192736 0.1505242 0.1486617
0.7798256 0.1665369 0.1591550
0.8341090 0.1815401 0.1689918
0.0618017 0.1640353 0.1368411
0.0994335 0.1727362 0.1327790
0.1516037 0.1614450 0.1099969
0.3927216 0.1657437 0.1136394
0.5881100 0.1880970 0.1315904
0.6641374 0.2065585 0.1435263
0.7239933 0.2248707 0.1577702
0.7809732 0.2428816 0.1706207
0.8345202 0.2590351 0.1825957
0.0999319 0.3283815 0.1604386
0.1386391 0.3429545 0.1522013
0.1805686 0.3508448 0.1345125
0.3375556 0.3116433 0.1351390
0.5768452 0.3409627 0.1516725
0.6517259 0.3569559 0.1652882
0.7134835 0.3653647 0.1749602
0.7795959 0.3690273 0.1729520
0.8352319 0.3900025 0.1825433
0.1238291 0.5190796 0.2309018
0.1851585 0.5231756 0.2111852
0.2088020 0.5259974 0.1610726
0.3943812 0.5125221 0.1669397
0.5301092 0.4740485 0.1618619
0.6281630 0.4948406 0.1818704
0.6940809 0.5012270 0.1877390
0.7590881 0.5106336 0.2063471
0.8363484 0.5234431 0.2139029
0.1386917 0.6318626 0.2700701
0.2023987 0.6331200 0.2499531
0.2138973 0.6368340 0.1834602
0.4056615 0.6191292 0.1866721
0.5621838 0.6011854 0.1815693
0.6060555 0.5581130 0.1778575
0.6885784 0.5653458 0.1849229
0.7665502 0.5736735 0.1926281
0.8419127 0.5796979 0.1911361
0.1529975 0.7413994 0.3054156
0.2163627 0.7432829 0.2863659
0.2282380 0.7464561 0.2167454
0.4095990 0.7303732 0.2078418
0.5805109 0.7072590 0.2057150
0.6644771 0.6956489 0.1963032
0.6919233 0.6403480 0.1899769
0.7740501 0.6436914 0.1897060
0.8493157 0.6462048 0.1835990
0.1701446 0.8560724 0.3411851
0.2333133 0.8585982 0.3224371
0.2457818 0.8614611 0.2526611
0.4128832 0.8488725 0.2298715
0.5978959 0.8250067 0.2309399
0.6938256 0.8111260 0.2242659
0.7763078 0.7985565 0.2106212
0.7852281 0.7294743 0.1994586
0.8592980 0.7301925 0.1939627
0.1874728 0.9590387 0.3726126
0.2504982 0.9617623 0.3538061
0.2628301 0.9645740 0.2842029
0.4160511 0.9545480 0.2487549
0.6088929 0.9323422 0.2522864
0.7139948 0.9183311 0.2492958
0.8059622 0.9053973 0.2399781
0.8814919 0.8942031 0.2263563
0.8707545 0.8145763 0.2108962
0.0641798 0.0954638 0.2299485
0.1054800 0.0729772 0.2101745
0.1776386 0.0629153 0.2008456
0.3942835 0.0459464 0.1858418
0.5664152 0.0513552 0.1870443
0.6457327 0.0590128 0.1905394
0.7178169 0.0689188 0.1954493
0.7849166 0.0794063 0.2003424
0.8463775 0.0895400 0.2048031
0.0657444 0.1497153 0.2167799
0.0954269 0.1325871 0.2007826
0.1462119 0.1124053 0.1881755
0.4013888 0.1049520 0.1803129
0.5699726 0.1177173 0.1876320
0.6472583 0.1280867 0.1942815
0.7158662 0.1402882 0.2021805
0.7809183 0.1515981 0.2089937
0.8395956 0.1626242 0.2154993
0.0665868 0.1734488 0.1984354
0.0911739 0.1661231 0.1854385
0.1310594 0.1618854 0.1799346
0.3835250 0.1645468 0.1742006
0.5812136 0.1794119 0.1847388
0.6518153 0.1967269 0.1981752
0.7149256 0.2158043 0.2129099
0.7768998 0.2329376 0.2265546
0.8353885 0.2481812 0.2385199
0.1059890 0.3212408 0.2403922
0.1436646 0.3208918 0.2317047
0.1928405 0.3362321 0.2276814
0.3330392 0.3096002 0.1949832
0.5682030 0.3462057 0.2152253
0.6413175 0.3607425 0.2288052
0.7033309 0.3688266 0.2354077
0.7668765 0.3750796 0.2398920
0.8281355 0.3881034 0.2540341
0.1372094 0.5080648 0.3044195
0.2000055 0.5092009 0.2887165
0.2605200 0.5144923 0.2747776
0.3771601 0.5101344 0.2362634
0.5011188 0.4703557 0.2194927
0.6105950 0.4913551 0.2416778
0.6784717 0.5004937 0.2611267
0.7505039 0.5156140 0.2827381
0.8338796 0.5292493 0.2892766
0.1492683 0.6209414 0.3477321
0.2125089 0.6194358 0.3336853
0.2761962 0.6182510 0.3150146
0.3901299 0.6153304 0.2590998
0.5393463 0.5919000 0.2501808
0.5853593 0.5533040 0.2398379
0.6731844 0.5636070 0.2511964
0.7560343 0.5761272 0.2662698
0.8348458 0.5871660 0.2785863
0.1607901 0.7309949 0.3858383
0.2217102 0.7329172 0.3736365
0.2843458 0.7341193 0.3570230
0.3923936 0.7307480 0.2841607
0.5631085 0.7028207 0.2801701
0.6464156 0.6887933 0.2692622
0.6790709 0.6389594 0.2585335
0.7640302 0.6438104 0.2583426
0.8398569 0.6466854 0.2506223
0.1769117 0.8458131 0.4231702
0.2372443 0.8497940 0.4114523
0.3000044 0.8525012 0.3951598
0.3955304 0.8512822 0.3082317
0.5822385 0.8256770 0.3087167
0.6803284 0.8094089 0.3023208
0.7638035 0.7952249 0.2874181
0.7784201 0.7312252 0.2713030
0.8524378 0.7312664 0.2588409
0.1941771 0.9490127 0.4556341
0.2543521 0.9535660 0.4434440
0.3168666 0.9565456 0.4268558
0.3991437 0.9571159 0.3276165
0.5924152 0.9353343 0.3308884
0.7011350 0.9200937 0.3291655
0.7957566 0.9059066 0.3204497
0.8717633 0.8935172 0.3047483
0.8672180 0.8191612 0.2832092
0.0983490 0.1435749 0.3537954
0.1341646 0.1049005 0.3399044
0.2062838 0.1013846 0.3238686
0.3665149 0.0666044 0.2968125
0.5525258 0.0616883 0.2963180
0.6399019 0.0664055 0.2948154
0.7189194 0.0759177 0.2966306
0.7922576 0.0857969 0.2996234
0.8590102 0.0954479 0.3029471
0.0934144 0.2137382 0.3514279
0.1336948 0.1815286 0.3209607
0.1750657 0.1540496 0.3108366
0.3504646 0.1313022 0.2922531
0.5554162 0.1307051 0.2949038
0.6402737 0.1378465 0.2950215
0.7148785 0.1490197 0.2991637
0.7850455 0.1599849 0.3044635
0.8500819 0.1699204 0.3093274
0.0894305 0.2646046 0.3388039
0.1243933 0.2392763 0.3117126
0.1606631 0.2201984 0.3018949
0.3190852 0.1899819 0.2809407
0.5638373 0.1981923 0.2903424
0.6436152 0.2071469 0.2929645
0.7093573 0.2218086 0.3021988
0.7763333 0.2348060 0.3114388
0.8399735 0.2445638 0.3180477
0.0962557 0.3279332 0.3228385
0.1307493 0.3094618 0.3052076
0.1601434 0.3061408 0.3045658
0.3202438 0.3063644 0.2869839
0.5278752 0.3460268 0.3050336
0.6217406 0.3620747 0.3147278
0.6857087 0.3704261 0.3221170
0.7501950 0.3853986 0.3379107
0.8128993 0.3980197 0.3535582
0.1439368 0.4999776 0.3896053
0.2027896 0.4949417 0.3834856
0.2632510 0.4926391 0.3788866
0.3751038 0.5020944 0.3427615
0.4857245 0.4627875 0.3064088
0.5703545 0.4711760 0.3199999
0.6543690 0.4907882 0.3487101
0.7440063 0.5154541 0.3652355
0.8229488 0.5239421 0.3726017
0.1591761 0.6073481 0.4306959
0.2213671 0.6016101 0.4231351
0.2863872 0.5938577 0.4124111
0.3947586 0.6010375 0.3739366
0.5130464 0.5775142 0.3422606
0.5534244 0.5416327 0.3161522
0.6400593 0.5513119 0.3412684
0.7394248 0.5759924 0.3757613
0.8337232 0.5957823 0.3914927
0.1713493 0.7143193 0.4707308
0.2303970 0.7138378 0.4652912
0.2913252 0.7140112 0.4583864
0.4097343 0.7213767 0.4170210
0.5426896 0.6964616 0.3800264
0.6180057 0.6750532 0.3641705
0.6510475 0.6287212 0.3485326
0.7463292 0.6388901 0.3639041
0.8310210 0.6506117 0.3665573
0.1879071 0.8279108 0.5105314
0.2453548 0.8316354 0.5059690
0.3051718 0.8358441 0.4994297
0.4265713 0.8453725 0.4566634
0.5638093 0.8292280 0.4113956
0.6642494 0.8089069 0.4063429
0.7482346 0.7910133 0.3926547
0.7683976 0.7317624 0.3742268
0.8428861 0.7331627 0.3626193
0.2058695 0.9309189 0.5452188
0.2628798 0.9362544 0.5401818
0.3221144 0.9417390 0.5329279
0.4431892 0.9512795 0.4887063
0.5727213 0.9411406 0.4335159
0.6858183 0.9250832 0.4345364
0.7848660 0.9090948 0.4295987
0.8619289 0.8954813 0.4155805
0.8650178 0.8283827 0.3910753
0.1437117 0.2028702 0.4847488
0.1629812 0.1431777 0.4712019
0.2307694 0.1330215 0.4495314
0.3922505 0.1062080 0.4321077
0.5356704 0.0804790 0.4069581
0.6311961 0.0797263 0.4060125
0.7185413 0.0848117 0.4054131
0.7983326 0.0924596 0.4059145
0.8694326 0.1008073 0.4072617
0.1410866 0.2813564 0.4921400
0.1842015 0.2482693 0.4674645
0.2138250 0.1952979 0.4526426
0.3765908 0.1725227 0.4259313
0.5359627 0.1514763 0.4096808
0.6311423 0.1523442 0.4084563
0.7154447 0.1584887 0.4076889
0.7917353 0.1668061 0.4084806
0.8605457 0.1756295 0.4105420
0.1323830 0.3541636 0.4915760
0.1754922 0.3286180 0.4759811
0.2245254 0.2951567 0.4535062
0.3563247 0.2375802 0.4175833
0.5367482 0.2243597 0.4124890
0.6306003 0.2260338 0.4100938
0.7092069 0.2330819 0.4090376
0.7811488 0.2417466 0.4107199
0.8476677 0.2510392 0.4143509
0.1248469 0.4236552 0.4657214
0.1567165 0.4167397 0.4632846
0.1958315 0.4176635 0.4691692
0.3458387 0.3673645 0.4257678
0.5277665 0.3596593 0.4166929
0.6129931 0.3625318 0.4106785
0.6832378 0.3669182 0.4081463
0.7475855 0.3750944 0.4135542
0.8135146 0.3840409 0.4228290
0.1427915 0.5017576 0.4626148
0.1919620 0.4931925 0.4591716
0.2379582 0.4902241 0.4621425
0.3638984 0.4633680 0.4319761
0.4932260 0.4647195 0.4123281
0.5853250 0.4831234 0.4244457
0.6610150 0.4992682 0.4400354
0.7292226 0.5114073 0.4457788
0.8033479 0.5244588 0.4533923
0.1612951 0.6008202 0.5023247
0.2221728 0.5895143 0.4963794
0.2900468 0.5757639 0.4902285
0.4208673 0.5703385 0.4867484
0.5221599 0.5851074 0.4609089
0.5585168 0.5428883 0.4244382
0.6387679 0.5551080 0.4377280
0.7376184 0.5817812 0.4689582
0.8325967 0.6061552 0.4886642
0.1781931 0.6989180 0.5411167
0.2361895 0.6924414 0.5367819
0.2975790 0.6867443 0.5331672
0.4355885 0.6922718 0.5344780
0.5403489 0.7048862 0.4936466
0.6125834 0.6738496 0.4763736
0.6402436 0.6253410 0.4491757
0.7377100 0.6375152 0.4696796
0.8436917 0.6654870 0.4959577
0.1987348 0.8076312 0.5821252
0.2539690 0.8080175 0.5805664
0.3113822 0.8099557 0.5794206
0.4441202 0.8234870 0.5771017
0.5518802 0.8368123 0.5205161
0.6566080 0.8171777 0.5192234
0.7389830 0.7910439 0.5072825
0.7654020 0.7356678 0.4885983
0.8489487 0.7433716 0.4993461
0.2190955 0.9086118 0.6191119
0.2734626 0.9123506 0.6182868
0.3296856 0.9173527 0.6172822
0.4595417 0.9338804 0.6117815
0.5575226 0.9465137 0.5400683
0.6723299 0.9347006 0.5444744
0.7780381 0.9170385 0.5452545
0.8582529 0.9017683 0.5394825
0.8708621 0.8438009 0.5231085
0.1845585 0.2579216 0.6122374
0.1870695 0.1805630 0.6024740
0.2535021 0.1693859 0.5809341
0.4037640 0.1440714 0.5533696
0.5565877 0.1128599 0.5508024
0.6196518 0.1003832 0.5186197
0.7144398 0.1000417 0.5205591
0.8005038 0.1035038 0.5210307
0.8757898 0.1087871 0.5211196
0.1840870 0.3404586 0.6192045
0.2288212 0.3049444 0.5980446
0.2413543 0.2342189 0.5879926
0.3924417 0.2114590 0.5494096
0.5501779 0.1840224 0.5486973
0.6191014 0.1724071 0.5224442
0.7123269 0.1726870 0.5235981
0.7962725 0.1768391 0.5235180
0.8699585 0.1827746 0.5235562
0.1809507 0.4137094 0.6198078
0.2283516 0.3878369 0.6051860
0.2758160 0.3537593 0.5858357
0.3818157 0.2793250 0.5478081
0.5442727 0.2569394 0.5466888
0.6193067 0.2462873 0.5264668
0.7086403 0.2459664 0.5251070
0.7889845 0.2511304 0.5247053
0.8602211 0.2578016 0.5250563
0.1640668 0.5134136 0.6068377
0.2167180 0.5043447 0.6053840
0.2658545 0.4978900 0.6069110
0.4201151 0.4422156 0.5738060
0.5309119 0.3892852 0.5410730
0.6108691 0.3813141 0.5280259
0.6895962 0.3819128 0.5197925
0.7600866 0.3865780 0.5177588
0.8279675 0.3933245 0.5225924
0.1417456 0.5770558 0.5882892
0.2082431 0.5559248 0.5783727
0.2641753 0.5441809 0.5741499
0.4054527 0.5163123 0.5466028
0.5071338 0.4951379 0.5325097
0.5896028 0.4960855 0.5284115
0.6637802 0.4970658 0.5183305
0.7298844 0.5056594 0.5179129
0.7906548 0.5117750 0.5199577
0.1507190 0.6112093 0.5773579
0.2106307 0.5950201 0.5693781
0.2766388 0.5745165 0.5589585
0.3964132 0.5352692 0.5261542
0.4868096 0.5279081 0.5091403
0.5562635 0.5408785 0.5145254
0.6424481 0.5594436 0.5312538
0.7410006 0.5884301 0.5591319
0.8193755 0.6053176 0.5726393
0.1769110 0.6926999 0.6092183
0.2335312 0.6808452 0.6030761
0.2953898 0.6664499 0.5958099
0.4321539 0.6381312 0.5826826
0.5608426 0.6737833 0.6128242
0.6364566 0.6989962 0.6130585
0.6640990 0.6435029 0.5673748
0.7661542 0.6674275 0.5892518
0.8599321 0.6889122 0.6079431
0.2065083 0.7900893 0.6471437
0.2596639 0.7854090 0.6450027
0.3149111 0.7810079 0.6432262
0.4421667 0.7808304 0.6462820
0.5836680 0.8150434 0.6679402
0.6548304 0.8339244 0.6430592
0.7454336 0.8038077 0.6338034
0.7831958 0.7546004 0.6117839
0.8615740 0.7619890 0.6185447
0.2328505 0.8849512 0.6838585
0.2844857 0.8850667 0.6839676
0.3375121 0.8864487 0.6848632
0.4594184 0.8986498 0.6914906
0.5997770 0.9310798 0.7028203
0.6607850 0.9452963 0.6607307
0.7751620 0.9332333 0.6674409
0.8601236 0.9122947 0.6647594
0.8833426 0.8625537 0.6514852
0.2089883 0.3035231 0.7227762
0.2060432 0.2186427 0.7168650
0.2669440 0.1998698 0.7009868
0.4167831 0.1783346 0.6714881
0.5641447 0.1521262 0.6622452
0.6541981 0.1341751 0.6638990
0.7051718 0.1198460 0.6244065
0.7958065 0.1194790 0.6278561
0.8752294 0.1212455 0.6294909
0.2111093 0.3903378 0.7283621
0.2603101 0.3529364 0.7123714
0.2600340 0.2697938 0.7066851
0.4076982 0.2452995 0.6704180
0.5566929 0.2220995 0.6589659
0.6471041 0.2052888 0.6614504
0.7032679 0.1916644 0.6277595
0.7932635 0.1916670 0.6311300
0.8720112 0.1939532 0.6326214
0.2122587 0.4704414 0.7330471
0.2643599 0.4402841 0.7195146
0.3159301 0.4034162 0.7029244
0.4001199 0.3128791 0.6717074
0.5504949 0.2931785 0.6563922
0.6407627 0.2786120 0.6590872
0.7011208 0.2651591 0.6305663
0.7893993 0.2651629 0.6334599
0.8669777 0.2679718 0.6350855
0.1818503 0.5868360 0.7340278
0.2389007 0.5740374 0.7309135
0.3161772 0.5494705 0.7193556
0.4497732 0.4858966 0.6888190
0.5450076 0.4253837 0.6563928
0.6267589 0.4127182 0.6516082
0.6915138 0.4013634 0.6306903
0.7761109 0.4028084 0.6341160
0.8493889 0.4053864 0.6358643
0.1471901 0.6549687 0.7188643
0.1972127 0.6461756 0.7165231
0.2706506 0.6276680 0.7072280
0.4260193 0.5754518 0.6629867
0.5583604 0.5545682 0.6726451
0.6135586 0.5344313 0.6485954
0.6770156 0.5232981 0.6343226
0.7557076 0.5271174 0.6335057
0.8249788 0.5311908 0.6336216
0.1620463 0.6752692 0.6964111
0.2090879 0.6664736 0.6929750
0.2669742 0.6525662 0.6855221
0.3849121 0.5807547 0.6216103
0.5275441 0.5972488 0.6381741
0.5977149 0.5932221 0.6493646
0.6620324 0.5838728 0.6369269
0.7400246 0.5886296 0.6356821
0.8157527 0.5995300 0.6395595
0.1710205 0.6979330 0.6748953
0.2212709 0.6872505 0.6698256
0.2774902 0.6726548 0.6619459
0.4006098 0.6157909 0.6185651
0.5073553 0.6025396 0.6054809
0.5601379 0.6016719 0.6003921
0.6353035 0.6252557 0.6224539
0.7258587 0.6406240 0.6402965
0.8292558 0.6751338 0.6721964
0.2110434 0.7819159 0.7070039
0.2619094 0.7737471 0.7036203
0.3130134 0.7647253 0.6994644
0.4350267 0.7443506 0.6914338
0.5527053 0.7396932 0.6954763
0.6531464 0.7776610 0.7352306
0.7648939 0.8356919 0.7619297
0.7742293 0.7506280 0.6947342
0.8518721 0.7600861 0.6995556
0.2451900 0.8673651 0.7398428
0.2944392 0.8636803 0.7389491
0.3437226 0.8609246 0.7388203
0.4575093 0.8594958 0.7422693
0.5815472 0.8800299 0.7608570
0.6801253 0.9152046 0.7855154
0.7740781 0.9513423 0.7815192
0.8701647 0.9313972 0.7806163
0.8927943 0.8756882 0.7548696
0.2292748 0.3367863 0.8063792
0.2247465 0.2512647 0.8012406
0.2755510 0.2214489 0.7888517
0.4269784 0.2023923 0.7599523
0.5734469 0.1795242 0.7468593
0.6609524 0.1625015 0.7450444
0.7500506 0.1450359 0.7477386
0.7892254 0.1334025 0.7025610
0.8702872 0.1330064 0.7058861
0.2343745 0.4240388 0.8111347
0.2834470 0.3865306 0.7981165
0.2811675 0.3034350 0.7925959
0.4182107 0.2686998 0.7600299
0.5657220 0.2482723 0.7437785
0.6534018 0.2327772 0.7423443
0.7424454 0.2160669 0.7455613
0.7871800 0.2051881 0.7062408
0.8686246 0.2051395 0.7101052
0.2374914 0.5035340 0.8146902
0.2897405 0.4728759 0.8040866
0.3397328 0.4358643 0.7894224
0.4102029 0.3350283 0.7617279
0.5583522 0.3172034 0.7403579
0.6463303 0.3044614 0.7392697
0.7347959 0.2888536 0.7429787
0.7846948 0.2785027 0.7097256
0.8659266 0.2788540 0.7140257
0.2314457 0.6195324 0.8135660
0.2967649 0.6013343 0.8114664
0.3475736 0.5780918 0.7994044
0.4645865 0.5143171 0.7744628
0.5512518 0.4447860 0.7416119
0.6346492 0.4363876 0.7344432
0.7198331 0.4261448 0.7375836
0.7769580 0.4164509 0.7141784
0.8568958 0.4156999 0.7188847
0.2024463 0.6927438 0.8011060
0.2889266 0.6751837 0.8012882
0.3189720 0.6635054 0.7913074
0.4822722 0.6412896 0.7867826
0.5725872 0.5837503 0.7591690
0.6281102 0.5589378 0.7382487
0.7013540 0.5496509 0.7303910
0.7681739 0.5448095 0.7206056
0.8493121 0.5481181 0.7279156
0.1832333 0.7287458 0.7916979
0.2604719 0.7100208 0.7855969
0.3010679 0.6920995 0.7713115
0.4630862 0.6861424 0.7778072
0.5693318 0.6594999 0.7599941
0.6338982 0.6396910 0.7603900
0.6908537 0.6197983 0.7322210
0.7652740 0.6188890 0.7276874
0.8480142 0.6276345 0.7361073
0.1885584 0.7552617 0.7738756
0.2505898 0.7391457 0.7659878
0.2985355 0.7214144 0.7537046
0.4399272 0.7106910 0.7530392
0.5185022 0.6661963 0.7100599
0.6225885 0.7029636 0.7506748
0.6840689 0.6880697 0.7485427
0.7615795 0.6772848 0.7327566
0.8311012 0.6768413 0.7256093
0.2155177 0.7812128 0.7509149
0.2664509 0.7715885 0.7476951
0.3106670 0.7637601 0.7444012
0.4296140 0.7420384 0.7351156
0.5217690 0.7046578 0.7081072
0.5926809 0.7058128 0.7105427
0.6607832 0.7122082 0.7156392
0.7520765 0.7399169 0.7385442
0.8104434 0.7275551 0.7199734
0.2562881 0.8581300 0.7790083
0.3036565 0.8530524 0.7780579
0.3493611 0.8490227 0.7776699
0.4580710 0.8389627 0.7763210
0.5657518 0.8391669 0.7826490
0.6457356 0.8538255 0.7976799
0.7648825 0.9023345 0.8371631
0.8891748 0.9626720 0.8709004
0.9027545 0.8851557 0.8225006
0.2471644 0.3634258 0.8763837
0.2413777 0.2782686 0.8717491
0.2829225 0.2390680 0.8615806
0.4353982 0.2216025 0.8334409
0.5811568 0.2002675 0.8171890
0.6678571 0.1844938 0.8132181
0.7565432 0.1678992 0.8149367
0.8268131 0.1522617 0.8035904
0.8660910 0.1441480 0.7678795
0.2535716 0.4492513 0.8800731
0.3023275 0.4129098 0.8690255
0.2989934 0.3307168 0.8640175
0.4267063 0.2873881 0.8344151
0.5732412 0.2681773 0.8146376
0.6600805 0.2538931 0.8104253
0.7484522 0.2383356 0.8122848
0.8245640 0.2232844 0.8073238
0.8636780 0.2155804 0.7715612
0.2597743 0.5273433 0.8822696
0.3096463 0.4970545 0.8734776
0.3583073 0.4615733 0.8614289
0.4189491 0.3532068 0.8377196
0.5659722 0.3362375 0.8123861
0.6523802 0.3240408 0.8071873
0.7402097 0.3100714 0.8091203
0.8219191 0.2957047 0.8107032
0.8618553 0.2886701 0.7760106
0.2674566 0.6389149 0.8742478
0.3228511 0.6198863 0.8710693
0.3723374 0.6006456 0.8661558
0.4771323 0.5381859 0.8468217
0.5577506 0.4609771 0.8159551
0.6434277 0.4543911 0.8066229
0.7280774 0.4448430 0.8060606
0.8118677 0.4324802 0.8117460
0.8574562 0.4260235 0.7838866
0.2513031 0.7107184 0.8585210
0.3260800 0.6915012 0.8548117
0.3703850 0.6841648 0.8503826
0.4857649 0.6686318 0.8513544
0.5891841 0.6129671 0.8362820
0.6398219 0.5788060 0.8148320
0.7177865 0.5739985 0.8037543
0.8003555 0.5647190 0.8102282
0.8570348 0.5589733 0.7962543
0.2475031 0.7433031 0.8409354
0.3123623 0.7299508 0.8405501
0.3519026 0.7290788 0.8416699
0.4489625 0.7127666 0.8357200
0.6155022 0.7117680 0.8502088
0.6661549 0.6801850 0.8422008
0.7150030 0.6514440 0.8103410
0.7925445 0.6427972 0.8077363
0.8620655 0.6432335 0.8079158
0.2588679 0.7677542 0.8188504
0.3031029 0.7629376 0.8243451
0.3189618 0.7760421 0.8368153
0.4391992 0.7457823 0.8170398
0.5844699 0.7500882 0.8320560
0.6627044 0.7644693 0.8463292
0.7238558 0.7397276 0.8434499
0.7842795 0.7082151 0.8085281
0.8691575 0.7176810 0.8206696
0.2581504 0.8072888 0.8102064
0.3024224 0.8012333 0.8111936
0.3300525 0.8046692 0.8165988
0.4480357 0.7803735 0.8034183
0.5640338 0.7702358 0.8046652
0.6228105 0.7658517 0.8010248
0.7126464 0.7900593 0.8198386
0.8101112 0.8016923 0.8417483
0.8852804 0.7981205 0.8409983
0.2666115 0.8535136 0.8112171
0.3126694 0.8482999 0.8108801
0.3559000 0.8443090 0.8108583
0.4618819 0.8310498 0.8077325
0.5570859 0.8221528 0.8067304
0.6251178 0.8194122 0.8074725
0.7033431 0.8246831 0.8141930
0.8255063 0.8723128 0.8532409
0.9135985 0.8979717 0.8774202
