catalog/styles/experimental/experimental-church-soft/look.cube
# experimental-church-soft iteration 5
LUT_3D_SIZE 5
DOMAIN_MIN 0 0 0
DOMAIN_MAX 1 1 1
0.1015928 0.0992406 0.1106576
0.1375578 0.0730790 0.0684132
0.5364940 0.0603876 0.0402531
1.0000000 0.0559788 0.0193032
1.0000000 0.2252668 0.0220877
0.1315190 0.1999134 0.0939313
0.2433080 0.2291180 0.0846686
0.7348727 0.3432067 0.0822045
1.0000000 0.4362083 0.0839649
1.0000000 0.4200535 0.0801756
0.2168567 0.4069823 0.1853584
0.5430231 0.6611919 0.1276624
0.9906351 0.8951521 0.1564826
1.0000000 0.8203435 0.1703869
1.0000000 0.6269672 0.1079712
0.6400738 0.9194929 0.6025240
0.8936267 1.0000000 0.4925000
1.0000000 1.0000000 0.3857580
1.0000000 1.0000000 0.2534569
1.0000000 0.9106414 0.0989892
1.0000000 1.0000000 1.0000000
1.0000000 1.0000000 0.9423905
1.0000000 1.0000000 0.6511087
1.0000000 1.0000000 0.3442250
0.9543779 1.0000000 0.0677474
0.0858344 0.0677127 0.0878222
0.0971095 0.0480849 0.0616096
0.4186752 0.0000000 0.0943728
0.8714803 0.0367824 0.1048434
1.0000000 0.1630350 0.1181329
0.0854344 0.2044522 0.1830816
0.1923213 0.1763327 0.1539785
0.6175343 0.3074740 0.2279100
0.9402454 0.3589743 0.1917810
1.0000000 0.3348615 0.1256219
0.2443742 0.5883166 0.5076762
0.5858487 0.7933155 0.4947249
0.9101883 0.8691780 0.4797586
1.0000000 0.6931965 0.2826126
1.0000000 0.5329105 0.1482597
0.6723154 1.0000000 0.9639448
0.8846349 1.0000000 0.7998989
1.0000000 1.0000000 0.6037904
1.0000000 1.0000000 0.3924049
1.0000000 0.8066090 0.1936189
1.0000000 1.0000000 1.0000000
1.0000000 1.0000000 1.0000000
1.0000000 1.0000000 0.7275571
1.0000000 1.0000000 0.4817513
1.0000000 1.0000000 0.2614890
0.0871255 0.0882095 0.1898881
0.1175069 0.0000000 0.1510299
0.2944531 0.0000000 0.1754968
0.6088152 0.0024815 0.2035465
0.9046648 0.0808124 0.1784785
0.0857607 0.1728468 0.2774035
0.3057825 0.2987339 0.4633595
0.5070072 0.3259673 0.4115109
0.6980419 0.2954378 0.2890761
0.8952809 0.2511007 0.1979469
0.3427264 0.7789097 0.9007354
0.6301008 0.8680370 0.8731624
0.7627976 0.7580917 0.6421925
0.8192974 0.6018840 0.3955076
0.9139584 0.4691594 0.2376937
0.6933111 1.0000000 1.0000000
0.8560064 1.0000000 0.9952032
0.9507767 1.0000000 0.7503434
0.9715032 0.9147056 0.5206715
0.9733113 0.7397521 0.3249797
1.0000000 1.0000000 1.0000000
1.0000000 1.0000000 1.0000000
1.0000000 1.0000000 0.8239859
1.0000000 1.0000000 0.6212698
1.0000000 1.0000000 0.4579826
0.1320518 0.1394302 0.5108091
0.1418507 0.0345910 0.3999895
0.2587062 0.0000000 0.3642736
0.4196983 0.0000000 0.3072729
0.5910430 0.0000000 0.2143204
0.1982449 0.3468762 0.6810741
0.3590211 0.3822901 0.6667357
0.4703949 0.3320081 0.5398359
0.5758726 0.2624513 0.4068228
0.6805032 0.1821655 0.2908631
0.4221559 0.7464117 1.0000000
0.5844959 0.7282466 0.8880007
0.7014049 0.6581507 0.6871340
0.7470881 0.5510034 0.5228039
0.7931008 0.4363772 0.3768587
0.6959326 1.0000000 1.0000000
0.8001135 1.0000000 1.0000000
0.8769175 0.9388472 0.8239726
0.9165958 0.8288210 0.6433255
0.9445938 0.7168521 0.4970806
0.9640403 1.0000000 1.0000000
0.9863796 1.0000000 1.0000000
1.0000000 1.0000000 0.9311137
1.0000000 1.0000000 0.7580035
1.0000000 1.0000000 0.6457483
0.1304641 0.2978632 0.9082003
0.2055421 0.2105978 0.7536549
0.2411707 0.0997996 0.5794977
0.2970765 0.0000000 0.4116741
0.3968447 0.0000000 0.2474867
0.3369240 0.4808078 1.0000000
0.3866016 0.3867136 0.8087446
0.4394352 0.3086599 0.6647046
0.4980379 0.2230544 0.5281933
0.5652239 0.1357471 0.3940088
0.5080307 0.6588844 1.0000000
0.5535497 0.5853237 0.8904601
0.6196550 0.5416323 0.7651061
0.6946423 0.4932111 0.6484267
0.7586201 0.4273415 0.5362170
0.6754411 0.9258279 1.0000000
0.7305054 0.8521840 1.0000000
0.7990380 0.7979692 0.8812385
0.8794779 0.7551321 0.7671127
0.9555591 0.7092542 0.6846055
0.8582243 1.0000000 1.0000000
0.9239149 1.0000000 1.0000000
0.9888246 1.0000000 1.0000000
1.0000000 1.0000000 0.8902935
1.0000000 0.9840351 0.8303305
