catalog/styles/experimental/experimental-church-soft/look.cube
# experimental-church-soft iteration 5
LUT_3D_SIZE 33
DOMAIN_MIN 0 0 0
DOMAIN_MAX 1 1 1
0.1015928 0.0992406 0.1106576
0.1014785 0.0960091 0.0970379
0.1007562 0.0925265 0.0848428
0.0980743 0.0875397 0.0748475
0.0940458 0.0807810 0.0678023
0.0914874 0.0734883 0.0638778
0.0953415 0.0683309 0.0629596
0.1102147 0.0679991 0.0646593
0.1375578 0.0730790 0.0684132
0.1752881 0.0809939 0.0726274
0.2190976 0.0873138 0.0742826
0.2657819 0.0891080 0.0717283
0.3154288 0.0864816 0.0656898
0.3691355 0.0809772 0.0579281
0.4260933 0.0742982 0.0503644
0.4833319 0.0674017 0.0443346
0.5364940 0.0603876 0.0402531
0.5834398 0.0529241 0.0378916
0.6261154 0.0450917 0.0365770
0.6697202 0.0377386 0.0352730
0.7235862 0.0324829 0.0327042
0.7936148 0.0308764 0.0284067
0.8752465 0.0343566 0.0242271
0.9641522 0.0429400 0.0211683
1.0000000 0.0559788 0.0193032
1.0000000 0.0724056 0.0184024
1.0000000 0.0914390 0.0182305
1.0000000 0.1123324 0.0186015
1.0000000 0.1343748 0.0192891
1.0000000 0.1569179 0.0201431
1.0000000 0.1796031 0.0209467
1.0000000 0.2023964 0.0215691
1.0000000 0.2252668 0.0220877
0.0878401 0.0864865 0.0908706
0.0889409 0.0841019 0.0821419
0.0899393 0.0823434 0.0739750
0.0892327 0.0797160 0.0660825
0.0866199 0.0746423 0.0585580
0.0873460 0.0699699 0.0542368
0.0968246 0.0693952 0.0552195
0.1161776 0.0734021 0.0601014
0.1446328 0.0808308 0.0665343
0.1799260 0.0890204 0.0715728
0.2198980 0.0953243 0.0733142
0.2636135 0.0985950 0.0715822
0.3112309 0.0988731 0.0672290
0.3629392 0.0968035 0.0615549
0.4190134 0.0934412 0.0559392
0.4775267 0.0893178 0.0510012
0.5349365 0.0845034 0.0468555
0.5885108 0.0788806 0.0434417
0.6387579 0.0733195 0.0406276
0.6904198 0.0693218 0.0381322
0.7511537 0.0684576 0.0355110
0.8232261 0.0714600 0.0325186
0.9037306 0.0783243 0.0297973
0.9896440 0.0886187 0.0277758
1.0000000 0.1018287 0.0265407
1.0000000 0.1173111 0.0260238
1.0000000 0.1344146 0.0261042
1.0000000 0.1526872 0.0266505
1.0000000 0.1716545 0.0274788
1.0000000 0.1909574 0.0283257
1.0000000 0.2104826 0.0290014
1.0000000 0.2301628 0.0295322
1.0000000 0.2499384 0.0300100
0.0762520 0.0772068 0.0730621
0.0767334 0.0733052 0.0680743
0.0780547 0.0714899 0.0635752
0.0787924 0.0708966 0.0583867
0.0783359 0.0682190 0.0508522
0.0849798 0.0676755 0.0459936
0.1014026 0.0725898 0.0481868
0.1246290 0.0807979 0.0559482
0.1525619 0.0895038 0.0646518
0.1843542 0.0970268 0.0702439
0.2205763 0.1028669 0.0718073
0.2620335 0.1072097 0.0704538
0.3086054 0.1100838 0.0672870
0.3595454 0.1113100 0.0633331
0.4153546 0.1112032 0.0593290
0.4751496 0.1098774 0.0553415
0.5357354 0.1074773 0.0513150
0.5940741 0.1042983 0.0474482
0.6507443 0.1017732 0.0439808
0.7099047 0.1016469 0.0411043
0.7766594 0.1052182 0.0387368
0.8514677 0.1125741 0.0368029
0.9315775 0.1226977 0.0353361
1.0000000 0.1346937 0.0343181
1.0000000 0.1480078 0.0337697
1.0000000 0.1622756 0.0337140
1.0000000 0.1773039 0.0340990
1.0000000 0.1929166 0.0347831
1.0000000 0.2088717 0.0356686
1.0000000 0.2250561 0.0364613
1.0000000 0.2414314 0.0370488
1.0000000 0.2578526 0.0374868
1.0000000 0.2743900 0.0378294
0.0696711 0.0756664 0.0597822
0.0675003 0.0674036 0.0568934
0.0659990 0.0617555 0.0550389
0.0665730 0.0609502 0.0534105
0.0719356 0.0631331 0.0483264
0.0879749 0.0697006 0.0423785
0.1124482 0.0812591 0.0435480
0.1384188 0.0933139 0.0536764
0.1633947 0.1016770 0.0643457
0.1902118 0.1070218 0.0699898
0.2220267 0.1109417 0.0704560
0.2612450 0.1151902 0.0684590
0.3077410 0.1200445 0.0657756
0.3601587 0.1246119 0.0630849
0.4179085 0.1280128 0.0602883
0.4798874 0.1299262 0.0571369
0.5431019 0.1306551 0.0536844
0.6049801 0.1308920 0.0501000
0.6664898 0.1321736 0.0467670
0.7311093 0.1362971 0.0441757
0.8021593 0.1442616 0.0424077
0.8791495 0.1555246 0.0414096
0.9587953 0.1682733 0.0409644
1.0000000 0.1814173 0.0408975
1.0000000 0.1944845 0.0411171
1.0000000 0.2073791 0.0415978
1.0000000 0.2202248 0.0422482
1.0000000 0.2331105 0.0430184
1.0000000 0.2460985 0.0438488
1.0000000 0.2592102 0.0445476
1.0000000 0.2723611 0.0450100
1.0000000 0.2854943 0.0453201
1.0000000 0.2986747 0.0455406
0.0719518 0.0864698 0.0548882
0.0683634 0.0748610 0.0529035
0.0646594 0.0644756 0.0517318
0.0629290 0.0590369 0.0511868
0.0683461 0.0605943 0.0469870
0.0933066 0.0754402 0.0419778
0.1294413 0.0971258 0.0434474
0.1581750 0.1126019 0.0547122
0.1798573 0.1199331 0.0665428
0.2013011 0.1224720 0.0723908
0.2273213 0.1226919 0.0710674
0.2630434 0.1248736 0.0670001
0.3094784 0.1304920 0.0637386
0.3649996 0.1381018 0.0618598
0.4273565 0.1455605 0.0602830
0.4934204 0.1515022 0.0579741
0.5600595 0.1563114 0.0552185
0.6252210 0.1610168 0.0523421
0.6901347 0.1669300 0.0496308
0.7575373 0.1754320 0.0475972
0.8304558 0.1874335 0.0466077
0.9076188 0.2016354 0.0465035
0.9857116 0.2159079 0.0469844
1.0000000 0.2292387 0.0477846
1.0000000 0.2414311 0.0487387
1.0000000 0.2526217 0.0496764
1.0000000 0.2631761 0.0505279
1.0000000 0.2733411 0.0513115
1.0000000 0.2832876 0.0520047
1.0000000 0.2932548 0.0525417
1.0000000 0.3031998 0.0528443
1.0000000 0.3131084 0.0530169
1.0000000 0.3230067 0.0530861
0.0842158 0.1101223 0.0606175
0.0814702 0.0987472 0.0578874
0.0790494 0.0882899 0.0553786
0.0791854 0.0818689 0.0536326
0.0821723 0.0795914 0.0496259
0.0998445 0.0881057 0.0440464
0.1407653 0.1141063 0.0486191
0.1765398 0.1345379 0.0587815
0.2006509 0.1444064 0.0717834
0.2211155 0.1470732 0.0794559
0.2440126 0.1450021 0.0772825
0.2762037 0.1435809 0.0696522
0.3205922 0.1471799 0.0637780
0.3776370 0.1560010 0.0617980
0.4446065 0.1669369 0.0613532
0.5158274 0.1770017 0.0601796
0.5884499 0.1873257 0.0582397
0.6573175 0.1976570 0.0558879
0.7237597 0.2085907 0.0534072
0.7911706 0.2210787 0.0517498
0.8630623 0.2359919 0.0514909
0.9377276 0.2516602 0.0522801
1.0000000 0.2660306 0.0536547
1.0000000 0.2784811 0.0552827
1.0000000 0.2890749 0.0567850
1.0000000 0.2981294 0.0580177
1.0000000 0.3061451 0.0589206
1.0000000 0.3134444 0.0595969
1.0000000 0.3203095 0.0600964
1.0000000 0.3270341 0.0604086
1.0000000 0.3338620 0.0605277
1.0000000 0.3407389 0.0605208
1.0000000 0.3475041 0.0604344
0.1023633 0.1415519 0.0730850
0.1016772 0.1326846 0.0683820
0.1022689 0.1253598 0.0641260
0.1061557 0.1217174 0.0604265
0.1134921 0.1214876 0.0560926
0.1259959 0.1246491 0.0524143
0.1539369 0.1391694 0.0559054
0.1887218 0.1582947 0.0665909
0.2175166 0.1708011 0.0794112
0.2426284 0.1761542 0.0877777
0.2697691 0.1768618 0.0872014
0.3041845 0.1766080 0.0805513
0.3485456 0.1784661 0.0722943
0.4042056 0.1845781 0.0665895
0.4732927 0.1965753 0.0652025
0.5491097 0.2101698 0.0655994
0.6289536 0.2270334 0.0645593
0.7005556 0.2433200 0.0618998
0.7664279 0.2589035 0.0588394
0.8315025 0.2743564 0.0570975
0.8995496 0.2902851 0.0573212
0.9695947 0.3054258 0.0589547
1.0000000 0.3185114 0.0611913
1.0000000 0.3291136 0.0634485
1.0000000 0.3374687 0.0653392
1.0000000 0.3440082 0.0666769
1.0000000 0.3491558 0.0674791
1.0000000 0.3533906 0.0679181
1.0000000 0.3571393 0.0681303
1.0000000 0.3607826 0.0681698
1.0000000 0.3644893 0.0680397
1.0000000 0.3682706 0.0677856
1.0000000 0.3720348 0.0674651
0.1195988 0.1732515 0.0855740
0.1224392 0.1688570 0.0794864
0.1264653 0.1658681 0.0741753
0.1333640 0.1657334 0.0703487
0.1428290 0.1674253 0.0675151
0.1552972 0.1703024 0.0663760
0.1746170 0.1770513 0.0693442
0.2011902 0.1879043 0.0767371
0.2303408 0.1983872 0.0851961
0.2615222 0.2066189 0.0915660
0.2974541 0.2133456 0.0935090
0.3415188 0.2203044 0.0929167
0.3944846 0.2270710 0.0893489
0.4541704 0.2323177 0.0809219
0.5247326 0.2422159 0.0752511
0.6034369 0.2586127 0.0759780
0.6807392 0.2787999 0.0737346
0.7503228 0.2993034 0.0693120
0.8139284 0.3180097 0.0654300
0.8757468 0.3346463 0.0638334
0.9386478 0.3495944 0.0645722
1.0000000 0.3625428 0.0668732
1.0000000 0.3730909 0.0697096
1.0000000 0.3810525 0.0723342
1.0000000 0.3866008 0.0743836
1.0000000 0.3901251 0.0756645
1.0000000 0.3922341 0.0762678
1.0000000 0.3933918 0.0763697
1.0000000 0.3940245 0.0761899
1.0000000 0.3945125 0.0758382
1.0000000 0.3950294 0.0753506
1.0000000 0.3956393 0.0747329
1.0000000 0.3963014 0.0740599
0.1315190 0.1999134 0.0939313
0.1386800 0.2012541 0.0876635
0.1463538 0.2033676 0.0820754
0.1556786 0.2071239 0.0782866
0.1663888 0.2112703 0.0762822
0.1790870 0.2150568 0.0765258
0.1950292 0.2184405 0.0786367
0.2161453 0.2228561 0.0818152
0.2433080 0.2291180 0.0846686
0.2779361 0.2382583 0.0871205
0.3228616 0.2517504 0.0912214
0.3794647 0.2686124 0.0974145
0.4455659 0.2841115 0.1008742
0.5134190 0.2931604 0.0948032
0.5825722 0.3012309 0.0856334
0.6615300 0.3197499 0.0871994
0.7348727 0.3432067 0.0822045
0.8003999 0.3652905 0.0755552
0.8608845 0.3842562 0.0719285
0.9194985 0.3999531 0.0715441
0.9777810 0.4125403 0.0732999
1.0000000 0.4222589 0.0762022
1.0000000 0.4293775 0.0793206
1.0000000 0.4339765 0.0820295
1.0000000 0.4362083 0.0839649
1.0000000 0.4365288 0.0849925
1.0000000 0.4354578 0.0852709
1.0000000 0.4334469 0.0849805
1.0000000 0.4309490 0.0842933
1.0000000 0.4282437 0.0833982
1.0000000 0.4255247 0.0823835
1.0000000 0.4227883 0.0813044
1.0000000 0.4200535 0.0801756
0.1385012 0.2214061 0.0987443
0.1496480 0.2285364 0.0926309
0.1608998 0.2358432 0.0868768
0.1723803 0.2432635 0.0819314
0.1838405 0.2497666 0.0777128
0.1960166 0.2544966 0.0747267
0.2120128 0.2584565 0.0746974
0.2331202 0.2618773 0.0758675
0.2600292 0.2660247 0.0756861
0.2963973 0.2749910 0.0753035
0.3472430 0.2932254 0.0800609
0.4138062 0.3192489 0.0907392
0.4913541 0.3448010 0.1001701
0.5687774 0.3619572 0.0981097
0.6393827 0.3747328 0.0867924
0.7121787 0.3940794 0.0819214
0.7821267 0.4176497 0.0791003
0.8457337 0.4386847 0.0776811
0.9041438 0.4552506 0.0780570
0.9598964 0.4679390 0.0800973
1.0000000 0.4771755 0.0832276
1.0000000 0.4832947 0.0867016
1.0000000 0.4866437 0.0899349
1.0000000 0.4874488 0.0924728
1.0000000 0.4860729 0.0940689
1.0000000 0.4830120 0.0946938
1.0000000 0.4787687 0.0945012
1.0000000 0.4736930 0.0936746
1.0000000 0.4679954 0.0923624
1.0000000 0.4620556 0.0907826
1.0000000 0.4559983 0.0891235
1.0000000 0.4498141 0.0874598
1.0000000 0.4435440 0.0857873
0.1431622 0.2408086 0.1029132
0.1578509 0.2529513 0.0965679
0.1724561 0.2647790 0.0901886
0.1867365 0.2759402 0.0837319
0.2006140 0.2856568 0.0770039
0.2148856 0.2934993 0.0702602
0.2323547 0.3002264 0.0653257
0.2543824 0.3051472 0.0625734
0.2833493 0.3108441 0.0611789
0.3227984 0.3219569 0.0612374
0.3778983 0.3441430 0.0672302
0.4493291 0.3764061 0.0790985
0.5314928 0.4104930 0.0896308
0.6145978 0.4383196 0.0900392
0.6897272 0.4605558 0.0798181
0.7598937 0.4817878 0.0699401
0.8251843 0.5009826 0.0705621
0.8861293 0.5165833 0.0780415
0.9426168 0.5282343 0.0844189
0.9959069 0.5366185 0.0895162
1.0000000 0.5419644 0.0940452
1.0000000 0.5443148 0.0980559
1.0000000 0.5438801 0.1012795
1.0000000 0.5409825 0.1035098
1.0000000 0.5360274 0.1046310
1.0000000 0.5296368 0.1047018
1.0000000 0.5222388 0.1038935
1.0000000 0.5140511 0.1023935
1.0000000 0.5052559 0.1003254
1.0000000 0.4960549 0.0979966
1.0000000 0.4865849 0.0955762
1.0000000 0.4769148 0.0931778
1.0000000 0.4670555 0.0908070
0.1476548 0.2605636 0.1083674
0.1658516 0.2768054 0.1013639
0.1839281 0.2926452 0.0940727
0.2016993 0.3075695 0.0862953
0.2193880 0.3210130 0.0779084
0.2378482 0.3328505 0.0692118
0.2587776 0.3433513 0.0611307
0.2840200 0.3526730 0.0549646
0.3166267 0.3633922 0.0522335
0.3604377 0.3799752 0.0537008
0.4184968 0.4062777 0.0603259
0.4906180 0.4420666 0.0705494
0.5724017 0.4824316 0.0791820
0.6567143 0.5212382 0.0811255
0.7361594 0.5545968 0.0759502
0.8058534 0.5772393 0.0705227
0.8661499 0.5884161 0.0731081
0.9229262 0.5954798 0.0830801
0.9765685 0.6008691 0.0924517
1.0000000 0.6045446 0.0997742
1.0000000 0.6058499 0.1054949
1.0000000 0.6044460 0.1099357
1.0000000 0.6003560 0.1130882
1.0000000 0.5939856 0.1149713
1.0000000 0.5858121 0.1155344
1.0000000 0.5763091 0.1149235
1.0000000 0.5658250 0.1133583
1.0000000 0.5545631 0.1110417
1.0000000 0.5426527 0.1081897
1.0000000 0.5302344 0.1050030
1.0000000 0.5174175 0.1017010
1.0000000 0.5042736 0.0984331
1.0000000 0.4909808 0.0951847
0.1535915 0.2823239 0.1161325
0.1755167 0.3020178 0.1083645
0.1973805 0.3213405 0.1002207
0.2191564 0.3397866 0.0914985
0.2412059 0.3570469 0.0821881
0.2644099 0.3731133 0.0726270
0.2902049 0.3883396 0.0636937
0.3204912 0.4035955 0.0567288
0.3580499 0.4210505 0.0534936
0.4057269 0.4438804 0.0549009
0.4652492 0.4744751 0.0606338
0.5360471 0.5129220 0.0687965
0.6152863 0.5570529 0.0765144
0.6981716 0.6027938 0.0812270
0.7782755 0.6432744 0.0822455
0.8457760 0.6640041 0.0826027
0.9027452 0.6693007 0.0866604
0.9558687 0.6707381 0.0944968
1.0000000 0.6711864 0.1033463
1.0000000 0.6705780 0.1112775
1.0000000 0.6680550 0.1175897
1.0000000 0.6631017 0.1222407
1.0000000 0.6556955 0.1252177
1.0000000 0.6462540 0.1266704
1.0000000 0.6351111 0.1266200
1.0000000 0.6226056 0.1252294
1.0000000 0.6091394 0.1227942
1.0000000 0.5949129 0.1195643
1.0000000 0.5800111 0.1158220
1.0000000 0.5645463 0.1117395
1.0000000 0.5485880 0.1075030
1.0000000 0.5321985 0.1032012
1.0000000 0.5155655 0.0989028
0.1624218 0.3070763 0.1269490
0.1882693 0.3299154 0.1185733
0.2141208 0.3523928 0.1098913
0.2400874 0.3741486 0.1007170
0.2666031 0.3951509 0.0910947
0.2946059 0.4155791 0.0814797
0.3255317 0.4358579 0.0727425
0.3611421 0.4570904 0.0661344
0.4033787 0.4810003 0.0628612
0.4539860 0.5094715 0.0634949
0.5137733 0.5437601 0.0676135
0.5822210 0.5840315 0.0740111
0.6574075 0.6290513 0.0814099
0.7358704 0.6751026 0.0887802
0.8111614 0.7131875 0.0948574
0.8754907 0.7320048 0.0983590
0.9319436 0.7384165 0.1029973
0.9837403 0.7390660 0.1094566
1.0000000 0.7370843 0.1170472
1.0000000 0.7333969 0.1244361
1.0000000 0.7277357 0.1305987
1.0000000 0.7198061 0.1350190
1.0000000 0.7095945 0.1376068
1.0000000 0.6973900 0.1384706
1.0000000 0.6835202 0.1377162
1.0000000 0.6682769 0.1354988
1.0000000 0.6519672 0.1321180
1.0000000 0.6348897 0.1278958
1.0000000 0.6171722 0.1231366
1.0000000 0.5988397 0.1180965
1.0000000 0.5799969 0.1128676
1.0000000 0.5607708 0.1074706
1.0000000 0.5414125 0.1020210
0.1751802 0.3356201 0.1416103
0.2050541 0.3614587 0.1329026
0.2349387 0.3869426 0.1240066
0.2650358 0.4118686 0.1148170
0.2959080 0.4364112 0.1054595
0.3284825 0.4608787 0.0963592
0.3640758 0.4858971 0.0882768
0.4041873 0.5124247 0.0821253
0.4500346 0.5415554 0.0787399
0.5023777 0.5742971 0.0784233
0.5614567 0.6111265 0.0809405
0.6267313 0.6517209 0.0858171
0.6965641 0.6944802 0.0925124
0.7680397 0.7354344 0.1002610
0.8366016 0.7679726 0.1077699
0.8987919 0.7877491 0.1140051
0.9550040 0.7971427 0.1198925
1.0000000 0.7994236 0.1260915
1.0000000 0.7971495 0.1327176
1.0000000 0.7918622 0.1391443
1.0000000 0.7841080 0.1445441
1.0000000 0.7739311 0.1483272
1.0000000 0.7614783 0.1502446
1.0000000 0.7469998 0.1503139
1.0000000 0.7307521 0.1487375
1.0000000 0.7130470 0.1456296
1.0000000 0.6942071 0.1412497
1.0000000 0.6744630 0.1359559
1.0000000 0.6540225 0.1301055
1.0000000 0.6330398 0.1239901
1.0000000 0.6117332 0.1177001
1.0000000 0.5902763 0.1112114
1.0000000 0.5687637 0.1045696
0.1929482 0.3687317 0.1608428
0.2266647 0.3972527 0.1521432
0.2603882 0.4255769 0.1433533
0.2943588 0.4535097 0.1344756
0.3291944 0.4812217 0.1256773
0.3657955 0.5092457 0.1173405
0.4052325 0.5382163 0.1099330
0.4486558 0.5688758 0.1041525
0.4967239 0.6018118 0.1004599
0.5496278 0.6372643 0.0991620
0.6071951 0.6750807 0.1002737
0.6686893 0.7143924 0.1036837
0.7327672 0.7532532 0.1090881
0.7972926 0.7885347 0.1159423
0.8599583 0.8170006 0.1233884
0.9191198 0.8369595 0.1306830
0.9739696 0.8484647 0.1374433
1.0000000 0.8526778 0.1437469
1.0000000 0.8511884 0.1497149
1.0000000 0.8455132 0.1551215
1.0000000 0.8366763 0.1594394
1.0000000 0.8250979 0.1621696
1.0000000 0.8110435 0.1630899
1.0000000 0.7947114 0.1621759
1.0000000 0.7764179 0.1596147
1.0000000 0.7565725 0.1555370
1.0000000 0.7355592 0.1501379
1.0000000 0.7135455 0.1437364
1.0000000 0.6907501 0.1367078
1.0000000 0.6674718 0.1293924
1.0000000 0.6440192 0.1219492
1.0000000 0.6206489 0.1143412
1.0000000 0.5974142 0.1065631
0.2168567 0.4069823 0.1853584
0.2538787 0.4377908 0.1769571
0.2908804 0.4685445 0.1685251
0.3281844 0.4991693 0.1601094
0.3664099 0.5296874 0.1519210
0.4062787 0.5605980 0.1442432
0.4485618 0.5925362 0.1373946
0.4940359 0.6260173 0.1317356
0.5430231 0.6611919 0.1276624
0.5954050 0.6978112 0.1254336
0.6507454 0.7351776 0.1252577
0.7082815 0.7721691 0.1271818
0.7669831 0.8070864 0.1310459
0.8256072 0.8380598 0.1364566
0.8830500 0.8636360 0.1429314
0.9383517 0.8828698 0.1498205
0.9906351 0.8951521 0.1564826
1.0000000 0.9006003 0.1625637
1.0000000 0.9000701 0.1678131
1.0000000 0.8946696 0.1720986
1.0000000 0.8854432 0.1750949
1.0000000 0.8730954 0.1764982
1.0000000 0.8579144 0.1761627
1.0000000 0.8402054 0.1741059
1.0000000 0.8203435 0.1703869
1.0000000 0.7987890 0.1651821
1.0000000 0.7759215 0.1586806
1.0000000 0.7520048 0.1511337
1.0000000 0.7273294 0.1428980
1.0000000 0.7021921 0.1343351
1.0000000 0.6769481 0.1256351
1.0000000 0.6518801 0.1168417
1.0000000 0.6269672 0.1079712
0.2474754 0.4511758 0.2157853
0.2870711 0.4836682 0.2078138
0.3266721 0.5162153 0.1998078
0.3666318 0.5488330 0.1918260
0.4074154 0.5815501 0.1840936
0.4495913 0.6146245 0.1768363
0.4936473 0.6484900 0.1702393
0.5400160 0.6834698 0.1645400
0.5888124 0.7194552 0.1599721
0.6398118 0.7558754 0.1568671
0.6924360 0.7917902 0.1554879
0.7460387 0.8261528 0.1559526
0.7999393 0.8577551 0.1581606
0.8535397 0.8856011 0.1618800
0.9062186 0.9088590 0.1667261
0.9573356 0.9267894 0.1722074
1.0000000 0.9388222 0.1777535
1.0000000 0.9447506 0.1828441
1.0000000 0.9449136 0.1870359
1.0000000 0.9399543 0.1899687
1.0000000 0.9307366 0.1914471
1.0000000 0.9179767 0.1913030
1.0000000 0.9020621 0.1894976
1.0000000 0.8833972 0.1860791
1.0000000 0.8624354 0.1810593
1.0000000 0.8396089 0.1745856
1.0000000 0.8152989 0.1668384
1.0000000 0.7899097 0.1580525
1.0000000 0.7637696 0.1485762
1.0000000 0.7371932 0.1387840
1.0000000 0.7104737 0.1288246
1.0000000 0.6838605 0.1187848
1.0000000 0.6573530 0.1087699
0.2852294 0.5017057 0.2526436
0.3264657 0.5351745 0.2449663
0.3678016 0.5687344 0.2372561
0.4095098 0.6024704 0.2295692
0.4519006 0.6364741 0.2220386
0.4953710 0.6708031 0.2148592
0.5401538 0.7056166 0.2081851
0.5863541 0.7409474 0.2021894
0.6340421 0.7765567 0.1970638
0.6829755 0.8117798 0.1930632
0.7326271 0.8457811 0.1904986
0.7824331 0.8776151 0.1894946
0.8320270 0.9065110 0.1899800
0.8811236 0.9317905 0.1918022
0.9293546 0.9528421 0.1945975
0.9761987 0.9691554 0.1980090
1.0000000 0.9803276 0.2016331
1.0000000 0.9861716 0.2049602
1.0000000 0.9867027 0.2074618
1.0000000 0.9821447 0.2086667
1.0000000 0.9730193 0.2083985
1.0000000 0.9600153 0.2065534
1.0000000 0.9436432 0.2031115
1.0000000 0.9243432 0.1981281
1.0000000 0.9026482 0.1916505
1.0000000 0.8789771 0.1837513
1.0000000 0.8537558 0.1746101
1.0000000 0.8273814 0.1644854
1.0000000 0.8001653 0.1537369
1.0000000 0.7724907 0.1426855
1.0000000 0.7446372 0.1314874
1.0000000 0.7167063 0.1202262
1.0000000 0.6887498 0.1090198
0.3301353 0.5585991 0.2962034
0.3720343 0.5922450 0.2885634
0.4140849 0.6259424 0.2808607
0.4565069 0.6598627 0.2731226
0.4994886 0.6941491 0.2655000
0.5432062 0.7287278 0.2580531
0.5877150 0.7635149 0.2509522
0.6329002 0.7982804 0.2443952
0.6787788 0.8326567 0.2385468
0.7251513 0.8661038 0.2336077
0.7716286 0.8979476 0.2298126
0.8177977 0.9274583 0.2272397
0.8633785 0.9539496 0.2258646
0.9082186 0.9768511 0.2255591
0.9521195 0.9957495 0.2260492
0.9944798 1.0000000 0.2270186
1.0000000 1.0000000 0.2281482
1.0000000 1.0000000 0.2290500
1.0000000 1.0000000 0.2292226
1.0000000 1.0000000 0.2282755
1.0000000 1.0000000 0.2259736
1.0000000 0.9995368 0.2222029
1.0000000 0.9830107 0.2169362
1.0000000 0.9632984 0.2102304
1.0000000 0.9411169 0.2021329
1.0000000 0.9169612 0.1926659
1.0000000 0.8912247 0.1820329
1.0000000 0.8643023 0.1705052
1.0000000 0.8365144 0.1584410
1.0000000 0.8081622 0.1461093
1.0000000 0.7794879 0.1336414
1.0000000 0.7505303 0.1211722
1.0000000 0.7214746 0.1087257
0.3817679 0.6215695 0.3464465
0.4233171 0.6545373 0.3384633
0.4650701 0.6875536 0.3304176
0.5071992 0.7208168 0.3222954
0.5497937 0.7544214 0.3141418
0.5928026 0.7882366 0.3060411
0.6360898 0.8220230 0.2981570
0.6795195 0.8554097 0.2907385
0.7230333 0.8879738 0.2839354
0.7664752 0.9193415 0.2779190
0.8096113 0.9490065 0.2727540
0.8521584 0.9762366 0.2684623
0.8938723 1.0000000 0.2650616
0.9346151 1.0000000 0.2624375
0.9742795 1.0000000 0.2604208
1.0000000 1.0000000 0.2587029
1.0000000 1.0000000 0.2570051
1.0000000 1.0000000 0.2550146
1.0000000 1.0000000 0.2524102
1.0000000 1.0000000 0.2488881
1.0000000 1.0000000 0.2442074
1.0000000 1.0000000 0.2382528
1.0000000 1.0000000 0.2309462
1.0000000 1.0000000 0.2223310
1.0000000 0.9782625 0.2124483
1.0000000 0.9538170 0.2013355
1.0000000 0.9277900 0.1891671
1.0000000 0.9006299 0.1762341
1.0000000 0.8726953 0.1628148
1.0000000 0.8441478 0.1491236
1.0000000 0.8150697 0.1353589
1.0000000 0.7855309 0.1216044
1.0000000 0.7557945 0.1078638
0.4394217 0.6899262 0.4029828
0.4796992 0.7215729 0.3942646
0.5202106 0.7532324 0.3854273
0.5610814 0.7850437 0.3764423
0.6023301 0.8170784 0.3673803
0.6437029 0.8492295 0.3582838
0.6849910 0.8812165 0.3493289
0.7260164 0.9126145 0.3407505
0.7667080 0.9430140 0.3327337
0.8069413 0.9720837 0.3253594
0.8465844 0.9993819 0.3185916
0.8854692 1.0000000 0.3123976
0.9233565 1.0000000 0.3067999
0.9600753 1.0000000 0.3017208
0.9948469 1.0000000 0.2970013
1.0000000 1.0000000 0.2924219
1.0000000 1.0000000 0.2877208
1.0000000 1.0000000 0.2826201
1.0000000 1.0000000 0.2769380
1.0000000 1.0000000 0.2704962
1.0000000 1.0000000 0.2631375
1.0000000 1.0000000 0.2547081
1.0000000 1.0000000 0.2451643
1.0000000 1.0000000 0.2344532
1.0000000 1.0000000 0.2226376
1.0000000 0.9898087 0.2098050
1.0000000 0.9637777 0.1960886
1.0000000 0.9366535 0.1817272
1.0000000 0.9087983 0.1669152
1.0000000 0.8803316 0.1518333
1.0000000 0.8512933 0.1366689
1.0000000 0.8218117 0.1215345
1.0000000 0.7920989 0.1064440
0.5022663 0.7631707 0.4651764
0.5404616 0.7927530 0.4552225
0.5788793 0.8224097 0.4451413
0.6175819 0.8521220 0.4348938
0.6565311 0.8819293 0.4245163
0.6954432 0.9117849 0.4140842
0.7340584 0.9413592 0.4037623
0.7722029 0.9702662 0.3937424
0.8097151 0.9981380 0.3842168
0.8465050 1.0000000 0.3751947
0.8825126 1.0000000 0.3665466
0.9176021 1.0000000 0.3582704
0.9516110 1.0000000 0.3503508
0.9841819 1.0000000 0.3426942
1.0000000 1.0000000 0.3351419
1.0000000 1.0000000 0.3275665
1.0000000 1.0000000 0.3197267
1.0000000 1.0000000 0.3114338
1.0000000 1.0000000 0.3025563
1.0000000 1.0000000 0.2930401
1.0000000 1.0000000 0.2827567
1.0000000 1.0000000 0.2716373
1.0000000 1.0000000 0.2596343
1.0000000 1.0000000 0.2466682
1.0000000 1.0000000 0.2327889
1.0000000 1.0000000 0.2181364
1.0000000 0.9992792 0.2028361
1.0000000 0.9725850 0.1870094
1.0000000 0.9450008 0.1708001
1.0000000 0.9168412 0.1542800
1.0000000 0.8882349 0.1376353
1.0000000 0.8593725 0.1210347
1.0000000 0.8303285 0.1044458
0.5694393 0.8401078 0.5320383
0.6048333 0.8672387 0.5203900
0.6403706 0.8944257 0.5086492
0.6760924 0.9216298 0.4967591
0.7119222 0.9488160 0.4847173
0.7476726 0.9759442 0.4726404
0.7831345 1.0000000 0.4606953
0.8180075 1.0000000 0.4489874
0.8520446 1.0000000 0.4376790
0.8852154 1.0000000 0.4267067
0.9174317 1.0000000 0.4159621
0.9485654 1.0000000 0.4054082
0.9784520 1.0000000 0.3950301
1.0000000 1.0000000 0.3847073
1.0000000 1.0000000 0.3742879
1.0000000 1.0000000 0.3636136
1.0000000 1.0000000 0.3525641
1.0000000 1.0000000 0.3410044
1.0000000 1.0000000 0.3289085
1.0000000 1.0000000 0.3162850
1.0000000 1.0000000 0.3030307
1.0000000 1.0000000 0.2890677
1.0000000 1.0000000 0.2744145
1.0000000 1.0000000 0.2590616
1.0000000 1.0000000 0.2430220
1.0000000 1.0000000 0.2264599
1.0000000 1.0000000 0.2094518
1.0000000 1.0000000 0.1921205
1.0000000 0.9815210 0.1744572
1.0000000 0.9539024 0.1564702
1.0000000 0.9260285 0.1383184
1.0000000 0.8980483 0.1201169
1.0000000 0.8700325 0.1019311
0.6400738 0.9194929 0.6025240
0.6720196 0.9439580 0.5887799
0.7040400 0.9684353 0.5750041
0.7361268 0.9928715 0.5611380
0.7682019 1.0000000 0.5471579
