catalog/styles/experimental/experimental-church-soft/look.cube
# experimental-church-soft iteration 5
LUT_3D_SIZE 9
DOMAIN_MIN 0 0 0
DOMAIN_MAX 1 1 1
0.1015928 0.0992406 0.1106576
0.0940458 0.0807810 0.0678023
0.1375578 0.0730790 0.0684132
0.3154288 0.0864816 0.0656898
0.5364940 0.0603876 0.0402531
0.7235862 0.0324829 0.0327042
1.0000000 0.0559788 0.0193032
1.0000000 0.1343748 0.0192891
1.0000000 0.2252668 0.0220877
0.0719518 0.0864698 0.0548882
0.0683461 0.0605943 0.0469870
0.1798573 0.1199331 0.0665428
0.3094784 0.1304920 0.0637386
0.5600595 0.1563114 0.0552185
0.8304558 0.1874335 0.0466077
1.0000000 0.2414311 0.0487387
1.0000000 0.2832876 0.0520047
1.0000000 0.3230067 0.0530861
0.1315190 0.1999134 0.0939313
0.1663888 0.2112703 0.0762822
0.2433080 0.2291180 0.0846686
0.4455659 0.2841115 0.1008742
0.7348727 0.3432067 0.0822045
0.9777810 0.4125403 0.0732999
1.0000000 0.4362083 0.0839649
1.0000000 0.4309490 0.0842933
1.0000000 0.4200535 0.0801756
0.1535915 0.2823239 0.1161325
0.2412059 0.3570469 0.0821881
0.3580499 0.4210505 0.0534936
0.6152863 0.5570529 0.0765144
0.9027452 0.6693007 0.0866604
1.0000000 0.6680550 0.1175897
1.0000000 0.6351111 0.1266200
1.0000000 0.5800111 0.1158220
1.0000000 0.5155655 0.0989028
0.2168567 0.4069823 0.1853584
0.3664099 0.5296874 0.1519210
0.5430231 0.6611919 0.1276624
0.7669831 0.8070864 0.1310459
0.9906351 0.8951521 0.1564826
1.0000000 0.8854432 0.1750949
1.0000000 0.8203435 0.1703869
1.0000000 0.7273294 0.1428980
1.0000000 0.6269672 0.1079712
0.3817679 0.6215695 0.3464465
0.5497937 0.7544214 0.3141418
0.7230333 0.8879738 0.2839354
0.8938723 1.0000000 0.2650616
1.0000000 1.0000000 0.2570051
1.0000000 1.0000000 0.2442074
1.0000000 0.9782625 0.2124483
1.0000000 0.8726953 0.1628148
1.0000000 0.7557945 0.1078638
0.6400738 0.9194929 0.6025240
0.7682019 1.0000000 0.5471579
0.8936267 1.0000000 0.4925000
1.0000000 1.0000000 0.4403340
1.0000000 1.0000000 0.3857580
1.0000000 1.0000000 0.3237427
1.0000000 1.0000000 0.2534569
1.0000000 1.0000000 0.1778776
1.0000000 0.9106414 0.0989892
0.9358481 1.0000000 0.8996928
0.9936577 1.0000000 0.8070203
1.0000000 1.0000000 0.7165722
1.0000000 1.0000000 0.6221723
1.0000000 1.0000000 0.5188513
1.0000000 1.0000000 0.4090561
1.0000000 1.0000000 0.2978564
1.0000000 1.0000000 0.1895780
1.0000000 1.0000000 0.0847672
1.0000000 1.0000000 1.0000000
1.0000000 1.0000000 1.0000000
1.0000000 1.0000000 0.9423905
1.0000000 1.0000000 0.8021835
1.0000000 1.0000000 0.6511087
1.0000000 1.0000000 0.4964301
1.0000000 1.0000000 0.3442250
0.9932487 1.0000000 0.2003335
0.9543779 1.0000000 0.0677474
0.0886746 0.0758074 0.0907545
0.0553950 0.0577953 0.0519368
0.1148506 0.0618887 0.0573267
0.2948900 0.0632208 0.0812524
0.5032547 0.0320218 0.0700353
0.7222421 0.0149993 0.0590751
0.9796392 0.0473436 0.0604637
1.0000000 0.1170988 0.0662154
1.0000000 0.1959840 0.0724419
0.0656694 0.0863794 0.0621805
0.0849246 0.0777583 0.0671458
0.1211312 0.0799356 0.0691326
0.2977989 0.1171872 0.0979151
0.5552873 0.1463933 0.1068015
0.8069887 0.1888601 0.1076871
1.0000000 0.2225244 0.1011980
1.0000000 0.2528041 0.0937731
1.0000000 0.2862075 0.0864102
0.0763267 0.1706040 0.0992585
0.1452507 0.1980322 0.1069752
0.2247309 0.2088756 0.1118737
0.4152180 0.2644796 0.1452008
0.7061132 0.3425924 0.1578505
0.9097293 0.3938682 0.1582312
1.0000000 0.3989131 0.1407655
1.0000000 0.3894555 0.1207971
1.0000000 0.3761308 0.1005148
0.1250396 0.3140076 0.2005267
0.2423767 0.3905619 0.1852708
0.3753288 0.4484834 0.1586119
0.6091715 0.5498946 0.1912361
0.8712346 0.6463779 0.2421494
0.9998798 0.6227491 0.2168623
1.0000000 0.5793494 0.1825625
1.0000000 0.5279320 0.1477049
1.0000000 0.4706163 0.1139113
0.2237562 0.4952433 0.3375537
0.3831018 0.6070062 0.3143766
0.5615609 0.7215295 0.3003217
0.7673455 0.8303390 0.3073568
0.9468655 0.8765824 0.3126165
1.0000000 0.8359984 0.2819884
1.0000000 0.7572747 0.2296659
1.0000000 0.6696809 0.1763378
1.0000000 0.5775160 0.1242433
0.4075904 0.7373299 0.5386791
0.5709987 0.8509421 0.5057912
0.7360626 0.9597105 0.4782497
0.8865932 1.0000000 0.4488836
1.0000000 1.0000000 0.4054236
1.0000000 1.0000000 0.3468620
1.0000000 0.9195835 0.2775276
1.0000000 0.8141559 0.2055560
1.0000000 0.7062526 0.1336908
0.6577072 1.0000000 0.7869946
0.7777394 1.0000000 0.7208983
0.8904826 1.0000000 0.6530831
0.9835570 1.0000000 0.5801698
1.0000000 1.0000000 0.5002625
1.0000000 1.0000000 0.4133810
1.0000000 1.0000000 0.3235859
1.0000000 0.9630147 0.2335652
1.0000000 0.8561844 0.1441745
0.9263381 1.0000000 1.0000000
0.9834857 1.0000000 0.9324094
1.0000000 1.0000000 0.8199614
1.0000000 1.0000000 0.7069808
1.0000000 1.0000000 0.5932805
1.0000000 1.0000000 0.4800667
1.0000000 1.0000000 0.3686284
1.0000000 1.0000000 0.2600573
1.0000000 1.0000000 0.1548070
1.0000000 1.0000000 1.0000000
1.0000000 1.0000000 1.0000000
1.0000000 1.0000000 0.9856043
1.0000000 1.0000000 0.8344832
1.0000000 1.0000000 0.6879265
1.0000000 1.0000000 0.5462917
1.0000000 1.0000000 0.4122294
1.0000000 1.0000000 0.2869221
0.9956057 1.0000000 0.1640502
0.0858344 0.0677127 0.0878222
0.0567696 0.0596334 0.0627746
0.0971095 0.0480849 0.0616096
0.2363034 0.0140283 0.0845835
0.4186752 0.0000000 0.0943728
0.6368776 0.0000000 0.0977070
0.8714803 0.0367824 0.1048434
1.0000000 0.0987981 0.1116879
1.0000000 0.1630350 0.1181329
0.0688867 0.0881836 0.0931634
0.0981327 0.0929957 0.1071851
0.1333446 0.0787999 0.1002212
0.2668886 0.0866468 0.1294060
0.4948100 0.1229477 0.1528772
0.7211592 0.1705509 0.1616077
0.9097775 0.1987756 0.1505583
1.0000000 0.2219057 0.1352935
1.0000000 0.2479142 0.1200508
0.0854344 0.2044522 0.1830816
0.1216826 0.1724526 0.1404053
0.1923213 0.1763327 0.1539785
0.3927861 0.2508417 0.2161402
0.6175343 0.3074740 0.2279100
0.8026761 0.3587114 0.2251599
0.9402454 0.3589743 0.1917810
1.0000000 0.3480976 0.1579173
1.0000000 0.3348615 0.1256219
0.1262429 0.3608449 0.3117887
0.2288160 0.4124926 0.2821777
0.3771905 0.4961388 0.2870627
0.6266439 0.5811790 0.3375181
0.8033959 0.6167388 0.3615999
0.8663572 0.5556112 0.2879760
0.9680240 0.5224011 0.2324762
1.0000000 0.4797714 0.1821634
1.0000000 0.4271125 0.1357413
0.2443742 0.5883166 0.5076762
0.4005302 0.6851610 0.4898470
0.5858487 0.7933155 0.4947249
0.7898077 0.8836640 0.5209472
0.9101883 0.8691780 0.4797586
0.9497926 0.7753974 0.3724923
1.0000000 0.6931965 0.2826126
1.0000000 0.6167890 0.2125155
1.0000000 0.5329105 0.1482597
0.4366873 0.8534725 0.7357163
0.5965618 0.9455325 0.7036526
0.7534646 1.0000000 0.6738563
0.8809390 1.0000000 0.6265908
0.9642950 1.0000000 0.5463069
1.0000000 0.9609382 0.4433767
1.0000000 0.8614352 0.3401940
1.0000000 0.7599706 0.2501094
1.0000000 0.6606360 0.1664524
0.6723154 1.0000000 0.9639448
0.7851672 1.0000000 0.8850100
0.8846349 1.0000000 0.7998989
0.9608108 1.0000000 0.7046719
1.0000000 1.0000000 0.6037904
1.0000000 1.0000000 0.4982972
1.0000000 1.0000000 0.3924049
1.0000000 0.9102615 0.2910981
1.0000000 0.8066090 0.1936189
0.9156580 1.0000000 1.0000000
0.9668716 1.0000000 1.0000000
1.0000000 1.0000000 0.9146037
1.0000000 1.0000000 0.7857465
1.0000000 1.0000000 0.6639324
1.0000000 1.0000000 0.5491350
1.0000000 1.0000000 0.4384955
1.0000000 1.0000000 0.3314862
1.0000000 0.9748531 0.2271762
1.0000000 1.0000000 1.0000000
1.0000000 1.0000000 1.0000000
1.0000000 1.0000000 1.0000000
1.0000000 1.0000000 0.8694305
1.0000000 1.0000000 0.7275571
1.0000000 1.0000000 0.5980841
1.0000000 1.0000000 0.4817513
1.0000000 1.0000000 0.3723276
1.0000000 1.0000000 0.2614890
0.0816292 0.0767708 0.1129926
0.0812325 0.0568157 0.1041972
0.1071478 0.0138349 0.0944764
0.1918603 0.0000000 0.1025957
0.3394540 0.0000000 0.1209780
0.5344117 0.0000000 0.1417842
0.7391896 0.0212738 0.1531936
0.9291040 0.0745008 0.1547023
1.0000000 0.1259041 0.1536379
0.0839354 0.1026285 0.1552849
0.1220834 0.1045274 0.1791058
0.1687536 0.0897722 0.1847349
0.2686612 0.0864891 0.1936834
0.4319313 0.1136802 0.2101788
0.6122088 0.1498175 0.2140388
0.7751601 0.1721085 0.1980069
0.9280697 0.1890599 0.1759932
1.0000000 0.2071363 0.1539868
0.0848027 0.2165112 0.2625538
0.1365794 0.1660717 0.2135412
0.2574800 0.2374286 0.3065444
0.4033591 0.2742268 0.3304812
0.5573810 0.3155132 0.3265720
0.6804430 0.3240766 0.2825478
0.8059608 0.3216307 0.2379727
0.9288855 0.3098659 0.1976776
1.0000000 0.2923305 0.1584369
0.1729418 0.4439962 0.4746415
0.2365783 0.4287239 0.4127069
0.3703617 0.5021850 0.4516831
0.7176262 0.6938096 0.6553825
0.7269030 0.5907666 0.5028849
0.7393049 0.4982584 0.3449809
0.8405672 0.4749912 0.2794599
0.9367576 0.4373681 0.2232280
1.0000000 0.3879125 0.1687545
0.2929677 0.6999531 0.7149973
0.4363537 0.7766040 0.7093094
0.6192885 0.8626178 0.7219701
0.8218124 0.9291004 0.7526226
0.8564270 0.8405973 0.6215436
0.8418018 0.7110828 0.4388611
0.8928682 0.6387120 0.3346616
0.9531058 0.5722453 0.2568825
1.0000000 0.4972109 0.1858148
0.4687495 0.9543174 0.9282044
0.6208200 1.0000000 0.8876742
0.7633493 1.0000000 0.8388366
0.8640021 1.0000000 0.7599808
0.9210223 0.9988845 0.6514751
0.9425581 0.9079287 0.5216240
0.9568931 0.8078458 0.3999107
0.9790116 0.7148810 0.3015489
1.0000000 0.6235671 0.2126676
0.6841910 1.0000000 1.0000000
0.7858548 1.0000000 1.0000000
0.8731369 1.0000000 0.9158306
0.9370921 1.0000000 0.8017521
0.9810087 1.0000000 0.6871091
1.0000000 1.0000000 0.5721628
1.0000000 0.9626402 0.4583772
1.0000000 0.8640293 0.3526977
1.0000000 0.7667954 0.2530907
0.9019379 1.0000000 1.0000000
0.9457494 1.0000000 1.0000000
0.9839986 1.0000000 0.9926546
1.0000000 1.0000000 0.8539830
1.0000000 1.0000000 0.7286889
1.0000000 1.0000000 0.6140559
1.0000000 1.0000000 0.5067702
1.0000000 1.0000000 0.4044227
1.0000000 0.9299976 0.3046316
1.0000000 1.0000000 1.0000000
1.0000000 1.0000000 1.0000000
1.0000000 1.0000000 1.0000000
1.0000000 1.0000000 0.9090353
1.0000000 1.0000000 0.7727904
1.0000000 1.0000000 0.6551476
1.0000000 1.0000000 0.5517497
1.0000000 1.0000000 0.4557353
1.0000000 1.0000000 0.3601766
0.0871255 0.0882095 0.1898881
0.0989842 0.0341788 0.1720434
0.1175069 0.0000000 0.1510299
0.1791977 0.0000000 0.1549557
0.2944531 0.0000000 0.1754968
0.4468447 0.0000000 0.1972490
0.6088152 0.0024815 0.2035465
0.7625976 0.0421858 0.1941806
0.9046648 0.0808124 0.1784785
0.0848191 0.1036787 0.2249206
0.1388671 0.1063039 0.2585727
0.2038353 0.1144451 0.2896144
0.2849259 0.1168358 0.2948152
0.3968274 0.1275385 0.2898355
0.5234739 0.1395030 0.2727690
0.6530598 0.1488238 0.2468116
0.7781577 0.1557409 0.2172368
0.8977588 0.1618119 0.1871491
0.0857607 0.1728468 0.2774035
0.2062170 0.2461616 0.4029319
0.3057825 0.2987339 0.4633595
0.4148960 0.3310663 0.4681294
0.5070072 0.3259673 0.4115109
0.5982622 0.3118348 0.3454080
0.6980419 0.2954378 0.2890761
0.7985716 0.2756311 0.2423163
0.8952809 0.2511007 0.1979469
0.2113358 0.5157702 0.6634872
0.3362969 0.5813569 0.7226008
0.4737916 0.6187418 0.7403159
0.5906705 0.6029978 0.6708348
0.6169880 0.5344821 0.5264971
0.6770030 0.4844155 0.4174539
0.7512039 0.4449095 0.3367407
0.8270551 0.4025652 0.2731510
0.9012914 0.3543047 0.2134491
0.3427264 0.7789097 0.9007354
0.4805031 0.8332330 0.8968003
0.6301008 0.8680370 0.8731624
0.7493767 0.8515557 0.7985753
0.7627976 0.7580917 0.6421925
0.7787743 0.6700209 0.4987075
0.8192974 0.6018840 0.3955076
0.8660718 0.5379245 0.3127095
0.9139584 0.4691594 0.2376937
0.5057603 1.0000000 1.0000000
0.6338138 1.0000000 1.0000000
0.7520309 1.0000000 0.9384815
0.8377587 1.0000000 0.8359148
0.8785584 0.9410268 0.7100025
0.8876048 0.8516471 0.5767442
0.8976870 0.7632952 0.4601081
0.9157977 0.6801436 0.3629409
0.9355270 0.5975231 0.2740445
0.6933111 1.0000000 1.0000000
0.7797524 1.0000000 1.0000000
0.8560064 1.0000000 0.9952032
0.9132295 1.0000000 0.8718336
0.9507767 1.0000000 0.7503434
0.9681667 1.0000000 0.6320571
0.9715032 0.9147056 0.5206715
0.9719654 0.8264435 0.4201994
0.9733113 0.7397521 0.3249797
0.8823257 1.0000000 1.0000000
0.9210078 1.0000000 1.0000000
0.9561459 1.0000000 1.0000000
0.9863637 1.0000000 0.9111513
1.0000000 1.0000000 0.7868158
1.0000000 1.0000000 0.6747715
1.0000000 1.0000000 0.5731385
1.0000000 0.9760930 0.4789491
1.0000000 0.8976702 0.3885544
1.0000000 1.0000000 1.0000000
1.0000000 1.0000000 1.0000000
1.0000000 1.0000000 1.0000000
1.0000000 1.0000000 0.9530177
1.0000000 1.0000000 0.8239859
1.0000000 1.0000000 0.7159497
1.0000000 1.0000000 0.6212698
1.0000000 1.0000000 0.5373097
1.0000000 1.0000000 0.4579826
0.1152860 0.1065344 0.3517551
0.1049632 0.0278559 0.2787758
0.1245387 0.0000000 0.2495083
0.1827790 0.0000000 0.2516340
0.2734418 0.0000000 0.2613814
0.3818498 0.0000000 0.2664035
0.5007974 0.0000000 0.2553970
0.6185341 0.0038125 0.2296414
0.7311617 0.0246066 0.1974452
0.1047711 0.1403791 0.3665231
0.1642612 0.1510503 0.3960574
0.2285513 0.1582504 0.4123662
0.2988818 0.1554093 0.4038699
0.3768614 0.1467722 0.3753334
0.4645704 0.1390727 0.3383720
0.5607777 0.1319316 0.2996594
0.6566356 0.1230637 0.2600148
0.7490496 0.1133441 0.2195937
0.1112500 0.2274937 0.4450525
0.2519003 0.3374134 0.5787920
0.3457992 0.3657473 0.5945512
0.4146916 0.3550057 0.5454716
0.4796272 0.3326671 0.4767002
0.5508303 0.3070934 0.4080834
0.6247224 0.2789362 0.3469154
0.6987243 0.2463934 0.2929333
0.7721086 0.2137618 0.2426591
0.2153260 0.4846769 0.7140795
0.3713281 0.5790552 0.7971728
0.4745147 0.5915948 0.7664078
0.5367239 0.5531811 0.6589530
0.5930036 0.5151378 0.5579869
0.6471589 0.4743615 0.4782214
0.6962189 0.4260631 0.4007903
0.7479138 0.3762861 0.3317753
0.8024986 0.3268024 0.2687029
0.3816510 0.7852638 1.0000000
0.5021081 0.8089796 0.9692160
0.6063061 0.8030666 0.8962254
0.6829003 0.7602373 0.7712988
0.7392234 0.7086710 0.6475898
0.7507584 0.6397528 0.5506367
0.7753048 0.5759910 0.4604301
0.8064817 0.5132609 0.3784201
0.8411415 0.4488860 0.3023606
0.5389253 1.0000000 1.0000000
0.6358985 0.9984846 1.0000000
0.7268057 0.9760435 0.9788683
0.7990299 0.9360180 0.8607898
0.8373579 0.8731474 0.7364112
0.8500340 0.7987178 0.6211130
0.8596069 0.7257790 0.5216267
0.8734740 0.6541155 0.4327450
0.8902025 0.5822605 0.3486225
0.6979386 1.0000000 1.0000000
0.7676486 1.0000000 1.0000000
0.8322161 1.0000000 1.0000000
0.8828939 1.0000000 0.9146217
0.9155191 1.0000000 0.7938550
0.9324508 0.9428492 0.6811618
0.9405028 0.8700091 0.5817881
0.9463320 0.7965094 0.4930652
0.9515554 0.7245501 0.4073421
0.8588889 1.0000000 1.0000000
0.8935521 1.0000000 1.0000000
0.9268047 1.0000000 1.0000000
0.9569825 1.0000000 0.9576416
0.9826709 1.0000000 0.8369876
1.0000000 1.0000000 0.7310300
1.0000000 1.0000000 0.6377024
1.0000000 0.9413578 0.5553319
1.0000000 0.8762583 0.4776665
1.0000000 1.0000000 1.0000000
1.0000000 1.0000000 1.0000000
1.0000000 1.0000000 1.0000000
1.0000000 1.0000000 0.9990445
1.0000000 1.0000000 0.8786174
1.0000000 1.0000000 0.7773295
1.0000000 1.0000000 0.6900680
1.0000000 1.0000000 0.6180383
1.0000000 1.0000000 0.5531202
0.1320518 0.1394302 0.5108091
0.1195907 0.0729860 0.4392002
0.1418507 0.0345910 0.3999895
0.1924796 0.0122047 0.3821662
0.2587062 0.0000000 0.3642736
0.3353145 0.0000000 0.3416381
0.4196983 0.0000000 0.3072729
0.5063592 0.0000000 0.2636195
0.5910430 0.0000000 0.2143204
0.1470206 0.2196719 0.5684284
0.1969330 0.2176036 0.5575803
0.2492701 0.2072490 0.5368581
0.3050899 0.1874840 0.5019850
0.3631818 0.1651463 0.4564957
0.4268825 0.1424222 0.4063735
0.4959573 0.1177428 0.3557341
0.5653820 0.0910847 0.3046234
0.6347289 0.0651141 0.2525177
0.1982449 0.3468762 0.6810741
0.2848892 0.3757092 0.6888116
0.3590211 0.3822901 0.6667357
0.4175653 0.3624224 0.6096913
0.4703949 0.3320081 0.5398359
0.5230111 0.2994863 0.4710447
0.5758726 0.2624513 0.4068228
0.6280287 0.2222031 0.3478293
0.6805032 0.1821655 0.2908631
0.2925191 0.5283452 0.8518738
0.3902872 0.5547388 0.8322307
0.4708481 0.5568788 0.7822478
0.5342662 0.5340177 0.7006850
0.5868472 0.4976088 0.6146580
0.6257205 0.4543976 0.5358574
0.6602101 0.4066844 0.4628018
0.6956644 0.3568723 0.3953441
0.7317093 0.3060131 0.3313686
0.4221559 0.7464117 1.0000000
0.5086126 0.7445446 0.9757358
0.5844959 0.7282466 0.8880007
0.6509014 0.6986496 0.7851629
0.7014049 0.6581507 0.6871340
0.7273017 0.6062158 0.6010436
0.7470881 0.5510034 0.5228039
0.7688145 0.4944984 0.4486991
0.7931008 0.4363772 0.3768587
0.5599936 0.9528941 1.0000000
0.6299194 0.9235934 1.0000000
0.6968966 0.8906365 0.9812909
0.7542941 0.8513311 0.8661766
0.7953593 0.8042416 0.7594300
0.8186854 0.7495967 0.6655570
0.8331712 0.6913972 0.5835712
0.8477175 0.6330974 0.5070435
0.8646051 0.5749720 0.4318002
0.6959326 1.0000000 1.0000000
0.7491436 1.0000000 1.0000000
0.8001135 1.0000000 1.0000000
0.8441629 0.9909215 0.9357822
0.8769175 0.9388472 0.8239726
0.8996570 0.8849569 0.7262477
0.9165958 0.8288210 0.6433255
0.9309621 0.7724159 0.5691524
0.9445938 0.7168521 0.4970806
0.8309332 1.0000000 1.0000000
0.8633530 1.0000000 1.0000000
0.8949233 1.0000000 1.0000000
0.9256853 1.0000000 0.9932745
0.9531567 1.0000000 0.8796747
0.9767810 1.0000000 0.7825144
0.9984527 0.9646454 0.7012263
1.0000000 0.9128600 0.6331214
1.0000000 0.8628711 0.5702647
0.9640403 1.0000000 1.0000000
0.9735308 1.0000000 1.0000000
0.9863796 1.0000000 1.0000000
1.0000000 1.0000000 1.0000000
1.0000000 1.0000000 0.9311137
1.0000000 1.0000000 0.8362423
1.0000000 1.0000000 0.7580035
1.0000000 1.0000000 0.6980348
1.0000000 1.0000000 0.6457483
0.1245951 0.1991009 0.6931236
0.1446255 0.1590622 0.6336141
0.1699896 0.1195138 0.5760451
0.2055253 0.0839014 0.5236688
0.2479616 0.0465816 0.4722412
0.2969264 0.0063846 0.4181067
0.3548263 0.0000000 0.3591437
0.4191560 0.0000000 0.2973697
0.4828459 0.0000000 0.2310512
0.1932833 0.3079900 0.7718056
0.2319756 0.2810471 0.7150555
0.2715281 0.2524406 0.6580289
0.3116346 0.2190194 0.5989020
0.3526134 0.1828132 0.5378383
0.3965449 0.1445137 0.4752598
0.4443883 0.1031981 0.4128990
0.4965614 0.0602146 0.3496906
0.5484156 0.0176244 0.2870901
0.2730940 0.4246690 0.8579293
0.3222977 0.4056006 0.7951369
0.3707756 0.3840205 0.7346104
0.4161588 0.3566298 0.6713393
0.4579683 0.3223747 0.6029979
0.4975863 0.2845616 0.5342074
0.5366698 0.2433981 0.4674569
0.5763886 0.2006590 0.4036730
0.6162243 0.1570931 0.3421046
0.3649555 0.5550435 0.9550360
0.4175423 0.5370290 0.8794117
0.4697888 0.5191622 0.8084836
0.5185992 0.4955281 0.7387366
0.5615035 0.4634090 0.6666718
0.5979052 0.4255843 0.5941150
0.6302947 0.3839401 0.5248693
0.6601803 0.3391095 0.4602119
0.6887536 0.2929034 0.3975518
0.4659810 0.7022675 1.0000000
0.5180309 0.6804849 0.9748915
0.5691770 0.6580031 0.8874167
0.6165828 0.6324039 0.8047305
0.6587993 0.6016752 0.7274980
0.6940503 0.5651195 0.6540657
0.7217410 0.5230088 0.5848523
0.7457972 0.4777577 0.5199419
0.7690565 0.4300687 0.4559161
0.5754829 0.8644089 1.0000000
0.6218034 0.8324418 1.0000000
0.6675168 0.8002285 0.9728333
0.7115766 0.7685336 0.8745716
0.7515330 0.7356964 0.7882812
0.7845109 0.6995765 0.7130515
0.8104825 0.6585229 0.6456245
0.8332491 0.6153484 0.5825929
0.8563202 0.5701831 0.5198025
0.6883408 1.0000000 1.0000000
0.7258870 0.9893429 1.0000000
0.7645851 0.9467399 1.0000000
0.8032755 0.9062344 0.9493933
0.8386632 0.8675048 0.8520729
0.8697566 0.8296251 0.7713156
0.8970879 0.7913586 0.7051737
0.9229339 0.7515387 0.6468467
0.9481809 0.7129894 0.5903369
0.7993625 1.0000000 1.0000000
0.8296739 1.0000000 1.0000000
0.8607265 1.0000000 1.0000000
0.8921462 1.0000000 1.0000000
0.9232721 1.0000000 0.9171312
0.9537663 0.9599662 0.8305122
0.9847318 0.9230877 0.7645424
1.0000000 0.8885564 0.7116033
1.0000000 0.8547937 0.6646182
0.9092292 1.0000000 1.0000000
0.9333004 1.0000000 1.0000000
0.9563367 1.0000000 1.0000000
0.9802525 1.0000000 1.0000000
1.0000000 1.0000000 0.9800276
1.0000000 1.0000000 0.8915915
1.0000000 1.0000000 0.8245126
1.0000000 1.0000000 0.7771373
1.0000000 0.9938301 0.7376983
0.1304641 0.2978632 0.9082003
0.1722193 0.2544151 0.8367776
0.2055421 0.2105978 0.7536549
0.2246771 0.1589904 0.6650623
0.2411707 0.0997996 0.5794977
0.2642729 0.0329083 0.4944050
0.2970765 0.0000000 0.4116741
0.3411646 0.0000000 0.3313684
0.3968447 0.0000000 0.2474867
0.2380455 0.3915744 0.9669019
0.2701672 0.3437048 0.8715189
0.2972277 0.2970934 0.7816612
0.3190932 0.2520424 0.6982763
0.3412370 0.2014539 0.6201504
0.3668184 0.1450113 0.5452380
0.3976488 0.0877654 0.4700496
0.4339514 0.0299901 0.3945238
0.4768921 0.0000000 0.3224626
0.3369240 0.4808078 1.0000000
0.3616801 0.4305030 0.9016539
0.3866016 0.3867136 0.8087446
0.4125988 0.3472685 0.7337397
0.4394352 0.3086599 0.6647046
0.4675940 0.2661115 0.5971723
0.4980379 0.2230544 0.5281933
0.5309063 0.1796568 0.4599611
0.5652239 0.1357471 0.3940088
0.4248557 0.5661823 1.0000000
0.4467343 0.5201047 0.9289864
0.4714183 0.4794706 0.8419547
0.5000508 0.4480891 0.7742786
0.5314243 0.4220913 0.7139951
0.5649421 0.3929459 0.6514228
0.5978440 0.3589591 0.5878836
0.6295931 0.3216074 0.5253173
0.6614512 0.2822226 0.4645438
0.5080307 0.6588844 1.0000000
0.5292204 0.6186468 0.9743481
0.5535497 0.5853237 0.8904601
0.5841801 0.5615868 0.8225990
0.6196550 0.5416323 0.7651061
0.6580206 0.5200420 0.7075094
0.6946423 0.4932111 0.6484267
0.7274754 0.4604951 0.5908663
0.7586201 0.4273415 0.5362170
0.5920005 0.7710023 1.0000000
0.6131623 0.7388231 1.0000000
0.6382411 0.7105081 0.9629722
0.6700343 0.6870070 0.8845785
0.7084174 0.6681654 0.8190122
0.7485801 0.6492507 0.7619946
0.7873381 0.6268131 0.7082819
0.8228029 0.5977369 0.6581515
0.8557859 0.5662503 0.6094408
0.6754411 0.9258279 1.0000000
0.7024443 0.8880768 1.0000000
0.7305054 0.8521840 1.0000000
0.7620676 0.8219011 0.9635191
0.7990380 0.7979692 0.8812385
0.8393285 0.7766498 0.8167503
0.8794779 0.7551321 0.7671127
0.9180472 0.7333429 0.7250876
0.9555591 0.7092542 0.6846055
0.7651721 1.0000000 1.0000000
0.7954547 1.0000000 1.0000000
0.8267231 1.0000000 1.0000000
0.8591855 0.9683000 1.0000000
0.8935711 0.9326667 0.9530032
0.9318261 0.9044545 0.8774530
0.9730212 0.8826901 0.8275054
1.0000000 0.8655089 0.7904161
1.0000000 0.8491538 0.7595746
0.8582243 1.0000000 1.0000000
0.8912425 1.0000000 1.0000000
0.9239149 1.0000000 1.0000000
0.9562829 1.0000000 1.0000000
0.9888246 1.0000000 1.0000000
1.0000000 1.0000000 0.9446754
1.0000000 1.0000000 0.8902935
1.0000000 0.9935024 0.8555461
1.0000000 0.9840351 0.8303305
