catalog/styles/experimental/experimental-verbania/look.cube
# experimental-verbania iteration 2
LUT_3D_SIZE 5
DOMAIN_MIN 0 0 0
DOMAIN_MAX 1 1 1
0.0689437 0.0551547 0.0423646
0.1384332 0.0716250 0.0416723
0.4214524 0.0752215 0.0479766
0.7949459 0.0232166 0.0097336
1.0000000 0.0000000 0.0000000
0.0502981 0.1357785 0.0439805
0.1250643 0.1264758 0.0214293
0.4008656 0.2212914 0.0537598
0.7238701 0.2364699 0.0376602
1.0000000 0.3011603 0.0000000
0.1062387 0.3297462 0.0801161
0.2563513 0.3915762 0.0880449
0.4176040 0.4338480 0.1232129
0.7946012 0.5364000 0.0585591
1.0000000 0.5566495 0.0000000
0.0555148 0.4773362 0.0791507
0.1500135 0.4843404 0.0102718
0.3020583 0.5079241 0.0000000
0.6107947 0.5981609 0.0000000
1.0000000 0.7192746 0.0000000
0.0000000 0.6162660 0.0839009
0.0432301 0.5838462 0.0000000
0.2032486 0.5887199 0.0000000
0.4850196 0.6897479 0.0000000
0.8709098 0.8730248 0.0000000
0.0640099 0.0688738 0.1274937
0.1112212 0.0665737 0.1299431
0.2736611 0.0832709 0.1622322
0.6273592 0.1154134 0.2111125
0.9630683 0.3049821 0.3257131
0.0801132 0.1539310 0.1489604
0.1489658 0.1510934 0.1540839
0.2939582 0.1769719 0.1804325
0.6032247 0.2144334 0.1893956
0.9454116 0.2355335 0.1923595
0.1147376 0.3233657 0.2109654
0.2281760 0.3643016 0.2158563
0.3916186 0.3900571 0.2258303
0.5945219 0.4081253 0.2546577
0.8976290 0.4789539 0.2708663
0.1339749 0.5652121 0.2964828
0.2342422 0.5565332 0.2232911
0.3563661 0.5424809 0.1682906
0.5916036 0.5963255 0.2280989
0.9413208 0.6979566 0.2209741
0.1395560 0.7939276 0.3549763
0.2153089 0.7216209 0.2326200
0.3368575 0.6939083 0.1420766
0.5820482 0.7651765 0.1061491
0.9887746 0.9681959 0.1908071
0.0445406 0.0267314 0.4032826
0.1089297 0.0779490 0.2070721
0.2237962 0.1004127 0.2322028
0.5209988 0.1567478 0.3583673
0.9006507 0.3028519 0.5403481
0.1068711 0.1610552 0.2564422
0.1935615 0.1908322 0.3099585
0.2966069 0.1885882 0.3028116
0.6520461 0.3157934 0.4263816
0.9504026 0.4523385 0.5628150
0.1715568 0.4077051 0.4154459
0.2799499 0.4175486 0.4339741
0.4383247 0.4420828 0.4413867
0.7113577 0.5264720 0.4936761
0.9511541 0.5559299 0.5470599
0.2690836 0.7054062 0.5604586
0.3327270 0.6381363 0.4776057
0.4590129 0.6196028 0.4483018
0.6816944 0.6863112 0.5308822
0.8917513 0.7175355 0.5573978
0.3336064 0.9091163 0.5880936
0.3624464 0.8144443 0.4632206
0.4543389 0.7781978 0.4192950
0.6790735 0.8468239 0.5040961
1.0000000 0.9811529 0.6984092
0.1102230 0.0773839 0.7060276
0.1607928 0.1102772 0.4205642
0.2403439 0.1245665 0.3424326
0.4614732 0.1804897 0.4599725
0.7720375 0.2844631 0.6346427
0.1051048 0.2001435 0.5788091
0.2434790 0.2465983 0.5293733
0.3563154 0.2610713 0.4958220
0.6326710 0.3959375 0.6171103
0.9358092 0.5490965 0.7521600
0.1919653 0.4646829 0.6157560
0.3703042 0.5081979 0.6950160
0.5782946 0.5879055 0.7556948
0.7626290 0.6148196 0.7459992
1.0000000 0.7264204 0.7977352
0.4482823 0.8052271 0.7892955
0.4185788 0.7038470 0.7255816
0.5855417 0.7366630 0.7341739
0.7962529 0.7951735 0.7969079
0.9967074 0.8520455 0.8150833
0.5307422 0.9632018 0.8492816
0.4964095 0.8661111 0.7079825
0.5242444 0.8070331 0.6450393
0.6966802 0.8461160 0.7160611
0.9751569 0.9680134 0.8283785
0.4276343 0.3368444 1.0000000
0.3020176 0.2029022 0.7620678
0.3071630 0.1570487 0.5644407
0.4330729 0.2078845 0.5567936
0.6147439 0.3009762 0.6688478
0.4685555 0.5521588 1.0000000
0.3379649 0.3603512 0.7856595
0.4649176 0.3951321 0.7442328
0.6451728 0.4904301 0.8019507
0.8503757 0.6013524 0.8846494
0.4772106 0.7605055 1.0000000
0.3409452 0.4375295 0.7052148
0.5441855 0.5689096 0.8343775
0.8258041 0.7487022 0.9867573
1.0000000 0.8856595 1.0000000
0.1646700 0.6215425 0.8280263
0.4439750 0.6558213 0.8206088
0.5526158 0.6845542 0.8389606
0.8324404 0.8478227 0.9670629
1.0000000 1.0000000 1.0000000
0.8124632 1.0000000 1.0000000
0.6558233 0.9524153 1.0000000
0.6464988 0.8908521 0.9680169
0.7158840 0.8439151 0.8698199
0.9928369 0.9971492 1.0000000
