catalog/styles/experimental/experimental-verbania/look.cube
# experimental-verbania iteration 2
LUT_3D_SIZE 33
DOMAIN_MIN 0 0 0
DOMAIN_MAX 1 1 1
0.0689437 0.0551547 0.0423646
0.1063025 0.0735369 0.0473585
0.1063218 0.0689529 0.0394999
0.1018201 0.0630560 0.0338684
0.1022972 0.0608428 0.0318607
0.1082720 0.0626101 0.0332791
0.1170275 0.0661839 0.0365790
0.1272819 0.0698826 0.0401015
0.1384332 0.0716250 0.0416723
0.1530232 0.0715354 0.0419962
0.1733452 0.0707778 0.0423866
0.2006427 0.0696266 0.0425532
0.2350994 0.0693812 0.0435060
0.2763588 0.0707475 0.0453765
0.3223408 0.0729754 0.0473254
0.3713318 0.0748004 0.0483377
0.4214524 0.0752215 0.0479766
0.4708054 0.0736419 0.0461635
0.5193744 0.0700029 0.0432198
0.5676529 0.0645015 0.0395040
0.6152075 0.0577052 0.0352766
0.6621460 0.0502062 0.0306542
0.7080672 0.0423235 0.0254027
0.7523921 0.0335774 0.0186976
0.7949459 0.0232166 0.0097336
0.8357624 0.0105704 0.0000000
0.8745500 0.0000000 0.0000000
0.9110350 0.0000000 0.0000000
0.9450729 0.0000000 0.0000000
0.9770085 0.0000000 0.0000000
1.0000000 0.0000000 0.0000000
1.0000000 0.0000000 0.0000000
1.0000000 0.0000000 0.0000000
0.0800142 0.0768809 0.0504861
0.0976692 0.0870366 0.0574138
0.1010679 0.0839631 0.0547186
0.1020199 0.0787958 0.0499738
0.1055363 0.0759635 0.0465864
0.1114471 0.0754180 0.0451370
0.1185876 0.0760535 0.0449748
0.1261782 0.0762468 0.0447788
0.1351281 0.0752332 0.0436400
0.1472508 0.0733445 0.0421438
0.1644543 0.0713139 0.0411533
0.1886192 0.0700032 0.0408916
0.2207429 0.0705342 0.0418357
0.2603375 0.0732535 0.0440339
0.3051820 0.0772833 0.0467249
0.3526307 0.0811173 0.0488609
0.4004446 0.0834682 0.0496873
0.4475813 0.0837264 0.0489240
0.4940236 0.0818985 0.0466601
0.5404133 0.0784273 0.0431520
0.5869222 0.0738740 0.0386494
0.6335365 0.0687147 0.0333277
0.6800043 0.0631260 0.0271212
0.7257112 0.0567907 0.0196160
0.7702927 0.0492029 0.0103304
0.8134383 0.0396486 0.0000000
0.8548537 0.0274160 0.0000000
0.8942408 0.0120849 0.0000000
0.9315365 0.0000000 0.0000000
0.9669952 0.0000000 0.0000000
1.0000000 0.0000000 0.0000000
1.0000000 0.0000000 0.0000000
1.0000000 0.0000000 0.0000000
0.0606688 0.0703180 0.0467078
0.0778851 0.0824315 0.0559137
0.0890260 0.0869371 0.0596877
0.0964944 0.0862870 0.0589260
0.1036814 0.0847484 0.0563437
0.1111680 0.0836315 0.0533331
0.1184971 0.0824348 0.0500879
0.1253891 0.0801653 0.0464181
0.1326284 0.0766729 0.0425603
0.1419576 0.0727371 0.0392918
0.1557017 0.0693717 0.0371160
0.1771541 0.0684280 0.0367478
0.2080904 0.0710428 0.0386074
0.2472449 0.0764584 0.0421264
0.2913791 0.0828357 0.0460849
0.3372306 0.0884274 0.0493503
0.3828659 0.0922607 0.0512263
0.4275786 0.0938842 0.0513243
0.4717763 0.0935894 0.0496392
0.5163602 0.0919346 0.0463444
0.5618363 0.0894411 0.0415990
0.6081377 0.0865060 0.0356880
0.6549733 0.0833105 0.0287694
0.7018008 0.0796476 0.0207309
0.7480473 0.0749875 0.0112263
0.7932370 0.0687184 0.0000000
0.8369812 0.0602146 0.0000000
0.8789547 0.0491093 0.0000000
0.9191577 0.0353972 0.0000000
0.9578083 0.0194118 0.0000000
0.9953016 0.0017344 0.0000000
1.0000000 0.0000000 0.0000000
1.0000000 0.0000000 0.0000000
0.0415354 0.0611307 0.0415114
0.0583960 0.0733640 0.0502236
0.0721087 0.0809590 0.0561227
0.0834002 0.0843132 0.0587002
0.0943028 0.0859510 0.0587999
0.1053983 0.0867923 0.0567394
0.1162992 0.0865511 0.0526478
0.1257991 0.0840423 0.0468971
0.1331648 0.0789578 0.0402749
0.1395573 0.0723838 0.0341385
0.1497260 0.0674651 0.0302261
0.1694978 0.0679203 0.0302051
0.2007353 0.0741039 0.0340172
0.2402426 0.0829988 0.0397362
0.2832651 0.0913036 0.0452755
0.3268113 0.0976155 0.0495596
0.3697480 0.1018144 0.0521788
0.4118875 0.1040395 0.0528787
0.4539967 0.1048329 0.0517054
0.4970866 0.1048276 0.0487695
0.5417173 0.1043179 0.0440320
0.5876479 0.1035898 0.0378173
0.6346584 0.1029245 0.0305408
0.6822645 0.1021343 0.0222662
0.7298544 0.1006574 0.0127657
0.7767335 0.0978814 0.0017902
0.8223986 0.0932438 0.0000000
0.8665400 0.0863755 0.0000000
0.9091512 0.0772779 0.0000000
0.9504514 0.0662603 0.0000000
0.9907921 0.0538395 0.0000000
1.0000000 0.0405965 0.0000000
1.0000000 0.0270387 0.0000000
0.0315572 0.0603987 0.0383602
0.0445201 0.0688106 0.0439808
0.0552377 0.0739249 0.0480625
0.0657019 0.0774133 0.0512304
0.0783001 0.0813972 0.0540105
0.0936293 0.0860719 0.0556122
0.1111325 0.0904766 0.0547504
0.1277396 0.0917351 0.0498564
0.1393024 0.0873742 0.0403749
0.1459669 0.0793055 0.0296285
0.1549857 0.0742003 0.0232587
0.1747356 0.0773836 0.0239142
0.2061124 0.0870027 0.0298269
0.2436420 0.0973611 0.0374326
0.2828140 0.1050448 0.0442154
0.3221709 0.1098845 0.0492606
0.3615690 0.1128242 0.0522889
0.4010465 0.1145174 0.0532388
0.4414716 0.1157810 0.0524489
0.4835810 0.1171732 0.0500684
0.5275330 0.1186227 0.0458077
0.5731885 0.1202826 0.0398379
0.6202308 0.1223118 0.0326890
0.6682688 0.1245149 0.0245223
0.7167392 0.1263974 0.0152817
0.7649561 0.1273327 0.0048424
0.8121680 0.1266128 0.0000000
0.8579739 0.1238140 0.0000000
0.9023893 0.1189713 0.0000000
0.9456766 0.1124562 0.0000000
0.9882234 0.1048214 0.0000000
1.0000000 0.0965924 0.0000000
1.0000000 0.0881592 0.0000000
0.0301099 0.0702986 0.0381070
0.0381478 0.0730608 0.0395347
0.0442003 0.0735437 0.0400751
0.0503704 0.0737202 0.0409293
0.0604449 0.0765025 0.0439904
0.0771762 0.0832599 0.0493746
0.1004943 0.0927700 0.0541532
0.1267162 0.1009388 0.0529893
0.1504193 0.1039380 0.0431726
0.1689269 0.1027701 0.0294750
0.1861703 0.1038013 0.0211418
0.2076694 0.1102122 0.0214437
0.2339882 0.1187861 0.0277350
0.2624499 0.1249076 0.0360700
0.2923765 0.1273426 0.0434939
0.3243772 0.1274252 0.0487062
0.3588244 0.1268346 0.0515574
0.3954808 0.1265736 0.0523987
0.4345458 0.1273898 0.0518787
0.4759639 0.1295388 0.0501627
0.5197140 0.1329019 0.0468940
0.5652105 0.1370423 0.0418438
0.6122209 0.1419061 0.0353921
0.6604278 0.1472051 0.0277540
0.7094308 0.1525678 0.0190518
0.7585784 0.1572323 0.0092183
0.8068870 0.1603172 0.0000000
0.8537712 0.1612421 0.0000000
0.8993010 0.1601398 0.0000000
0.9438823 0.1575677 0.0000000
0.9879574 0.1541734 0.0000000
1.0000000 0.1504294 0.0000000
1.0000000 0.1465960 0.0000000
0.0342624 0.0884906 0.0394708
0.0391092 0.0867789 0.0377710
0.0419529 0.0835022 0.0353338
0.0440129 0.0800077 0.0331235
0.0486123 0.0785178 0.0332725
0.0605255 0.0818249 0.0377629
0.0823251 0.0906023 0.0445699
0.1149817 0.1041985 0.0481657
0.1584115 0.1223641 0.0441133
0.2078906 0.1439882 0.0345023
0.2494604 0.1620322 0.0255141
0.2737010 0.1706075 0.0223641
0.2870979 0.1717968 0.0270555
0.2985701 0.1680474 0.0359952
0.3139430 0.1613787 0.0440168
0.3352529 0.1535764 0.0487285
0.3628694 0.1468508 0.0506504
0.3958853 0.1426985 0.0510373
0.4332835 0.1416210 0.0506594
0.4742614 0.1436048 0.0496532
0.5180639 0.1482002 0.0475528
0.5636849 0.1545374 0.0438672
0.6107842 0.1622032 0.0386669
0.6591157 0.1707192 0.0320629
0.7083612 0.1795056 0.0241296
0.7579133 0.1877004 0.0148918
0.8066892 0.1942088 0.0042244
0.8539679 0.1983504 0.0000000
0.8999570 0.2004455 0.0000000
0.9451997 0.2012795 0.0000000
0.9901505 0.2015603 0.0000000
1.0000000 0.2016948 0.0000000
1.0000000 0.2018236 0.0000000
0.0416253 0.1113297 0.0414478
0.0459576 0.1080481 0.0385240
0.0483932 0.1035204 0.0347268
0.0490878 0.0981486 0.0304391
0.0496989 0.0930450 0.0271641
0.0539893 0.0902259 0.0270381
0.0665610 0.0917856 0.0302257
0.0949553 0.1023425 0.0342810
0.1485250 0.1287194 0.0353938
0.2284432 0.1733102 0.0335849
0.3067062 0.2171620 0.0287383
0.3455573 0.2357073 0.0230013
0.3510740 0.2333848 0.0266913
0.3486022 0.2231906 0.0376364
0.3498931 0.2090434 0.0466710
0.3580554 0.1922103 0.0501990
0.3757528 0.1770474 0.0508439
0.4029831 0.1665463 0.0506096
0.4376170 0.1614901 0.0501335
0.4777751 0.1615788 0.0493979
0.5216697 0.1659996 0.0481117
0.5678899 0.1737823 0.0459233
0.6154850 0.1839373 0.0425166
0.6640814 0.1954832 0.0374535
0.7133693 0.2074650 0.0304855
0.7628118 0.2187641 0.0217332
0.8112866 0.2280641 0.0111505
0.8582933 0.2348402 0.0000000
0.9042280 0.2396970 0.0000000
0.9496162 0.2434755 0.0000000
0.9948262 0.2468428 0.0000000
1.0000000 0.2501381 0.0000000
1.0000000 0.2534526 0.0000000
0.0502981 0.1357785 0.0439805
0.0562996 0.1336009 0.0411494
0.0606065 0.1302296 0.0373226
0.0630565 0.1256684 0.0325463
0.0639628 0.1200749 0.0274995
0.0644879 0.1137298 0.0233038
0.0674267 0.1076045 0.0206643
0.0824333 0.1080721 0.0203080
0.1250643 0.1264758 0.0214293
0.2059208 0.1718017 0.0246085
0.3059985 0.2310234 0.0289459
0.3759308 0.2702386 0.0289830
0.3994315 0.2812805 0.0319585
0.4024017 0.2793611 0.0414682
0.3992116 0.2670102 0.0502667
0.3956840 0.2447054 0.0533180
0.4008656 0.2212914 0.0537598
0.4184976 0.2025795 0.0533143
0.4477624 0.1910193 0.0523516
0.4859219 0.1869531 0.0511260
0.5297717 0.1892663 0.0496954
0.5769155 0.1968396 0.0484073
0.6255041 0.2082976 0.0467792
0.6746510 0.2219892 0.0434496
0.7238701 0.2364699 0.0376602
0.7726116 0.2501962 0.0292525
0.8201043 0.2616563 0.0183063
0.8664184 0.2707069 0.0052692
0.9119447 0.2780035 0.0000000
0.9570088 0.2842428 0.0000000
1.0000000 0.2899990 0.0000000
1.0000000 0.2955935 0.0000000
1.0000000 0.3011603 0.0000000
0.0595907 0.1608667 0.0474585
0.0682379 0.1610628 0.0452810
0.0756191 0.1602865 0.0422683
0.0816846 0.1585224 0.0383707
0.0865992 0.1558455 0.0338436
0.0897684 0.1512993 0.0286628
0.0906068 0.1434598 0.0226863
0.0936629 0.1349221 0.0168791
0.1126119 0.1357325 0.0135354
0.1638223 0.1587373 0.0151220
0.2478973 0.2059777 0.0238684
0.3400517 0.2609081 0.0361428
0.4098737 0.3035419 0.0441765
0.4465488 0.3265917 0.0496204
0.4550668 0.3274943 0.0555512
0.4482880 0.3092595 0.0604059
0.4420469 0.2818371 0.0627439
0.4470438 0.2549350 0.0619873
0.4663412 0.2345773 0.0593701
0.4989181 0.2236662 0.0565103
0.5418720 0.2217939 0.0538392
0.5903874 0.2272797 0.0523737
0.6405359 0.2380686 0.0518015
0.6904621 0.2519512 0.0498134
0.7391493 0.2672575 0.0450443
0.7865807 0.2822085 0.0365827
0.8327289 0.2953243 0.0248570
0.8780720 0.3063937 0.0108309
0.9227848 0.3156969 0.0000000
0.9669840 0.3237364 0.0000000
1.0000000 0.3310174 0.0000000
1.0000000 0.3379168 0.0000000
1.0000000 0.3446898 0.0000000
0.0689732 0.1860611 0.0518314
0.0803155 0.1888725 0.0503989
0.0909079 0.1910630 0.0484151
0.1010860 0.1928755 0.0460489
0.1112063 0.1945283 0.0435173
0.1209192 0.1954818 0.0407560
0.1286977 0.1939525 0.0371316
0.1319725 0.1868263 0.0311465
0.1332308 0.1747726 0.0228395
0.1487808 0.1709118 0.0176264
0.1948765 0.1893907 0.0209546
0.2716824 0.2321505 0.0328460
0.3638527 0.2897079 0.0489341
0.4454668 0.3429594 0.0615759
0.4910071 0.3710335 0.0670423
0.5008659 0.3711521 0.0733397
0.4961717 0.3529391 0.0799309
0.4925457 0.3248576 0.0797277
0.4983091 0.2955025 0.0734028
0.5206529 0.2755117 0.0671205
0.5594514 0.2677646 0.0629579
0.6082572 0.2693180 0.0604233
0.6596502 0.2765613 0.0587206
0.7100109 0.2875965 0.0564237
0.7580553 0.3013041 0.0514224
0.8037471 0.3158776 0.0423247
0.8483184 0.3298623 0.0297607
0.8924326 0.3423769 0.0147275
0.9359098 0.3530130 0.0000000
0.9786578 0.3619839 0.0000000
1.0000000 0.3698075 0.0000000
1.0000000 0.3770003 0.0000000
1.0000000 0.3839687 0.0000000
0.0778585 0.2109849 0.0568026
0.0915420 0.2161621 0.0558990
0.1049694 0.2210895 0.0548265
0.1186896 0.2261392 0.0539180
0.1334891 0.2318434 0.0537109
0.1497960 0.2384630 0.0546088
0.1662154 0.2446518 0.0560740
0.1785692 0.2464448 0.0558962
0.1814635 0.2381268 0.0505578
0.1787577 0.2218377 0.0410793
0.1884226 0.2128151 0.0344439
0.2279286 0.2262097 0.0360533
0.3003771 0.2661544 0.0469038
0.3916541 0.3231777 0.0639792
0.4724429 0.3745923 0.0792104
0.5210984 0.4039463 0.0904767
0.5438862 0.4137009 0.1009914
0.5494604 0.4025153 0.1042981
0.5476572 0.3736213 0.0964355
0.5572230 0.3459362 0.0865966
0.5872166 0.3308989 0.0809160
0.6321713 0.3267251 0.0768491
0.6815609 0.3269667 0.0707167
0.7304341 0.3308400 0.0626815
0.7774111 0.3394729 0.0538102
0.8219396 0.3520878 0.0442625
0.8652368 0.3659595 0.0317061
0.9079276 0.3788924 0.0159852
0.9497148 0.3898038 0.0000000
0.9905333 0.3986916 0.0000000
1.0000000 0.4061356 0.0000000
1.0000000 0.4128081 0.0000000
1.0000000 0.4192174 0.0000000
0.0858645 0.2354995 0.0620170
0.1014998 0.2426698 0.0614544
0.1171170 0.2497686 0.0609778
0.1333983 0.2572141 0.0610795
0.1512984 0.2656399 0.0625029
0.1715102 0.2754868 0.0658633
0.1933820 0.2861216 0.0711032
0.2139667 0.2950526 0.0767292
0.2277901 0.2975034 0.0793123
0.2300499 0.2885638 0.0755556
0.2257011 0.2713388 0.0657774
0.2321492 0.2596625 0.0562163
0.2674577 0.2695895 0.0548507
0.3339141 0.3048372 0.0643449
0.4180099 0.3558153 0.0819824
0.4993786 0.4074542 0.1018179
0.5595516 0.4454611 0.1173192
0.5907474 0.4606395 0.1245006
0.6012626 0.4524641 0.1232438
0.6090484 0.4314201 0.1174469
0.6291978 0.4113465 0.1110349
0.6639937 0.3981967 0.1029947
0.7054853 0.3885805 0.0898312
0.7488575 0.3824735 0.0725638
0.7930935 0.3828452 0.0555655
0.8373865 0.3907652 0.0417099
0.8805659 0.4032055 0.0290074
0.9219841 0.4153412 0.0133323
0.9619075 0.4253521 0.0000000
1.0000000 0.4332637 0.0000000
1.0000000 0.4397262 0.0000000
1.0000000 0.4454513 0.0000000
1.0000000 0.4509373 0.0000000
0.0928716 0.2596573 0.0671674
0.1098938 0.2682780 0.0667288
0.1269847 0.2768609 0.0665156
0.1447833 0.2857549 0.0670654
0.1641248 0.2954392 0.0691139
0.1856260 0.3062025 0.0732743
0.2092001 0.3177786 0.0797510
0.2332717 0.3289207 0.0878297
0.2545619 0.3372902 0.0954189
0.2680642 0.3390486 0.0991698
0.2710699 0.3314078 0.0963984
0.2690324 0.3167417 0.0876541
0.2773289 0.3072335 0.0786321
0.3103524 0.3159242 0.0763557
0.3708753 0.3467017 0.0842804
0.4503614 0.3944030 0.1010640
0.5312162 0.4461639 0.1210411
0.5939743 0.4855447 0.1361766
0.6315067 0.5049212 0.1445220
0.6543111 0.5070985 0.1492161
0.6749680 0.4949968 0.1477833
0.6987994 0.4739260 0.1345869
0.7283947 0.4526334 0.1119463
0.7634409 0.4364373 0.0851727
0.8034183 0.4289201 0.0594501
0.8468727 0.4311900 0.0384743
0.8906105 0.4403952 0.0226231
0.9314755 0.4503860 0.0064706
0.9701260 0.4586617 0.0000000
1.0000000 0.4651922 0.0000000
1.0000000 0.4705448 0.0000000
1.0000000 0.4752962 0.0000000
1.0000000 0.4798513 0.0000000
0.0987928 0.2835248 0.0720411
0.1165002 0.2929066 0.0714556
0.1342969 0.3022266 0.0711322
0.1526613 0.3116908 0.0715704
0.1722032 0.3215518 0.0733841
0.1934126 0.3319059 0.0771096
0.2164453 0.3425522 0.0830415
0.2406070 0.3528290 0.0908965
0.2641413 0.3616584 0.0994635
0.2837754 0.3672476 0.1063830
0.2967156 0.3681948 0.1097455
0.3027177 0.3635863 0.1091614
0.3068124 0.3554238 0.1045945
0.3198820 0.3512567 0.0984212
0.3530438 0.3612853 0.0964223
0.4096133 0.3901474 0.1027397
0.4838838 0.4352014 0.1183792
0.5625161 0.4862496 0.1397423
0.6289950 0.5292082 0.1598273
0.6758341 0.5560727 0.1755602
0.7050662 0.5594155 0.1797743
0.7223944 0.5357675 0.1609530
0.7429807 0.5072240 0.1296701
0.7714765 0.4848973 0.0954205
0.8078373 0.4725941 0.0632985
0.8497788 0.4705188 0.0363019
0.8933331 0.4758204 0.0156345
0.9344011 0.4828574 0.0000000
0.9729983 0.4891960 0.0000000
1.0000000 0.4944835 0.0000000
1.0000000 0.4989521 0.0000000
1.0000000 0.5029383 0.0000000
1.0000000 0.5067413 0.0000000
0.1033386 0.3069700 0.0764589
0.1210879 0.3164131 0.0753855
0.1388837 0.3257531 0.0745652
0.1570443 0.3350575 0.0743973
0.1759876 0.3443963 0.0753551
0.1960861 0.3537079 0.0778676
0.2175382 0.3627416 0.0822220
0.2401980 0.3711149 0.0884502
0.2631994 0.3782349 0.0959320
0.2847824 0.3834957 0.1032295
0.3030826 0.3869743 0.1090523
0.3172050 0.3890652 0.1134667
0.3279693 0.3891213 0.1165280
0.3387049 0.3875830 0.1158010
0.3559673 0.3884706 0.1122327
0.3890611 0.4004573 0.1112100
0.4435562 0.4301617 0.1191622
0.5154057 0.4758650 0.1377613
0.5920936 0.5272075 0.1626429
0.6576032 0.5686901 0.1847314
0.6983007 0.5821680 0.1888931
0.7206304 0.5668190 0.1692738
0.7422293 0.5429329 0.1363686
0.7699726 0.5220950 0.0992759
0.8051283 0.5092353 0.0638305
0.8460861 0.5051706 0.0331898
0.8892031 0.5073996 0.0077744
0.9310065 0.5120999 0.0000000
0.9705740 0.5170162 0.0000000
1.0000000 0.5214771 0.0000000
1.0000000 0.5254009 0.0000000
1.0000000 0.5289118 0.0000000
1.0000000 0.5322315 0.0000000
0.1062387 0.3297462 0.0801161
0.1234575 0.3386299 0.0782617
0.1406932 0.3474107 0.0766315
0.1581079 0.3560199 0.0754931
0.1759674 0.3643843 0.0751866
0.1945713 0.3723634 0.0760637
0.2141824 0.3797484 0.0784371
0.2348580 0.3862503 0.0824645
0.2563513 0.3915762 0.0880449
0.2779320 0.3956059 0.0946614
0.2984071 0.3987772 0.1014005
0.3170994 0.4023896 0.1080538
0.3336208 0.4066405 0.1146999
0.3482234 0.4104419 0.1197002
0.3622992 0.4125436 0.1209018
0.3824346 0.4174973 0.1200834
0.4176040 0.4338480 0.1232129
0.4713716 0.4656971 0.1343945
0.5380036 0.5079489 0.1521932
0.6038496 0.5469863 0.1683111
0.6556174 0.5682144 0.1718608
0.6931373 0.5691986 0.1584531
0.7248076 0.5586616 0.1301392
0.7575407 0.5457217 0.0945243
0.7946012 0.5364000 0.0585591
0.8358698 0.5327666 0.0258510
0.8791775 0.5338469 0.0000000
0.9220552 0.5374961 0.0000000
0.9631819 0.5418897 0.0000000
1.0000000 0.5461384 0.0000000
1.0000000 0.5499723 0.0000000
1.0000000 0.5534124 0.0000000
1.0000000 0.5566495 0.0000000
0.1071605 0.3515438 0.0827140
0.1234870 0.3594718 0.0799196
0.1397994 0.3672964 0.0772844
0.1561575 0.3748714 0.0749663
0.1727395 0.3820453 0.0732132
0.1897867 0.3886580 0.0723215
0.2075811 0.3945541 0.0726173
0.2263304 0.3995811 0.0743979
0.2461236 0.4036144 0.0779339
0.2668072 0.4067587 0.0832894
0.2878754 0.4094987 0.0901770
0.3086448 0.4128371 0.0981130
0.3283277 0.4177211 0.1063203
0.3464537 0.4240082 0.1141457
0.3633675 0.4301463 0.1203163
0.3801415 0.4350556 0.1234646
0.4028839 0.4434597 0.1254074
0.4385395 0.4613235 0.1297356
0.4886269 0.4890505 0.1374342
0.5465254 0.5197314 0.1442574
0.6026535 0.5440122 0.1445063
0.6519910 0.5570747 0.1344331
0.6950753 0.5599472 0.1119216
0.7355626 0.5572923 0.0806350
0.7767731 0.5540768 0.0466724
0.8198362 0.5530858 0.0136578
0.8641002 0.5548545 0.0000000
0.9082371 0.5586649 0.0000000
0.9510992 0.5633624 0.0000000
0.9922695 0.5680661 0.0000000
1.0000000 0.5723892 0.0000000
1.0000000 0.5763107 0.0000000
1.0000000 0.5800201 0.0000000
0.1058808 0.3722106 0.0841505
0.1211205 0.3789412 0.0803358
0.1363381 0.3855874 0.0765962
0.1515461 0.3919808 0.0730305
0.1668550 0.3979349 0.0698204
0.1824692 0.4033112 0.0672297
0.1986610 0.4079913 0.0656132
0.2157099 0.4119221 0.0653437
0.2339179 0.4151461 0.0669253
0.2534152 0.4178724 0.0707497
0.2741317 0.4205932 0.0769745
0.2955673 0.4239516 0.0852478
0.3168198 0.4287205 0.0945324
0.3373812 0.4355966 0.1040446
0.3572605 0.4439470 0.1128591
0.3753651 0.4506384 0.1192345
0.3934467 0.4560110 0.1220216
0.4175672 0.4644946 0.1222188
0.4533175 0.4796977 0.1217547
0.5005329 0.5007543 0.1200771
0.5542793 0.5231504 0.1149867
0.6084916 0.5417780 0.1040100
0.6595851 0.5540568 0.0852005
0.7073772 0.5606872 0.0591547
0.7534600 0.5642515 0.0288053
0.7991786 0.5672064 0.0000000
0.8449684 0.5709752 0.0000000
0.8904556 0.5758651 0.0000000
0.9349612 0.5814497 0.0000000
0.9780342 0.5871128 0.0000000
1.0000000 0.5924629 0.0000000
1.0000000 0.5974393 0.0000000
1.0000000 0.6022112 0.0000000
0.1023134 0.3917010 0.0845769
0.1164221 0.3971429 0.0796412
0.1305419 0.4025571 0.0747625
0.1446469 0.4077597 0.0699752
0.1587970 0.4125629 0.0654076
0.1731822 0.4168640 0.0613136
0.1880572 0.4205992 0.0580423
0.2037377 0.4237791 0.0560328
0.2205780 0.4265373 0.0558447
0.2388551 0.4291365 0.0580162
0.2586434 0.4319642 0.0628591
0.2796795 0.4354896 0.0702310
0.3013402 0.4402574 0.0794206
0.3230810 0.4468068 0.0894884
0.3445639 0.4549843 0.0992614
0.3647572 0.4626648 0.1070070
0.3833625 0.4680663 0.1106805
0.4035132 0.4726589 0.1093271
0.4308380 0.4802307 0.1041145
0.4688541 0.4933686 0.0963350
0.5167862 0.5112860 0.0863271
0.5702039 0.5304361 0.0731799
0.6245510 0.5474071 0.0556980
0.6769504 0.5603522 0.0332277
0.7270330 0.5696814 0.0064207
0.7755038 0.5768684 0.0000000
0.8230560 0.5833409 0.0000000
0.8699042 0.5899260 0.0000000
0.9158565 0.5967947 0.0000000
0.9606467 0.6037200 0.0000000
1.0000000 0.6104411 0.0000000
1.0000000 0.6168843 0.0000000
1.0000000 0.6231667 0.0000000
0.0965146 0.4100379 0.0841543
0.1096175 0.4143051 0.0781238
0.1227351 0.4185402 0.0721241
0.1358581 0.4226145 0.0661894
0.1490402 0.4263879 0.0604304
0.1624449 0.4297858 0.0550715
0.1763049 0.4327851 0.0504390
0.1909344 0.4354492 0.0469873
0.2066624 0.4379315 0.0452461
0.2237880 0.4404848 0.0457415
0.2424429 0.4433960 0.0488042
0.2625059 0.4469758 0.0544149
0.2836472 0.4515857 0.0621333
0.3053561 0.4573995 0.0710686
0.3271352 0.4642542 0.0799741
0.3484773 0.4712512 0.0871830
0.3690966 0.4770431 0.0907350
0.3901916 0.4814455 0.0892991
0.4150472 0.4863076 0.0824478
0.4478664 0.4949392 0.0716391
0.4901835 0.5086036 0.0585462
0.5400608 0.5258454 0.0435320
0.5937031 0.5437764 0.0261120
0.6475943 0.5598856 0.0055201
0.6999637 0.5731841 0.0000000
0.7505544 0.5840204 0.0000000
0.7997337 0.5933144 0.0000000
0.8478600 0.6019303 0.0000000
0.8950443 0.6103609 0.0000000
0.9412473 0.6187245 0.0000000
0.9865052 0.6269644 0.0000000
1.0000000 0.6350458 0.0000000
1.0000000 0.6430311 0.0000000
0.0886900 0.4275089 0.0831407
0.1009709 0.4307150 0.0760989
0.1132664 0.4338882 0.0690714
0.1255947 0.4369522 0.0621124
0.1380236 0.4398248 0.0553250
0.1506918 0.4424580 0.0489078
0.1638075 0.4448624 0.0431612
0.1776430 0.4471212 0.0384948
0.1924841 0.4493820 0.0353698
0.2086009 0.4518489 0.0342259
0.2261408 0.4547172 0.0353462
0.2450753 0.4581575 0.0387498
0.2652414 0.4623455 0.0441410
0.2863005 0.4672996 0.0507705
0.3078761 0.4728652 0.0574870
0.3297404 0.4786633 0.0628071
0.3518826 0.4841037 0.0651010
0.3749464 0.4889279 0.0631332
0.4007206 0.4939405 0.0561087
0.4321381 0.5012817 0.0448486
0.4710796 0.5125138 0.0308107
0.5172314 0.5275145 0.0149763
0.5682887 0.5445606 0.0000000
0.6213109 0.5615100 0.0000000
0.6741640 0.5769357 0.0000000
0.7258624 0.5903990 0.0000000
0.7762278 0.6021923 0.0000000
0.8254259 0.6129054 0.0000000
0.8736224 0.6230664 0.0000000
0.9209197 0.6329872 0.0000000
0.9674341 0.6427855 0.0000000
1.0000000 0.6525030 0.0000000
1.0000000 0.6621766 0.0000000
0.0790748 0.4443914 0.0818074
0.0907504 0.4466589 0.0738581
0.1024443 0.4489061 0.0659300
0.1141964 0.4510926 0.0580769
0.1260877 0.4531773 0.0504018
0.1382413 0.4551461 0.0430882
0.1508370 0.4570349 0.0364057
0.1640933 0.4589212 0.0306888
0.1782462 0.4609246 0.0262920
0.1935233 0.4631893 0.0235502
0.2100831 0.4658371 0.0226869
0.2279751 0.4689587 0.0237307
0.2471493 0.4726038 0.0264345
0.2674587 0.4767515 0.0301953
0.2887373 0.4813200 0.0340682
0.3109294 0.4861847 0.0368486
0.3342047 0.4912134 0.0372802
0.3590733 0.4964122 0.0343080
0.3866139 0.5022621 0.0273064
0.4184721 0.5098454 0.0165486
0.4560002 0.5202282 0.0029013
0.4994114 0.5336657 0.0000000
0.5475859 0.5493718 0.0000000
0.5986115 0.5659665 0.0000000
0.6506558 0.5821764 0.0000000
0.7024678 0.5972467 0.0000000
0.7534308 0.6109972 0.0000000
0.8033798 0.6236525 0.0000000
0.8523523 0.6355892 0.0000000
0.9004573 0.6471359 0.0000000
0.9478587 0.6585031 0.0000000
0.9947913 0.6697976 0.0000000
1.0000000 0.6810708 0.0000000
0.0679210 0.4609203 0.0803931
0.0792204 0.4623828 0.0716551
0.0905419 0.4638348 0.0629426
0.1019368 0.4652602 0.0543136
0.1134909 0.4666515 0.0458679
0.1253188 0.4680232 0.0377717
0.1375712 0.4694197 0.0302534
0.1504220 0.4709078 0.0235639
0.1640643 0.4725715 0.0179584
0.1786944 0.4745042 0.0136725
0.1944843 0.4767872 0.0108640
0.2115396 0.4794625 0.0095404
0.2299178 0.4825458 0.0095032
0.2496397 0.4860356 0.0102834
0.2707224 0.4899328 0.0111639
0.2932559 0.4942731 0.0112530
0.3174795 0.4991493 0.0096196
0.3438180 0.5047385 0.0054617
0.3729206 0.5113734 0.0000000
0.4056309 0.5195646 0.0000000
0.4426877 0.5298493 0.0000000
0.4843498 0.5424580 0.0000000
0.5301518 0.5570955 0.0000000
0.5790189 0.5730124 0.0000000
0.6296414 0.5893042 0.0000000
0.6808558 0.6052308 0.0000000
0.7318439 0.6203860 0.0000000
0.7821625 0.6346985 0.0000000
0.8316520 0.6483267 0.0000000
0.8803320 0.6615032 0.0000000
0.9283453 0.6744344 0.0000000
0.9759297 0.6872618 0.0000000
1.0000000 0.7000601 0.0000000
0.0555148 0.4773362 0.0791507
0.0666455 0.4780978 0.0697047
0.0777997 0.4788547 0.0602929
0.0890326 0.4796080 0.0509729
0.1004215 0.4803714 0.0418341
