catalog/styles/experimental/experimental-verbania/look.cube
# experimental-verbania iteration 2
LUT_3D_SIZE 9
DOMAIN_MIN 0 0 0
DOMAIN_MAX 1 1 1
0.0689437 0.0551547 0.0423646
0.1022972 0.0608428 0.0318607
0.1384332 0.0716250 0.0416723
0.2350994 0.0693812 0.0435060
0.4214524 0.0752215 0.0479766
0.6152075 0.0577052 0.0352766
0.7949459 0.0232166 0.0097336
0.9450729 0.0000000 0.0000000
1.0000000 0.0000000 0.0000000
0.0315572 0.0603987 0.0383602
0.0783001 0.0813972 0.0540105
0.1393024 0.0873742 0.0403749
0.2061124 0.0870027 0.0298269
0.3615690 0.1128242 0.0522889
0.5275330 0.1186227 0.0458077
0.7167392 0.1263974 0.0152817
0.9023893 0.1189713 0.0000000
1.0000000 0.0881592 0.0000000
0.0502981 0.1357785 0.0439805
0.0639628 0.1200749 0.0274995
0.1250643 0.1264758 0.0214293
0.3994315 0.2812805 0.0319585
0.4008656 0.2212914 0.0537598
0.5297717 0.1892663 0.0496954
0.7238701 0.2364699 0.0376602
0.9119447 0.2780035 0.0000000
1.0000000 0.3011603 0.0000000
0.0858645 0.2354995 0.0620170
0.1512984 0.2656399 0.0625029
0.2277901 0.2975034 0.0793123
0.2674577 0.2695895 0.0548507
0.5595516 0.4454611 0.1173192
0.6291978 0.4113465 0.1110349
0.7930935 0.3828452 0.0555655
0.9619075 0.4253521 0.0000000
1.0000000 0.4509373 0.0000000
0.1062387 0.3297462 0.0801161
0.1759674 0.3643843 0.0751866
0.2563513 0.3915762 0.0880449
0.3336208 0.4066405 0.1146999
0.4176040 0.4338480 0.1232129
0.6556174 0.5682144 0.1718608
0.7946012 0.5364000 0.0585591
0.9631819 0.5418897 0.0000000
1.0000000 0.5566495 0.0000000
0.0965146 0.4100379 0.0841543
0.1490402 0.4263879 0.0604304
0.2066624 0.4379315 0.0452461
0.2836472 0.4515857 0.0621333
0.3690966 0.4770431 0.0907350
0.4901835 0.5086036 0.0585462
0.6999637 0.5731841 0.0000000
0.8950443 0.6103609 0.0000000
1.0000000 0.6430311 0.0000000
0.0555148 0.4773362 0.0791507
0.1004215 0.4803714 0.0418341
0.1500135 0.4843404 0.0102718
0.2137562 0.4923666 0.0000000
0.3020583 0.5079241 0.0000000
0.4300309 0.5403432 0.0000000
0.6107947 0.5981609 0.0000000
0.8116942 0.6614580 0.0000000
1.0000000 0.7192746 0.0000000
0.0000000 0.5450124 0.0786510
0.0454671 0.5382157 0.0305483
0.0956244 0.5330033 0.0000000
0.1586172 0.5331830 0.0000000
0.2496647 0.5472211 0.0000000
0.3793834 0.5835150 0.0000000
0.5464040 0.6426588 0.0000000
0.7385580 0.7176718 0.0000000
0.9364899 0.7968241 0.0000000
0.0000000 0.6162660 0.0839009
0.0000000 0.5990154 0.0237620
0.0432301 0.5838462 0.0000000
0.1109985 0.5773090 0.0000000
0.2032486 0.5887199 0.0000000
0.3273883 0.6255171 0.0000000
0.4850196 0.6897479 0.0000000
0.6707133 0.7760917 0.0000000
0.8709098 0.8730248 0.0000000
0.0705531 0.0733899 0.1009747
0.0914524 0.0699315 0.0961744
0.1131672 0.0647160 0.0905360
0.1721029 0.0638062 0.0837855
0.3153820 0.0785824 0.1059097
0.4888891 0.0788867 0.1126100
0.6924344 0.0761695 0.1160046
0.8807296 0.0824108 0.1111957
0.9900511 0.0762413 0.0510089
0.0607309 0.0927700 0.0909811
0.1025513 0.1047961 0.1058204
0.1522847 0.1200407 0.1257743
0.1916990 0.1075752 0.1152458
0.2966444 0.1121538 0.1119576
0.4549139 0.1200836 0.1078547
0.6354971 0.1214306 0.0917442
0.8220722 0.1341248 0.0780350
1.0000000 0.1519099 0.0599207
0.0659934 0.1465417 0.0988692
0.1045710 0.1484369 0.1010807
0.1524610 0.1551740 0.1109656
0.1917036 0.1446883 0.1263442
0.2718473 0.1453790 0.1135904
0.4096256 0.1620422 0.1018498
0.5989210 0.1848577 0.0878234
0.7959057 0.2109907 0.0637895
1.0000000 0.2276379 0.0372603
0.0956035 0.2310346 0.1222203
0.1506096 0.2547981 0.1293359
0.1980609 0.2648668 0.1341420
0.2564392 0.2610130 0.1444803
0.3477946 0.2727151 0.1559137
0.4349261 0.2631271 0.1273747
0.5832303 0.2679003 0.0960569
0.8079483 0.3310965 0.0677063
1.0000000 0.3803347 0.0547109
0.1150537 0.3264960 0.1480560
0.1725121 0.3538733 0.1454017
0.2148458 0.3696727 0.1293303
0.2660097 0.3713030 0.1143514
0.3673742 0.3764894 0.1397210
0.5160432 0.4213922 0.1663526
0.6488090 0.4307844 0.1491123
0.8233903 0.4585201 0.0736381
0.9792913 0.5016029 0.0555178
0.1118248 0.4226626 0.1681524
0.1630176 0.4377283 0.1469915
0.2103371 0.4496313 0.1201016
0.2614543 0.4586021 0.0897750
0.3490495 0.4634956 0.0927006
0.4726347 0.4804593 0.1203942
0.6561179 0.5424486 0.1189329
0.8102495 0.5722064 0.0908448
0.9433562 0.5823015 0.0220112
0.0925505 0.5176122 0.1852150
0.1404262 0.5186639 0.1485195
0.1903402 0.5201503 0.1129606
0.2459166 0.5200937 0.0797934
0.3190487 0.5198593 0.0569594
0.4364061 0.5415819 0.0578890
0.6014111 0.5984793 0.0588728
0.7855651 0.6619882 0.0327284
0.9679063 0.7063158 0.0000000
0.0665866 0.6127512 0.2030670
0.1127510 0.5996418 0.1540039
0.1618150 0.5876965 0.1063122
0.2189678 0.5785931 0.0612950
0.2948429 0.5791927 0.0218051
0.4057551 0.6030077 0.0000000
0.5599849 0.6577866 0.0000000
0.7526702 0.7365904 0.0000000
0.9683015 0.8244290 0.0000000
0.0391436 0.7085795 0.2222523
0.0832889 0.6805483 0.1611265
0.1311217 0.6551811 0.0998768
0.1905902 0.6395158 0.0403304
0.2711431 0.6420884 0.0000000
0.3815665 0.6686095 0.0000000
0.5315884 0.7249068 0.0000000
0.7234180 0.8144948 0.0000000
0.9381945 0.9251881 0.0000000
0.0640099 0.0688738 0.1274937
0.0834946 0.0635965 0.1222242
0.1112212 0.0665737 0.1299431
0.1570365 0.0675874 0.1365637
0.2736611 0.0832709 0.1622322
0.4382109 0.0961252 0.1863643
0.6273592 0.1154134 0.2111125
0.8125352 0.1759487 0.2557878
0.9630683 0.3049821 0.3257131
0.0562478 0.0855351 0.1064759
0.0991953 0.1028076 0.1372198
0.1646336 0.1395661 0.1860401
0.2015340 0.1330110 0.1818876
0.2779972 0.1238643 0.1721551
0.4370474 0.1397491 0.1853302
0.6276213 0.1632257 0.2031086
0.7916536 0.1891979 0.2177403
0.9560194 0.2302051 0.2413027
0.0801132 0.1539310 0.1489604
0.1134918 0.1482706 0.1495000
0.1489658 0.1510934 0.1540839
0.2165389 0.1711081 0.1767920
0.2939582 0.1769719 0.1804325
0.4198088 0.1827120 0.1653317
0.6032247 0.2144334 0.1893956
0.7686866 0.2319278 0.1939525
0.9454116 0.2355335 0.1923595
0.0974602 0.2298016 0.1801197
0.1591580 0.2485802 0.1916913
0.1936033 0.2482844 0.1898333
0.2476462 0.2461247 0.1857373
0.3422647 0.2698360 0.2111287
0.4179431 0.2499723 0.1598935
0.5875808 0.2874941 0.1722174
0.7493585 0.3190096 0.1978288
0.9270906 0.3461604 0.2146819
0.1147376 0.3233657 0.2109654
0.1748637 0.3486131 0.2161688
0.2281760 0.3643016 0.2158563
0.2871545 0.3694796 0.2108727
0.3916186 0.3900571 0.2258303
0.5174460 0.4241912 0.2625340
0.5945219 0.4081253 0.2546577
0.7290200 0.4290223 0.2494609
0.8976290 0.4789539 0.2708663
0.1270625 0.4430614 0.2546249
0.1823413 0.4556179 0.2386892
0.2351086 0.4654958 0.2179684
0.2940228 0.4702778 0.1968428
0.3780184 0.4729067 0.1976822
0.4963146 0.4965870 0.2427266
0.6172718 0.5280418 0.2879724
0.7429244 0.5600329 0.3189323
0.8875888 0.5646532 0.3112558
0.1339749 0.5652121 0.2964828
0.1835945 0.5606480 0.2599707
0.2342422 0.5565332 0.2232911
0.2892567 0.5507510 0.1886585
0.3563661 0.5424809 0.1682906
0.4534413 0.5506932 0.1839172
0.5916036 0.5963255 0.2280989
0.7492658 0.6566051 0.2761001
0.9413208 0.6979566 0.2209741
0.1378118 0.6817686 0.3290474
0.1805927 0.6601573 0.2774272
0.2263665 0.6404287 0.2286152
0.2791826 0.6246248 0.1862863
0.3454986 0.6165643 0.1553403
0.4395582 0.6281910 0.1454686
0.5769885 0.6742362 0.1660974
0.7575379 0.7488349 0.1913320
0.9861585 0.8439078 0.1513488
0.1395560 0.7939276 0.3549763
0.1754914 0.7559754 0.2922881
0.2153089 0.7216209 0.2326200
0.2661194 0.6981513 0.1814894
0.3368575 0.6939083 0.1420766
0.4382595 0.7147006 0.1158411
0.5820482 0.7651765 0.1061491
0.7730661 0.8521207 0.1258118
0.9887746 0.9681959 0.1908071
0.0571474 0.0489425 0.1995837
0.0819473 0.0609116 0.1713179
0.1026260 0.0650511 0.1539693
0.1442780 0.0724123 0.1671035
0.2458556 0.0905889 0.2046337
0.3938068 0.1062981 0.2432775
0.5701996 0.1411380 0.2932723
0.7555618 0.2153787 0.3659506
0.9417349 0.3220237 0.4599365
0.0586171 0.0877683 0.1596143
0.1148581 0.1172079 0.1997736
0.1641601 0.1428464 0.2297393
0.1983251 0.1397860 0.2237909
0.2699029 0.1323324 0.2203528
0.4245874 0.1539429 0.2517361
0.6175487 0.1996452 0.3033467
0.7850344 0.2563716 0.3591091
0.9403015 0.3250587 0.4216884
0.1044077 0.1670999 0.2044575
0.1371979 0.1666095 0.2116604
0.1834239 0.1858141 0.2371115
0.2331034 0.1925242 0.2483101
0.3027842 0.1880726 0.2467260
0.4550744 0.2163538 0.2640249
0.6471578 0.2688913 0.3103894
0.7994027 0.3128531 0.3555310
0.9357819 0.3574257 0.4042858
0.1219526 0.2496194 0.2521185
0.1728379 0.2565468 0.2537460
0.1968356 0.2570352 0.2543632
0.2633991 0.2643174 0.2672798
0.3601912 0.2917771 0.2970590
0.4800581 0.3086291 0.2899253
0.6617988 0.3617868 0.3060517
0.8033286 0.4000913 0.3625699
0.9190233 0.4137861 0.4084516
0.1215686 0.3431954 0.2862674
0.1974339 0.3690525 0.3044419
0.2510759 0.3785651 0.3075899
0.2878347 0.3623887 0.2850963
0.3783662 0.3796549 0.2966004
0.5086567 0.4236007 0.3423585
0.6743743 0.4657723 0.3156295
0.8071621 0.5109663 0.3932329
0.8967381 0.4993219 0.4383634
0.1528784 0.4861074 0.3583340
0.2174181 0.4927731 0.3507345
0.2750405 0.4927501 0.3354596
0.3318436 0.4885942 0.3194780
0.4130223 0.4939028 0.3178080
0.5384051 0.5340662 0.3624465
0.6216223 0.5395802 0.3853496
0.7423359 0.5678219 0.4105437
0.8780815 0.5994219 0.4621221
0.1896594 0.6285025 0.4215709
0.2357129 0.6116089 0.3836033
0.2828185 0.5953485 0.3465206
0.3388771 0.5836581 0.3187675
0.4141783 0.5832830 0.3139367
0.5025375 0.5916620 0.3324955
0.6041599 0.6122690 0.3711367
0.7294552 0.6494621 0.4150233
0.8793380 0.6957683 0.4745056
0.2169569 0.7507165 0.4561632
0.2504241 0.7176210 0.4010172
0.2883909 0.6880953 0.3510013
0.3373744 0.6674062 0.3142126
0.4036303 0.6605122 0.2985550
0.4927201 0.6715301 0.3074868
0.6127638 0.7068243 0.3431367
0.7638511 0.7616290 0.3987390
0.9413738 0.8246871 0.4807715
0.2382840 0.8626140 0.4763346
0.2627183 0.8167512 0.4110841
0.2922769 0.7759535 0.3530939
0.3345417 0.7481259 0.3100229
0.3986570 0.7410207 0.2875368
0.4960091 0.7610124 0.2888394
0.6351711 0.8103285 0.3179178
0.8139475 0.8871722 0.3866071
1.0000000 0.9831572 0.5057438
0.0445406 0.0267314 0.4032826
0.0818590 0.0602953 0.2668641
0.1089297 0.0779490 0.2070721
0.1409115 0.0838554 0.1957631
0.2237962 0.1004127 0.2322028
0.3553193 0.1186551 0.2876298
0.5209988 0.1567478 0.3583673
0.7063057 0.2224838 0.4448039
0.9006507 0.3028519 0.5403481
0.0638630 0.0854270 0.2777070
0.1200263 0.1187709 0.2833638
0.1620458 0.1400381 0.2777102
0.1907428 0.1378809 0.2595756
0.2580256 0.1369897 0.2629286
0.4013391 0.1665756 0.3116522
0.5863763 0.2282236 0.3889680
0.7650122 0.3031286 0.4720885
0.9308706 0.3803911 0.5535197
0.1068711 0.1610552 0.2564422
0.1504124 0.1763258 0.2932884
0.1935615 0.1908322 0.3099585
0.2275207 0.1860253 0.2991254
0.2966069 0.1885882 0.3028116
0.4552672 0.2367791 0.3517145
0.6520461 0.3157934 0.4263816
0.8151017 0.3875068 0.4971909
0.9504026 0.4523385 0.5628150
0.1488612 0.2605840 0.3249903
0.1924237 0.2728811 0.3426374
0.2191780 0.2697840 0.3497612
0.2994305 0.2955765 0.3757774
0.3767664 0.3038559 0.3818931
0.5235243 0.3548290 0.4207169
0.7088582 0.4306827 0.4719342
0.8458596 0.4766118 0.5111570
0.9566151 0.5106411 0.5614372
0.1715568 0.4077051 0.4154459
0.2435925 0.4199628 0.4333231
0.2799499 0.4175486 0.4339741
0.3541547 0.4367654 0.4395251
0.4383247 0.4420828 0.4413867
0.5666475 0.4803724 0.4760525
0.7113577 0.5264720 0.4936761
0.8692775 0.5807366 0.5180034
0.9511541 0.5559299 0.5470599
0.2177522 0.5716787 0.5057912
0.2734666 0.5567621 0.4950147
0.3115353 0.5359055 0.4699064
0.3636310 0.5234538 0.4455129
0.4570591 0.5391280 0.4532209
0.6285955 0.6151346 0.5331644
0.6392865 0.5581950 0.4781033
0.8521998 0.6686782 0.5342807
0.9201003 0.6387252 0.5524195
0.2690836 0.7054062 0.5604586
0.2999440 0.6715673 0.5200474
0.3327270 0.6381363 0.4776057
0.3793724 0.6151952 0.4464841
0.4590129 0.6196028 0.4483018
0.5795750 0.6626905 0.4965523
0.6816944 0.6863112 0.5308822
0.7398619 0.6640329 0.5155488
0.8917513 0.7175355 0.5573978
0.3057990 0.8136639 0.5820984
0.3231644 0.7683129 0.5239046
0.3473532 0.7279296 0.4719997
0.3884358 0.7018771 0.4383032
0.4573912 0.7005799 0.4361533
0.5619181 0.7301784 0.4729376
0.6809323 0.7698799 0.5261410
0.7907772 0.7927457 0.5657703
0.9222274 0.8137938 0.5948870
0.3336064 0.9091163 0.5880936
0.3447584 0.8587452 0.5208960
0.3624464 0.8144443 0.4632206
0.3955496 0.7850085 0.4265809
0.4543389 0.7781978 0.4192950
0.5464975 0.7979605 0.4441600
0.6790735 0.8468239 0.5040961
0.8424638 0.9147005 0.5939450
1.0000000 0.9811529 0.6984092
0.0534272 0.0302953 0.5938950
0.0971717 0.0684462 0.4039585
0.1257143 0.0908057 0.2926866
0.1571272 0.1029379 0.2538068
0.2201595 0.1119271 0.2708040
0.3341916 0.1302649 0.3315945
0.4858421 0.1690950 0.4123233
0.6584096 0.2251958 0.5022046
0.8411273 0.2885482 0.5968644
0.0675545 0.0879103 0.4504465
0.1240523 0.1220184 0.3957102
0.1671248 0.1427281 0.3500580
0.1991956 0.1444099 0.3176478
0.2628226 0.1504013 0.3217020
0.3907318 0.1880909 0.3782916
0.5604861 0.2559508 0.4650201
0.7356763 0.3330044 0.5554268
0.9058843 0.4093624 0.6425326
0.0901520 0.1542806 0.3621729
0.1543042 0.1865271 0.4034099
0.2080492 0.2039989 0.4057269
0.2430611 0.1988003 0.3796017
0.3095551 0.2065518 0.3776073
0.4550900 0.2654940 0.4389947
0.6398060 0.3551513 0.5267757
0.8070168 0.4375682 0.6038549
0.9560329 0.5115911 0.6718519
0.1408003 0.2637065 0.4152046
0.2030046 0.2927747 0.4615854
0.2484202 0.3011125 0.4846737
0.3189950 0.3152478 0.4797443
0.4031637 0.3329279 0.4812339
0.5412625 0.3889991 0.5272742
0.7104053 0.4687366 0.5910108
0.8560194 0.5324356 0.6359827
0.9852444 0.5878382 0.6762471
0.2439272 0.4804571 0.5751534
0.2801127 0.4635782 0.5712949
0.2894801 0.4543371 0.5863111
0.3906645 0.4838131 0.6031858
0.5362425 0.5313006 0.6253072
0.6280360 0.5426206 0.6186044
0.7319909 0.5635207 0.6238144
0.8625384 0.6074227 0.6418497
0.9999431 0.6533608 0.6698896
0.3231410 0.6705237 0.6693068
0.3343963 0.6207029 0.6406841
0.3546361 0.5944443 0.6219395
0.4147088 0.5875855 0.6095050
0.5477855 0.6295127 0.6401402
0.6490949 0.6491013 0.6478617
0.6839862 0.6049209 0.5993858
0.8248970 0.6578802 0.6275642
0.9908982 0.7231604 0.6763552
0.3681219 0.7769649 0.6944859
0.3672649 0.7239622 0.6511505
0.3759088 0.6759989 0.6061321
0.4177314 0.6510532 0.5750385
0.5120852 0.6690771 0.5864014
0.6561141 0.7352063 0.6541690
0.7901961 0.7910859 0.7199555
0.7812868 0.7034015 0.6226992
0.9366271 0.7683970 0.6764426
0.3996803 0.8605192 0.7024181
0.3970559 0.8075041 0.6443538
0.4033945 0.7595024 0.5912156
0.4339146 0.7302607 0.5573437
0.5020989 0.7328936 0.5599350
0.6210436 0.7786644 0.6154314
0.7693075 0.8495481 0.7063026
0.8338500 0.8363576 0.7046258
0.9355500 0.8387058 0.6925035
0.4280257 0.9379312 0.7053856
0.4255548 0.8870779 0.6352028
0.4290693 0.8409038 0.5743601
0.4478735 0.8076812 0.5366190
0.4951558 0.7975069 0.5339920
0.5794602 0.8157723 0.5700521
0.7004396 0.8596115 0.6375881
0.8527053 0.9246003 0.7213388
0.9904842 0.9771321 0.7755503
0.1102230 0.0773839 0.7060276
0.1430054 0.0993609 0.5534679
0.1607928 0.1102772 0.4205642
0.1861861 0.1169605 0.3489356
0.2403439 0.1245665 0.3424326
0.3353258 0.1430421 0.3896963
0.4614732 0.1804897 0.4599725
0.6109722 0.2314787 0.5440561
0.7720375 0.2844631 0.6346427
0.1149869 0.1366079 0.6544086
0.1631299 0.1606702 0.5465051
0.1958206 0.1679042 0.4645683
0.2299538 0.1688253 0.4168009
0.2927983 0.1813218 0.4137762
0.4024247 0.2220293 0.4605896
0.5461492 0.2855541 0.5362938
0.7019044 0.3559537 0.6183113
0.8593437 0.4258595 0.6998444
0.1051048 0.2001435 0.5788091
0.1836208 0.2302582 0.5526712
0.2434790 0.2465983 0.5293733
0.2884859 0.2472014 0.5026071
0.3563154 0.2610713 0.4958220
0.4788909 0.3169862 0.5435882
0.6326710 0.3959375 0.6171103
0.7868185 0.4743736 0.6871925
0.9358092 0.5490965 0.7521600
0.0786627 0.2571140 0.5263552
0.2223119 0.3322204 0.5884011
0.3132679 0.3698084 0.6204446
0.3765896 0.3824697 0.6184278
0.4553508 0.4002865 0.6155301
0.5712367 0.4449479 0.6434562
0.7111315 0.5094988 0.6932776
0.8517242 0.5781808 0.7403681
0.9889413 0.6475466 0.7830071
0.1919653 0.4646829 0.6157560
0.2845921 0.4696344 0.6471228
0.3703042 0.5081979 0.6950160
0.4684768 0.5572151 0.7459888
0.5782946 0.5879055 0.7556948
0.6644097 0.5928823 0.7405271
0.7626290 0.6148196 0.7459992
0.8802818 0.6612086 0.7677983
1.0000000 0.7264204 0.7977352
0.3772796 0.7094464 0.7675988
0.3470096 0.6141210 0.7012021
0.3792244 0.6185152 0.7388580
0.4347144 0.6135535 0.7335656
0.6169868 0.7026863 0.7986715
0.7252846 0.7215228 0.8015905
0.7793194 0.7024340 0.7677276
0.8727350 0.7245829 0.7707331
1.0000000 0.7955777 0.8083882
0.4482823 0.8052271 0.7892955
0.4134531 0.7390194 0.7450819
0.4185788 0.7038470 0.7255816
0.4602646 0.6871286 0.7046569
0.5855417 0.7366630 0.7341739
0.7573428 0.8295882 0.8248560
0.7962529 0.7951735 0.7969079
0.8343500 0.7641725 0.7516182
0.9967074 0.8520455 0.8150833
0.4898540 0.8798968 0.8108870
0.4654492 0.8297205 0.7612297
0.4561485 0.7827329 0.7098380
0.4809137 0.7562435 0.6754133
0.5468694 0.7617706 0.6771123
0.6723861 0.8179365 0.7392392
0.8123828 0.8834851 0.8186049
0.8370622 0.8378153 0.7751064
0.9556863 0.8737938 0.7976076
0.5307422 0.9632018 0.8492816
0.5120906 0.9139088 0.7757506
0.4964095 0.8661111 0.7079825
0.4956705 0.8270181 0.6599976
0.5242444 0.8070331 0.6450393
0.5886142 0.8109152 0.6633673
0.6966802 0.8461160 0.7160611
0.8412107 0.9103838 0.7883954
0.9751569 0.9680134 0.8283785
0.2427959 0.1855902 0.8471499
0.2347639 0.1695461 0.7155398
0.2226704 0.1493101 0.5839469
0.2324607 0.1382054 0.4879679
0.2733899 0.1397493 0.4467211
0.3455148 0.1571405 0.4582345
0.4446672 0.1929372 0.5066629
0.5655255 0.2410992 0.5773609
0.6953932 0.2920481 0.6555981
0.2798388 0.2846747 0.8641450
0.2519236 0.2447489 0.7207991
0.2532986 0.2215394 0.6176726
0.2807795 0.2138885 0.5521612
0.3387370 0.2273760 0.5315776
0.4280019 0.2640192 0.5555158
0.5411564 0.3172532 0.6084234
0.6671207 0.3772643 0.6726184
0.7981213 0.4383993 0.7401484
0.2306755 0.3350100 0.8189654
0.2627269 0.3206431 0.7268055
0.2932148 0.3056845 0.6599336
0.3405365 0.3061359 0.6250809
0.4132564 0.3303686 0.6239899
0.5149108 0.3791202 0.6566476
0.6355318 0.4414192 0.7075790
0.7641704 0.5082205 0.7629664
0.8964647 0.5766451 0.8201107
0.1662087 0.3892426 0.7683679
0.2613090 0.3872675 0.7115793
0.3354874 0.3958375 0.6933686
0.4073600 0.4186403 0.7012568
0.4964548 0.4579377 0.7257712
0.6031670 0.5059200 0.7566079
0.7228079 0.5635087 0.7969764
0.8495014 0.6293664 0.8417804
0.9797471 0.6996331 0.8881835
0.0190972 0.3280329 0.5497571
0.2726465 0.4542752 0.6814415
0.3431931 0.4576385 0.6861407
0.4606951 0.5458224 0.7801653
0.5746110 0.5995059 0.8195034
0.6794442 0.6321591 0.8367443
0.7942974 0.6788745 0.8662943
0.9153916 0.7385415 0.9022221
1.0000000 0.8013405 0.9362679
0.1451412 0.5520272 0.6820051
0.3308560 0.5601567 0.7009076
0.4225652 0.6100671 0.7903323
0.5266137 0.6923118 0.8807897
0.6274265 0.7161117 0.8693639
0.7357750 0.7491655 0.8899614
0.8502319 0.7905272 0.9177125
0.9530690 0.8307497 0.9376234
1.0000000 0.8772362 0.9570874
0.4450475 0.7431465 0.8057327
0.4147206 0.7014627 0.7870593
0.4535689 0.7034516 0.8013902
0.5179050 0.7203963 0.8150278
0.6313942 0.7630254 0.8347533
0.7921149 0.8610148 0.9300583
0.8994841 0.9052029 0.9638585
0.9448624 0.8857813 0.9332636
1.0000000 0.9296690 0.9553427
0.5571535 0.8688996 0.9134659
0.5160230 0.8304276 0.8733318
0.5003711 0.7954102 0.8300664
0.5212173 0.7744788 0.7941193
0.5805410 0.7794547 0.7847966
0.6748588 0.8110669 0.8123999
0.7799091 0.8481645 0.8501189
0.8807774 0.8831022 0.8808295
1.0000000 0.9424423 0.9240047
0.6578000 0.9953348 1.0000000
0.6106277 0.9494026 0.9550303
0.5721613 0.9036406 0.8865625
0.5584528 0.8650206 0.8298341
0.5731301 0.8378687 0.7912747
0.6143872 0.8223848 0.7711483
0.6954308 0.8340237 0.7828781
0.8187781 0.8831205 0.8293696
0.9688573 0.9619843 0.8968244
0.4276343 0.3368444 1.0000000
0.3549333 0.2629757 0.8873319
0.3020176 0.2029022 0.7620678
0.2870976 0.1675470 0.6479088
0.3071630 0.1570487 0.5644407
0.3567545 0.1718525 0.5329901
0.4330729 0.2078845 0.5567936
0.5235083 0.2539914 0.6100084
0.6147439 0.3009762 0.6688478
0.4785516 0.4647604 1.0000000
0.3702763 0.3540968 0.8999059
0.3251545 0.2892826 0.7864315
0.3391254 0.2682255 0.7012463
0.3884209 0.2780148 0.6580524
0.4577147 0.3079470 0.6552516
0.5406881 0.3499953 0.6823058
0.6336273 0.3987642 0.7260024
0.7316801 0.4504031 0.7752134
0.4685555 0.5521588 1.0000000
0.3673860 0.4298096 0.8986961
0.3379649 0.3603512 0.7856595
0.3835787 0.3584328 0.7388755
0.4649176 0.3951321 0.7442328
0.5536404 0.4418851 0.7699362
0.6451728 0.4904301 0.8019507
0.7442925 0.5435468 0.8404544
0.8503757 0.6013524 0.8846494
0.4671825 0.6682646 1.0000000
0.3380930 0.4729411 0.8584108
0.3284623 0.3958951 0.7405078
0.4121381 0.4281268 0.7518514
0.5242979 0.4992885 0.8108505
0.6354420 0.5666657 0.8653565
0.7426092 0.6253493 0.9068177
0.8532583 0.6862768 0.9480274
0.9678756 0.7507875 0.9931053
0.4772106 0.7605055 1.0000000
0.2894418 0.4789828 0.7727868
0.3409452 0.4375295 0.7052148
0.4305774 0.4847770 0.7504907
0.5441855 0.5689096 0.8343775
0.6830670 0.6616776 0.9161113
0.8258041 0.7487022 0.9867573
0.9550220 0.8238547 1.0000000
1.0000000 0.8856595 1.0000000
0.1476535 0.5200531 0.7361493
0.3112843 0.5268701 0.7445286
0.3845706 0.5242719 0.7308369
0.4402690 0.5497586 0.7580870
0.5118138 0.5882282 0.7954682
0.6628288 0.6886659 0.8854127
0.8775675 0.8455582 1.0000000
1.0000000 0.9385891 1.0000000
1.0000000 0.9890688 1.0000000
0.1646700 0.6215425 0.8280263
0.4035469 0.6420486 0.8111262
0.4439750 0.6558213 0.8206088
0.4908475 0.6717748 0.8349355
0.5526158 0.6845542 0.8389606
0.6223626 0.6964232 0.8359003
0.8324404 0.8478227 0.9670629
1.0000000 0.9831857 1.0000000
1.0000000 1.0000000 1.0000000
0.5856332 0.8304825 1.0000000
0.5445313 0.8163581 0.9864854
0.5448124 0.8083357 0.9697632
0.5739844 0.8047994 0.9536877
0.6171108 0.8065080 0.9180873
0.6783292 0.8111920 0.9038119
0.7598290 0.8283902 0.9011685
0.9372169 0.9425724 0.9881075
1.0000000 1.0000000 1.0000000
0.8124632 1.0000000 1.0000000
0.7195584 0.9923505 1.0000000
0.6558233 0.9524153 1.0000000
0.6381114 0.9206265 1.0000000
0.6464988 0.8908521 0.9680169
0.6666909 0.8579273 0.9022774
0.7158840 0.8439151 0.8698199
0.8312749 0.8927381 0.9055201
0.9928369 0.9971492 1.0000000
