presets/experimental/experimental-flower-plain/look.cube
# Approximate v0 colour conversion; calibrate before claiming visual parity.
LUT_3D_SIZE 5
DOMAIN_MIN 0 0 0
DOMAIN_MAX 1 1 1
0.0064340 0.0047320 0.0015250
0.2525530 0.0071360 0.0000870
0.4957330 0.0042380 0.0000000
0.7192590 0.0016410 0.0000000
0.9525150 0.0007680 0.0000000
0.0017040 0.2175250 0.0045510
0.1994780 0.1974220 0.0285150
0.5005290 0.2519350 0.0025320
0.7311600 0.2539530 0.0000000
0.9518980 0.2717930 0.0000000
0.0019280 0.4771620 0.0000000
0.2412770 0.4777170 0.0024260
0.4908020 0.4899000 0.0075810
0.7457120 0.4978630 0.0029880
0.9822070 0.5168640 0.0256710
0.0015750 0.7293680 0.0000000
0.2471180 0.7300860 0.0000000
0.4932270 0.7346140 0.0000000
0.7470820 0.7439590 0.0000000
0.9952170 0.7538000 0.0013760
0.0025140 0.9802140 0.0000000
0.2497420 0.9812940 0.0000000
0.4968500 0.9856160 0.0000000
0.7493280 0.9945130 0.0000000
1.0000000 1.0000000 0.0000000
0.0047140 0.0000000 0.1919540
0.1969940 0.0290890 0.1844060
0.4736890 0.0088050 0.1986730
0.7086150 0.0113470 0.1695820
0.9405990 0.0248290 0.1545630
0.0387870 0.2293530 0.2321760
0.2286540 0.2286040 0.2294650
0.4966957 0.2410343 0.2289805
0.7184932 0.2435721 0.2155702
0.9533415 0.2748644 0.2150515
0.0085150 0.4789610 0.2394700
0.2416941 0.4775511 0.2332641
0.4757092 0.4780174 0.2298435
0.7459643 0.4966494 0.2441823
0.9696314 0.5196238 0.2832336
0.0063270 0.7296640 0.2352080
0.2461963 0.7289950 0.2310798
0.4874512 0.7290021 0.2294684
0.7444325 0.7426589 0.2359647
0.9961266 0.7496779 0.2322661
0.0072770 0.9802890 0.2333460
0.2492415 0.9807795 0.2297718
0.4948579 0.9841526 0.2307820
0.7481677 0.9940509 0.2328928
1.0000000 1.0000000 0.2316451
0.0291860 0.0000000 0.4463770
0.2367340 0.0074420 0.4341800
0.4712160 0.0105090 0.4372780
0.7088770 0.0110260 0.4357410
0.9537350 0.0154410 0.4349800
0.0163820 0.2287220 0.4914690
0.2333212 0.2364431 0.4431103
0.4696956 0.2593071 0.4474050
0.7124158 0.2535457 0.4476600
0.9547030 0.2610272 0.4468824
0.0178120 0.4853470 0.4878900
0.2573291 0.4942968 0.4988045
0.4651470 0.4654600 0.4626110
0.7105209 0.4850801 0.4613415
0.9701999 0.4939940 0.4690472
0.0217430 0.7312700 0.4797110
0.2558103 0.7281471 0.4767110
0.4868659 0.7273814 0.4759534
0.7277688 0.7237031 0.4740869
0.9939563 0.7468903 0.4904252
0.0219920 0.9812280 0.4776830
0.2603080 0.9808200 0.4759622
0.4966442 0.9831689 0.4767817
0.7473354 0.9926229 0.4838731
1.0000000 1.0000000 0.4968667
0.1077030 0.0491570 0.7091470
0.2808080 0.0156690 0.6858460
0.4855450 0.0094050 0.6766860
0.7143740 0.0092510 0.6769440
0.9575950 0.0090520 0.6798400
0.1118720 0.2512880 0.7112100
0.2727030 0.2485223 0.6895794
0.4791191 0.2502567 0.6727352
0.7170796 0.2542535 0.6837857
0.9591153 0.2535591 0.6857547
0.0824190 0.5016320 0.7379320
0.2580624 0.4952671 0.7273676
0.4920681 0.4984406 0.7121094
0.7260090 0.5051629 0.7038594
0.9668643 0.5020909 0.7054830
0.0646460 0.7351320 0.7177320
0.2858391 0.7327042 0.7211492
0.4965275 0.7348216 0.7317594
0.7170070 0.7177290 0.7146700
0.9799029 0.7524082 0.7320207
0.0480660 0.9838660 0.7188900
0.2821611 0.9833021 0.7196816
0.5085753 0.9854794 0.7265121
0.7486951 0.9932703 0.7382266
1.0000000 1.0000000 0.7611375
0.0929660 0.0343420 0.9442640
0.2960060 0.0188420 0.9350520
0.4970160 0.0111770 0.9238690
0.7211090 0.0082270 0.9247360
0.9634050 0.0076400 0.9279030
0.1339660 0.2862530 0.9415540
0.3005804 0.2592220 0.9350230
0.4946381 0.2525134 0.9217707
0.7219824 0.2531266 0.9278560
0.9658692 0.2530330 0.9334429
0.2062680 0.5445900 0.9517270
0.3131337 0.4962519 0.9357598
0.4960808 0.4870858 0.9261641
0.7325793 0.5032944 0.9426050
0.9775791 0.5043010 0.9533171
0.1019150 0.7455100 0.9557460
0.3227691 0.7364827 0.9496377
0.5046958 0.7307762 0.9534479
0.7702850 0.7721607 0.9708897
0.9961866 0.7623865 0.9838501
0.0660510 0.9866060 0.9625380
0.2987106 0.9857606 0.9641751
0.5209071 0.9900750 0.9745147
0.7630643 0.9999930 0.9923236
1.0000000 1.0000000 1.0000000
