presets/experimental/experimental-flower-plain/look.cube
# Approximate v0 colour conversion; calibrate before claiming visual parity.
LUT_3D_SIZE 9
DOMAIN_MIN 0 0 0
DOMAIN_MAX 1 1 1
0.0064340 0.0047320 0.0015250
0.1195530 0.0087950 0.0056280
0.2525530 0.0071360 0.0000870
0.3832450 0.0069750 0.0000000
0.4957330 0.0042380 0.0000000
0.6050270 0.0035840 0.0000000
0.7192590 0.0016410 0.0000000
0.8263190 0.0038940 0.0000000
0.9525150 0.0007680 0.0000000
0.0004440 0.0923610 0.0099740
0.0830920 0.0778670 0.0125160
0.2606330 0.1348610 0.0121270
0.3854670 0.1307480 0.0063370
0.5036490 0.1239670 0.0008150
0.6170060 0.1224390 0.0000000
0.7202090 0.1216860 0.0000000
0.8283190 0.1249480 0.0000000
0.9522790 0.1279600 0.0000000
0.0017040 0.2175250 0.0045510
0.1098400 0.2180580 0.0101270
0.1994780 0.1974220 0.0285150
0.3860570 0.2633000 0.0273970
0.5005290 0.2519350 0.0025320
0.6227230 0.2535510 0.0020280
0.7311600 0.2539530 0.0000000
0.8375080 0.2641250 0.0000000
0.9518980 0.2717930 0.0000000
0.0034520 0.3495910 0.0000660
0.1227610 0.3509960 0.0046700
0.2371520 0.3561680 0.0214460
0.3620520 0.3636170 0.0299990
0.4979990 0.3740600 0.0110220
0.6189120 0.3713460 0.0040390
0.7445970 0.3781900 0.0020690
0.8533510 0.3935800 0.0103550
0.9662050 0.3989120 0.0180930
0.0019280 0.4771620 0.0000000
0.1233200 0.4773870 0.0000000
0.2412770 0.4777170 0.0024260
0.3601840 0.4807810 0.0085030
0.4908020 0.4899000 0.0075810
0.6214350 0.4966060 0.0030050
0.7457120 0.4978630 0.0029880
0.8645080 0.5058300 0.0113610
0.9822070 0.5168640 0.0256710
0.0012720 0.6034880 0.0000000
0.1239720 0.6035890 0.0000000
0.2445430 0.6039720 0.0000000
0.3654310 0.6055420 0.0000000
0.4902640 0.6099780 0.0000000
0.6186540 0.6160630 0.0000000
0.7466100 0.6196390 0.0000000
0.8720300 0.6239180 0.0032320
0.9927670 0.6287460 0.0059570
0.0015750 0.7293680 0.0000000
0.1250470 0.7295330 0.0000000
0.2471180 0.7300860 0.0000000
0.3692470 0.7315310 0.0000000
0.4932270 0.7346140 0.0000000
0.6196010 0.7392550 0.0000000
0.7470820 0.7439590 0.0000000
0.8755900 0.7473170 0.0000000
0.9952170 0.7538000 0.0013760
0.0021650 0.8549500 0.0000000
0.1260530 0.8551920 0.0000000
0.2489210 0.8559070 0.0000000
0.3717560 0.8574430 0.0000000
0.4956890 0.8602170 0.0000000
0.6213170 0.8642960 0.0000000
0.7484040 0.8691430 0.0000000
0.8766050 0.8740810 0.0000000
1.0000000 0.8778470 0.0000000
0.0025140 0.9802140 0.0000000
0.1265650 0.9804970 0.0000000
0.2497420 0.9812940 0.0000000
0.3728630 0.9828950 0.0000000
0.4968500 0.9856160 0.0000000
0.6223110 0.9895640 0.0000000
0.7493280 0.9945130 0.0000000
0.8776170 1.0000000 0.0000000
1.0000000 1.0000000 0.0000000
0.0072110 0.0024290 0.0897950
0.0729840 0.0203280 0.0750330
0.2159800 0.0194670 0.0953320
0.3626740 0.0100230 0.0935340
0.4882270 0.0074330 0.0849540
0.6028230 0.0078660 0.0657650
0.7002480 0.0085010 0.0461250
0.8080010 0.0094820 0.0319980
0.9391020 0.0155010 0.0396780
0.0311960 0.1093370 0.1110840
0.1298400 0.1305020 0.1284130
0.2494725 0.1258988 0.1170711
0.3761017 0.1257390 0.1139613
0.4904141 0.1227651 0.1045101
0.6013072 0.1233061 0.0962449
0.7093945 0.1267932 0.0887702
0.8202858 0.1360717 0.0827590
0.9478636 0.1470746 0.0766105
0.0258110 0.2261010 0.1268830
0.1374515 0.2331380 0.1327798
0.2454177 0.2505658 0.1248131
0.3785041 0.2531182 0.1202665
0.4965222 0.2471997 0.1192659
0.6135060 0.2457097 0.1129819
0.7233110 0.2492458 0.1098344
0.8314010 0.2643596 0.1115506
0.9501924 0.2747203 0.1115553
0.0111790 0.3515700 0.1224640
0.1274128 0.3517873 0.1202532
0.2358143 0.3571773 0.1076873
0.3520358 0.3598028 0.1241657
0.5240513 0.4097425 0.1712583
0.6219757 0.3728384 0.1217290
0.7438742 0.3751473 0.1231414
0.8477278 0.3929704 0.1393564
0.9533031 0.4033856 0.1481235
0.0045900 0.4777480 0.1178460
0.1236685 0.4776239 0.1159907
0.2407580 0.4765833 0.1143090
0.3548985 0.4766657 0.1162744
0.4772837 0.4806311 0.1336459
0.6236806 0.5014938 0.1342778
0.7449915 0.4972453 0.1167589
0.8603529 0.5135222 0.1533527
0.9693719 0.5498687 0.2203874
0.0028710 0.6037120 0.1145740
0.1233057 0.6036456 0.1126703
0.2435661 0.6035173 0.1127527
0.3628099 0.6031594 0.1134434
0.4850081 0.6053982 0.1159855
0.6172526 0.6146020 0.1153455
0.7446244 0.6198849 0.1132228
0.8699572 0.6248570 0.1216979
0.9899231 0.6336180 0.1360995
0.0029610 0.7294380 0.1121630
0.1241389 0.7294780 0.1101339
0.2460755 0.7296993 0.1102016
0.3676487 0.7304321 0.1103649
0.4910217 0.7328540 0.1110266
0.6178798 0.7378868 0.1119531
0.7459188 0.7437712 0.1127256
0.8727580 0.7479082 0.1109438
0.9960796 0.7527053 0.1109153
0.0035290 0.8549640 0.1106490
0.1251054 0.8551207 0.1085605
0.2479546 0.8556367 0.1086600
0.3705894 0.8568736 0.1089024
0.4943359 0.8593983 0.1094391
0.6201133 0.8635675 0.1102246
0.7476527 0.8689138 0.1106780
0.8763066 0.8746862 0.1091011
0.9999926 0.8801045 0.1037347
0.0038830 0.9802160 0.1100140
0.1255968 0.9804330 0.1078955
0.2487813 0.9810932 0.1080432
0.3717878 0.9825164 0.1083582
0.4956797 0.9851031 0.1089068
0.6212466 0.9891016 0.1095777
0.7486772 0.9943975 0.1098496
0.8776563 0.9999872 0.1086960
1.0000000 1.0000000 0.1067085
0.0047140 0.0000000 0.1919540
0.0828190 0.0191940 0.1566460
0.1969940 0.0290890 0.1844060
0.3400440 0.0154190 0.1977490
0.4736890 0.0088050 0.1986730
0.5932510 0.0087010 0.1895840
0.7086150 0.0113470 0.1695820
0.8215220 0.0151070 0.1392120
0.9405990 0.0248290 0.1545630
0.0291150 0.1071600 0.2019130
0.1204529 0.1205785 0.1993106
0.1919129 0.1409396 0.2018413
0.3340346 0.1362862 0.2100541
0.4848383 0.1271510 0.2104116
0.5950045 0.1264207 0.2037669
0.7057270 0.1306917 0.1965316
0.8216092 0.1404367 0.1915966
0.9427935 0.1632395 0.1889757
0.0387870 0.2293530 0.2321760
0.1512576 0.2272042 0.2343239
0.2286540 0.2286040 0.2294650
0.3537449 0.2405916 0.2314222
0.4966957 0.2410343 0.2289805
0.6036469 0.2399607 0.2203003
0.7184932 0.2435721 0.2155702
0.8340844 0.2559525 0.2167599
0.9533415 0.2748644 0.2150515
0.0158400 0.3552200 0.2418550
0.1337219 0.3515572 0.2402569
0.2399075 0.3529320 0.2365707
0.3417045 0.3427153 0.2194546
0.4845109 0.3583899 0.2260710
0.6106027 0.3618520 0.2296599
0.7360627 0.3669774 0.2331142
0.8486684 0.3744208 0.2373459
0.9585322 0.3915147 0.2429846
0.0085150 0.4789610 0.2394700
0.1274240 0.4784813 0.2379802
0.2416941 0.4775511 0.2332641
0.3571123 0.4804486 0.2243465
0.4757092 0.4780174 0.2298435
0.6152801 0.4930049 0.2380505
0.7459643 0.4966494 0.2441823
0.8650385 0.4994452 0.2506759
0.9696314 0.5196238 0.2832336
0.0063190 0.6042700 0.2372010
0.1262774 0.6039176 0.2354064
0.2435980 0.6029049 0.2323251
0.3600488 0.6000608 0.2279949
0.4774410 0.5976216 0.2261858
0.6086502 0.6066659 0.2330685
0.7480819 0.6225055 0.2426712
0.8686176 0.6226926 0.2433422
0.9873556 0.6287729 0.2562332
0.0063270 0.7296640 0.2352080
0.1270494 0.7294327 0.2333702
0.2461963 0.7289950 0.2310798
0.3662071 0.7284361 0.2298606
0.4874512 0.7290021 0.2294684
0.6141035 0.7342247 0.2319127
0.7444325 0.7426589 0.2359647
0.8707587 0.7470118 0.2328784
0.9961266 0.7496779 0.2322661
0.0069150 0.8550650 0.2338990
0.1281050 0.8550471 0.2320904
0.2483281 0.8551862 0.2302106
0.3701014 0.8558585 0.2301604
0.4929300 0.8577901 0.2306129
0.6184122 0.8618862 0.2319188
0.7466949 0.8680685 0.2333225
0.8767716 0.8751705 0.2319270
0.9999917 0.8815041 0.2264705
0.0072770 0.9802890 0.2333460
0.1286446 0.9803811 0.2315228
0.2492415 0.9807795 0.2297718
0.3716024 0.9818667 0.2300800
0.4948579 0.9841526 0.2307820
0.6201870 0.9881442 0.2318979
0.7481677 0.9940509 0.2328928
0.8787632 0.9999773 0.2324808
1.0000000 1.0000000 0.2316451
0.0090720 0.0000000 0.3308340
0.1044390 0.0053350 0.3151060
0.2159690 0.0158440 0.3064710
0.3384010 0.0147360 0.3123700
0.4668970 0.0107730 0.3170050
0.5887240 0.0097880 0.3154600
0.7081350 0.0114910 0.3102400
0.8272260 0.0161690 0.3039160
0.9488580 0.0216230 0.3033910
0.0180020 0.1062150 0.3422660
0.1167340 0.1118883 0.3192735
0.2051140 0.1341349 0.2901249
0.3211207 0.1395712 0.3054557
0.4671399 0.1331987 0.3214736
0.5919906 0.1306192 0.3214616
0.7094492 0.1321594 0.3183398
0.8272184 0.1390598 0.3151530
0.9480743 0.1518729 0.3126447
0.0057920 0.2588440 0.3881930
0.1422861 0.2255699 0.3290644
0.2229288 0.2239445 0.2966638
0.2985565 0.2370305 0.2985356
0.4716160 0.2535182 0.3340652
0.6065281 0.2496034 0.3322654
0.7141600 0.2491425 0.3303194
0.8336346 0.2572447 0.3300917
0.9535842 0.2755916 0.3284860
0.0166410 0.3607630 0.3645440
0.1384034 0.3539692 0.3590176
0.2480640 0.3590418 0.3674088
0.3451160 0.3465370 0.3443270
0.4733761 0.3586326 0.3491116
0.6014627 0.3626482 0.3429204
0.7236039 0.3618180 0.3440850
0.8465161 0.3691404 0.3445546
0.9593087 0.3834326 0.3381317
0.0129530 0.4800810 0.3613660
0.1324001 0.4802504 0.3619315
0.2457165 0.4792908 0.3609541
0.3536591 0.4731246 0.3510449
0.4514544 0.4478982 0.3276730
0.5992099 0.4760947 0.3474221
0.7372500 0.4902592 0.3561202
0.8580040 0.4922258 0.3589508
0.9778497 0.5012642 0.3580921
0.0117940 0.6052530 0.3598310
0.1312573 0.6046084 0.3586633
0.2468140 0.6023598 0.3557455
0.3588332 0.5971448 0.3485824
0.4682011 0.5871942 0.3356989
0.5945461 0.5915605 0.3426609
0.7395813 0.6131347 0.3569544
0.8691114 0.6214949 0.3691483
0.9889312 0.6232153 0.3660851
0.0121840 0.7301980 0.3577520
0.1323105 0.7295099 0.3562794
0.2498653 0.7282647 0.3540079
0.3662766 0.7267948 0.3509099
0.4846563 0.7254231 0.3489116
0.6083156 0.7278746 0.3503576
0.7402624 0.7371404 0.3576056
0.8721976 0.7473530 0.3649739
0.9966706 0.7485102 0.3644197
0.0128330 0.8554000 0.3564360
0.1334985 0.8551486 0.3550075
0.2524204 0.8548681 0.3534191
0.3710686 0.8550521 0.3519962
0.4923656 0.8562954 0.3525566
0.6166089 0.8595899 0.3542558
0.7452230 0.8660797 0.3574300
0.8779167 0.8753680 0.3600325
0.9999956 0.8835913 0.3604287
0.0131380 0.9805710 0.3559050
0.1340082 0.9804981 0.3544342
0.2535132 0.9806075 0.3530955
0.3728736 0.9813750 0.3521049
0.4949465 0.9832855 0.3532309
0.6194736 0.9870154 0.3550995
0.7477656 0.9934195 0.3577346
0.8805827 0.9999695 0.3607797
1.0000000 1.0000000 0.3637936
0.0291860 0.0000000 0.4463770
0.1299160 0.0029750 0.4372040
0.2367340 0.0074420 0.4341800
0.3513490 0.0104990 0.4349820
0.4712160 0.0105090 0.4372780
0.5904380 0.0101530 0.4374230
0.7088770 0.0110260 0.4357410
0.8302790 0.0132790 0.4349860
0.9537350 0.0154410 0.4349800
0.0426130 0.0980360 0.4662740
0.1264657 0.1078315 0.4416580
0.2272069 0.1223281 0.4307525
0.3462235 0.1336553 0.4349552
0.4680487 0.1336016 0.4383061
0.5908562 0.1326410 0.4405042
0.7111369 0.1327065 0.4402602
0.8316328 0.1354613 0.4396483
0.9542883 0.1389297 0.4392046
0.0163820 0.2287220 0.4914690
0.1350914 0.2289882 0.4567268
0.2333212 0.2364431 0.4431103
0.3356003 0.2472099 0.4292423
0.4696956 0.2593071 0.4474050
0.5966489 0.2566557 0.4513742
0.7124158 0.2535457 0.4476600
0.8317999 0.2560208 0.4471853
0.9547030 0.2610272 0.4468824
0.0062590 0.3757640 0.4990810
0.1393690 0.3542855 0.4765023
0.2529304 0.3766764 0.5048882
0.3524583 0.3602146 0.4642764
0.4657004 0.3707557 0.4555287
0.5938488 0.3760751 0.4568186
0.7103323 0.3712411 0.4548017
0.8338101 0.3733718 0.4572579
0.9517289 0.3770099 0.4531317
0.0178120 0.4853470 0.4878900
0.1390318 0.4838223 0.4869382
0.2573291 0.4942968 0.4988045
0.3584006 0.4718404 0.4741566
0.4651470 0.4654600 0.4626110
0.6097240 0.4884809 0.4817666
0.7105209 0.4850801 0.4613415
0.8565388 0.4913726 0.4797313
0.9701999 0.4939940 0.4690472
0.0202380 0.6072370 0.4829180
0.1384663 0.6060282 0.4819394
0.2512725 0.6021814 0.4790712
0.3613209 0.5955833 0.4732900
0.4752410 0.5962540 0.4731296
0.5932139 0.5893878 0.4673266
0.7342496 0.6104155 0.4816755
0.8588345 0.6197816 0.4863639
0.9823080 0.6220463 0.4823646
0.0217430 0.7312700 0.4797110
0.1406497 0.7303226 0.4786118
0.2558103 0.7281471 0.4767110
0.3700028 0.7263395 0.4750276
0.4868659 0.7273814 0.4759534
0.6063545 0.7253821 0.4743076
0.7277688 0.7237031 0.4740869
0.8724227 0.7450622 0.4926993
0.9939563 0.7468903 0.4904252
0.0220770 0.8561520 0.4781870
0.1419524 0.8556891 0.4772162
0.2591424 0.8550367 0.4762871
0.3756743 0.8551059 0.4759968
0.4938896 0.8563340 0.4767133
0.6159469 0.8583195 0.4787400
0.7427694 0.8630629 0.4822309
0.8775819 0.8739509 0.4899956
0.9999455 0.8835298 0.4929005
0.0219920 0.9812280 0.4776830
0.1422350 0.9809766 0.4766513
0.2603080 0.9808200 0.4759622
0.3777743 0.9815103 0.4759841
0.4966442 0.9831689 0.4767817
0.6196596 0.9863933 0.4796213
0.7473354 0.9926229 0.4838731
0.8819903 0.9999560 0.4911000
1.0000000 1.0000000 0.4968667
0.0784010 0.0284500 0.5789210
0.1648520 0.0166800 0.5665100
0.2607970 0.0102620 0.5610020
0.3661840 0.0094570 0.5580870
0.4770570 0.0096470 0.5557780
0.5923330 0.0097660 0.5555640
0.7119610 0.0100050 0.5572600
0.8316150 0.0108420 0.5572760
0.9554270 0.0114040 0.5582020
0.1748950 0.1844660 0.6827980
0.1687582 0.1302593 0.5742980
0.2549231 0.1266323 0.5623638
0.3620459 0.1299070 0.5575871
0.4741784 0.1313311 0.5552774
0.5925086 0.1319152 0.5576505
0.7122908 0.1321361 0.5594358
0.8339593 0.1329492 0.5609645
0.9560607 0.1336999 0.5605885
0.0773210 0.2353900 0.6190060
0.1586773 0.2371769 0.5798195
0.2495467 0.2395829 0.5688782
0.3553234 0.2465440 0.5577494
0.4734565 0.2538081 0.5589326
0.5949483 0.2558624 0.5641578
0.7143141 0.2547457 0.5656053
0.8350706 0.2548917 0.5667430
0.9574836 0.2557073 0.5666677
0.0068890 0.3433580 0.6261130
0.1433356 0.3578505 0.5963539
0.2524063 0.3638025 0.5928405
0.3580372 0.3651080 0.5887485
0.4806480 0.3794164 0.5775066
0.6000762 0.3842778 0.5764079
0.7146665 0.3777490 0.5723968
0.8351571 0.3762215 0.5739854
0.9559205 0.3763237 0.5729432
0.0099260 0.4941890 0.6177980
0.1182668 0.4984965 0.6209726
0.2463610 0.4968994 0.6215202
0.3690126 0.4915288 0.6139152
0.5017381 0.5023903 0.6135190
0.5999087 0.4969836 0.5846573
0.7119045 0.4952953 0.5768752
0.8365001 0.4968314 0.5835472
0.9567882 0.4978897 0.5821233
0.0361120 0.6097080 0.6050200
0.1501921 0.6083364 0.6047503
0.2546030 0.6035891 0.6027805
0.3471460 0.5748007 0.5751222
0.4771344 0.5978700 0.5968843
0.5837250 0.5834180 0.5797420
0.7272805 0.6083548 0.5996409
0.8463106 0.6174420 0.5971764
0.9693716 0.6166411 0.5952015
0.0380480 0.7328410 0.6002540
0.1551739 0.7315698 0.5996989
0.2657483 0.7294922 0.5994837
0.3746701 0.7258837 0.5980300
0.4917164 0.7323895 0.6067863
0.6082707 0.7319895 0.6054368
0.7222328 0.7186565 0.5958885
0.8646237 0.7422438 0.6117084
0.9873926 0.7472737 0.6106469
0.0356710 0.8573920 0.5988320
0.1545358 0.8568619 0.5983976
0.2694612 0.8562378 0.5986526
0.3830513 0.8562361 0.5999759
0.4987129 0.8579520 0.6031507
0.6176075 0.8597626 0.6063563
0.7403709 0.8609141 0.6080801
0.8730991 0.8690665 0.6151777
0.9998837 0.8854698 0.6268820
0.0340450 0.9823560 0.5986040
0.1535366 0.9820991 0.5980788
0.2699815 0.9819362 0.5982988
0.3851680 0.9824906 0.5996514
0.5016149 0.9840452 0.6021189
0.6213468 0.9867866 0.6053546
0.7472117 0.9922299 0.6107204
0.8822796 0.9999348 0.6207077
1.0000000 1.0000000 0.6301124
0.1077030 0.0491570 0.7091470
0.1925840 0.0292710 0.6940270
0.2808080 0.0156690 0.6858460
0.3797270 0.0107430 0.6808770
0.4855450 0.0094050 0.6766860
0.5967840 0.0092710 0.6749150
0.7143740 0.0092510 0.6769440
0.8354240 0.0091660 0.6795090
0.9575950 0.0090520 0.6798400
0.1744880 0.2045740 0.7400630
0.1983783 0.1484312 0.6984392
0.2782115 0.1340260 0.6862826
0.3764876 0.1310136 0.6793094
0.4822790 0.1305869 0.6738888
0.5962397 0.1309896 0.6754021
0.7153336 0.1313810 0.6791715
0.8360027 0.1313655 0.6813358
0.9551390 0.1309819 0.6791671
0.1118720 0.2512880 0.7112100
0.1883320 0.2532200 0.6987728
0.2727030 0.2485223 0.6895794
0.3725357 0.2487914 0.6806062
0.4791191 0.2502567 0.6727352
0.5964823 0.2531742 0.6780745
0.7170796 0.2542535 0.6837857
0.8378654 0.2540126 0.6863973
0.9591153 0.2535591 0.6857547
0.0530930 0.3600180 0.7441000
0.1771302 0.3683930 0.7115874
0.2693138 0.3688692 0.7028998
0.3703757 0.3669331 0.6929102
0.4806946 0.3720166 0.6827936
0.6017500 0.3801563 0.6879297
0.7189736 0.3789189 0.6901762
0.8407063 0.3776874 0.6943790
0.9627360 0.3769729 0.6944691
0.0824190 0.5016320 0.7379320
0.1566795 0.4963640 0.7290721
0.2580624 0.4952671 0.7273676
0.3720052 0.4958108 0.7358345
0.4920681 0.4984406 0.7121094
0.6109587 0.5075061 0.7035769
0.7260090 0.5051629 0.7038594
0.8447755 0.5031379 0.7056150
0.9668643 0.5020909 0.7054830
0.0707460 0.6161130 0.7243990
0.1792995 0.6098434 0.7211089
0.2521209 0.6197085 0.7448472
0.3703637 0.6167555 0.7422193
0.5063304 0.6283909 0.7454653
0.6088320 0.6096949 0.7172454
0.7230163 0.6155398 0.7076839
0.8492312 0.6273445 0.7182702
0.9720534 0.6289092 0.7185341
0.0646460 0.7351320 0.7177320
0.1838536 0.7315585 0.7165246
0.2858391 0.7327042 0.7211492
0.3890118 0.7333330 0.7273654
0.4965275 0.7348216 0.7317594
0.6142662 0.7330824 0.7317257
0.7170070 0.7177290 0.7146700
0.8588301 0.7449426 0.7332886
0.9799029 0.7524082 0.7320207
0.0532520 0.8591230 0.7182010
0.1719364 0.8583058 0.7180866
0.2846107 0.8578956 0.7195660
0.3943917 0.8584890 0.7231407
0.5059117 0.8602011 0.7283380
0.6221126 0.8630190 0.7365563
0.7399648 0.8624122 0.7366755
0.8636805 0.8622265 0.7365400
0.9997429 0.8869645 0.7550110
0.0480660 0.9838660 0.7188900
0.1670876 0.9835403 0.7187618
0.2821611 0.9833021 0.7196816
0.3948233 0.9840187 0.7224325
0.5085753 0.9854794 0.7265121
0.6259425 0.9880904 0.7319958
0.7486951 0.9932703 0.7382266
0.8817401 0.9999334 0.7494685
1.0000000 1.0000000 0.7611375
0.1014410 0.0429350 0.8235540
0.1992740 0.0291810 0.8165840
0.2919710 0.0181620 0.8104690
0.3894160 0.0124190 0.8045080
0.4928290 0.0099760 0.7994860
0.6022560 0.0089480 0.7976950
0.7170100 0.0088180 0.7982110
0.8384040 0.0082550 0.8021640
0.9609960 0.0079640 0.8030900
0.1185080 0.1678450 0.8257110
0.2038220 0.1495859 0.8181387
0.2918939 0.1384545 0.8108348
0.3878189 0.1330906 0.8036983
0.4899629 0.1309997 0.7960179
0.6001692 0.1304097 0.7955531
0.7181741 0.1307073 0.8004435
0.8388280 0.1305334 0.8036393
0.9593597 0.1300144 0.8025834
0.1414310 0.2807870 0.8189790
0.2111436 0.2666916 0.8172995
0.2924433 0.2564923 0.8117249
0.3863383 0.2519693 0.8033956
0.4873953 0.2503562 0.7937324
0.5990701 0.2515778 0.7950479
0.7197105 0.2532991 0.8038509
0.8407485 0.2534430 0.8079361
0.9619018 0.2526805 0.8073654
0.1557990 0.3984690 0.8238440
0.2221383 0.3862786 0.8180578
0.2943949 0.3753935 0.8141922
0.3861768 0.3698023 0.8077162
0.4878581 0.3698606 0.7966235
0.6033196 0.3752692 0.8012428
0.7238373 0.3777315 0.8108992
0.8453578 0.3779211 0.8161798
0.9677205 0.3769308 0.8167310
0.2615460 0.5641110 0.8570650
0.2298484 0.5076986 0.8256915
0.2932051 0.4935989 0.8218007
0.3875899 0.4844009 0.8122790
0.4892153 0.4873540 0.8061228
0.6125844 0.5021439 0.8132901
0.7309561 0.5048542 0.8216403
0.8517528 0.5047030 0.8275725
0.9740940 0.5036467 0.8286327
0.1314660 0.6316010 0.8341700
0.2264315 0.6185527 0.8231946
0.2992207 0.6071718 0.8229065
0.4199056 0.5838189 0.8094808
0.4193898 0.5345201 0.7546497
0.6207283 0.6235568 0.8218514
0.7402850 0.6324532 0.8311905
0.8589295 0.6326121 0.8402622
0.9809473 0.6314827 0.8421811
0.0921900 0.7404960 0.8337960
0.2228593 0.7328179 0.8272532
0.3299553 0.7335359 0.8304222
0.4128571 0.7265934 0.8284374
0.4985116 0.7431527 0.8649261
0.6274521 0.7472628 0.8591808
0.7399865 0.7424647 0.8500387
0.8672807 0.7588658 0.8567834
0.9890908 0.7603517 0.8588359
0.0692490 0.8615830 0.8377510
0.1887545 0.8603084 0.8373421
0.3013893 0.8594449 0.8385615
0.4088612 0.8599186 0.8426513
0.5160814 0.8635527 0.8518413
0.6283165 0.8666697 0.8598828
0.7524478 0.8692180 0.8648628
0.8652260 0.8666180 0.8660200
0.9998059 0.8908849 0.8778096
0.0601940 0.9855380 0.8396630
0.1790720 0.9851093 0.8397269
0.2933265 0.9847849 0.8409627
0.4045290 0.9856491 0.8444430
0.5162783 0.9880324 0.8502174
0.6322831 0.9919782 0.8573811
0.7552919 0.9980037 0.8662235
0.8848249 0.9999988 0.8791163
1.0000000 1.0000000 0.8909252
0.0929660 0.0343420 0.9442640
0.1995160 0.0273260 0.9406760
0.2960060 0.0188420 0.9350520
0.3938750 0.0136610 0.9288270
0.4970160 0.0111770 0.9238690
0.6059910 0.0089380 0.9231000
0.7211090 0.0082270 0.9247360
0.8407800 0.0078470 0.9269670
0.9634050 0.0076400 0.9279030
0.1055650 0.1597950 0.9437200
0.2043137 0.1489355 0.9406192
0.2969564 0.1398259 0.9350539
0.3931681 0.1348070 0.9284351
0.4953878 0.1321682 0.9227165
0.6046202 0.1306618 0.9221370
0.7209692 0.1304416 0.9254792
0.8410096 0.1302540 0.9281832
0.9636612 0.1300397 0.9290278
0.1339660 0.2862530 0.9415540
0.2182996 0.2714841 0.9395413
0.3005804 0.2592220 0.9350230
0.3932433 0.2537361 0.9283975
0.4946381 0.2525134 0.9217707
0.6042898 0.2523609 0.9220283
0.7219824 0.2531266 0.9278560
0.8425973 0.2531787 0.9317268
0.9658692 0.2530330 0.9334429
0.1701790 0.4136700 0.9410240
0.2373375 0.3939408 0.9379618
0.3070308 0.3786865 0.9350228
0.3946601 0.3715760 0.9298325
0.4955209 0.3718445 0.9229290
0.6072927 0.3750197 0.9257468
0.7254180 0.3771216 0.9330301
0.8472292 0.3773511 0.9390906
0.9708898 0.3776161 0.9418973
0.2062680 0.5445900 0.9517270
0.2521210 0.5145391 0.9399625
0.3131337 0.4962519 0.9357598
0.3978318 0.4874779 0.9306908
0.4960808 0.4870858 0.9261641
0.6123085 0.4971404 0.9329767
0.7325793 0.5032944 0.9426050
0.8536566 0.5041498 0.9500737
0.9775791 0.5043010 0.9533171
0.1489110 0.6402640 0.9526430
0.2424221 0.6288544 0.9467223
0.3191462 0.6139248 0.9405832
0.4050979 0.6028778 0.9323235
0.4870564 0.5940822 0.9223482
0.6120437 0.6144825 0.9355568
0.7434724 0.6319522 0.9520930
0.8629276 0.6330305 0.9628774
0.9859024 0.6327052 0.9670942
0.1019150 0.7455100 0.9557460
0.2178107 0.7413449 0.9526928
0.3227691 0.7364827 0.9496377
0.4168664 0.7314115 0.9472382
0.5046958 0.7307762 0.9534479
0.6164700 0.7377290 0.9528714
0.7702850 0.7721607 0.9708897
0.8767691 0.7644580 0.9794032
0.9961866 0.7623865 0.9838501
0.0763470 0.8635170 0.9602210
0.1947178 0.8620276 0.9596699
0.3068828 0.8603392 0.9598024
0.4144773 0.8604319 0.9626908
0.5219208 0.8645635 0.9706761
0.6347290 0.8706763 0.9783729
0.7769164 0.8913987 0.9901127
0.8853577 0.8867424 0.9953947
1.0000000 0.8944538 0.9997920
0.0660510 0.9866060 0.9625380
0.1847352 0.9861324 0.9628027
0.2987106 0.9857606 0.9641751
0.4095758 0.9868148 0.9679291
0.5209071 0.9900750 0.9745147
0.6374998 0.9956324 0.9824524
0.7630643 0.9999930 0.9923236
0.8920300 1.0000000 0.9999511
1.0000000 1.0000000 1.0000000
