presets/experimental/experimental-flower-plain/look.cube
# Approximate v0 colour conversion; calibrate before claiming visual parity.
LUT_3D_SIZE 33
DOMAIN_MIN 0 0 0
DOMAIN_MAX 1 1 1
0.0064340 0.0047320 0.0015250
0.0380770 0.0057855 0.0021340
0.0697200 0.0068390 0.0027430
0.0946365 0.0078170 0.0041855
0.1195530 0.0087950 0.0056280
0.1505915 0.0087160 0.0039040
0.1816300 0.0086370 0.0021800
0.2170915 0.0078865 0.0011335
0.2525530 0.0071360 0.0000870
0.2857735 0.0071790 0.0000435
0.3189940 0.0072220 0.0000000
0.3511195 0.0070985 0.0000000
0.3832450 0.0069750 0.0000000
0.4111730 0.0065715 0.0000000
0.4391010 0.0061680 0.0000000
0.4674170 0.0052030 0.0000000
0.4957330 0.0042380 0.0000000
0.5244590 0.0042215 0.0000000
0.5531850 0.0042050 0.0000000
0.5791060 0.0038945 0.0000000
0.6050270 0.0035840 0.0000000
0.6337585 0.0034560 0.0000000
0.6624900 0.0033280 0.0000000
0.6908745 0.0024845 0.0000000
0.7192590 0.0016410 0.0000000
0.7461205 0.0020830 0.0000000
0.7729820 0.0025250 0.0000000
0.7996505 0.0032095 0.0000000
0.8263190 0.0038940 0.0000000
0.8552750 0.0036495 0.0000000
0.8842310 0.0034050 0.0000000
0.9183730 0.0020865 0.0000000
0.9525150 0.0007680 0.0000000
0.0123000 0.0350105 0.0115625
0.0410700 0.0351107 0.0103792
0.0698400 0.0352110 0.0091960
0.0967560 0.0362107 0.0088077
0.1236720 0.0372105 0.0084195
0.1554400 0.0379042 0.0066175
0.1872080 0.0385980 0.0048155
0.2219977 0.0384348 0.0039498
0.2567875 0.0382715 0.0030840
0.2896863 0.0377228 0.0026773
0.3225850 0.0371740 0.0022705
0.3533680 0.0367550 0.0015395
0.3841510 0.0363360 0.0008085
0.4127937 0.0358645 0.0004460
0.4414365 0.0353930 0.0000835
0.4694195 0.0344832 0.0000417
0.4974025 0.0335735 0.0000000
0.5257517 0.0337563 0.0000000
0.5541010 0.0339390 0.0000000
0.5807605 0.0331128 0.0000000
0.6074200 0.0322865 0.0000000
0.6353032 0.0321240 0.0000000
0.6631865 0.0319615 0.0000000
0.6906788 0.0313967 0.0000000
0.7181710 0.0308320 0.0000000
0.7446537 0.0311920 0.0000000
0.7711365 0.0315520 0.0000000
0.7981292 0.0327248 0.0000000
0.8251220 0.0338975 0.0000000
0.8551093 0.0336177 0.0000000
0.8850965 0.0333380 0.0000000
0.9192097 0.0312160 0.0000000
0.9533230 0.0290940 0.0000000
0.0181660 0.0652890 0.0216000
0.0440630 0.0644360 0.0186245
0.0699600 0.0635830 0.0156490
0.0988755 0.0646045 0.0134300
0.1277910 0.0656260 0.0112110
0.1602885 0.0670925 0.0093310
0.1927860 0.0685590 0.0074510
0.2269040 0.0689830 0.0067660
0.2610220 0.0694070 0.0060810
0.2935990 0.0682665 0.0053110
0.3261760 0.0671260 0.0045410
0.3556165 0.0664115 0.0030790
0.3850570 0.0656970 0.0016170
0.4144145 0.0651575 0.0008920
0.4437720 0.0646180 0.0001670
0.4714220 0.0637635 0.0000835
0.4990720 0.0629090 0.0000000
0.5270445 0.0632910 0.0000000
0.5550170 0.0636730 0.0000000
0.5824150 0.0623310 0.0000000
0.6098130 0.0609890 0.0000000
0.6368480 0.0607920 0.0000000
0.6638830 0.0605950 0.0000000
0.6904830 0.0603090 0.0000000
0.7170830 0.0600230 0.0000000
0.7431870 0.0603010 0.0000000
0.7692910 0.0605790 0.0000000
0.7966080 0.0622400 0.0000000
0.8239250 0.0639010 0.0000000
0.8549435 0.0635860 0.0000000
0.8859620 0.0632710 0.0000000
0.9200465 0.0603455 0.0000000
0.9541310 0.0574200 0.0000000
0.0093050 0.0788250 0.0157870
0.0289623 0.0706815 0.0129642
0.0486195 0.0625380 0.0101415
0.0770305 0.0671423 0.0110025
0.1054415 0.0717465 0.0118635
0.1469245 0.0836195 0.0110852
0.1884075 0.0954925 0.0103070
0.2246175 0.0988132 0.0097055
0.2608275 0.1021340 0.0091040
0.2934045 0.1010825 0.0082258
0.3259815 0.1000310 0.0073475
0.3556218 0.0991268 0.0056622
0.3852620 0.0982225 0.0039770
0.4154638 0.0973802 0.0031352
0.4456655 0.0965380 0.0022935
0.4735130 0.0949880 0.0013505
0.5013605 0.0934380 0.0004075
0.5298745 0.0937433 0.0002038
0.5583885 0.0940485 0.0000000
0.5858990 0.0928813 0.0000000
0.6134095 0.0917140 0.0000000
0.6402460 0.0916543 0.0000000
0.6670825 0.0915945 0.0000000
0.6928642 0.0912245 0.0000000
0.7186460 0.0908545 0.0000000
0.7447473 0.0909595 0.0000000
0.7708485 0.0910645 0.0000000
0.7984853 0.0927445 0.0000000
0.8261220 0.0944245 0.0000000
0.8565050 0.0948090 0.0000000
0.8868880 0.0951935 0.0000000
0.9200465 0.0939418 0.0000000
0.9532050 0.0926900 0.0000000
0.0004440 0.0923610 0.0099740
0.0138615 0.0769270 0.0073040
0.0272790 0.0614930 0.0046340
0.0551855 0.0696800 0.0085750
0.0830920 0.0778670 0.0125160
0.1335605 0.1001465 0.0128395
0.1840290 0.1224260 0.0131630
0.2223310 0.1286435 0.0126450
0.2606330 0.1348610 0.0121270
0.2932100 0.1338985 0.0111405
0.3257870 0.1329360 0.0101540
0.3556270 0.1318420 0.0082455
0.3854670 0.1307480 0.0063370
0.4165130 0.1296030 0.0053785
0.4475590 0.1284580 0.0044200
0.4756040 0.1262125 0.0026175
0.5036490 0.1239670 0.0008150
0.5327045 0.1241955 0.0004075
0.5617600 0.1244240 0.0000000
0.5893830 0.1234315 0.0000000
0.6170060 0.1224390 0.0000000
0.6436440 0.1225165 0.0000000
0.6702820 0.1225940 0.0000000
0.6952455 0.1221400 0.0000000
0.7202090 0.1216860 0.0000000
0.7463075 0.1216180 0.0000000
0.7724060 0.1215500 0.0000000
0.8003625 0.1232490 0.0000000
0.8283190 0.1249480 0.0000000
0.8580665 0.1260320 0.0000000
0.8878140 0.1271160 0.0000000
0.9200465 0.1275380 0.0000000
0.9522790 0.1279600 0.0000000
0.0002220 0.1208940 0.0079520
0.0163113 0.1077677 0.0061127
0.0324005 0.0946415 0.0042735
0.0544125 0.0949090 0.0072015
0.0764245 0.0951765 0.0101295
0.1161428 0.1098642 0.0124735
0.1558610 0.1245520 0.0148175
0.2107855 0.1476115 0.0190232
0.2657100 0.1706710 0.0232290
0.2968608 0.1712490 0.0218145
0.3280115 0.1718270 0.0204000
0.3570410 0.1673652 0.0140215
0.3860705 0.1629035 0.0076430
0.4167650 0.1619490 0.0063013
0.4474595 0.1609945 0.0049595
0.4762723 0.1594645 0.0029678
0.5050850 0.1579345 0.0009760
0.5333478 0.1572875 0.0006757
0.5616105 0.1566405 0.0003755
0.5898535 0.1558048 0.0001878
0.6180965 0.1549690 0.0000000
0.6447775 0.1548913 0.0000000
0.6714585 0.1548135 0.0000000
0.6967112 0.1552280 0.0000000
0.7219640 0.1556425 0.0000000
0.7483772 0.1562757 0.0000000
0.7747905 0.1569090 0.0000000
0.8025027 0.1589115 0.0000000
0.8302150 0.1609140 0.0000000
0.8601152 0.1623985 0.0000000
0.8900155 0.1638830 0.0000000
0.9211815 0.1641117 0.0000000
0.9523475 0.1643405 0.0000000
0.0000000 0.1494270 0.0059300
0.0187610 0.1386085 0.0049215
0.0375220 0.1277900 0.0039130
0.0536395 0.1201380 0.0058280
0.0697570 0.1124860 0.0077430
0.0987250 0.1195820 0.0121075
0.1276930 0.1266780 0.0164720
0.1992400 0.1665795 0.0254015
0.2707870 0.2064810 0.0343310
0.3005115 0.2085995 0.0324885
0.3302360 0.2107180 0.0306460
0.3584550 0.2028885 0.0197975
0.3866740 0.1950590 0.0089490
0.4170170 0.1942950 0.0072240
0.4473600 0.1935310 0.0054990
0.4769405 0.1927165 0.0033180
0.5065210 0.1919020 0.0011370
0.5339910 0.1903795 0.0009440
0.5614610 0.1888570 0.0007510
0.5903240 0.1881780 0.0003755
0.6191870 0.1874990 0.0000000
0.6459110 0.1872660 0.0000000
0.6726350 0.1870330 0.0000000
0.6981770 0.1883160 0.0000000
0.7237190 0.1895990 0.0000000
0.7504470 0.1909335 0.0000000
0.7771750 0.1922680 0.0000000
0.8046430 0.1945740 0.0000000
0.8321110 0.1968800 0.0000000
0.8621640 0.1987650 0.0000000
0.8922170 0.2006500 0.0000000
0.9223165 0.2006855 0.0000000
0.9524160 0.2007210 0.0000000
0.0008520 0.1834760 0.0052405
0.0239340 0.1772400 0.0049422
0.0470160 0.1710040 0.0046440
0.0684073 0.1681380 0.0067895
0.0897985 0.1652720 0.0089350
0.1121168 0.1626295 0.0134403
0.1344350 0.1599870 0.0179455
0.1847838 0.1809692 0.0246843
0.2351325 0.2019515 0.0314230
0.2838168 0.2207497 0.0358327
0.3325010 0.2395480 0.0402425
0.3594333 0.2343637 0.0292078
0.3863655 0.2291795 0.0181730
0.4150980 0.2262435 0.0123403
0.4438305 0.2233075 0.0065075
0.4736778 0.2226130 0.0041710
0.5035250 0.2219185 0.0018345
0.5327388 0.2212100 0.0016098
0.5619525 0.2205015 0.0013850
0.5914538 0.2205133 0.0011995
0.6209550 0.2205250 0.0010140
0.6489110 0.2200405 0.0007610
0.6768670 0.2195560 0.0005080
0.7021533 0.2206660 0.0002540
0.7274395 0.2217760 0.0000000
0.7539850 0.2240038 0.0000000
0.7805305 0.2262315 0.0000000
0.8076700 0.2283670 0.0000000
0.8348095 0.2305025 0.0000000
0.8639592 0.2327355 0.0000000
0.8931090 0.2349685 0.0000000
0.9226330 0.2356128 0.0000000
0.9521570 0.2362570 0.0000000
0.0017040 0.2175250 0.0045510
0.0291070 0.2158715 0.0049630
0.0565100 0.2142180 0.0053750
0.0831750 0.2161380 0.0077510
0.1098400 0.2180580 0.0101270
0.1255085 0.2056770 0.0147730
0.1411770 0.1932960 0.0194190
0.1703275 0.1953590 0.0239670
0.1994780 0.1974220 0.0285150
0.2671220 0.2329000 0.0391770
0.3347660 0.2683780 0.0498390
0.3604115 0.2658390 0.0386180
0.3860570 0.2633000 0.0273970
0.4131790 0.2581920 0.0174565
0.4403010 0.2530840 0.0075160
0.4704150 0.2525095 0.0050240
0.5005290 0.2519350 0.0025320
0.5314865 0.2520405 0.0022755
0.5624440 0.2521460 0.0020190
0.5925835 0.2528485 0.0020235
0.6227230 0.2535510 0.0020280
0.6519110 0.2528150 0.0015220
0.6810990 0.2520790 0.0010160
0.7061295 0.2530160 0.0005080
0.7311600 0.2539530 0.0000000
0.7575230 0.2570740 0.0000000
0.7838860 0.2601950 0.0000000
0.8106970 0.2621600 0.0000000
0.8375080 0.2641250 0.0000000
0.8657545 0.2667060 0.0000000
0.8940010 0.2692870 0.0000000
0.9229495 0.2705400 0.0000000
0.9518980 0.2717930 0.0000000
0.0026010 0.2510065 0.0035380
0.0310820 0.2502050 0.0041428
0.0595630 0.2494035 0.0047475
0.0875553 0.2512783 0.0072260
0.1155475 0.2531530 0.0097045
0.1372030 0.2483248 0.0138747
0.1588585 0.2434965 0.0180450
0.1852762 0.2421310 0.0238002
0.2116940 0.2407655 0.0295555
0.2587498 0.2571390 0.0361962
0.3058055 0.2735125 0.0428370
0.3457585 0.2826907 0.0404547
0.3857115 0.2918690 0.0380725
0.4124182 0.2880075 0.0249368
0.4391250 0.2841460 0.0118010
0.4686307 0.2830428 0.0083045
0.4981365 0.2819395 0.0048080
0.5293143 0.2818900 0.0038787
0.5604920 0.2818405 0.0029495
0.5913255 0.2826190 0.0028857
0.6221590 0.2833975 0.0028220
0.6524880 0.2834555 0.0023235
0.6828170 0.2835135 0.0018250
0.7097248 0.2858093 0.0009243
0.7366325 0.2881050 0.0000235
0.7627552 0.2907480 0.0003200
0.7888780 0.2933910 0.0006165
0.8152385 0.2952548 0.0015005
0.8415990 0.2971185 0.0023845
0.8696462 0.2992895 0.0032410
0.8976935 0.3014605 0.0040975
0.9264600 0.3026977 0.0040555
0.9552265 0.3039350 0.0040135
0.0034980 0.2844880 0.0025250
0.0330570 0.2845385 0.0033225
0.0626160 0.2845890 0.0041200
0.0919355 0.2864185 0.0067010
0.1212550 0.2882480 0.0092820
0.1488975 0.2909725 0.0129765
0.1765400 0.2936970 0.0166710
0.2002250 0.2889030 0.0236335
0.2239100 0.2841090 0.0305960
0.2503775 0.2813780 0.0332155
0.2768450 0.2786470 0.0358350
0.3311055 0.2995425 0.0422915
0.3853660 0.3204380 0.0487480
0.4116575 0.3178230 0.0324170
0.4379490 0.3152080 0.0160860
0.4668465 0.3135760 0.0115850
0.4957440 0.3119440 0.0070840
0.5271420 0.3117395 0.0054820
0.5585400 0.3115350 0.0038800
0.5900675 0.3123895 0.0037480
0.6215950 0.3132440 0.0036160
0.6530650 0.3140960 0.0031250
0.6845350 0.3149480 0.0026340
0.7133200 0.3186025 0.0013405
0.7421050 0.3222570 0.0000470
0.7679875 0.3244220 0.0006400
0.7938700 0.3265870 0.0012330
0.8197800 0.3283495 0.0030010
0.8456900 0.3301120 0.0047690
0.8735380 0.3318730 0.0064820
0.9013860 0.3336340 0.0081950
0.9299705 0.3348555 0.0081110
0.9585550 0.3360770 0.0080270
0.0034750 0.3170395 0.0012955
0.0333387 0.3171352 0.0020067
0.0632025 0.3172310 0.0027180
0.0926052 0.3184265 0.0048470
0.1220080 0.3196220 0.0069760
0.1503970 0.3213737 0.0108077
0.1787860 0.3231255 0.0146395
0.2046585 0.3216320 0.0203302
0.2305310 0.3201385 0.0260210
0.2577118 0.3187608 0.0293763
0.2848925 0.3173830 0.0327315
0.3293007 0.3297053 0.0360525
0.3737090 0.3420275 0.0393735
0.4060112 0.3435993 0.0293652
0.4383135 0.3451710 0.0193570
0.4675925 0.3440865 0.0142050
0.4968715 0.3430020 0.0090530
0.5273570 0.3425325 0.0066720
0.5578425 0.3420630 0.0042910
0.5890480 0.3421790 0.0040592
0.6202535 0.3422950 0.0038275
0.6523067 0.3433320 0.0034360
0.6843600 0.3443690 0.0030445
0.7138555 0.3472963 0.0020513
0.7433510 0.3502235 0.0010580
0.7703560 0.3542292 0.0016070
0.7973610 0.3582350 0.0021560
0.8234408 0.3600405 0.0048590
0.8495205 0.3618460 0.0075620
0.8772265 0.3635845 0.0099428
0.9049325 0.3653230 0.0123235
0.9336562 0.3664087 0.0126918
0.9623800 0.3674945 0.0130600
0.0034520 0.3495910 0.0000660
0.0336205 0.3497320 0.0006910
0.0637890 0.3498730 0.0013160
0.0932750 0.3504345 0.0029930
0.1227610 0.3509960 0.0046700
0.1518965 0.3517750 0.0086390
0.1810320 0.3525540 0.0126080
0.2090920 0.3543610 0.0170270
0.2371520 0.3561680 0.0214460
0.2650460 0.3561435 0.0255370
0.2929400 0.3561190 0.0296280
0.3274960 0.3598680 0.0298135
0.3620520 0.3636170 0.0299990
0.4003650 0.3693755 0.0263135
0.4386780 0.3751340 0.0226280
0.4683385 0.3745970 0.0168250
0.4979990 0.3740600 0.0110220
0.5275720 0.3733255 0.0078620
0.5571450 0.3725910 0.0047020
0.5880285 0.3719685 0.0043705
0.6189120 0.3713460 0.0040390
0.6515485 0.3725680 0.0037470
0.6841850 0.3737900 0.0034550
0.7143910 0.3759900 0.0027620
0.7445970 0.3781900 0.0020690
0.7727245 0.3840365 0.0025740
0.8008520 0.3898830 0.0030790
0.8271015 0.3917315 0.0067170
0.8533510 0.3935800 0.0103550
0.8809150 0.3952960 0.0134035
0.9084790 0.3970120 0.0164520
0.9373420 0.3979620 0.0172725
0.9662050 0.3989120 0.0180930
0.0030690 0.3816170 0.0000330
0.0333765 0.3817275 0.0003455
0.0636840 0.3818380 0.0006580
0.0933228 0.3822225 0.0015923
0.1229615 0.3826070 0.0025265
0.1521842 0.3831107 0.0055490
0.1814070 0.3836145 0.0085715
0.2098882 0.3845737 0.0126160
0.2383695 0.3855330 0.0166605
0.2664810 0.3858333 0.0201155
0.2945925 0.3861335 0.0235705
0.3276995 0.3893585 0.0240140
0.3608065 0.3925835 0.0244575
0.3971187 0.3970555 0.0221408
0.4334310 0.4015275 0.0198240
0.4654303 0.4026845 0.0154818
0.4974295 0.4038415 0.0111395
0.5277078 0.4035780 0.0080300
0.5579860 0.4033145 0.0049205
0.5890660 0.4033013 0.0044350
0.6201460 0.4032880 0.0039495
0.6518395 0.4037530 0.0037655
0.6835330 0.4042180 0.0035815
0.7143447 0.4058383 0.0032825
0.7451565 0.4074585 0.0029835
0.7736885 0.4117770 0.0038825
0.8022205 0.4160955 0.0047815
0.8290715 0.4192267 0.0088185
0.8559225 0.4223580 0.0128555
0.8837075 0.4253405 0.0169340
0.9114925 0.4283230 0.0210125
0.9408675 0.4291707 0.0218720
0.9702425 0.4300185 0.0227315
0.0026860 0.4136430 0.0000000
0.0331325 0.4137230 0.0000000
0.0635790 0.4138030 0.0000000
0.0933705 0.4140105 0.0001915
0.1231620 0.4142180 0.0003830
0.1524720 0.4144465 0.0024590
0.1817820 0.4146750 0.0045350
0.2106845 0.4147865 0.0082050
0.2395870 0.4148980 0.0118750
0.2679160 0.4155230 0.0146940
0.2962450 0.4161480 0.0175130
0.3279030 0.4188490 0.0182145
0.3595610 0.4215500 0.0189160
0.3938725 0.4247355 0.0179680
0.4281840 0.4279210 0.0170200
0.4625220 0.4307720 0.0141385
0.4968600 0.4336230 0.0112570
0.5278435 0.4338305 0.0081980
0.5588270 0.4340380 0.0051390
0.5901035 0.4346340 0.0044995
0.6213800 0.4352300 0.0038600
0.6521305 0.4349380 0.0037840
0.6828810 0.4346460 0.0037080
0.7142985 0.4356865 0.0038030
0.7457160 0.4367270 0.0038980
0.7746525 0.4395175 0.0051910
0.8035890 0.4423080 0.0064840
0.8310415 0.4467220 0.0109200
0.8584940 0.4511360 0.0153560
0.8865000 0.4553850 0.0204645
0.9145060 0.4596340 0.0255730
0.9443930 0.4603795 0.0264715
0.9742800 0.4611250 0.0273700
0.0023070 0.4454025 0.0000000
0.0328420 0.4454605 0.0000000
0.0633770 0.4455185 0.0000000
0.0933090 0.4456605 0.0000958
0.1232410 0.4458025 0.0001915
0.1527163 0.4459570 0.0012295
0.1821915 0.4461115 0.0022675
0.2113118 0.4462095 0.0047090
0.2404320 0.4463075 0.0071505
0.2691853 0.4467922 0.0095778
0.2979385 0.4472770 0.0120050
0.3289055 0.4492213 0.0128573
0.3598725 0.4511655 0.0137095
0.3931653 0.4538430 0.0133490
0.4264580 0.4565205 0.0129885
0.4601445 0.4591410 0.0112038
0.4938310 0.4617615 0.0094190
0.5257432 0.4629995 0.0069918
0.5576555 0.4642375 0.0045645
0.5895315 0.4650777 0.0039985
0.6214075 0.4659180 0.0034325
0.6524355 0.4657423 0.0033482
0.6834635 0.4655665 0.0032640
0.7145888 0.4664307 0.0033535
0.7457140 0.4672950 0.0034430
0.7753988 0.4694580 0.0043762
0.8050835 0.4716210 0.0053095
0.8332922 0.4750520 0.0093340
0.8615010 0.4784830 0.0133585
0.8897892 0.4826035 0.0185980
0.9180775 0.4867240 0.0238375
0.9481605 0.4878592 0.0251790
0.9782435 0.4889945 0.0265205
0.0019280 0.4771620 0.0000000
0.0325515 0.4771980 0.0000000
0.0631750 0.4772340 0.0000000
0.0932475 0.4773105 0.0000000
0.1233200 0.4773870 0.0000000
0.1529605 0.4774675 0.0000000
0.1826010 0.4775480 0.0000000
0.2119390 0.4776325 0.0012130
0.2412770 0.4777170 0.0024260
0.2704545 0.4780615 0.0044615
0.2996320 0.4784060 0.0064970
0.3299080 0.4795935 0.0075000
0.3601840 0.4807810 0.0085030
0.3924580 0.4829505 0.0087300
0.4247320 0.4851200 0.0089570
0.4577670 0.4875100 0.0082690
0.4908020 0.4899000 0.0075810
0.5236430 0.4921685 0.0057855
0.5564840 0.4944370 0.0039900
0.5889595 0.4955215 0.0034975
0.6214350 0.4966060 0.0030050
0.6527405 0.4965465 0.0029125
0.6840460 0.4964870 0.0028200
0.7148790 0.4971750 0.0029040
0.7457120 0.4978630 0.0029880
0.7761450 0.4993985 0.0035615
0.8065780 0.5009340 0.0041350
0.8355430 0.5033820 0.0077480
0.8645080 0.5058300 0.0113610
0.8930785 0.5098220 0.0167315
0.9216490 0.5138140 0.0221020
0.9519280 0.5153390 0.0238865
0.9822070 0.5168640 0.0256710
0.0016870 0.5087830 0.0000000
0.0323755 0.5088103 0.0000000
0.0630640 0.5088375 0.0000000
0.0932548 0.5088950 0.0000000
0.1234455 0.5089525 0.0000000
0.1532465 0.5090210 0.0000000
0.1830475 0.5090895 0.0000000
0.2125932 0.5091840 0.0006065
0.2421390 0.5092785 0.0012130
0.2716105 0.5095930 0.0022307
0.3010820 0.5099075 0.0032485
0.3313497 0.5108520 0.0039225
0.3616175 0.5117965 0.0045965
0.3933755 0.5136007 0.0049870
0.4251335 0.5154050 0.0053775
0.4576433 0.5174273 0.0049800
0.4901530 0.5194495 0.0045825
0.5228382 0.5214992 0.0033323
0.5555235 0.5235490 0.0020820
0.5877628 0.5248850 0.0017923
0.6200020 0.5262210 0.0015025
0.6520160 0.5266325 0.0014563
0.6840300 0.5270440 0.0014100
0.7153790 0.5277675 0.0016070
0.7467280 0.5284910 0.0018040
0.7769523 0.5294657 0.0029485
0.8071765 0.5304405 0.0040930
0.8373098 0.5325965 0.0062255
0.8674430 0.5347525 0.0083580
0.8962235 0.5378932 0.0126613
0.9250040 0.5410340 0.0169645
0.9551473 0.5427112 0.0190932
0.9852905 0.5443885 0.0212220
0.0014460 0.5404040 0.0000000
0.0321995 0.5404225 0.0000000
0.0629530 0.5404410 0.0000000
0.0932620 0.5404795 0.0000000
0.1235710 0.5405180 0.0000000
0.1535325 0.5405745 0.0000000
0.1834940 0.5406310 0.0000000
0.2132475 0.5407355 0.0000000
0.2430010 0.5408400 0.0000000
0.2727665 0.5411245 0.0000000
0.3025320 0.5414090 0.0000000
0.3327915 0.5421105 0.0003450
0.3630510 0.5428120 0.0006900
0.3942930 0.5442510 0.0012440
0.4255350 0.5456900 0.0017980
0.4575195 0.5473445 0.0016910
0.4895040 0.5489990 0.0015840
0.5220335 0.5508300 0.0008790
0.5545630 0.5526610 0.0001740
0.5865660 0.5542485 0.0000870
0.6185690 0.5558360 0.0000000
0.6512915 0.5567185 0.0000000
0.6840140 0.5576010 0.0000000
0.7158790 0.5583600 0.0003100
0.7477440 0.5591190 0.0006200
0.7777595 0.5595330 0.0023355
0.8077750 0.5599470 0.0040510
0.8390765 0.5618110 0.0047030
0.8703780 0.5636750 0.0053550
0.8993685 0.5659645 0.0085910
0.9283590 0.5682540 0.0118270
0.9583665 0.5700835 0.0143000
0.9883740 0.5719130 0.0167730
0.0013590 0.5719460 0.0000000
0.0321623 0.5719630 0.0000000
0.0629655 0.5719800 0.0000000
0.0933685 0.5720167 0.0000000
0.1237715 0.5720535 0.0000000
0.1538622 0.5721143 0.0000000
0.1839530 0.5721750 0.0000000
0.2138625 0.5722905 0.0000000
0.2437720 0.5724060 0.0000000
0.2736978 0.5726798 0.0000000
0.3036235 0.5729535 0.0000000
0.3339323 0.5735652 0.0001725
0.3642410 0.5741770 0.0003450
0.3952990 0.5753615 0.0006220
0.4263570 0.5765460 0.0008990
0.4581205 0.5780173 0.0008455
0.4898840 0.5794885 0.0007920
0.5221500 0.5811517 0.0004395
0.5544160 0.5828150 0.0000870
0.5865137 0.5843822 0.0000435
0.6186115 0.5859495 0.0000000
0.6510983 0.5870927 0.0000000
0.6835850 0.5882360 0.0000000
0.7153810 0.5888075 0.0001550
0.7471770 0.5893790 0.0003100
0.7776745 0.5900050 0.0013335
0.8081720 0.5906310 0.0023570
0.8396880 0.5922137 0.0033253
0.8712040 0.5937965 0.0042935
0.9008590 0.5954658 0.0058960
0.9305140 0.5971350 0.0074985
0.9605423 0.5987322 0.0094317
0.9905705 0.6003295 0.0113650
0.0012720 0.6034880 0.0000000
0.0321250 0.6035035 0.0000000
0.0629780 0.6035190 0.0000000
0.0934750 0.6035540 0.0000000
0.1239720 0.6035890 0.0000000
0.1541920 0.6036540 0.0000000
0.1844120 0.6037190 0.0000000
0.2144775 0.6038455 0.0000000
0.2445430 0.6039720 0.0000000
0.2746290 0.6042350 0.0000000
0.3047150 0.6044980 0.0000000
0.3350730 0.6050200 0.0000000
0.3654310 0.6055420 0.0000000
0.3963050 0.6064720 0.0000000
0.4271790 0.6074020 0.0000000
0.4587215 0.6086900 0.0000000
0.4902640 0.6099780 0.0000000
0.5222665 0.6114735 0.0000000
0.5542690 0.6129690 0.0000000
0.5864615 0.6145160 0.0000000
0.6186540 0.6160630 0.0000000
0.6509050 0.6174670 0.0000000
0.6831560 0.6188710 0.0000000
0.7148830 0.6192550 0.0000000
0.7466100 0.6196390 0.0000000
0.7775895 0.6204770 0.0003315
0.8085690 0.6213150 0.0006630
0.8402995 0.6226165 0.0019475
0.8720300 0.6239180 0.0032320
0.9023495 0.6249670 0.0032010
0.9326690 0.6260160 0.0031700
0.9627180 0.6273810 0.0045635
0.9927670 0.6287460 0.0059570
0.0013085 0.6349780 0.0000000
0.0321995 0.6349953 0.0000000
0.0630905 0.6350125 0.0000000
0.0936595 0.6350520 0.0000000
0.1242285 0.6350915 0.0000000
0.1545480 0.6351655 0.0000000
0.1848675 0.6352395 0.0000000
0.2150483 0.6353775 0.0000000
0.2452290 0.6355155 0.0000000
0.2754258 0.6357797 0.0000000
0.3056225 0.6360440 0.0000000
0.3360437 0.6365342 0.0000000
0.3664650 0.6370245 0.0000000
0.3973158 0.6378567 0.0000000
0.4281665 0.6386890 0.0000000
0.4595770 0.6398453 0.0000000
0.4909875 0.6410015 0.0000000
0.5228310 0.6423545 0.0000000
0.5546745 0.6437075 0.0000000
0.5867285 0.6451847 0.0000000
0.6187825 0.6466620 0.0000000
0.6509217 0.6480153 0.0000000
0.6830610 0.6493685 0.0000000
0.7149060 0.6500615 0.0000000
0.7467510 0.6507545 0.0000000
0.7782132 0.6516687 0.0001658
0.8096755 0.6525830 0.0003315
0.8411793 0.6535225 0.0011110
0.8726830 0.6544620 0.0018905
0.9031025 0.6555937 0.0021820
0.9335220 0.6567255 0.0024735
0.9636000 0.6575858 0.0032875
0.9936780 0.6584460 0.0041015
0.0013450 0.6664680 0.0000000
0.0322740 0.6664870 0.0000000
0.0632030 0.6665060 0.0000000
0.0938440 0.6665500 0.0000000
0.1244850 0.6665940 0.0000000
0.1549040 0.6666770 0.0000000
0.1853230 0.6667600 0.0000000
0.2156190 0.6669095 0.0000000
0.2459150 0.6670590 0.0000000
0.2762225 0.6673245 0.0000000
0.3065300 0.6675900 0.0000000
0.3370145 0.6680485 0.0000000
0.3674990 0.6685070 0.0000000
0.3983265 0.6692415 0.0000000
0.4291540 0.6699760 0.0000000
0.4604325 0.6710005 0.0000000
0.4917110 0.6720250 0.0000000
0.5233955 0.6732355 0.0000000
0.5550800 0.6744460 0.0000000
0.5869955 0.6758535 0.0000000
0.6189110 0.6772610 0.0000000
0.6509385 0.6785635 0.0000000
0.6829660 0.6798660 0.0000000
0.7149290 0.6808680 0.0000000
0.7468920 0.6818700 0.0000000
0.7788370 0.6828605 0.0000000
0.8107820 0.6838510 0.0000000
0.8420590 0.6844285 0.0002745
0.8733360 0.6850060 0.0005490
0.9038555 0.6862205 0.0011630
0.9343750 0.6874350 0.0017770
0.9644820 0.6877905 0.0020115
0.9945890 0.6881460 0.0022460
0.0014600 0.6979180 0.0000000
0.0324175 0.6979400 0.0000000
0.0633750 0.6979620 0.0000000
0.0940705 0.6980128 0.0000000
0.1247660 0.6980635 0.0000000
0.1552595 0.6981565 0.0000000
0.1857530 0.6982495 0.0000000
0.2161347 0.6984110 0.0000000
0.2465165 0.6985725 0.0000000
0.2769055 0.6988460 0.0000000
0.3072945 0.6991195 0.0000000
0.3378337 0.6995692 0.0000000
0.3683730 0.7000190 0.0000000
0.3992040 0.7007130 0.0000000
0.4300350 0.7014070 0.0000000
0.4612520 0.7023633 0.0000000
0.4924690 0.7033195 0.0000000
0.5240485 0.7044692 0.0000000
0.5556280 0.7056190 0.0000000
0.5874420 0.7069385 0.0000000
0.6192560 0.7082580 0.0000000
0.6511948 0.7095285 0.0000000
0.6831335 0.7107990 0.0000000
0.7150603 0.7118567 0.0000000
0.7469870 0.7129145 0.0000000
0.7789575 0.7138853 0.0000000
0.8109280 0.7148560 0.0000000
0.8426955 0.7155087 0.0001373
0.8744630 0.7161615 0.0002745
0.9050678 0.7176628 0.0008265
0.9356725 0.7191640 0.0013785
0.9652877 0.7200685 0.0015948
0.9949030 0.7209730 0.0018110
0.0015750 0.7293680 0.0000000
0.0325610 0.7293930 0.0000000
0.0635470 0.7294180 0.0000000
