presets/film/film-negative/look.cube
# Approximate v0 colour conversion; calibrate before claiming visual parity.
LUT_3D_SIZE 9
DOMAIN_MIN 0 0 0
DOMAIN_MAX 1 1 1
0.0147805 0.0115585 0.0101035
0.1118529 0.0339980 0.0182187
0.2077039 0.0552287 0.0240046
0.3249183 0.0670089 0.0197587
0.4445952 0.0787794 0.0125647
0.5500283 0.0904059 0.0111163
0.6535409 0.1035117 0.0116732
0.7364325 0.1134677 0.0114413
0.7923597 0.1222048 0.0121627
0.0194968 0.1107256 0.0282888
0.0964049 0.0884708 0.0140743
0.1972194 0.1075471 0.0264136
0.3133476 0.1230676 0.0282426
0.4339776 0.1395062 0.0253564
0.5404174 0.1507987 0.0198439
0.6476979 0.1658758 0.0209819
0.7324242 0.1777260 0.0214192
0.7883214 0.1868610 0.0226861
0.0157812 0.2066908 0.0360471
0.1058525 0.1873915 0.0227148
0.1888086 0.1737838 0.0309793
0.3009871 0.1845225 0.0415691
0.4164127 0.1959037 0.0361256
0.5231998 0.2054200 0.0279348
0.6362438 0.2224663 0.0274224
0.7292162 0.2377122 0.0287235
0.7868314 0.2497644 0.0298903
0.0042476 0.3312340 0.0396921
0.0829252 0.3131213 0.0092340
0.1929102 0.2901684 0.0171241
0.2906290 0.2717396 0.0305867
0.3949091 0.2690150 0.0364134
0.4998351 0.2784635 0.0310578
0.6130412 0.2920176 0.0285991
0.7134483 0.3084177 0.0321797
0.7760231 0.3214488 0.0319292
0.0008980 0.4630976 0.0484772
0.0638113 0.4479217 0.0069111
0.1820047 0.4220929 0.0098830
0.3092049 0.4003233 0.0103400
0.3987591 0.3735972 0.0127869
0.4818060 0.3582132 0.0182326
0.5910973 0.3670895 0.0150441
0.6895129 0.3805946 0.0153193
0.7553098 0.3939990 0.0170170
0.0011099 0.5726402 0.0570977
0.0511066 0.5587042 0.0069370
0.1723385 0.5350955 0.0108258
0.3079234 0.5053815 0.0112486
0.4271490 0.4889716 0.0057071
0.4939346 0.4549420 0.0022549
0.5783383 0.4386044 0.0040463
0.6734289 0.4473841 0.0041643
0.7385439 0.4574476 0.0054646
0.0015255 0.6790665 0.0675287
0.0399828 0.6659256 0.0070308
0.1622903 0.6443984 0.0114355
0.3041464 0.6132822 0.0134471
0.4301551 0.5887766 0.0110017
0.5325372 0.5779433 0.0043611
0.5876611 0.5327262 0.0000000
0.6613237 0.5191862 0.0000000
0.7245859 0.5252394 0.0004581
0.0027838 0.7761741 0.0776941
0.0298591 0.7635735 0.0071623
0.1526289 0.7435877 0.0118693
0.2981146 0.7131685 0.0149624
0.4298712 0.6848384 0.0143093
0.5357708 0.6676560 0.0100979
0.6368290 0.6602381 0.0022527
0.6710339 0.6081274 0.0000000
0.7148545 0.5931064 0.0000000
0.0038227 0.8445051 0.0850532
0.0228132 0.8322138 0.0072685
0.1455167 0.8131258 0.0121366
0.2925959 0.7835511 0.0158053
0.4277642 0.7539668 0.0161639
0.5366287 0.7335299 0.0132420
0.6392257 0.7215367 0.0069841
0.7257325 0.7187730 0.0000000
0.7281837 0.6623435 0.0000000
0.0329604 0.0422733 0.1093953
0.1048800 0.0234950 0.0944246
0.2069342 0.0378237 0.0775087
0.3267298 0.0391810 0.0570805
0.4459578 0.0407758 0.0383445
0.5537521 0.0438698 0.0245557
0.6616053 0.0464706 0.0104239
0.7479093 0.0523558 0.0033955
0.8010726 0.0610368 0.0035780
0.0244514 0.1082712 0.0872607
0.1087420 0.1095239 0.1082724
0.1955459 0.1083294 0.0961296
0.3182412 0.1089271 0.0814401
0.4418858 0.1143021 0.0655474
0.5459489 0.1149592 0.0463087
0.6513802 0.1165555 0.0290194
0.7361953 0.1157638 0.0130859
0.7922225 0.1233946 0.0123653
0.0207141 0.2065375 0.1038577
0.1187684 0.2069042 0.1262121
0.1873010 0.1813496 0.1049050
0.3062462 0.1839142 0.0902529
0.4214656 0.1842579 0.0768677
0.5323843 0.1875754 0.0629980
0.6430079 0.1928234 0.0471194
0.7317573 0.1961460 0.0340526
0.7883935 0.1976218 0.0246478
0.0060398 0.3326467 0.1175341
0.1088435 0.3257835 0.1303319
0.1767398 0.2885030 0.0914970
0.2879660 0.2788043 0.1029186
0.4000914 0.2759001 0.0940156
0.5036048 0.2732955 0.0746977
0.6212402 0.2761804 0.0547854
0.7220365 0.2866485 0.0510308
0.7825652 0.2934871 0.0450665
0.0006666 0.4664068 0.1315692
0.1085112 0.4611286 0.1433363
0.1751166 0.4370162 0.1020384
0.2944350 0.3999495 0.0939606
0.3952275 0.3823267 0.0954180
0.4821299 0.3635116 0.0847696
0.5935711 0.3646962 0.0673793
0.6961738 0.3715571 0.0549767
0.7641039 0.3805584 0.0496169
0.0006402 0.5771102 0.1440971
0.1108942 0.5719720 0.1548777
0.1685858 0.5526840 0.1050459
0.2987594 0.5149215 0.0991214
0.4159217 0.4904569 0.0937151
0.4927744 0.4637964 0.0868335
0.5800476 0.4441509 0.0736504
0.6773487 0.4469270 0.0600858
0.7437439 0.4513116 0.0517385
0.0019383 0.6842281 0.1564860
0.1139292 0.6789359 0.1664572
0.1607972 0.6620149 0.1064926
0.2976481 0.6280635 0.1046009
0.4219800 0.5951723 0.0988040
0.5235662 0.5791217 0.0912395
0.5882346 0.5413019 0.0805918
0.6637375 0.5250046 0.0683767
0.7276902 0.5273621 0.0596270
0.0036048 0.7817520 0.1678600
0.1165350 0.7762369 0.1772054
0.1528028 0.7606768 0.1073810
0.2928048 0.7299544 0.1081011
0.4233128 0.6954002 0.1042759
0.5284821 0.6720117 0.0977480
0.6287058 0.6606174 0.0878348
0.6721983 0.6165868 0.0775059
0.7165885 0.5999113 0.0691128
0.0046371 0.8503096 0.1758654
0.1181339 0.8446388 0.1848306
0.1467102 0.8297765 0.1078818
0.2878288 0.8009266 0.1098924
0.4217290 0.7667039 0.1076262
0.5301311 0.7403355 0.1022642
0.6317990 0.7235199 0.0935232
0.7172921 0.7184781 0.0834254
0.7290480 0.6707037 0.0760234
0.0521020 0.0708652 0.2173818
0.1250910 0.0386593 0.2158914
0.2117704 0.0363855 0.1856749
0.3284116 0.0368776 0.1455811
0.4438731 0.0329307 0.1169712
0.5483853 0.0347900 0.0986984
0.6539394 0.0387540 0.0809884
0.7401792 0.0436474 0.0653906
0.7959831 0.0478591 0.0560367
0.0401388 0.1609647 0.2051283
0.1359476 0.1452696 0.2077877
0.1996206 0.1205855 0.1906618
0.3226582 0.0928247 0.1415761
0.4450567 0.0758171 0.1027083
0.5494791 0.0644288 0.0681494
0.6579044 0.0547448 0.0342495
0.7476741 0.0490335 0.0090508
0.8021680 0.0534342 0.0026049
0.0252337 0.1997165 0.1555087
0.1163464 0.2011845 0.1788539
0.1935961 0.1930441 0.1913846
0.3091395 0.1992052 0.1814115
0.4357860 0.2022631 0.1698598
0.5424947 0.2024537 0.1569032
0.6411437 0.2054086 0.1454395
0.7283786 0.2096779 0.1345540
0.7865866 0.2142675 0.1281409
0.0094858 0.3253741 0.1652820
0.1045392 0.3266190 0.1952349
0.2026866 0.3227692 0.2144482
0.2816464 0.2819811 0.1777309
0.4099364 0.2985676 0.1810261
0.5099655 0.2960917 0.1631216
0.6241368 0.2966380 0.1441837
0.7229715 0.3007542 0.1366231
0.7846679 0.3095248 0.1376385
0.0025196 0.4612547 0.1877734
0.1032700 0.4646245 0.2178180
0.2057300 0.4565056 0.2294309
0.2756335 0.4004032 0.1676984
0.3868792 0.3914027 0.1752032
0.4978085 0.3947553 0.1837524
0.6008382 0.3854082 0.1563078
0.7038350 0.3878831 0.1383066
0.7704774 0.3913044 0.1327060
0.0026075 0.5740255 0.2074931
0.1062646 0.5767582 0.2340534
0.2145484 0.5702750 0.2466808
0.2929924 0.5326219 0.1952998
0.3995667 0.4923350 0.1773207
0.4904123 0.4764832 0.1755234
0.5865917 0.4601633 0.1627693
0.6878704 0.4591481 0.1443033
0.7544302 0.4606233 0.1344396
0.0045408 0.6826406 0.2252743
0.1100721 0.6845296 0.2485561
0.2217031 0.6783697 0.2611476
0.2958498 0.6489984 0.2068170
0.4141839 0.6060906 0.1929479
0.5136166 0.5820939 0.1825726
0.5900131 0.5519096 0.1709373
0.6713431 0.5367578 0.1568563
0.7365368 0.5372897 0.1455275
0.0065866 0.7812039 0.2404669
0.1132369 0.7822970 0.2611081
0.2266286 0.7760803 0.2732978
0.2927878 0.7508068 0.2120406
0.4188209 0.7114528 0.2037056
0.5219003 0.6795784 0.1933065
0.6213792 0.6624593 0.1815405
0.6751535 0.6265572 0.1693251
0.7215234 0.6103016 0.1592287
0.0079627 0.8503828 0.2506901
0.1150387 0.8509195 0.2696908
0.2292736 0.8446020 0.2815446
0.2887994 0.8212686 0.2143570
0.4182779 0.7846623 0.2089829
0.5250159 0.7511342 0.2001807
0.6253600 0.7275105 0.1889361
0.7100874 0.7191464 0.1769447
0.7314406 0.6803104 0.1681429
0.0781469 0.1069615 0.3442848
0.1309007 0.0563410 0.3457331
0.2379032 0.0403907 0.3436540
0.3374376 0.0260678 0.2926892
0.4428446 0.0280295 0.2408028
0.5406255 0.0277253 0.2109779
0.6413761 0.0300360 0.1880220
0.7292185 0.0350751 0.1687483
0.7892881 0.0399673 0.1551560
0.0633907 0.1983593 0.3272569
0.1585255 0.1833834 0.3362429
0.2239956 0.1459337 0.3391680
0.3327783 0.1195526 0.3060256
0.4416704 0.0857778 0.2381047
0.5417569 0.0620418 0.1908470
0.6451364 0.0458913 0.1485177
0.7357424 0.0399760 0.1125122
0.7946425 0.0450311 0.0977700
0.0286702 0.2903023 0.3209455
0.1384334 0.2704531 0.3270370
0.2301857 0.2514182 0.3312650
0.3214018 0.2152177 0.3135360
0.4394601 0.1888807 0.2605973
0.5458308 0.1678398 0.2229100
0.6412352 0.1554680 0.1938485
0.7280477 0.1474560 0.1685560
0.7872780 0.1434891 0.1505791
0.0140137 0.3171029 0.2368570
0.1017386 0.3164467 0.2598749
0.1988987 0.3229995 0.2948309
0.3185135 0.3298798 0.3260967
0.4202346 0.3242401 0.3076484
0.5271824 0.3270338 0.2944100
0.6324216 0.3269120 0.2805988
0.7271127 0.3288755 0.2712578
0.7884457 0.3316553 0.2667272
0.0054428 0.4501011 0.2452567
0.0914557 0.4529879 0.2713491
0.1997184 0.4582594 0.3136739
0.3254833 0.4609809 0.3501412
0.3853201 0.3977300 0.2878538
0.4928292 0.4086298 0.2959403
0.6124243 0.4187019 0.2856131
0.7134874 0.4232114 0.2712345
0.7798751 0.4246838 0.2628458
0.0054030 0.5636986 0.2662108
0.0949143 0.5681649 0.2952677
0.2092572 0.5735919 0.3385448
0.3352643 0.5708105 0.3656164
0.3918832 0.5088212 0.2965003
0.4820242 0.4914851 0.2886358
0.5909058 0.4876583 0.2948485
0.6973549 0.4942820 0.2834942
0.7642301 0.4981518 0.2729266
0.0078989 0.6737472 0.2891464
0.1003522 0.6787726 0.3181273
0.2181428 0.6831877 0.3590124
0.3478253 0.6794930 0.3830755
0.4150212 0.6360607 0.3260099
0.4979191 0.5887646 0.2982931
0.5872865 0.5691098 0.2930231
0.6803463 0.5638439 0.2900398
0.7500256 0.5683497 0.2816213
0.0105783 0.7736762 0.3097578
0.1048216 0.7785489 0.3371495
0.2244546 0.7821295 0.3752770
0.3564572 0.7774093 0.3971861
0.4223619 0.7440486 0.3403236
0.5171846 0.6983804 0.3203237
0.6106357 0.6676744 0.3031594
0.6778993 0.6438875 0.2938005
0.7294597 0.6321897 0.2871119
0.0123316 0.8437626 0.3236585
0.1073499 0.8483216 0.3495660
0.2277849 0.8512012 0.3857105
0.3609605 0.8459434 0.4063727
0.4223691 0.8166812 0.3459635
0.5233158 0.7750424 0.3312634
0.6183680 0.7375387 0.3135361
0.7010888 0.7231460 0.2996492
0.7346704 0.6967644 0.2914509
0.1092525 0.1521618 0.4837927
0.1407626 0.0795608 0.4809678
0.2409523 0.0641944 0.4766833
0.3733419 0.0348347 0.4696068
0.4634374 0.0195555 0.4100833
0.5395826 0.0224176 0.3490965
0.6368951 0.0240459 0.3142622
0.7223983 0.0271061 0.2902418
0.7820293 0.0303191 0.2763818
0.1043211 0.2513599 0.4818081
0.1866182 0.2269506 0.4742202
0.2360498 0.1704566 0.4755998
0.3601601 0.1473170 0.4703756
0.4628620 0.1140232 0.4264011
0.5386306 0.0823157 0.3507216
0.6367928 0.0544224 0.2957129
0.7231507 0.0359863 0.2527111
0.7837027 0.0336110 0.2297645
0.0614487 0.3378174 0.4629840
0.1656787 0.3188183 0.4631386
0.2612933 0.2999490 0.4709272
0.3462067 0.2524867 0.4699373
0.4614840 0.2218717 0.4440807
0.5392962 0.1900945 0.3718312
0.6363331 0.1629618 0.3216934
0.7228621 0.1469223 0.2873156
0.7827577 0.1384903 0.2659156
0.0233071 0.4474698 0.4451142
0.1013914 0.4231692 0.4458343
0.2265022 0.4093758 0.4607627
0.3484550 0.3849615 0.4661129
0.4535104 0.3486078 0.4612933
0.5340367 0.3190042 0.3956990
0.6370718 0.2985278 0.3584206
0.7246873 0.2852892 0.3327000
0.7851788 0.2788179 0.3177284
0.0105697 0.4444610 0.3281287
0.0922037 0.4439752 0.3500282
0.1926172 0.4461563 0.3816504
0.3127242 0.4526872 0.4224038
0.4254415 0.4497160 0.4443634
0.5285640 0.4545938 0.4415482
0.6319392 0.4558647 0.4268050
0.7269189 0.4582480 0.4141130
0.7880452 0.4581959 0.4062888
0.0097320 0.5538182 0.3313326
0.0878339 0.5552538 0.3521956
0.1941989 0.5572993 0.3879462
0.3219534 0.5646398 0.4374556
0.4530662 0.5760200 0.4869222
0.4881556 0.5010172 0.4146270
0.6033256 0.5167368 0.4227353
0.7112516 0.5298202 0.4176931
0.7796299 0.5360552 0.4107432
0.0120612 0.6623908 0.3471842
0.0903999 0.6655740 0.3694611
0.2046257 0.6696783 0.4119939
0.3388819 0.6789857 0.4667681
0.4657038 0.6828173 0.5047983
0.5133856 0.6258210 0.4447366
0.5850680 0.5817285 0.4124774
0.6777936 0.5849375 0.4187630
0.7555152 0.5995801 0.4195131
0.0147608 0.7621565 0.3668090
0.0945563 0.7664867 0.3901872
0.2131952 0.7717509 0.4357312
0.3508883 0.7798293 0.4889525
0.4771099 0.7806842 0.5205220
0.5307325 0.7412359 0.4682145
0.6030376 0.6792546 0.4284682
0.6728289 0.6565230 0.4169729
0.7277227 0.6518038 0.4194104
0.0167449 0.8325397 0.3818398
0.0973431 0.8372738 0.4054127
0.2180456 0.8426493 0.4513703
0.3571790 0.8497254 0.5022865
0.4834794 0.8489998 0.5305964
0.5357019 0.8170779 0.4783540
0.6180844 0.7596240 0.4467410
0.6899123 0.7280541 0.4255358
0.7336802 0.7126587 0.4203938
0.1307215 0.1857014 0.5821689
0.1470825 0.0971638 0.5789832
0.2454105 0.0826986 0.5744507
0.3717624 0.0556395 0.5681181
0.5068693 0.0225191 0.5596831
0.5551880 0.0181493 0.4769265
0.6380764 0.0204492 0.4210135
0.7226581 0.0227697 0.3897305
0.7813705 0.0249407 0.3718094
0.1311673 0.2891863 0.5818347
0.2078805 0.2588712 0.5718212
0.2442359 0.1884053 0.5735844
0.3629524 0.1677942 0.5687242
0.4923029 0.1366915 0.5607590
0.5551576 0.1063613 0.4922114
0.6374875 0.0732593 0.4209372
0.7221384 0.0481726 0.3713929
0.7812230 0.0338140 0.3398435
0.1056438 0.3780212 0.5662946
0.1919233 0.3538551 0.5619003
0.2827742 0.3311046 0.5663783
0.3547000 0.2729751 0.5684387
0.4773205 0.2465649 0.5614823
0.5550394 0.2157764 0.5106823
0.6369365 0.1822382 0.4411199
0.7214590 0.1578682 0.3952269
0.7808632 0.1444918 0.3678342
0.0670880 0.4936194 0.5540674
0.1472749 0.4605726 0.5465823
0.2504673 0.4411887 0.5523635
0.3676266 0.4184604 0.5622974
0.4612833 0.3798869 0.5667379
0.5537382 0.3485211 0.5332107
0.6377433 0.3157408 0.4667007
0.7218246 0.2928320 0.4262816
0.7816996 0.2812562 0.4044024
0.0289411 0.5426811 0.4789005
0.1196391 0.5405930 0.5043862
0.2058445 0.5374988 0.5290107
0.3345847 0.5279743 0.5528366
0.4620357 0.5079787 0.5629839
0.5531616 0.4740890 0.5555709
0.6336409 0.4422160 0.4900346
0.7243358 0.4296929 0.4632907
0.7857800 0.4212427 0.4471177
0.0160302 0.5505766 0.3962477
0.0947200 0.5501949 0.4174869
0.1930027 0.5490579 0.4458776
0.3125441 0.5517427 0.4833235
0.4307782 0.5560441 0.5194652
0.5475604 0.5706519 0.5572821
0.6374464 0.5555891 0.5334460
0.7299943 0.5592791 0.5239286
0.7900002 0.5635058 0.5168468
0.0170675 0.6559543 0.3993568
0.0899862 0.6570919 0.4177191
0.1982494 0.6580845 0.4521587
0.3236217 0.6630368 0.4975722
0.4498159 0.6727136 0.5495691
0.5658900 0.6832424 0.5907559
0.5884413 0.5926706 0.5016993
0.6986425 0.6145204 0.5166189
0.7700395 0.6262366 0.5160551
0.0190646 0.7540979 0.4120642
0.0902871 0.7566484 0.4302757
0.2051944 0.7597976 0.4707232
0.3381400 0.7667556 0.5232928
0.4685585 0.7785991 0.5793600
0.5767878 0.7795144 0.6083913
0.6197886 0.7124172 0.5395784
0.6774834 0.6706200 0.5052613
0.7300664 0.6654262 0.5077950
0.0205566 0.8238725 0.4244623
0.0917871 0.8272163 0.4430189
0.2096715 0.8312779 0.4864428
0.3465669 0.8389133 0.5413595
0.4781269 0.8492291 0.5951093
0.5862956 0.8492063 0.6209679
0.6345776 0.7971057 0.5610854
0.6883557 0.7375141 0.5181901
0.7325892 0.7217508 0.5075474
0.1456808 0.2130230 0.6652836
0.1507416 0.1122717 0.6654051
0.2492379 0.0991122 0.6620632
0.3727019 0.0743081 0.6569824
0.5028137 0.0428019 0.6498882
0.6247336 0.0142659 0.6422102
0.6421965 0.0173414 0.5277473
0.7249669 0.0194714 0.4882011
0.7833207 0.0210875 0.4656028
0.1474454 0.3170774 0.6610850
0.2254250 0.2865767 0.6568072
0.2499554 0.2037826 0.6606325
0.3670832 0.1855789 0.6571453
0.4913200 0.1570857 0.6509145
0.6091010 0.1265474 0.6430190
0.6422457 0.0956423 0.5406010
0.7246916 0.0663110 0.4869127
0.7826981 0.0481308 0.4517871
0.1342550 0.4090101 0.6485585
0.2139493 0.3835671 0.6471065
0.3012547 0.3588417 0.6518274
0.3619364 0.2898705 0.6558955
0.4804510 0.2672197 0.6515858
0.5933128 0.2375586 0.6431748
0.6420730 0.2055516 0.5590168
0.7243287 0.1759865 0.5069376
0.7824212 0.1582639 0.4737317
0.1086189 0.5252028 0.6399434
0.1807502 0.4941620 0.6335910
0.2718522 0.4722827 0.6377307
0.3904075 0.4521738 0.6522291
0.4693566 0.3999919 0.6543306
0.5750654 0.3735370 0.6444803
0.6420033 0.3402914 0.5816970
0.7239946 0.3104352 0.5313185
0.7819517 0.2932187 0.5008096
0.0593696 0.6333353 0.6216492
0.1612232 0.6123025 0.6300344
0.2269385 0.5810494 0.6267871
0.3497877 0.5610991 0.6397017
0.4890043 0.5497888 0.6574975
0.5650967 0.5076489 0.6527028
0.6419988 0.4689329 0.6030037
0.7239771 0.4414731 0.5551398
0.7829286 0.4279431 0.5302638
0.0359156 0.6291349 0.5228732
0.1226034 0.6279663 0.5477120
0.2161232 0.6248971 0.5739159
0.3243147 0.6278212 0.6113749
0.4628593 0.6376660 0.6503031
0.5636118 0.6028904 0.6414570
0.6398593 0.5644940 0.6159236
0.7273105 0.5445243 0.5779333
0.7876857 0.5392949 0.5626963
0.0244243 0.6526965 0.4577733
0.0990712 0.6525300 0.4773432
0.2017232 0.6512510 0.5065414
0.3179978 0.6523814 0.5431132
0.4372824 0.6594335 0.5838593
0.5397194 0.6605423 0.6135369
0.6520768 0.6658289 0.6396564
0.7243487 0.6465661 0.6111897
0.7904406 0.6569530 0.6119154
0.0246713 0.7484315 0.4610545
0.0927535 0.7494323 0.4773099
0.2034735 0.7501239 0.5114867
0.3286628 0.7531615 0.5547882
0.4505042 0.7612060 0.6033641
0.5627306 0.7725821 0.6526341
0.6686813 0.7709121 0.6724731
0.6756950 0.6753778 0.5795614
0.7497087 0.6916908 0.5933836
0.0254321 0.8170751 0.4687092
0.0910340 0.8188888 0.4839807
0.2056798 0.8208189 0.5217484
0.3368892 0.8254156 0.5700372
0.4631404 0.8346772 0.6233794
0.5775369 0.8465423 0.6740756
0.6818101 0.8434763 0.6923465
0.7072969 0.7680597 0.6208598
0.7408756 0.7368853 0.5902452
0.1586045 0.2374568 0.7422313
0.1529835 0.1257434 0.7452711
0.2523649 0.1139496 0.7433431
0.3744018 0.0911396 0.7395312
0.5012629 0.0616051 0.7337903
0.6197651 0.0317507 0.7272439
0.7230586 0.0141301 0.6970564
0.7301637 0.0166650 0.5881923
0.7876369 0.0180165 0.5606327
0.1598036 0.3410795 0.7355509
0.2412225 0.3118337 0.7360354
0.2541683 0.2175274 0.7411374
0.3710742 0.2013865 0.7391383
0.4923748 0.1754277 0.7345113
0.6065830 0.1466401 0.7281376
0.7238014 0.1146799 0.7145441
0.7304126 0.0872116 0.5992150
0.7873958 0.0665552 0.5619176
0.1531816 0.4355880 0.7250713
0.2331698 0.4103979 0.7268134
0.3186394 0.3842159 0.7310253
0.3681534 0.3045320 0.7368618
0.4845332 0.2849473 0.7344913
0.5936966 0.2580970 0.7282562
0.7129822 0.2260642 0.7203064
0.7302848 0.1975243 0.6176217
0.7874389 0.1768768 0.5815852
0.1387786 0.5533869 0.7173053
0.2018101 0.5237918 0.7147711
0.2954950 0.5020412 0.7193243
0.4099716 0.4776659 0.7295239
0.4765085 0.4153079 0.7338701
0.5798593 0.3944723 0.7288799
0.6927363 0.3627926 0.7198063
0.7298475 0.3329075 0.6398330
0.7865566 0.3120726 0.6048656
0.0968218 0.6721691 0.7117472
0.1931150 0.6385074 0.7075463
0.2568293 0.6093017 0.7066448
0.3684649 0.5871633 0.7193356
0.5023937 0.5727500 0.7301216
0.5714614 0.5254716 0.7320297
0.6780658 0.4988840 0.7233369
0.7314237 0.4665792 0.6628327
0.7862856 0.4456340 0.6283679
0.0599230 0.7109790 0.6517540
0.1630638 0.7080385 0.6788800
0.2620619 0.7014494 0.7027648
0.3435728 0.6730693 0.7100252
0.4698400 0.6603050 0.7239637
0.5854004 0.6391512 0.7274733
0.6714919 0.6050133 0.7269295
0.7310604 0.5677388 0.6774582
0.7859286 0.5495791 0.6460773
0.0408238 0.7094060 0.5622488
0.1226978 0.7084448 0.5852184
0.2251010 0.7053933 0.6130859
0.3321994 0.7049571 0.6476894
0.4396979 0.7126753 0.6887669
0.5552037 0.7226813 0.7245817
0.6664187 0.6928840 0.7169854
0.7237183 0.6494775 0.6805610
0.7872582 0.6458049 0.6654770
0.0320929 0.7449744 0.5151348
0.1025556 0.7449050 0.5330405
0.2100500 0.7436376 0.5632421
0.3282711 0.7438524 0.6002224
0.4397083 0.7477163 0.6389722
0.5413361 0.7518241 0.6736835
0.6565689 0.7599534 0.7102222
0.7059147 0.7155838 0.6816807
0.7724153 0.7227814 0.6826576
0.0314793 0.8121738 0.5171204
0.0962256 0.8127808 0.5321509
0.2078324 0.8127316 0.5651591
0.3331202 0.8141105 0.6059233
0.4504343 0.8188343 0.6491512
0.5554770 0.8268781 0.6927461
0.6802758 0.8402828 0.7451074
0.7556407 0.8311988 0.7454067
0.7347492 0.7369056 0.6553890
0.1687852 0.2567524 0.8040040
0.1609507 0.1428393 0.8082618
0.2544782 0.1254168 0.8075096
0.3759854 0.1041315 0.8046472
0.5009474 0.0761867 0.7998936
0.6171750 0.0473765 0.7941837
0.7415507 0.0158978 0.7875525
0.7838945 0.0143935 0.7122594
0.7930661 0.0159508 0.6411328
0.1701774 0.3603792 0.7965793
0.2532228 0.3314564 0.7987808
0.2569154 0.2281568 0.8047712
0.3740340 0.2134447 0.8037431
0.4938831 0.1894409 0.8002971
0.6058342 0.1622125 0.7950335
0.7265469 0.1310211 0.7883160
0.7844519 0.1027952 0.7284416
0.7932584 0.0835638 0.6516098
0.1660397 0.4560409 0.7868145
0.2481580 0.4310015 0.7899677
0.3325106 0.4040765 0.7943776
0.3725554 0.3156967 0.8008383
0.4880579 0.2981770 0.7996841
0.5953781 0.2737215 0.7952333
0.7119173 0.2432167 0.7885806
0.7846502 0.2143293 0.7460190
0.7929870 0.1944197 0.6699034
0.1602992 0.5752619 0.7777722
0.2287693 0.5452636 0.7774044
0.3162947 0.5226846 0.7822049
0.4252094 0.4962498 0.7907037
0.4820002 0.4264435 0.7970242
0.5844218 0.4091652 0.7947533
0.6943988 0.3808259 0.7881218
0.7848269 0.3515232 0.7673331
0.7923301 0.3305308 0.6920474
0.1226575 0.6938033 0.7735091
0.2172485 0.6597133 0.7694718
0.2921391 0.6297795 0.7684138
0.3885633 0.6001728 0.7740490
0.5141523 0.5877416 0.7860946
0.5771914 0.5371843 0.7938004
0.6813798 0.5160196 0.7887557
0.7797171 0.4872414 0.7818952
0.7928699 0.4651186 0.7145777
0.0734021 0.7747547 0.7554143
0.1893292 0.7562108 0.7684422
0.2876999 0.7216674 0.7646485
0.3661367 0.6902078 0.7695595
0.4680536 0.6634596 0.7674041
0.6016053 0.6617501 0.7886317
0.6789879 0.6228226 0.7924865
0.7686953 0.5960351 0.7845748
0.7939162 0.5712157 0.7323605
0.0564402 0.7725552 0.6614553
0.1482830 0.7704722 0.6870616
0.2598602 0.7650591 0.7149079
0.3626384 0.7619780 0.7456318
0.4543208 0.7560751 0.7736376
0.5638326 0.7464533 0.7895689
0.6866493 0.7246930 0.7908613
0.7631632 0.6970200 0.7881816
0.7928126 0.6647036 0.7443744
0.0425244 0.7729540 0.5844546
0.1178904 0.7721706 0.6050888
0.2264021 0.7692190 0.6338894
0.3393043 0.7673443 0.6678467
0.4435609 0.7707129 0.7052753
0.5403351 0.7805720 0.7442134
0.6519338 0.7802688 0.7711485
0.7495983 0.7692552 0.7782003
0.7885556 0.7397054 0.7504889
0.0375313 0.8094125 0.5606270
0.1051541 0.8092707 0.5775344
0.2152358 0.8078309 0.6080711
0.3362857 0.8069164 0.6444574
0.4467982 0.8094980 0.6823450
0.5432072 0.8140050 0.7181038
0.6576030 0.8197868 0.7554815
0.7699221 0.8389106 0.8024013
0.7778963 0.7891912 0.7577293
