presets/film/film-negative/look.cube
# Approximate v0 colour conversion; calibrate before claiming visual parity.
LUT_3D_SIZE 5
DOMAIN_MIN 0 0 0
DOMAIN_MAX 1 1 1
0.0147805 0.0115585 0.0101035
0.2077039 0.0552287 0.0240046
0.4445952 0.0787794 0.0125647
0.6535409 0.1035117 0.0116732
0.7923597 0.1222048 0.0121627
0.0157812 0.2066908 0.0360471
0.1888086 0.1737838 0.0309793
0.4164127 0.1959037 0.0361256
0.6362438 0.2224663 0.0274224
0.7868314 0.2497644 0.0298903
0.0008980 0.4630976 0.0484772
0.1820047 0.4220929 0.0098830
0.3987591 0.3735972 0.0127869
0.5910973 0.3670895 0.0150441
0.7553098 0.3939990 0.0170170
0.0015255 0.6790665 0.0675287
0.1622903 0.6443984 0.0114355
0.4301551 0.5887766 0.0110017
0.5876611 0.5327262 0.0000000
0.7245859 0.5252394 0.0004581
0.0038227 0.8445051 0.0850532
0.1455167 0.8131258 0.0121366
0.4277642 0.7539668 0.0161639
0.6392257 0.7215367 0.0069841
0.7281837 0.6623435 0.0000000
0.0521020 0.0708652 0.2173818
0.2117704 0.0363855 0.1856749
0.4438731 0.0329307 0.1169712
0.6539394 0.0387540 0.0809884
0.7959831 0.0478591 0.0560367
0.0252337 0.1997165 0.1555087
0.1935961 0.1930441 0.1913846
0.4357860 0.2022631 0.1698598
0.6411437 0.2054086 0.1454395
0.7865866 0.2142675 0.1281409
0.0025196 0.4612547 0.1877734
0.2057300 0.4565056 0.2294309
0.3868792 0.3914027 0.1752032
0.6008382 0.3854082 0.1563078
0.7704774 0.3913044 0.1327060
0.0045408 0.6826406 0.2252743
0.2217031 0.6783697 0.2611476
0.4141839 0.6060906 0.1929479
0.5900131 0.5519096 0.1709373
0.7365368 0.5372897 0.1455275
0.0079627 0.8503828 0.2506901
0.2292736 0.8446020 0.2815446
0.4182779 0.7846623 0.2089829
0.6253600 0.7275105 0.1889361
0.7314406 0.6803104 0.1681429
0.1092525 0.1521618 0.4837927
0.2409523 0.0641944 0.4766833
0.4634374 0.0195555 0.4100833
0.6368951 0.0240459 0.3142622
0.7820293 0.0303191 0.2763818
0.0614487 0.3378174 0.4629840
0.2612933 0.2999490 0.4709272
0.4614840 0.2218717 0.4440807
0.6363331 0.1629618 0.3216934
0.7827577 0.1384903 0.2659156
0.0105697 0.4444610 0.3281287
0.1926172 0.4461563 0.3816504
0.4254415 0.4497160 0.4443634
0.6319392 0.4558647 0.4268050
0.7880452 0.4581959 0.4062888
0.0120612 0.6623908 0.3471842
0.2046257 0.6696783 0.4119939
0.4657038 0.6828173 0.5047983
0.5850680 0.5817285 0.4124774
0.7555152 0.5995801 0.4195131
0.0167449 0.8325397 0.3818398
0.2180456 0.8426493 0.4513703
0.4834794 0.8489998 0.5305964
0.6180844 0.7596240 0.4467410
0.7336802 0.7126587 0.4203938
0.1456808 0.2130230 0.6652836
0.2492379 0.0991122 0.6620632
0.5028137 0.0428019 0.6498882
0.6421965 0.0173414 0.5277473
0.7833207 0.0210875 0.4656028
0.1342550 0.4090101 0.6485585
0.3012547 0.3588417 0.6518274
0.4804510 0.2672197 0.6515858
0.6420730 0.2055516 0.5590168
0.7824212 0.1582639 0.4737317
0.0593696 0.6333353 0.6216492
0.2269385 0.5810494 0.6267871
0.4890043 0.5497888 0.6574975
0.6419988 0.4689329 0.6030037
0.7829286 0.4279431 0.5302638
0.0244243 0.6526965 0.4577733
0.2017232 0.6512510 0.5065414
0.4372824 0.6594335 0.5838593
0.6520768 0.6658289 0.6396564
0.7904406 0.6569530 0.6119154
0.0254321 0.8170751 0.4687092
0.2056798 0.8208189 0.5217484
0.4631404 0.8346772 0.6233794
0.6818101 0.8434763 0.6923465
0.7408756 0.7368853 0.5902452
0.1687852 0.2567524 0.8040040
0.2544782 0.1254168 0.8075096
0.5009474 0.0761867 0.7998936
0.7415507 0.0158978 0.7875525
0.7930661 0.0159508 0.6411328
0.1660397 0.4560409 0.7868145
0.3325106 0.4040765 0.7943776
0.4880579 0.2981770 0.7996841
0.7119173 0.2432167 0.7885806
0.7929870 0.1944197 0.6699034
0.1226575 0.6938033 0.7735091
0.2921391 0.6297795 0.7684138
0.5141523 0.5877416 0.7860946
0.6813798 0.5160196 0.7887557
0.7928699 0.4651186 0.7145777
0.0564402 0.7725552 0.6614553
0.2598602 0.7650591 0.7149079
0.4543208 0.7560751 0.7736376
0.6866493 0.7246930 0.7908613
0.7928126 0.6647036 0.7443744
0.0375313 0.8094125 0.5606270
0.2152358 0.8078309 0.6080711
0.4467982 0.8094980 0.6823450
0.6576030 0.8197868 0.7554815
0.7778963 0.7891912 0.7577293
