presets/film/film-negative/look.cube
# Approximate v0 colour conversion; calibrate before claiming visual parity.
LUT_3D_SIZE 33
DOMAIN_MIN 0 0 0
DOMAIN_MAX 1 1 1
0.0147805 0.0115585 0.0101035
0.0389070 0.0157416 0.0115695
0.0627841 0.0196652 0.0127359
0.0870230 0.0256372 0.0148098
0.1118529 0.0339980 0.0182187
0.1365954 0.0419890 0.0216128
0.1601986 0.0468369 0.0226092
0.1836825 0.0513722 0.0235444
0.2077039 0.0552287 0.0240046
0.2370034 0.0586510 0.0235148
0.2659039 0.0619069 0.0229179
0.2953385 0.0644142 0.0214000
0.3249183 0.0670089 0.0197587
0.3551530 0.0694197 0.0172258
0.3855057 0.0719644 0.0146779
0.4154701 0.0754149 0.0135880
0.4445952 0.0787794 0.0125647
0.4702564 0.0814922 0.0119378
0.4965859 0.0842018 0.0113308
0.5232110 0.0870955 0.0109399
0.5500283 0.0904059 0.0111163
0.5767999 0.0938157 0.0113565
0.6026641 0.0970994 0.0114403
0.6284476 0.1004591 0.0116411
0.6535409 0.1035117 0.0116732
0.6781102 0.1062325 0.0114656
0.7026713 0.1090524 0.0112980
0.7208112 0.1114238 0.0113717
0.7364325 0.1134677 0.0114413
0.7519893 0.1155047 0.0115162
0.7675038 0.1179980 0.0117263
0.7830100 0.1206267 0.0119936
0.7923597 0.1222048 0.0121627
0.0145221 0.0361254 0.0142683
0.0359884 0.0315497 0.0114458
0.0592598 0.0343174 0.0115931
0.0831476 0.0392120 0.0128879
0.1078680 0.0464237 0.0162634
0.1324208 0.0531911 0.0196167
0.1560403 0.0578917 0.0212120
0.1795046 0.0622887 0.0227266
0.2037141 0.0663241 0.0238170
0.2337025 0.0704799 0.0240072
0.2631403 0.0743994 0.0239449
0.2927991 0.0773072 0.0224253
0.3226020 0.0803092 0.0207977
0.3532059 0.0831252 0.0182189
0.3839255 0.0860745 0.0156252
0.4141118 0.0895455 0.0145519
0.4433451 0.0930416 0.0137650
0.4687410 0.0959630 0.0133561
0.4948309 0.0988314 0.0127836
0.5213183 0.1019138 0.0124291
0.5480741 0.1054852 0.0129694
0.5748474 0.1090314 0.0135396
0.6009383 0.1125458 0.0138146
0.6270030 0.1161070 0.0140380
0.6523881 0.1193654 0.0140680
0.6772168 0.1222898 0.0138787
0.7019754 0.1252821 0.0137262
0.7197436 0.1276146 0.0138310
0.7350433 0.1296249 0.0139274
0.7502785 0.1316282 0.0140291
0.7656751 0.1340389 0.0143021
0.7811397 0.1365897 0.0146520
0.7904641 0.1381208 0.0148710
0.0143173 0.0606456 0.0183432
0.0359808 0.0555336 0.0125042
0.0553502 0.0496203 0.0105696
0.0779720 0.0519522 0.0108492
0.1028063 0.0582127 0.0142129
0.1273677 0.0639501 0.0175414
0.1511540 0.0685651 0.0197385
0.1747013 0.0728951 0.0218240
0.1991117 0.0771257 0.0235862
0.2298569 0.0820466 0.0244472
0.2599782 0.0868567 0.0250536
0.2899937 0.0905426 0.0238077
0.3198785 0.0941059 0.0225948
0.3505459 0.0974405 0.0206718
0.3811189 0.1007975 0.0189677
0.4112652 0.1047400 0.0182893
0.4405174 0.1087049 0.0176358
0.4660892 0.1116228 0.0167180
0.4923695 0.1143572 0.0154932
0.5190064 0.1172984 0.0146522
0.5458403 0.1207933 0.0152947
0.5726901 0.1242622 0.0159670
0.5990325 0.1279227 0.0162376
0.6253515 0.1316666 0.0164268
0.6510507 0.1351389 0.0164557
0.6761449 0.1382693 0.0162848
0.7011481 0.1414465 0.0161448
0.7185508 0.1437425 0.0162807
0.7335338 0.1457210 0.0164040
0.7484520 0.1476924 0.0165326
0.7637140 0.1500201 0.0168629
0.7791402 0.1524948 0.0172953
0.7884414 0.1539800 0.0175641
0.0162295 0.0855060 0.0230107
0.0335534 0.0801515 0.0140986
0.0575642 0.0733611 0.0110968
0.0735646 0.0666623 0.0087703
0.0972017 0.0699889 0.0121756
0.1223204 0.0755210 0.0160996
0.1471673 0.0810490 0.0193160
0.1719858 0.0863814 0.0221926
0.1975467 0.0915785 0.0247165
0.2283262 0.0970773 0.0261885
0.2577192 0.1018611 0.0273013
0.2873420 0.1053383 0.0263398
0.3167674 0.1086933 0.0254642
0.3472770 0.1121519 0.0241762
0.3776779 0.1156251 0.0231098
0.4079805 0.1198855 0.0223114
0.4373964 0.1242031 0.0214996
0.4631552 0.1271693 0.0201192
0.4896396 0.1297792 0.0182470
0.5164436 0.1325756 0.0168510
0.5433676 0.1360014 0.0175962
0.5703048 0.1393995 0.0183711
0.5969015 0.1431925 0.0186508
0.6234826 0.1471232 0.0188067
0.6495191 0.1508182 0.0188346
0.6748850 0.1541578 0.0186825
0.7002262 0.1574597 0.0185437
0.7174942 0.1597368 0.0187222
0.7325084 0.1617611 0.0188961
0.7475947 0.1638359 0.0190880
0.7630537 0.1662295 0.0194490
0.7786734 0.1687929 0.0198879
0.7880863 0.1703476 0.0201481
0.0194968 0.1107256 0.0282888
0.0328665 0.1055102 0.0167712
0.0574632 0.0980151 0.0147468
0.0811015 0.0946427 0.0140849
0.0964049 0.0884708 0.0140743
0.1198872 0.0917279 0.0175237
0.1452753 0.0971171 0.0208380
0.1709730 0.1023760 0.0237041
0.1972194 0.1075471 0.0264136
0.2268544 0.1123836 0.0280454
0.2550559 0.1166088 0.0294968
0.2843307 0.1199118 0.0288193
0.3133476 0.1230676 0.0282426
0.3436738 0.1266534 0.0275952
0.3739310 0.1302625 0.0271641
0.4043791 0.1348230 0.0263229
0.4339776 0.1395062 0.0253564
0.4599318 0.1425885 0.0235765
0.4866337 0.1450848 0.0210619
0.5135448 0.1476189 0.0190345
0.5404174 0.1507987 0.0198439
0.5673336 0.1540367 0.0205868
0.5941812 0.1578790 0.0208236
0.6211441 0.1619735 0.0209365
0.6476979 0.1658758 0.0209819
0.6734677 0.1693411 0.0209077
0.6993399 0.1728677 0.0208726
0.7170381 0.1754436 0.0211552
0.7324242 0.1777260 0.0214192
0.7478821 0.1800589 0.0217012
0.7634182 0.1825908 0.0220591
0.7789574 0.1852491 0.0224531
0.7883214 0.1868610 0.0226861
0.0216148 0.1356130 0.0327009
0.0320212 0.1306185 0.0188353
0.0564725 0.1233561 0.0180525
0.0814899 0.1186302 0.0180985
0.1064993 0.1190821 0.0198140
0.1196737 0.1111641 0.0195906
0.1432695 0.1136785 0.0224218
0.1695201 0.1183502 0.0251931
0.1967387 0.1234311 0.0280487
0.2251948 0.1275417 0.0298307
0.2520937 0.1311329 0.0316036
0.2810103 0.1342776 0.0312344
0.3096743 0.1372577 0.0309431
0.3398185 0.1410326 0.0309195
0.3700427 0.1449574 0.0308794
0.4005083 0.1495684 0.0297921
0.4300140 0.1540035 0.0284038
0.4558604 0.1567802 0.0263566
0.4824609 0.1588333 0.0236597
0.5093054 0.1610025 0.0213901
0.5363992 0.1644138 0.0219923
0.5635326 0.1678812 0.0225268
0.5908771 0.1720032 0.0227727
0.6184309 0.1764473 0.0229352
0.6456371 0.1807054 0.0230631
0.6718347 0.1843970 0.0231093
0.6981495 0.1881499 0.0231926
0.7163799 0.1910283 0.0235642
0.7321402 0.1935707 0.0239182
0.7479719 0.1961634 0.0242903
0.7636421 0.1988526 0.0246607
0.7791047 0.2016081 0.0250103
0.7884221 0.2032785 0.0252165
0.0201325 0.1591702 0.0341194
0.0285736 0.1546395 0.0178315
0.0547603 0.1480561 0.0182523
0.0810604 0.1426961 0.0194493
0.1074781 0.1417057 0.0223982
0.1317822 0.1430266 0.0241614
0.1438996 0.1337590 0.0246222
0.1681614 0.1350211 0.0267808
0.1956953 0.1393499 0.0294961
0.2231266 0.1428210 0.0314752
0.2496628 0.1462818 0.0335538
0.2782555 0.1496792 0.0340142
0.3068224 0.1529619 0.0345552
0.3365624 0.1566501 0.0344246
0.3663522 0.1602586 0.0339071
0.3964421 0.1642283 0.0325877
0.4256611 0.1680182 0.0309587
0.4513623 0.1705208 0.0289166
0.4779679 0.1723516 0.0262384
0.5048073 0.1742250 0.0237478
0.5321315 0.1778746 0.0241455
0.5594907 0.1815775 0.0244739
0.5872934 0.1859636 0.0247028
0.6154440 0.1907624 0.0249155
0.6433453 0.1954028 0.0251203
0.6699764 0.1993255 0.0252871
0.6967227 0.2033079 0.0254911
0.7155079 0.2064761 0.0259452
0.7316448 0.2092807 0.0263895
0.7478498 0.2121300 0.0268464
0.7636377 0.2148645 0.0270959
0.7789920 0.2176399 0.0272788
0.7882673 0.2193488 0.0273984
0.0185425 0.1826766 0.0355059
0.0248497 0.1785447 0.0166625
0.0525376 0.1725381 0.0179581
0.0800451 0.1666688 0.0195121
0.1073112 0.1642922 0.0229850
0.1322636 0.1633873 0.0252845
0.1568455 0.1646105 0.0268304
0.1670516 0.1535432 0.0272726
0.1910991 0.1550371 0.0300518
0.2197685 0.1585178 0.0327800
0.2474545 0.1621883 0.0354766
0.2757375 0.1655592 0.0368569
0.3039470 0.1687645 0.0381440
0.3331206 0.1721472 0.0379825
0.3624813 0.1754384 0.0369896
0.3921706 0.1788165 0.0354106
0.4211142 0.1819722 0.0335427
0.4466292 0.1841611 0.0314795
0.4732492 0.1857779 0.0288198
0.5000614 0.1873033 0.0261432
0.5276158 0.1911718 0.0263083
0.5552084 0.1951160 0.0264327
0.5834184 0.1997493 0.0265677
0.6120188 0.2047632 0.0266132
0.6403635 0.2094658 0.0267024
0.6675678 0.2134352 0.0268220
0.6951048 0.2174888 0.0270057
0.7143099 0.2207480 0.0273245
0.7305389 0.2236349 0.0276265
0.7467744 0.2265609 0.0279225
0.7627409 0.2295683 0.0282035
0.7782597 0.2327089 0.0284803
0.7876339 0.2346380 0.0286567
0.0157812 0.2066908 0.0360471
0.0197425 0.2029594 0.0146176
0.0484201 0.1973190 0.0164733
0.0774147 0.1910032 0.0184940
0.1058525 0.1873915 0.0227148
0.1319644 0.1849227 0.0259640
0.1566981 0.1854619 0.0289520
0.1802670 0.1874715 0.0309239
0.1888086 0.1737838 0.0309793
0.2163906 0.1747892 0.0340382
0.2450277 0.1782524 0.0373021
0.2732015 0.1814986 0.0395549
0.3009871 0.1845225 0.0415691
0.3295639 0.1875956 0.0416157
0.3584834 0.1905454 0.0401441
0.3877324 0.1933753 0.0382688
0.4164127 0.1959037 0.0361256
0.4417710 0.1978914 0.0338831
0.4685086 0.1996825 0.0311876
0.4954491 0.2015933 0.0285578
0.5231998 0.2054200 0.0279348
0.5510320 0.2092592 0.0272880
0.5792287 0.2134744 0.0269683
0.6077113 0.2180499 0.0271690
0.6362438 0.2224663 0.0274224
0.6645541 0.2267507 0.0277393
0.6931979 0.2311179 0.0281210
0.7129062 0.2346100 0.0284460
0.7292162 0.2377122 0.0287235
0.7455316 0.2408529 0.0289948
0.7616707 0.2441068 0.0292867
0.7773567 0.2476141 0.0296573
0.7868314 0.2497644 0.0298903
0.0121014 0.2362459 0.0365262
0.0129985 0.2331615 0.0118592
0.0419550 0.2280621 0.0137769
0.0714766 0.2217609 0.0155187
0.1001124 0.2162877 0.0189130
0.1272865 0.2116484 0.0219268
0.1535073 0.2106435 0.0261647
0.1779462 0.2110728 0.0293771
0.2021806 0.2122802 0.0312681
0.2141903 0.1978790 0.0354039
0.2418577 0.1986743 0.0390386
0.2697622 0.2012045 0.0414791
0.2970296 0.2036944 0.0432838
0.3250622 0.2062491 0.0431861
0.3534113 0.2084111 0.0412975
0.3821629 0.2106787 0.0394992
0.4107836 0.2132569 0.0376365
0.4359660 0.2155018 0.0360037
0.4627901 0.2177950 0.0336120
0.4898128 0.2202153 0.0312915
0.5176267 0.2234778 0.0297990
0.5456474 0.2267683 0.0282904
0.5738223 0.2303238 0.0274221
0.6021682 0.2343672 0.0278135
0.6306978 0.2382821 0.0282614
0.6603728 0.2429590 0.0288208
0.6903827 0.2477170 0.0294459
0.7109378 0.2514946 0.0298236
0.7273520 0.2548649 0.0300713
0.7437699 0.2582730 0.0303127
0.7601096 0.2617887 0.0305848
0.7760049 0.2657501 0.0310709
0.7856019 0.2681719 0.0313706
0.0091127 0.2672914 0.0372942
0.0102761 0.2644293 0.0128756
0.0355168 0.2597581 0.0109729
0.0653838 0.2537997 0.0126890
0.0940686 0.2469203 0.0151592
0.1214773 0.2398290 0.0173120
0.1483419 0.2365243 0.0214170
0.1738158 0.2351492 0.0251244
0.1991711 0.2354782 0.0281403
0.2292584 0.2376955 0.0305573
0.2391884 0.2216573 0.0346647
0.2643194 0.2207347 0.0379840
0.2923165 0.2229629 0.0404885
0.3205097 0.2252750 0.0417428
0.3482202 0.2265677 0.0409699
0.3763276 0.2282221 0.0402303
0.4048375 0.2308934 0.0390279
0.4297670 0.2332735 0.0381046
0.4566682 0.2360596 0.0360223
0.4837694 0.2389877 0.0340166
0.5116059 0.2419208 0.0319181
0.5398202 0.2446501 0.0295310
0.5680445 0.2475145 0.0278356
0.5962791 0.2511585 0.0283422
0.6247806 0.2549069 0.0288829
0.6552717 0.2600226 0.0295749
0.6857923 0.2651800 0.0303439
0.7070212 0.2691258 0.0307636
0.7236040 0.2725793 0.0309289
0.7402685 0.2759963 0.0310924
0.7570080 0.2793841 0.0312559
0.7730882 0.2834766 0.0315869
0.7828083 0.2859517 0.0317775
0.0062087 0.2988771 0.0381300
0.0076425 0.2962166 0.0138875
0.0291518 0.2919859 0.0081366
0.0591444 0.2864754 0.0098250
0.0884237 0.2799015 0.0118040
0.1167420 0.2728275 0.0136567
0.1441283 0.2674682 0.0167034
0.1701565 0.2635711 0.0198808
0.1962075 0.2618986 0.0231760
0.2270734 0.2625987 0.0265752
0.2560425 0.2641872 0.0282665
0.2643885 0.2467957 0.0340530
0.2877509 0.2434593 0.0374203
0.3162706 0.2453220 0.0399339
0.3431627 0.2454363 0.0403369
0.3703984 0.2460856 0.0407955
0.3989181 0.2489256 0.0398482
0.4239199 0.2514519 0.0388850
0.4508338 0.2544924 0.0367006
0.4779987 0.2575219 0.0345259
0.5056669 0.2602969 0.0320637
0.5337858 0.2629164 0.0292919
0.5618456 0.2657277 0.0271472
0.5903121 0.2696142 0.0279168
0.6190509 0.2735537 0.0287865
0.6492902 0.2784235 0.0297486
0.6796536 0.2834300 0.0307806
0.7015907 0.2872250 0.0313973
0.7187212 0.2905524 0.0315561
0.7359336 0.2938417 0.0317131
0.7532277 0.2970935 0.0318684
0.7697686 0.3011804 0.0320846
0.7796800 0.3037415 0.0322131
0.0042476 0.3312340 0.0396921
0.0057443 0.3286081 0.0156508
0.0233990 0.3246404 0.0061229
0.0533220 0.3194153 0.0077108
0.0829252 0.3131213 0.0092340
0.1117860 0.3061169 0.0105505
0.1396136 0.2994845 0.0122652
0.1662008 0.2937412 0.0143217
0.1929102 0.2901684 0.0171241
0.2245203 0.2887199 0.0205723
0.2541354 0.2887974 0.0228375
0.2829184 0.2898751 0.0239679
0.2906290 0.2717396 0.0305867
0.3117627 0.2662668 0.0348053
0.3389313 0.2661234 0.0360142
0.3666931 0.2669976 0.0371584
0.3949091 0.2690150 0.0364134
0.4196033 0.2708081 0.0358220
0.4459152 0.2732461 0.0344255
0.4726919 0.2758688 0.0328843
0.4998351 0.2784635 0.0310578
0.5276644 0.2811327 0.0285983
0.5553744 0.2838346 0.0263079
0.5840701 0.2878962 0.0274013
0.6130412 0.2920176 0.0285991
0.6431146 0.2967121 0.0298495
0.6733213 0.3015654 0.0311435
0.6957709 0.3052158 0.0320274
0.7134483 0.3084177 0.0321797
0.7312080 0.3115803 0.0323302
0.7490079 0.3147317 0.0322855
0.7659927 0.3187709 0.0320444
0.7760231 0.3214488 0.0319292
0.0024164 0.3636806 0.0413467
0.0039578 0.3610873 0.0175054
0.0178265 0.3573822 0.0043333
0.0477624 0.3524888 0.0060191
0.0777060 0.3466074 0.0075149
0.1070819 0.3399354 0.0087931
0.1356617 0.3331845 0.0100467
0.1630618 0.3267819 0.0113414
0.1902450 0.3214731 0.0130396
0.2223018 0.3175352 0.0156111
0.2523920 0.3156543 0.0177852
0.2816558 0.3155724 0.0194741
0.3103235 0.3164111 0.0201669
0.3166454 0.2965399 0.0262632
0.3351146 0.2880710 0.0303505
0.3635256 0.2889763 0.0328056
0.3911633 0.2897715 0.0327850
0.4154429 0.2906493 0.0326018
0.4411157 0.2922897 0.0319367
0.4674433 0.2944143 0.0310483
0.4939928 0.2966442 0.0299653
0.5215008 0.2993180 0.0278252
0.5490050 0.3021077 0.0256340
0.5778901 0.3062011 0.0261543
0.6070748 0.3103447 0.0269054
0.6369892 0.3147675 0.0275382
0.6669467 0.3193911 0.0281334
0.6895715 0.3228440 0.0285526
0.7075260 0.3261577 0.0284045
0.7255042 0.3294933 0.0283060
0.7435063 0.3328504 0.0282567
0.7609430 0.3367895 0.0283044
0.7711167 0.3395072 0.0283916
0.0015193 0.3966543 0.0437570
0.0032471 0.3940990 0.0206750
0.0132714 0.3905609 0.0041817
0.0428594 0.3858716 0.0056515
0.0728215 0.3802753 0.0069140
0.1024617 0.3738599 0.0079027
0.1315463 0.3671000 0.0085907
0.1596183 0.3603726 0.0089316
0.1874555 0.3541179 0.0095810
0.2202423 0.3484644 0.0114416
0.2510243 0.3448849 0.0133473
0.2808434 0.3433016 0.0152043
0.3098316 0.3427905 0.0161608
0.3384656 0.3429063 0.0164635
0.3438893 0.3220461 0.0227157
0.3604640 0.3118321 0.0275329
0.3876418 0.3114955 0.0283034
0.4115693 0.3115818 0.0283962
0.4368484 0.3125979 0.0281191
0.4630503 0.3144082 0.0274721
0.4894514 0.3164108 0.0267416
0.5169521 0.3190541 0.0247312
0.5444012 0.3217049 0.0228481
0.5727313 0.3251194 0.0225990
0.6015380 0.3287254 0.0227607
0.6310007 0.3326500 0.0229600
0.6605642 0.3370628 0.0233936
0.6828984 0.3403583 0.0236913
0.7012994 0.3437237 0.0238178
0.7195113 0.3472420 0.0239607
0.7377475 0.3507835 0.0241532
0.7556454 0.3546544 0.0244537
0.7659615 0.3574100 0.0247432
0.0008392 0.4297322 0.0460607
0.0026385 0.4271782 0.0236585
0.0088990 0.4237658 0.0041493
0.0381774 0.4192867 0.0056112
0.0681184 0.4140111 0.0069057
0.0980305 0.4079096 0.0079667
0.1276050 0.4013373 0.0087722
0.1563335 0.3946210 0.0092804
0.1848734 0.3879504 0.0096010
0.2183888 0.3810764 0.0102072
0.2497196 0.3758555 0.0108739
0.2799848 0.3725990 0.0118600
0.3093448 0.3706035 0.0124703
0.3382608 0.3696566 0.0126507
0.3667560 0.3696935 0.0122397
0.3711773 0.3476384 0.0180812
0.3841270 0.3344044 0.0220582
0.4080206 0.3339546 0.0226902
0.4331530 0.3343805 0.0229890
0.4592287 0.3355440 0.0228213
0.4854733 0.3369969 0.0226601
0.5126349 0.3391875 0.0212628
0.5398379 0.3414931 0.0198970
0.5676335 0.3442615 0.0192050
0.5960286 0.3472814 0.0187822
0.6250186 0.3505796 0.0184249
0.6541694 0.3547544 0.0187022
0.6761947 0.3578784 0.0188790
0.6948463 0.3611475 0.0191410
0.7133617 0.3649710 0.0195770
0.7318674 0.3687871 0.0200259
0.7502129 0.3726508 0.0204997
0.7606405 0.3754524 0.0209406
0.0008980 0.4630976 0.0484772
0.0026922 0.4605634 0.0266176
0.0051988 0.4572719 0.0041401
0.0341413 0.4529763 0.0055986
0.0638113 0.4479217 0.0069111
0.0938246 0.4420544 0.0080180
0.1236980 0.4356610 0.0089061
0.1528771 0.4289863 0.0095331
0.1820047 0.4220929 0.0098830
0.2163337 0.4145213 0.0100530
0.2484299 0.4082605 0.0101354
0.2793065 0.4036765 0.0103015
0.3092049 0.4003233 0.0103400
0.3385306 0.3981363 0.0102027
0.3672416 0.3969780 0.0093285
0.3956421 0.3961379 0.0079588
0.3987591 0.3735972 0.0127869
0.4050008 0.3575879 0.0165877
0.4299086 0.3572135 0.0175277
0.4557190 0.3574543 0.0179110
0.4818060 0.3582132 0.0182326
0.5085533 0.3598526 0.0175253
0.5355310 0.3618817 0.0165732
0.5629522 0.3642931 0.0157322
0.5910973 0.3670895 0.0150441
0.6198517 0.3701519 0.0145133
0.6488314 0.3743628 0.0148298
0.6707610 0.3775194 0.0150466
0.6895129 0.3805946 0.0153193
0.7079695 0.3842398 0.0157447
0.7263930 0.3878402 0.0161633
0.7447826 0.3913938 0.0165754
0.7553098 0.3939990 0.0170170
0.0009501 0.4919498 0.0505331
0.0027412 0.4894129 0.0290814
0.0044184 0.4861628 0.0063348
0.0307368 0.4820151 0.0055801
0.0601596 0.4771696 0.0069068
0.0902924 0.4715299 0.0080500
0.1204201 0.4653432 0.0090021
0.1499601 0.4587983 0.0097208
0.1795759 0.4519006 0.0101898
0.2145560 0.4440052 0.0104455
0.2472286 0.4370168 0.0102949
0.2785720 0.4313742 0.0098076
0.3088687 0.4268399 0.0090107
0.3385397 0.4235274 0.0081090
0.3675231 0.4213201 0.0067340
0.3962830 0.4198569 0.0052586
0.4225196 0.4181143 0.0044055
0.4232898 0.3965041 0.0089907
0.4277279 0.3782076 0.0129503
0.4532056 0.3776698 0.0135537
0.4790903 0.3779761 0.0139851
0.5055829 0.3791340 0.0136254
0.5324029 0.3807989 0.0129342
0.5595488 0.3828580 0.0123111
0.5874170 0.3853691 0.0118690
0.6158813 0.3880387 0.0114611
0.6445478 0.3919015 0.0117042
0.6662535 0.3948183 0.0118635
0.6849160 0.3975093 0.0120419
0.7032885 0.4009452 0.0124444
0.7216317 0.4043440 0.0128391
0.7399441 0.4077021 0.0132263
0.7506434 0.4100276 0.0136085
0.0010033 0.5196037 0.0525955
0.0027990 0.5170795 0.0314611
0.0044860 0.5138782 0.0091039
0.0276841 0.5098662 0.0055845
0.0569649 0.5051512 0.0069169
0.0870755 0.4996871 0.0080849
0.1173173 0.4936673 0.0090797
0.1471089 0.4872348 0.0098633
0.1770973 0.4803791 0.0104238
0.2126522 0.4722983 0.0108113
0.2459419 0.4649075 0.0108175
0.2778887 0.4586276 0.0105230
0.3087587 0.4533238 0.0098901
0.3389240 0.4491669 0.0090641
0.3682919 0.4460761 0.0078004
0.3972989 0.4438139 0.0062031
0.4250924 0.4426756 0.0041672
0.4467451 0.4395629 0.0030270
0.4472610 0.4168881 0.0051409
0.4512749 0.3979609 0.0092210
0.4768427 0.3975631 0.0097837
0.5030214 0.3980992 0.0097450
0.5296166 0.3992781 0.0093347
0.5564915 0.4009178 0.0089381
0.5840443 0.4030724 0.0087484
0.6122316 0.4054528 0.0085806
0.6405468 0.4088155 0.0087223
0.6620184 0.4114707 0.0088312
0.6805462 0.4137790 0.0089122
0.6988266 0.4169944 0.0092957
0.7170829 0.4201830 0.0096700
0.7353622 0.4234302 0.0100915
0.7462426 0.4255406 0.0104329
0.0010546 0.5460706 0.0546064
0.0028543 0.5435505 0.0336671
0.0045499 0.5403908 0.0116730
0.0247764 0.5364948 0.0055843
0.0539850 0.5319168 0.0069237
0.0840816 0.5266352 0.0081174
0.1144342 0.5207901 0.0091529
0.1444609 0.5145018 0.0099980
0.1747689 0.5077475 0.0106436
0.2107606 0.4995606 0.0111346
0.2445485 0.4918585 0.0112548
0.2769826 0.4850093 0.0110790
0.3083304 0.4789917 0.0105293
0.3389878 0.4741149 0.0097111
0.3687824 0.4702629 0.0084929
0.3981390 0.4673202 0.0068829
0.4261369 0.4654935 0.0048547
0.4506591 0.4644572 0.0025872
0.4700054 0.4587093 0.0018003
0.4705453 0.4358063 0.0036662
0.4750952 0.4171470 0.0055942
0.5008988 0.4169202 0.0058576
0.5271996 0.4174785 0.0057517
0.5537981 0.4186346 0.0056651
0.5810194 0.4204211 0.0058801
0.6089620 0.4225611 0.0060373
0.6370418 0.4255863 0.0062356
0.6583937 0.4281180 0.0063616
0.6768606 0.4303482 0.0064374
0.6951214 0.4333257 0.0068182
0.7133236 0.4364251 0.0072457
0.7314972 0.4395084 0.0076625
0.7424446 0.4413578 0.0079090
0.0011099 0.5726402 0.0570977
0.0029188 0.5701198 0.0359369
0.0046258 0.5669881 0.0142109
0.0219283 0.5631755 0.0055946
0.0511066 0.5587042 0.0069370
0.0811367 0.5535724 0.0081480
0.1115435 0.5478793 0.0092126
0.1417521 0.5417320 0.0101064
0.1723385 0.5350955 0.0108258
0.2087621 0.5269061 0.0114216
0.2430573 0.5190604 0.0116670
0.2760410 0.5118934 0.0116366
0.3079234 0.5053815 0.0112486
0.3390292 0.4998026 0.0105260
0.3692178 0.4951782 0.0093614
0.3989114 0.4915094 0.0077436
0.4271490 0.4889716 0.0057071
0.4517973 0.4873803 0.0035418
0.4769384 0.4865213 0.0009874
0.4933341 0.4778047 0.0002532
0.4939346 0.4549420 0.0022549
0.4992188 0.4368111 0.0038538
0.5251254 0.4366431 0.0039202
0.5514046 0.4372567 0.0039174
0.5783383 0.4386044 0.0040463
0.6060503 0.4404136 0.0041099
0.6338956 0.4430243 0.0041673
0.6550864 0.4453260 0.0041842
0.6734289 0.4473841 0.0041643
0.6915857 0.4499967 0.0044348
0.7096413 0.4528610 0.0048399
0.7276765 0.4557245 0.0052330
0.7385439 0.4574476 0.0054646
0.0011658 0.5992106 0.0595932
0.0029842 0.5966939 0.0381643
0.0047042 0.5935990 0.0167010
0.0190940 0.5898719 0.0056081
0.0483032 0.5855117 0.0069567
0.0783008 0.5805278 0.0081874
0.1087588 0.5749851 0.0092826
0.1391050 0.5689783 0.0102214
0.1698844 0.5624519 0.0109982
0.2066572 0.5542909 0.0116789
0.2413916 0.5463425 0.0120232
0.2748636 0.5389079 0.0121048
0.3072655 0.5320088 0.0118626
0.3388854 0.5259248 0.0113208
0.3695484 0.5207056 0.0103831
0.3996411 0.5164059 0.0090404
0.4281731 0.5132029 0.0073048
0.4529816 0.5110534 0.0054258
0.4781904 0.5096175 0.0031756
0.5035785 0.5088481 0.0005876
0.5168135 0.4971158 0.0000000
0.5174430 0.4741636 0.0005534
0.5234412 0.4566213 0.0021233
0.5493360 0.4565212 0.0021443
0.5759076 0.4572860 0.0021898
0.6033316 0.4586549 0.0021684
0.6309088 0.4607927 0.0021010
0.6519085 0.4628094 0.0020133
0.6701041 0.4646549 0.0019012
0.6881509 0.4669042 0.0020406
0.7060429 0.4695020 0.0024264
0.7239248 0.4721186 0.0027984
0.7347040 0.4737009 0.0030165
0.0012476 0.6258166 0.0621943
0.0030531 0.6232996 0.0404120
0.0047866 0.6202337 0.0191634
0.0162576 0.6165738 0.0056240
0.0455059 0.6123081 0.0069753
0.0754632 0.6074537 0.0082192
0.1059611 0.6020549 0.0093405
0.1364316 0.5961921 0.0103205
0.1673917 0.5897930 0.0111543
0.2044813 0.5817123 0.0119217
0.2396261 0.5737557 0.0123734
0.2735399 0.5661517 0.0125629
0.3064170 0.5589248 0.0124345
0.3385123 0.5523728 0.0120231
0.3696208 0.5465793 0.0112480
0.4001166 0.5416797 0.0101237
0.4289880 0.5378726 0.0086552
0.4540151 0.5352061 0.0070399
0.4793614 0.5332205 0.0050729
0.5047990 0.5318963 0.0027746
0.5301639 0.5312600 0.0001979
0.5402243 0.5165643 0.0000000
0.5409400 0.4936165 0.0000000
0.5476427 0.4765573 0.0003094
0.5737839 0.4765842 0.0002965
0.6008552 0.4773829 0.0002008
0.6281235 0.4789722 0.0000260
0.6489028 0.4806576 0.0000000
0.6669365 0.4822722 0.0000000
0.6848840 0.4841961 0.0002016
0.7026327 0.4865527 0.0007429
0.7204002 0.4889704 0.0012495
0.7311238 0.4904518 0.0015374
0.0013589 0.6524379 0.0648425
0.0031246 0.6499257 0.0426682
0.0048734 0.6468930 0.0216107
0.0134194 0.6432989 0.0056476
0.0427551 0.6391249 0.0070047
0.0727152 0.6343916 0.0082643
0.1032125 0.6291166 0.0094060
0.1337596 0.6233841 0.0104182
0.1648548 0.6171075 0.0112973
0.2022150 0.6091220 0.0121358
0.2377315 0.6011898 0.0126812
0.2720453 0.5934812 0.0129720
0.3053844 0.5860475 0.0129668
0.3379629 0.5791736 0.0126990
0.3695460 0.5729554 0.0120945
0.4004668 0.5675368 0.0111634
0.4296796 0.5631297 0.0098967
0.4549379 0.5599363 0.0084894
0.4804552 0.5573947 0.0067570
0.5059901 0.5555132 0.0047105
0.5313663 0.5543355 0.0023912
0.5566408 0.5538506 0.0000000
0.5635355 0.5361230 0.0000000
0.5643536 0.5132348 0.0000000
0.5720265 0.4967712 0.0000000
0.5986806 0.4968611 0.0000000
0.6256150 0.4978535 0.0000000
0.6461647 0.4991674 0.0000000
0.6640253 0.5005099 0.0000000
0.6818747 0.5021025 0.0000791
0.6994895 0.5041838 0.0004481
0.7171377 0.5063563 0.0007855
0.7277956 0.5077023 0.0009725
0.0015255 0.6790665 0.0675287
0.0032157 0.6765571 0.0449139
0.0049664 0.6735528 0.0240270
