styles/series/movie/series-movie-honey-hour/look.cube
# series-movie-honey-hour tuned
LUT_3D_SIZE 5
DOMAIN_MIN 0 0 0
DOMAIN_MAX 1 1 1
0.0000000 0.0000000 0.0000000
0.0743303 0.0012537 0.0000000
0.4709443 0.0268643 0.0009995
0.8781325 0.1096288 0.0000000
1.0000000 0.1411298 0.0515743
0.0000000 0.0870061 0.0000000
0.0875837 0.0907981 0.0291396
0.4244502 0.1922790 0.0579649
0.7632613 0.2308186 0.0461575
1.0000000 0.2280029 0.1006320
0.0965758 0.5329224 0.0308126
0.3583804 0.4937097 0.0851853
0.5400968 0.4855224 0.1118210
0.9615032 0.5881072 0.1507643
1.0000000 0.6576735 0.3079977
0.0732721 0.7705651 0.0149449
0.3124738 0.7607083 0.0190384
0.5741033 0.7530149 0.0435447
1.0000000 0.9658154 0.2467737
1.0000000 0.9092563 0.2810498
0.0767441 0.9999190 0.0098995
0.3102294 0.9984695 0.0112171
0.5637282 0.9922788 0.0149597
0.8343261 1.0000000 0.0366968
1.0000000 0.9869096 0.0676149
0.0309085 0.0406040 0.0976180
0.0016035 0.0019452 0.0068261
0.2412886 0.0324270 0.1078395
0.7557060 0.1188063 0.1929957
1.0000000 0.3294717 0.2971083
0.0126672 0.1127566 0.0556712
0.1137392 0.1068000 0.1093999
0.3085332 0.1430870 0.1304255
0.7555087 0.2819381 0.2342126
0.9689578 0.2654579 0.2302291
0.0739010 0.5025835 0.1613637
0.2768398 0.4901644 0.1834310
0.5306917 0.4711347 0.2149363
0.8732314 0.6078072 0.3904948
1.0000000 0.6299931 0.4313593
0.0485137 0.7872123 0.1739025
0.1865650 0.7713766 0.1198429
0.5132749 0.7514505 0.1632360
0.9007565 0.8893946 0.3993893
1.0000000 0.8558414 0.3746004
0.0464462 0.9999497 0.1641318
0.1366557 1.0000000 0.0626720
0.4522023 0.9963801 0.1010150
0.7821562 1.0000000 0.1641135
1.0000000 1.0000000 0.2113790
0.0532028 0.0855189 0.1764605
0.0149747 0.0000000 0.0823909
0.1996983 0.0261925 0.1883320
0.5562599 0.1280625 0.3724530
0.7617050 0.1196021 0.3929923
0.0274759 0.1334945 0.1419204
0.1383997 0.1542569 0.2057682
0.2602077 0.1301594 0.2458528
0.6049122 0.2636491 0.3961092
0.8164232 0.2638771 0.4095339
0.1854309 0.5547230 0.4301383
0.3868106 0.5843509 0.5038221
0.5384519 0.5043861 0.4614416
0.8033311 0.5796279 0.5656042
1.0000000 0.6094653 0.6100911
0.0705123 0.8073789 0.3561110
0.2282202 0.8058954 0.3763645
0.5990048 0.8437580 0.5131135
1.0000000 1.0000000 0.7736855
1.0000000 0.9132684 0.6982583
0.0533519 0.9972915 0.3302654
0.1301308 0.9987436 0.2873042
0.4108473 0.9996694 0.3509676
0.7630050 1.0000000 0.4303966
1.0000000 1.0000000 0.5218480
0.2055968 0.2528505 0.3808121
0.2366475 0.1944441 0.5202261
0.3627928 0.1761592 0.4927301
0.5320627 0.1800202 0.5148712
0.7211872 0.1872935 0.5626996
0.2409555 0.3903792 0.4882478
0.3469213 0.4178178 0.5876619
0.4031723 0.3186273 0.5450273
0.5412808 0.3000665 0.5216863
0.7263249 0.2995843 0.5552358
0.1466535 0.5944428 0.6138229
0.4362995 0.5587098 0.5817076
0.6579176 0.6729796 0.7439919
0.6760865 0.5114670 0.6443489
0.7788461 0.4478160 0.5822631
0.1612921 0.7988483 0.5652624
0.3516949 0.8080321 0.6298175
0.6940965 0.8734093 0.7949259
1.0000000 1.0000000 1.0000000
1.0000000 0.8657535 0.8307359
0.0659959 0.9911617 0.4899964
0.1813800 0.9913184 0.4994821
0.4421945 0.9967922 0.5873509
0.7966217 1.0000000 0.7286675
1.0000000 1.0000000 0.8392963
0.3506612 0.4658279 0.7874742
0.3067660 0.2898038 0.7756749
0.4279058 0.2674720 0.7338876
0.5571934 0.2539827 0.7044707
0.6889065 0.2340022 0.6876608
0.3091451 0.5943665 0.8289607
0.4210969 0.5297927 0.8074596
0.4443147 0.3951795 0.7603761
0.5667285 0.3719116 0.7124958
0.6937324 0.3484186 0.6857473
0.3150837 0.7573964 0.8689914
0.4644518 0.7021575 0.8514123
0.5792287 0.6375407 0.8092493
0.6100117 0.5223186 0.7544634
0.7081029 0.4744048 0.6916918
0.2723710 0.9261067 0.8560324
0.5172317 0.9431896 0.9374211
0.7160391 0.9293650 0.9737463
0.9527148 0.9739492 1.0000000
0.9534096 0.8050656 0.8722410
0.0915639 0.9791192 0.6681120
0.2566676 0.9772246 0.7142903
0.4895308 0.9778873 0.7898399
0.8622740 1.0000000 0.9671320
1.0000000 1.0000000 1.0000000
