styles/series/movie/series-movie-honey-hour/look.cube
# series-movie-honey-hour tuned
LUT_3D_SIZE 9
DOMAIN_MIN 0 0 0
DOMAIN_MAX 1 1 1
0.0000000 0.0000000 0.0000000
0.0115790 0.0015359 0.0000000
0.0743303 0.0012537 0.0000000
0.2228116 0.0000000 0.0000000
0.4709443 0.0268643 0.0009995
0.6748390 0.0662067 0.0000593
0.8781325 0.1096288 0.0000000
0.9809371 0.1421421 0.0015558
1.0000000 0.1411298 0.0515743
0.0093906 0.0082455 0.0042375
0.0083076 0.0185746 0.0014368
0.0653720 0.0418395 0.0000000
0.1935145 0.0598292 0.0024023
0.3746089 0.1217492 0.0348168
0.5927242 0.1338812 0.0058904
0.6968033 0.1230670 0.0129231
0.8934325 0.1429987 0.0358719
1.0000000 0.1610967 0.0692416
0.0000000 0.0870061 0.0000000
0.1029460 0.1251465 0.0031730
0.0875837 0.0907981 0.0291396
0.4388640 0.2754153 0.0539253
0.4244502 0.1922790 0.0579649
0.6383014 0.2098775 0.0543675
0.7632613 0.2308186 0.0461575
0.9130713 0.2704891 0.0668529
1.0000000 0.2280029 0.1006320
0.1273352 0.3847342 0.0096021
0.2525592 0.3851561 0.0695737
0.2917345 0.3157233 0.0650498
0.3189412 0.3044416 0.1005316
0.5069487 0.3494208 0.1375332
0.6735526 0.3707577 0.1412676
0.8588704 0.3809957 0.0731911
1.0000000 0.4617874 0.2142604
1.0000000 0.4702850 0.1898625
0.0965758 0.5329224 0.0308126
0.2215736 0.5231048 0.0513844
0.3583804 0.4937097 0.0851853
0.4426871 0.4979949 0.0819394
0.5400968 0.4855224 0.1118210
0.7618553 0.5648061 0.1289890
0.9615032 0.5881072 0.1507643
1.0000000 0.6195267 0.2451344
1.0000000 0.6576735 0.3079977
0.0728611 0.6514858 0.0192125
0.1921296 0.6445313 0.0239382
0.3296705 0.6373298 0.0386132
0.4690546 0.6204796 0.0562320
0.5835209 0.6251189 0.0864722
0.7365644 0.6822765 0.1369395
1.0000000 0.8087134 0.1940439
1.0000000 0.8373382 0.2081347
1.0000000 0.7882936 0.3067736
0.0732721 0.7705651 0.0149449
0.1863337 0.7660148 0.0146084
0.3124738 0.7607083 0.0190384
0.4438302 0.7537978 0.0281242
0.5741033 0.7530149 0.0435447
0.7316000 0.7947829 0.0791006
1.0000000 0.9658154 0.2467737
1.0000000 0.9802847 0.2080749
1.0000000 0.9092563 0.2810498
0.0740818 0.8939777 0.0111061
0.1875555 0.8885873 0.0113658
0.3092351 0.8836065 0.0128739
0.4362748 0.8791803 0.0156381
0.5663590 0.8786577 0.0201582
0.7047740 0.8922464 0.0335826
0.8687759 0.9384643 0.0799580
1.0000000 0.9964940 0.2142537
1.0000000 0.9101164 0.1396982
0.0767441 0.9999190 0.0098995
0.1902298 0.9999619 0.0102936
0.3102294 0.9984695 0.0112171
0.4352671 0.9947148 0.0127535
0.5637282 0.9922788 0.0149597
0.6955115 0.9940005 0.0203680
0.8343261 1.0000000 0.0366968
0.9820892 1.0000000 0.0598640
1.0000000 0.9869096 0.0676149
0.0206177 0.0337281 0.0421392
0.0196964 0.0193928 0.0177309
0.0262055 0.0098247 0.0017670
0.1359116 0.0006145 0.0000000
0.3884315 0.0505130 0.0361973
0.7819765 0.1215149 0.0433296
0.9667156 0.1538433 0.0699775
0.9806345 0.1736461 0.1114323
1.0000000 0.2671801 0.1935107
0.0043499 0.0280261 0.0015306
0.0000000 0.0000000 0.0000000
0.0606420 0.0324976 0.0372442
0.1825062 0.0471783 0.0228065
0.3336322 0.1009434 0.0736438
0.5555127 0.1126741 0.0699304
0.7556154 0.1384032 0.0736508
0.8826781 0.1507827 0.0839916
0.9725725 0.1518198 0.0966671
0.0034363 0.0814101 0.0029045
0.1138312 0.1545513 0.0696152
0.0855009 0.1162858 0.0887527
0.3709411 0.2536761 0.1464576
0.3607275 0.1800546 0.1112757
0.5230543 0.1985432 0.1224159
0.7553703 0.2258575 0.1038747
0.8823343 0.2280745 0.0967108
0.9874283 0.2199622 0.0943173
0.0435115 0.3027300 0.0328606
0.1332649 0.3120465 0.0481224
0.2600174 0.3000302 0.0799072
0.2936121 0.2768751 0.1192741
0.4457332 0.3131753 0.1701694
0.6297260 0.3584432 0.1825917
0.8445131 0.4269354 0.2165118
0.9117724 0.4259719 0.2388449
1.0000000 0.4398445 0.2185566
0.0644160 0.5163250 0.0849596
0.1156059 0.5061992 0.0434906
0.2919226 0.5036113 0.0836112
0.4541005 0.5032691 0.1495055
0.5561149 0.5087195 0.1994491
0.7052696 0.5278419 0.2425538
0.8880894 0.6032262 0.3251782
1.0000000 0.6399041 0.3751176
1.0000000 0.6425349 0.3622589
0.0501434 0.6546952 0.0844350
0.0761814 0.6467022 0.0182891
0.2434807 0.6407990 0.0338031
0.4244374 0.6325520 0.0763194
0.5733692 0.6326470 0.1370983
0.7245360 0.6832818 0.2309538
0.9272747 0.7770394 0.4069745
1.0000000 0.8090390 0.4372768
1.0000000 0.7604617 0.3565518
0.0469887 0.7782174 0.0786641
0.0667701 0.7715393 0.0129485
0.2077674 0.7645679 0.0149959
0.3711503 0.7573278 0.0213130
0.5336022 0.7546392 0.0594522
0.7030418 0.7886544 0.1151099
0.9016146 0.8657652 0.2553875
1.0000000 0.8883225 0.3278115
1.0000000 0.8999576 0.2903580
0.0452427 0.9010765 0.0731007
0.0696429 0.8946557 0.0106440
0.2033789 0.8878436 0.0113707
0.3470716 0.8819428 0.0133934
0.5021405 0.8789568 0.0184481
0.6642157 0.8890188 0.0455739
0.8364626 0.9243665 0.0977544
1.0000000 0.9433411 0.1748400
1.0000000 0.9635122 0.2045161
0.0448575 0.9999541 0.0679879
0.0731469 0.9999782 0.0098423
0.2033643 0.9999730 0.0103240
0.3417901 0.9974068 0.0115228
0.4864684 0.9937355 0.0138121
0.6381621 0.9938670 0.0191713
0.7985743 1.0000000 0.0394548
0.9713542 1.0000000 0.0712252
1.0000000 1.0000000 0.0951167
0.0309085 0.0406040 0.0976180
0.0119230 0.0139992 0.0540848
0.0016035 0.0019452 0.0068261
0.0400483 0.0000000 0.0032488
0.2412886 0.0324270 0.1078395
0.5243663 0.0835218 0.1713583
0.7557060 0.1188063 0.1929957
0.8773639 0.1556055 0.2035187
1.0000000 0.3294717 0.2971083
0.0063450 0.0429274 0.0199807
0.0470033 0.0371336 0.0529552
0.1218391 0.0989894 0.1398573
0.1351544 0.0640342 0.0869495
0.3164309 0.0958976 0.1191208
0.5470680 0.1343480 0.1586456
0.7745431 0.1805541 0.2004127
0.8506802 0.1797238 0.1991530
0.9158081 0.1732556 0.1956664
0.0126672 0.1127566 0.0556712
0.1314048 0.1917480 0.1523112
0.1137392 0.1068000 0.1093999
0.2108192 0.1616401 0.1211284
0.3085332 0.1430870 0.1304255
0.5515802 0.2297001 0.2077687
0.7555087 0.2819381 0.2342126
0.8773537 0.2778824 0.2322123
0.9689578 0.2654579 0.2302291
0.0359637 0.2380090 0.0886181
0.1259296 0.2515410 0.1175786
0.1924891 0.2506773 0.1163611
0.2596528 0.2435187 0.1431479
0.4679782 0.3378685 0.2483521
0.5669665 0.2864784 0.1198686
0.8347788 0.4374595 0.3175505
0.9253826 0.4406008 0.3268865
1.0000000 0.4240987 0.3125119
0.0739010 0.5025835 0.1613637
0.1208509 0.4961183 0.1444077
0.2768398 0.4901644 0.1834310
0.4917476 0.5281540 0.1852719
0.5306917 0.4711347 0.2149363
0.7289582 0.5360600 0.2694066
0.8732314 0.6078072 0.3904948
1.0000000 0.6505962 0.4440683
1.0000000 0.6299931 0.4313593
0.0551838 0.6621067 0.1761210
0.0680733 0.6537257 0.1195315
0.2289630 0.6469456 0.1529785
0.4077938 0.6364674 0.1626825
0.5425954 0.6025336 0.1635826
0.7209579 0.6835418 0.2999601
0.9126413 0.7787166 0.4588399
1.0000000 0.8149467 0.5492684
1.0000000 0.7704668 0.4699343
0.0485137 0.7872123 0.1739025
0.0478312 0.7801484 0.1011512
0.1865650 0.7713766 0.1198429
0.3493474 0.7612611 0.1382072
0.5132749 0.7514505 0.1632360
0.6881745 0.7842231 0.2281826
0.9007565 0.8893946 0.3993893
1.0000000 0.8960489 0.4673059
1.0000000 0.8558414 0.3746004
0.0475795 0.9086627 0.1705828
0.0455642 0.9025899 0.0926125
0.1589263 0.8940909 0.0895723
0.3158056 0.8854216 0.1081676
0.4785215 0.8796594 0.1309927
0.6453546 0.8872037 0.1676072
0.8201404 0.9223109 0.2278656
0.9946271 0.9527491 0.3053915
1.0000000 0.9637899 0.2805099
0.0464462 0.9999497 0.1641318
0.0450871 0.9999942 0.0851715
0.1366557 1.0000000 0.0626720
0.2921598 0.9999829 0.0810670
0.4522023 0.9963801 0.1010150
0.6163517 0.9949361 0.1290561
0.7821562 1.0000000 0.1641135
0.9670339 1.0000000 0.1968437
1.0000000 1.0000000 0.2113790
0.0499569 0.0864098 0.1656216
0.0436346 0.0424691 0.1254700
0.0000981 0.0000000 0.0141646
0.0285572 0.0000000 0.0299715
0.2115014 0.0225008 0.1478223
0.4468465 0.0858701 0.2551894
0.6050609 0.1093002 0.2926479
0.7189220 0.1196517 0.3058501
0.8257335 0.1236113 0.3113319
0.0021118 0.0355424 0.0422252
0.0737675 0.0984135 0.1270045
0.0983861 0.0898282 0.1347059
0.1021578 0.0604364 0.1030055
0.2474658 0.0713765 0.1600353
0.5007960 0.1544835 0.2632423
0.6400917 0.1766328 0.2986197
0.7616218 0.2050453 0.3226241
0.8462716 0.1784714 0.3061996
0.0536699 0.1385784 0.1298488
0.1058198 0.1478567 0.1584486
0.1251299 0.1331778 0.1577961
0.1643191 0.1093655 0.1617055
0.2990913 0.1180356 0.1777772
0.5532529 0.2343144 0.2871544
0.6922151 0.2802865 0.3391890
0.8040965 0.2881408 0.3466802
0.9045069 0.2826244 0.3412282
0.0679566 0.2295905 0.1677316
0.1456904 0.2488590 0.2043020
0.2294291 0.3102350 0.2645752
0.2854190 0.2869683 0.2629428
0.4252123 0.3169136 0.2921756
0.5830888 0.3441922 0.3374966
0.7596189 0.4099540 0.3986975
0.8964991 0.4619652 0.4499488
0.9950739 0.4601883 0.4477357
0.1068515 0.4952856 0.2531600
0.1685744 0.4984679 0.2593558
0.2899816 0.4882758 0.2832538
0.4054380 0.4727223 0.2920240
0.6450942 0.6016218 0.4273967
0.6853454 0.5467551 0.4217751
0.8573102 0.5681888 0.3402176
0.9854142 0.6281864 0.5203111
1.0000000 0.6396808 0.5402263
0.0718900 0.6708545 0.2686610
0.1004235 0.6671966 0.2441245
0.2560268 0.6685974 0.2870912
0.4381757 0.6822645 0.3332595
0.6467062 0.7086980 0.4012752
0.8055255 0.7685319 0.4943498
0.9327539 0.8031420 0.5829650
1.0000000 0.8377164 0.6420819
1.0000000 0.8127676 0.6055946
0.0563343 0.7970669 0.2643839
0.0535630 0.7918519 0.2130653
0.1892118 0.7858220 0.2434226
0.3494152 0.7819807 0.2786167
0.5281839 0.7785526 0.3109675
0.7059361 0.8008191 0.3667199
0.9511581 0.9482035 0.5848338
1.0000000 0.9353260 0.6389737
1.0000000 0.9041480 0.5518554
0.0539682 0.9170258 0.2609687
0.0484150 0.9121488 0.2029780
0.1471052 0.9037870 0.2039230
0.2995725 0.8936867 0.2359908
0.4627030 0.8859414 0.2603510
0.6335134 0.8915739 0.2963042
0.8196902 0.9330176 0.3729068
1.0000000 0.9848276 0.4715103
1.0000000 0.9626956 0.3982452
0.0493970 0.9993182 0.2505037
0.0470671 1.0000000 0.1918496
0.1164592 1.0000000 0.1690821
0.2713107 1.0000000 0.2048702
0.4309550 1.0000000 0.2278242
0.5945507 0.9987168 0.2526333
0.7685086 1.0000000 0.2940253
0.9669662 1.0000000 0.3334706
1.0000000 1.0000000 0.3482540
0.0532028 0.0855189 0.1764605
0.0459322 0.0774225 0.1626010
0.0149747 0.0000000 0.0823909
0.0565680 0.0010774 0.0888005
0.1996983 0.0261925 0.1883320
0.4240609 0.1060178 0.3277561
0.5562599 0.1280625 0.3724530
0.6601911 0.1283861 0.3874532
0.7617050 0.1196021 0.3929923
0.0022150 0.0489462 0.0793488
0.0868249 0.1156767 0.1745271
0.0818157 0.0750982 0.1702003
0.1163405 0.0603101 0.1570483
0.2360646 0.0837353 0.2188855
0.4505618 0.1665926 0.3402811
0.5729048 0.1896660 0.3766878
0.6779081 0.1905308 0.3897172
0.7797321 0.1802998 0.3919837
0.0274759 0.1334945 0.1419204
0.1227047 0.1877178 0.2276293
0.1383997 0.1542569 0.2057682
0.1591097 0.1161578 0.2089273
0.2602077 0.1301594 0.2458528
0.4802668 0.2290177 0.3614360
0.6049122 0.2636491 0.3961092
0.7137378 0.2708073 0.4085373
0.8164232 0.2638771 0.4095339
0.0888167 0.3564117 0.3571166
0.2320719 0.3714591 0.3892089
0.1651849 0.1983190 0.2163951
0.2922001 0.2822999 0.3236846
0.3698260 0.2636445 0.3492252
0.5315379 0.3266331 0.4211659
0.6782678 0.3804487 0.4584409
0.8030197 0.4080644 0.4806032
0.8902688 0.3988132 0.4742367
0.1854309 0.5547230 0.4301383
0.2341678 0.5235269 0.4174351
0.3868106 0.5843509 0.5038221
0.5415836 0.6412595 0.5814595
0.5384519 0.5043861 0.4614416
0.6764901 0.5302101 0.5354425
0.8033311 0.5796279 0.5656042
0.9347466 0.6061357 0.5949430
1.0000000 0.6094653 0.6100911
0.1153465 0.6928027 0.3876805
0.1539549 0.6842424 0.3791205
0.3191981 0.6972823 0.4356022
0.5161094 0.7344105 0.5150137
0.7622641 0.8333037 0.6699627
0.8596525 0.8321088 0.6887958
0.9484797 0.8276081 0.7197550
1.0000000 0.8136051 0.6774047
1.0000000 0.7835090 0.6880342
0.0705123 0.8073789 0.3561110
0.0792972 0.8044440 0.3288288
0.2282202 0.8058954 0.3763645
0.4106983 0.8249561 0.4473904
0.5990048 0.8437580 0.5131135
0.7790456 0.8570373 0.5570057
1.0000000 1.0000000 0.7736855
1.0000000 0.9700928 0.7968810
1.0000000 0.9132684 0.6982583
0.0599081 0.9257991 0.3474990
0.0536903 0.9224431 0.3043649
0.1689418 0.9158010 0.3286982
0.3111910 0.9103961 0.3671712
0.4620612 0.9057902 0.4007379
0.6402072 0.9099388 0.4422997
0.8399145 0.9538038 0.5279624
1.0000000 1.0000000 0.6511057
1.0000000 0.9893013 0.5730168
0.0533519 0.9972915 0.3302654
0.0505129 0.9986116 0.2866073
0.1301308 0.9987436 0.2873042
0.2636383 0.9988018 0.3191823
0.4108473 0.9996694 0.3509676
0.5803206 1.0000000 0.3850552
0.7630050 1.0000000 0.4303966
0.9855694 1.0000000 0.4821725
1.0000000 1.0000000 0.5218480
0.0860988 0.1186438 0.2122535
0.1087805 0.1716320 0.2774725
0.1086346 0.0705104 0.2685391
0.1646423 0.0592673 0.2675631
0.2750525 0.0917380 0.3227130
0.4113250 0.1350619 0.3900564
0.5478910 0.1573235 0.4531317
0.6351076 0.1548645 0.4655242
0.7323600 0.1524183 0.4789773
0.0819459 0.1495393 0.2222216
0.1823961 0.2335075 0.3536823
0.1607017 0.1572735 0.3422319
0.2068011 0.1401173 0.3266818
0.3127799 0.1671366 0.3662584
0.4339068 0.1978902 0.4092843
0.5505044 0.2145761 0.4520195
0.6427831 0.2142587 0.4657110
0.7412356 0.2084638 0.4765359
0.1709339 0.2926266 0.3624368
0.2089919 0.3121819 0.4094389
0.2428622 0.2811866 0.3881709
0.2314706 0.2009108 0.3584058
0.3349237 0.2264039 0.3944015
0.4675528 0.2633872 0.4389569
0.5673497 0.2776863 0.4618692
0.6559609 0.2774435 0.4699602
0.7562189 0.2699739 0.4781434
0.1847422 0.4083768 0.4423914
0.3524769 0.5116836 0.5677550
0.4051134 0.5252814 0.5830146
0.3751085 0.3901525 0.4651922
0.4254717 0.3537846 0.4820760
0.5449156 0.3576822 0.5047245
0.6107990 0.3639842 0.4966484
0.6914313 0.3593489 0.4933228
0.7911114 0.3505767 0.4970732
0.3819313 0.7920016 0.7593541
0.2540499 0.5619122 0.5663469
0.3399455 0.5282477 0.5509613
0.5298643 0.6225520 0.6365322
0.6242906 0.5918004 0.6415676
0.6868827 0.5300770 0.6129573
0.7291548 0.5269148 0.6042067
0.7862217 0.4974133 0.5667177
0.8816917 0.4844830 0.5634485
0.2148565 0.7203393 0.5375157
0.2351930 0.6812766 0.5149256
0.3449536 0.6639447 0.5369900
0.4909560 0.6730444 0.5897178
0.7001320 0.7790230 0.7303547
0.7896091 0.7694076 0.7436096
0.9349315 0.8209754 0.8333084
0.9884649 0.7456067 0.7091585
1.0000000 0.6956637 0.6901697
0.0992528 0.8123623 0.4584399
0.1304272 0.8098185 0.4533025
0.2749864 0.8129037 0.5000194
0.4717766 0.8462805 0.5935109
0.7164627 0.9177592 0.7386079
0.8556713 0.9315556 0.7597414
1.0000000 1.0000000 0.9234017
1.0000000 1.0000000 0.9606584
1.0000000 0.9066895 0.7857281
0.0695982 0.9315264 0.4357337
0.0648129 0.9302532 0.4065564
0.2007785 0.9269913 0.4466451
0.3477616 0.9284806 0.4971088
0.5093589 0.9377302 0.5595915
0.6773079 0.9554792 0.6139692
0.8967505 0.9999485 0.6979811
1.0000000 1.0000000 0.8281032
1.0000000 0.9719167 0.7175867
0.0583690 0.9948296 0.4082573
0.0554261 0.9960962 0.3758777
0.1527072 0.9956646 0.3952734
0.2824143 0.9961970 0.4344883
0.4193316 0.9999631 0.4757914
0.5717167 1.0000000 0.5169677
0.7744526 1.0000000 0.5772543
1.0000000 1.0000000 0.6368669
1.0000000 1.0000000 0.6639745
0.2055968 0.2528505 0.3808121
0.2559273 0.2925854 0.5260995
0.2366475 0.1944441 0.5202261
0.2920411 0.1768903 0.4983598
0.3627928 0.1761592 0.4927301
0.4482482 0.1845447 0.5054632
0.5320627 0.1800202 0.5148712
0.6336459 0.1855461 0.5492446
0.7211872 0.1872935 0.5626996
0.1870839 0.2806657 0.4050300
0.2785752 0.3542367 0.5441199
0.2732829 0.2848523 0.5485986
0.3069164 0.2464798 0.5246681
0.3797656 0.2455181 0.5169410
0.4590993 0.2472365 0.5179998
0.5308350 0.2392289 0.5141646
0.6325652 0.2424879 0.5446802
0.7229019 0.2429693 0.5586667
0.2409555 0.3903792 0.4882478
0.2908594 0.4403095 0.5933925
0.3469213 0.4178178 0.5876619
0.3402214 0.3319471 0.5573038
0.4031723 0.3186273 0.5450273
0.4788163 0.3121562 0.5379565
0.5412808 0.3000665 0.5216863
0.6347137 0.3009713 0.5423695
0.7263249 0.2995843 0.5552358
0.1839351 0.4664273 0.5402523
0.3162206 0.5477865 0.6493027
0.3805256 0.5134155 0.6249436
0.4499439 0.4943470 0.6166371
0.4711768 0.4328225 0.6119645
0.5271475 0.4025003 0.5845667
0.5743295 0.3768170 0.5503510
0.6489064 0.3682232 0.5505882
0.7375214 0.3618498 0.5575046
0.1466535 0.5944428 0.6138229
0.3984803 0.5733604 0.6312178
0.4362995 0.5587098 0.5817076
0.5162544 0.6190093 0.6656265
0.6579176 0.6729796 0.7439919
0.6651555 0.5677960 0.7114967
0.6760865 0.5114670 0.6443489
0.7041935 0.4700935 0.5943816
0.7788461 0.4478160 0.5822631
0.3813020 0.7851332 0.7188178
0.4051886 0.7525332 0.7015260
0.5033635 0.7704487 0.7435806
0.5776382 0.7803649 0.7731386
0.6892440 0.7839884 0.7899929
0.8205473 0.7892245 0.8332268
0.8809347 0.7574558 0.8368078
0.8674697 0.6629255 0.7193731
0.9133039 0.6026360 0.6656241
0.1612921 0.7988483 0.5652624
0.2187795 0.7986030 0.5820336
0.3516949 0.8080321 0.6298175
0.5089195 0.8313168 0.6996223
0.6940965 0.8734093 0.7949259
0.8714647 0.9476668 0.9003945
1.0000000 1.0000000 1.0000000
1.0000000 1.0000000 0.9275843
1.0000000 0.8657535 0.8307359
0.0863769 0.9295638 0.5299090
0.1088847 0.9298788 0.5252666
0.2435562 0.9303018 0.5654165
0.3872973 0.9362650 0.6154829
0.5517833 0.9563153 0.6880894
0.7418118 1.0000000 0.7852907
0.9717064 1.0000000 0.8896139
1.0000000 1.0000000 0.9670959
1.0000000 1.0000000 0.9071783
0.0659959 0.9911617 0.4899964
0.0637775 0.9923042 0.4673261
0.1813800 0.9913184 0.4994821
0.3083905 0.9915742 0.5392203
0.4421945 0.9967922 0.5873509
0.5938317 1.0000000 0.6482552
0.7966217 1.0000000 0.7286675
1.0000000 1.0000000 0.8031107
1.0000000 1.0000000 0.8392963
0.3842019 0.4701076 0.6427649
0.2884059 0.3234812 0.6710927
0.2798033 0.2466609 0.6698749
0.3430614 0.2394173 0.6489665
0.4060264 0.2316810 0.6275101
0.4753818 0.2273776 0.6185005
0.5444932 0.2203884 0.6115553
0.6080980 0.2090680 0.6028262
0.7180637 0.2131973 0.6427687
0.2870410 0.4214931 0.6144077
0.3358057 0.4333199 0.6910051
0.3304346 0.3596611 0.6881879
0.3506497 0.3040723 0.6653934
0.4143521 0.2948643 0.6400984
0.4810549 0.2876799 0.6252522
0.5452062 0.2783199 0.6116001
0.6102162 0.2659456 0.6020048
0.7167626 0.2695073 0.6376161
0.3302573 0.5122760 0.6540123
0.3333038 0.5142980 0.7218140
0.3912597 0.4855984 0.7124759
0.3930815 0.4061829 0.6877676
0.4309971 0.3658395 0.6617397
0.4924836 0.3519442 0.6382132
0.5510827 0.3378505 0.6162566
0.6132652 0.3238501 0.6018765
0.7156151 0.3265395 0.6324876
0.3161995 0.6058120 0.7155068
0.3378278 0.5969137 0.7474574
0.3967657 0.5599062 0.7255521
0.4673668 0.5353806 0.7107063
0.4751745 0.4636899 0.6971728
0.5176099 0.4299991 0.6650029
0.5670946 0.4053586 0.6309752
0.6209342 0.3855837 0.6058462
0.7166893 0.3857736 0.6291153
0.3485651 0.6968553 0.7611190
0.3895823 0.6705358 0.7566562
0.4476684 0.6376981 0.7224711
0.5069815 0.6200126 0.7233791
0.5918035 0.6253548 0.7465274
0.5920815 0.5510053 0.7331133
0.6228347 0.5090038 0.6830481
0.6507234 0.4667654 0.6293758
0.7314190 0.4565684 0.6364899
0.4671615 0.7903784 0.8123494
0.5361844 0.8156097 0.8425109
0.5734485 0.8169740 0.8467570
0.6385079 0.8172106 0.8484942
0.7299272 0.8266954 0.8722853
0.8134132 0.8233762 0.8974864
0.7791588 0.7144904 0.8287449
0.7645216 0.6255444 0.7235862
0.8077227 0.5763883 0.6877109
0.2703579 0.8767948 0.7417762
0.3530684 0.8780355 0.7680780
0.4765758 0.8941173 0.8174989
0.6229484 0.9222987 0.8832242
0.7606285 0.9539194 0.9549740
0.9485464 1.0000000 1.0000000
1.0000000 1.0000000 1.0000000
1.0000000 1.0000000 1.0000000
1.0000000 0.8066347 0.8338888
0.1102906 0.9169151 0.6280615
0.1673528 0.9164728 0.6435844
0.2994107 0.9185705 0.6837917
0.4324638 0.9249547 0.7302484
0.5738890 0.9394720 0.7885315
0.7548854 0.9835345 0.8769503
1.0000000 1.0000000 1.0000000
1.0000000 1.0000000 1.0000000
1.0000000 1.0000000 1.0000000
0.0772715 0.9855954 0.5780436
0.0925129 0.9860647 0.5721764
0.2167692 0.9845671 0.6069059
0.3386734 0.9844929 0.6443024
0.4642302 0.9878248 0.6878607
0.6139249 1.0000000 0.7506858
0.8325878 1.0000000 0.8620610
1.0000000 1.0000000 0.9868891
1.0000000 1.0000000 0.9663320
0.3506612 0.4658279 0.7874742
0.3186493 0.3707380 0.7864064
0.3067660 0.2898038 0.7756749
0.3671925 0.2773892 0.7538244
0.4279058 0.2674720 0.7338876
0.4924468 0.2607599 0.7177928
0.5571934 0.2539827 0.7044707
0.6215317 0.2454752 0.6937335
0.6889065 0.2340022 0.6876608
0.3193028 0.5196413 0.8062560
0.3696467 0.4864852 0.8033143
0.3651451 0.4095660 0.7914895
0.3691386 0.3370807 0.7702821
0.4337634 0.3287616 0.7445185
0.4977670 0.3204394 0.7242132
0.5610166 0.3120526 0.7071769
0.6243836 0.3026809 0.6939023
0.6912890 0.2907804 0.6866869
0.3091451 0.5943665 0.8289607
0.3622821 0.5643614 0.8264780
0.4210969 0.5297927 0.8074596
0.4253234 0.4532911 0.7866678
0.4443147 0.3951795 0.7603761
0.5061706 0.3831575 0.7351034
0.5667285 0.3719116 0.7124958
0.6279143 0.3610467 0.6948450
0.6937324 0.3484186 0.6857473
0.2861525 0.6591187 0.8288716
0.3581903 0.6454035 0.8472041
0.4231110 0.6101994 0.8269242
0.4858569 0.5728526 0.7987506
0.4929171 0.4994112 0.7810410
0.5224225 0.4540903 0.7542904
0.5777546 0.4370127 0.7238390
0.6341105 0.4222261 0.6984877
0.6971197 0.4076321 0.6855900
0.3150837 0.7573964 0.8689914
0.3950123 0.7316622 0.8698764
0.4644518 0.7021575 0.8514123
0.5140349 0.6624457 0.8226967
0.5792287 0.6375407 0.8092493
0.5764930 0.5592940 0.7905543
0.6100117 0.5223186 0.7544634
0.6542831 0.4970161 0.7150199
0.7081029 0.4744048 0.6916918
0.4055417 0.8352666 0.8890313
0.5042361 0.8212286 0.8965235
0.5625685 0.8181893 0.9049704
0.6207960 0.8069079 0.9029220
0.6521172 0.7688148 0.8746745
0.7361972 0.7678388 0.8848301
0.7054059 0.6685848 0.8406863
0.7341203 0.6286905 0.7831685
0.7628206 0.5805665 0.7318592
0.2723710 0.9261067 0.8560324
0.3962610 0.9268275 0.8887269
0.5172317 0.9431896 0.9374211
0.6378067 0.9425981 0.9627843
0.7160391 0.9293650 0.9737463
0.8409390 0.9437274 0.9936522
0.9527148 0.9739492 1.0000000
0.9633739 0.9048922 0.9798562
0.9534096 0.8050656 0.8722410
0.1363762 0.9663315 0.7617329
0.2172884 0.9656435 0.7882666
0.3343392 0.9681799 0.8251653
0.4499956 0.9737627 0.8671749
0.5710504 0.9839486 0.9162354
0.7406161 1.0000000 0.9968837
0.9967052 1.0000000 1.0000000
1.0000000 1.0000000 1.0000000
1.0000000 1.0000000 1.0000000
0.0915639 0.9791192 0.6681120
0.1368375 0.9783157 0.6801220
0.2566676 0.9772246 0.7142903
0.3711682 0.9766469 0.7499592
0.4895308 0.9778873 0.7898399
0.6377015 0.9978068 0.8488047
0.8622740 1.0000000 0.9671320
1.0000000 1.0000000 1.0000000
1.0000000 1.0000000 1.0000000
