styles/series/movie/series-movie-honey-hour/look.cube
# series-movie-honey-hour tuned
LUT_3D_SIZE 33
DOMAIN_MIN 0 0 0
DOMAIN_MAX 1 1 1
0.0000000 0.0000000 0.0000000
0.0086462 0.0034849 0.0000000
0.0000000 0.0000000 0.0000000
0.0059867 0.0000000 0.0000000
0.0115790 0.0015359 0.0000000
0.0287093 0.0122234 0.0000000
0.0437783 0.0068835 0.0000000
0.0562171 0.0012637 0.0000000
0.0743303 0.0012537 0.0000000
0.0928147 0.0015063 0.0000000
0.1329945 0.0004388 0.0000000
0.1797896 0.0000000 0.0000000
0.2228116 0.0000000 0.0000000
0.2685360 0.0000000 0.0000000
0.3345529 0.0007224 0.0000000
0.4091585 0.0035896 0.0000000
0.4709443 0.0268643 0.0009995
0.5355024 0.0384450 0.0013690
0.5598974 0.0478673 0.0013484
0.6156841 0.0585096 0.0007729
0.6748390 0.0662067 0.0000593
0.7322310 0.0795574 0.0000000
0.7758409 0.0911134 0.0000000
0.8452385 0.1010689 0.0000000
0.8781325 0.1096288 0.0000000
0.9189812 0.1221858 0.0000000
0.9348171 0.1325415 0.0000000
0.9631579 0.1435664 0.0000000
0.9809371 0.1421421 0.0015558
1.0000000 0.1458856 0.0205541
1.0000000 0.1533947 0.0402230
1.0000000 0.1396747 0.0484529
1.0000000 0.1411298 0.0515743
0.0140918 0.0213566 0.0000000
0.0067781 0.0199711 0.0000000
0.0014331 0.0052612 0.0000000
0.0243436 0.0146556 0.0000000
0.0266069 0.0199215 0.0000000
0.0380828 0.0333631 0.0000000
0.0593896 0.0423111 0.0000000
0.0676242 0.0332150 0.0000000
0.0771850 0.0263622 0.0000000
0.0921224 0.0152632 0.0000000
0.1234227 0.0009021 0.0000000
0.1533762 0.0009378 0.0000000
0.1929394 0.0012066 0.0000000
0.2338512 0.0036199 0.0000000
0.2800760 0.0169482 0.0000000
0.3240552 0.0299456 0.0009249
0.3576749 0.0394149 0.0039863
0.3892669 0.0431225 0.0097884
0.4317087 0.0467867 0.0077275
0.4692516 0.0476598 0.0029215
0.5167825 0.0510833 0.0008462
0.5857954 0.0626054 0.0001275
0.6496079 0.0732456 0.0000000
0.7233034 0.0887756 0.0000000
0.7735937 0.0991401 0.0000000
0.8163112 0.1090355 0.0000000
0.8530384 0.1195084 0.0026115
0.9005177 0.1297174 0.0072030
0.9359763 0.1261003 0.0132605
0.9835520 0.1257141 0.0229232
1.0000000 0.1314640 0.0360540
1.0000000 0.1344493 0.0464383
1.0000000 0.1420959 0.0539100
0.0292436 0.0230227 0.0064455
0.0144758 0.0270870 0.0019498
0.0316775 0.0344070 0.0062011
0.0582278 0.0452749 0.0176677
0.0781652 0.0594758 0.0175998
0.0832007 0.0555555 0.0045675
0.0731051 0.0489214 0.0144695
0.0678032 0.0411510 0.0121653
0.0684453 0.0264015 0.0000000
0.0913413 0.0227395 0.0000000
0.1078096 0.0192079 0.0000000
0.1386436 0.0202745 0.0000000
0.1802038 0.0314294 0.0000000
0.2271999 0.0453522 0.0002699
0.2736038 0.0589721 0.0013844
0.3070114 0.0667975 0.0083149
0.3279798 0.0682250 0.0161362
0.3554079 0.0675595 0.0176870
0.3986189 0.0669263 0.0126816
0.4348760 0.0628819 0.0045855
0.4827714 0.0640046 0.0011734
0.5387161 0.0698860 0.0005730
0.5883349 0.0763881 0.0000717
0.6574226 0.0937391 0.0031689
0.7124505 0.1078612 0.0094745
0.7637475 0.1195943 0.0149215
0.8111842 0.1288132 0.0202178
0.8663109 0.1358627 0.0228414
0.9087176 0.1326398 0.0246681
0.9600695 0.1282673 0.0301533
1.0000000 0.1334470 0.0394354
1.0000000 0.1397701 0.0488500
1.0000000 0.1492742 0.0579661
0.0359743 0.0307149 0.0156853
0.0248132 0.0269482 0.0106077
0.0394931 0.0362361 0.0157997
0.0687751 0.0531175 0.0248959
0.0810146 0.0604677 0.0089820
0.1063421 0.0487854 0.0024793
0.0896979 0.0323765 0.0018566
0.0274506 0.0228978 0.0014447
0.0273585 0.0231787 0.0002416
0.0870198 0.0420980 0.0000000
0.1201982 0.0349965 0.0000000
0.1404092 0.0355795 0.0000000
0.1830819 0.0467410 0.0005521
0.2317247 0.0671661 0.0016788
0.2851403 0.0897046 0.0120521
0.3206115 0.0991688 0.0228137
0.3440497 0.0994520 0.0256522
0.3745577 0.0956902 0.0227018
0.4151543 0.0911853 0.0146468
0.4621277 0.0892860 0.0050103
0.5160795 0.0907918 0.0012568
0.5512748 0.0862787 0.0007070
0.5771671 0.0802238 0.0001191
0.6259557 0.0925225 0.0027191
0.6807235 0.1101276 0.0132110
0.7316069 0.1248664 0.0214646
0.7851845 0.1329021 0.0272906
0.8444848 0.1387520 0.0300896
0.8931023 0.1354630 0.0301623
0.9477097 0.1321075 0.0337980
1.0000000 0.1368995 0.0412700
1.0000000 0.1427561 0.0502903
1.0000000 0.1528303 0.0600144
0.0093906 0.0082455 0.0042375
0.0031126 0.0042909 0.0033029
0.0038979 0.0018920 0.0039180
0.0176564 0.0113290 0.0041653
0.0083076 0.0185746 0.0014368
0.0582203 0.0360767 0.0005295
0.0845583 0.0297512 0.0000000
0.0812148 0.0273437 0.0000000
0.0653720 0.0418395 0.0000000
0.0570190 0.0419337 0.0004696
0.1167349 0.0508368 0.0010255
0.1645154 0.0558385 0.0015241
0.1935145 0.0598292 0.0024023
0.2265636 0.0724348 0.0038495
0.2781407 0.0911091 0.0188643
0.3350121 0.1108390 0.0290896
0.3746089 0.1217492 0.0348168
0.4175031 0.1277926 0.0340226
0.4705184 0.1306931 0.0257109
0.5315901 0.1335047 0.0142791
0.5927242 0.1338812 0.0058904
0.6304024 0.1274509 0.0004750
0.6464595 0.1185995 0.0000000
0.6555961 0.1115131 0.0032148
0.6968033 0.1230670 0.0129231
0.7442925 0.1360164 0.0223599
0.7889711 0.1408477 0.0297799
0.8446345 0.1470459 0.0356643
0.8934325 0.1429987 0.0358719
0.9461650 0.1393255 0.0388795
1.0000000 0.1402112 0.0440110
1.0000000 0.1468637 0.0543315
1.0000000 0.1610967 0.0692416
0.0006745 0.0004376 0.0000000
0.0007904 0.0156828 0.0000200
0.0010243 0.0023637 0.0001187
0.0024789 0.0018724 0.0002806
0.0079728 0.0110656 0.0002426
0.0033004 0.0112506 0.0000000
0.0522978 0.0373365 0.0000000
0.0834696 0.0363972 0.0000000
0.1318510 0.0586170 0.0000000
0.1375630 0.0827359 0.0003726
0.1273037 0.0864022 0.0197632
0.1582475 0.0836379 0.0270877
0.2108395 0.0829949 0.0159319
0.2375517 0.0863557 0.0230074
0.2733327 0.0878663 0.0215310
0.3152053 0.1011015 0.0281352
0.3718597 0.1224589 0.0407038
0.4293050 0.1433287 0.0477987
0.5039206 0.1614839 0.0442358
0.5645156 0.1704338 0.0357815
0.6332117 0.1763476 0.0256120
0.6943560 0.1795095 0.0160864
0.7180784 0.1740007 0.0113799
0.7165536 0.1607791 0.0111904
0.7424069 0.1588804 0.0149762
0.7760275 0.1579287 0.0215219
0.8096578 0.1576697 0.0299188
0.8543376 0.1604237 0.0384903
0.8986069 0.1565040 0.0411128
0.9506441 0.1508754 0.0439491
1.0000000 0.1475747 0.0464315
1.0000000 0.1531926 0.0576983
1.0000000 0.1711809 0.0776966
0.0000000 0.0010170 0.0000000
0.0005939 0.0348663 0.0000000
0.0012427 0.0219667 0.0000000
0.0105543 0.0235184 0.0002920
0.0258202 0.0309676 0.0006927
0.0327760 0.0418423 0.0009112
0.0325911 0.0400947 0.0005699
0.1049682 0.0789258 0.0000000
0.2363286 0.1454345 0.0000000
0.2814322 0.1582230 0.0016562
0.2776636 0.1671437 0.0114347
0.2150630 0.1499089 0.0756774
0.2221912 0.1300072 0.0716977
0.2663817 0.1317045 0.0650619
0.2978291 0.1164129 0.0421590
0.3357660 0.1134071 0.0292804
0.3626639 0.1242503 0.0416220
0.4041258 0.1334377 0.0445606
0.4729606 0.1576301 0.0547128
0.5396770 0.1842709 0.0638333
0.6052921 0.1999415 0.0600689
0.6651869 0.2049362 0.0464246
0.7163341 0.2062522 0.0307603
0.7444105 0.2022000 0.0224185
0.7705709 0.1981057 0.0209837
0.7986502 0.1866480 0.0214066
0.8279580 0.1834279 0.0299318
0.8627548 0.1813743 0.0392974
0.9024210 0.1745591 0.0435133
0.9521486 0.1684535 0.0475584
1.0000000 0.1625423 0.0500066
1.0000000 0.1640892 0.0609071
1.0000000 0.1771569 0.0795899
0.0000000 0.0348870 0.0000000
0.0008892 0.0802646 0.0000000
0.0056195 0.0661321 0.0000000
0.0227190 0.0491471 0.0009384
0.0412375 0.0483011 0.0017257
0.0487498 0.0569730 0.0017597
0.0525018 0.0604690 0.0062607
0.0596846 0.0617606 0.0032947
0.2036697 0.1695410 0.0188952
0.3358961 0.2225914 0.0041355
0.3753059 0.2202961 0.0042270
0.3790767 0.2356131 0.0363341
0.2912833 0.2036893 0.1138204
0.2641376 0.1614034 0.1087406
0.3241952 0.1602170 0.0767054
0.3666596 0.1521401 0.0493948
0.4176852 0.1542106 0.0414586
0.4509150 0.1508469 0.0334068
0.4915471 0.1615999 0.0449611
0.5363691 0.1802555 0.0592014
0.5807614 0.2011461 0.0712686
0.6228072 0.2105811 0.0717813
0.6731896 0.2104958 0.0520243
0.7262313 0.2155458 0.0371422
0.7710542 0.2209136 0.0290079
0.8137041 0.2200680 0.0243138
0.8453917 0.2167403 0.0290700
0.8724355 0.2153417 0.0426346
0.9068631 0.2125746 0.0513447
0.9548996 0.2053758 0.0573851
1.0000000 0.1926029 0.0600743
1.0000000 0.1848393 0.0668365
1.0000000 0.1918913 0.0871114
0.0000000 0.0870061 0.0000000
0.0312128 0.1462504 0.0000000
0.0586650 0.1407548 0.0004051
0.0790228 0.1285514 0.0016472
0.1029460 0.1251465 0.0031730
0.1152867 0.1271303 0.0077398
0.1065903 0.1165074 0.0155193
0.0849884 0.0945747 0.0212016
0.0875837 0.0907981 0.0291396
0.2069370 0.1858745 0.0504252
0.4019828 0.2884762 0.0365442
0.4647149 0.2873593 0.0040101
0.4388640 0.2754153 0.0539253
0.3159789 0.2095030 0.1225207
0.3174580 0.1869844 0.1112904
0.3763910 0.1927979 0.0786366
0.4244502 0.1922790 0.0579649
0.4816785 0.1934070 0.0482038
0.5366412 0.1905257 0.0428665
0.5982863 0.1951216 0.0399096
0.6383014 0.2098775 0.0543675
0.6499707 0.2181177 0.0627137
0.6720647 0.2184434 0.0558847
0.7143796 0.2249633 0.0541195
0.7632613 0.2308186 0.0461575
0.8163532 0.2370321 0.0314972
0.8527434 0.2404049 0.0287208
0.8803894 0.2592750 0.0513907
0.9130713 0.2704891 0.0668529
0.9539481 0.2653804 0.0767576
1.0000000 0.2406777 0.0769048
1.0000000 0.2255035 0.0806509
1.0000000 0.2280029 0.1006320
0.0008372 0.1615420 0.0000000
0.0851868 0.2227245 0.0000000
0.1121756 0.2193503 0.0011597
0.1362736 0.2107181 0.0025157
0.1747553 0.2187450 0.0159036
0.2186107 0.2374585 0.0419812
0.2342924 0.2415656 0.0562544
0.2028170 0.2076828 0.0513943
0.1652462 0.1645778 0.0432532
0.1551542 0.1522169 0.0479234
0.2196534 0.2019457 0.0656530
0.4119639 0.3071124 0.0683144
0.5518854 0.3474279 0.0287922
0.5587280 0.3416766 0.0286790
0.3804502 0.2324013 0.0959421
0.3858030 0.2184822 0.0958227
0.4263836 0.2292823 0.0902559
0.4682837 0.2278102 0.0684176
0.5230777 0.2307268 0.0623067
0.5845527 0.2319431 0.0615917
0.6777688 0.2348050 0.0517950
0.7373774 0.2473005 0.0529792
0.7384580 0.2514198 0.0570880
0.7545177 0.2562321 0.0725094
0.7911216 0.2590103 0.0708133
0.8415588 0.2653639 0.0562209
0.8852330 0.2770863 0.0516500
0.9012943 0.2984580 0.0714033
0.9148713 0.3128213 0.0873577
0.9507228 0.3226394 0.1018266
0.9933504 0.3092080 0.1047474
1.0000000 0.2928943 0.1071410
1.0000000 0.2838221 0.1199665
0.0495607 0.2405457 0.0000000
0.1356004 0.2987729 0.0008896
0.1611264 0.2957661 0.0018583
0.1800772 0.2823905 0.0138895
0.2084093 0.2779172 0.0320177
0.2374469 0.2731453 0.0490502
0.2601624 0.2696158 0.0642850
0.2746811 0.2776181 0.0697460
0.2734999 0.2713313 0.0611488
0.2540308 0.2464408 0.0539355
0.2271178 0.2197337 0.0633095
0.2312086 0.2152330 0.0682035
0.3792294 0.2940726 0.0758398
0.5122813 0.3616090 0.0917714
0.5584595 0.3860004 0.1261591
0.4562309 0.2774338 0.0791113
0.4601361 0.2621426 0.0829774
0.4976919 0.2753704 0.1017696
0.5315024 0.2714531 0.0906078
0.5861164 0.2725546 0.0755929
0.6564610 0.2739290 0.0661080
0.7570744 0.2815377 0.0536993
0.8140851 0.2880652 0.0429868
0.8343950 0.2941901 0.0691009
0.8456555 0.3066713 0.1006691
0.8963105 0.3209862 0.0933147
0.9317720 0.3215903 0.0754509
0.9334986 0.3382119 0.1017636
0.9316617 0.3499677 0.1185578
0.9557768 0.3629973 0.1289206
0.9902312 0.3658169 0.1313787
1.0000000 0.3722678 0.1430159
1.0000000 0.3725880 0.1590118
0.0966266 0.3169632 0.0002449
0.1680076 0.3619800 0.0117544
0.1920335 0.3580314 0.0255686
0.2120948 0.3459685 0.0385852
0.2311395 0.3306325 0.0510249
0.2519887 0.3156963 0.0606014
0.2560391 0.2903532 0.0647405
0.2628243 0.2753793 0.0643637
0.2929923 0.2924496 0.0554331
0.3134542 0.3061819 0.0489642
0.3125766 0.2985346 0.0555540
0.2846974 0.2724506 0.0780691
0.2772792 0.2577109 0.0920006
0.3692810 0.3099797 0.1167122
0.4468515 0.3491250 0.1476359
0.4194885 0.2990703 0.1608078
0.4870931 0.2967336 0.0821427
0.5412581 0.3101863 0.0734983
0.5740715 0.3237983 0.1103826
0.5943833 0.3131401 0.1059865
0.6599134 0.3079388 0.0798690
0.7578545 0.3185930 0.0561323
0.7975007 0.3307461 0.0603528
0.8557227 0.3348222 0.0470468
0.9257353 0.3418429 0.0402019
1.0000000 0.4120205 0.0877047
1.0000000 0.4070345 0.0841811
1.0000000 0.4118561 0.1319810
0.9731099 0.4018330 0.1628080
0.9742505 0.4042903 0.1658422
0.9962628 0.4081989 0.1581147
1.0000000 0.4156192 0.1619553
1.0000000 0.4382297 0.1852758
0.1273352 0.3847342 0.0096021
0.1853730 0.4161217 0.0354831
0.2084629 0.4099932 0.0447061
0.2304718 0.3992682 0.0565137
0.2525592 0.3851561 0.0695737
0.2704949 0.3664632 0.0777032
0.2797245 0.3466933 0.0819746
0.2846143 0.3251212 0.0804953
0.2917345 0.3157233 0.0650498
0.3171717 0.3293231 0.0424782
0.3307546 0.3302100 0.0436559
0.3316909 0.3257516 0.0707326
0.3189412 0.3044416 0.1005316
0.3343184 0.3016807 0.1219444
0.3662595 0.3148208 0.1401381
0.4098970 0.3237925 0.1627738
0.5069487 0.3494208 0.1375332
0.5614853 0.3503985 0.0946728
0.6198732 0.3664617 0.0999149
0.6457366 0.3714671 0.1202768
0.6735526 0.3707577 0.1412676
0.7280910 0.3684607 0.1131494
0.7693555 0.3668548 0.0961633
0.8132375 0.3843676 0.1033707
0.8588704 0.3809957 0.0731911
0.9502026 0.3980756 0.0613059
1.0000000 0.4972369 0.1173378
1.0000000 0.5088613 0.1806788
1.0000000 0.4617874 0.2142604
1.0000000 0.4568603 0.2127164
1.0000000 0.4564222 0.1933676
1.0000000 0.4591797 0.1856586
1.0000000 0.4702850 0.1898625
0.1361312 0.4358345 0.0308461
0.1807604 0.4531066 0.0455917
0.2069998 0.4488883 0.0524015
0.2327361 0.4403692 0.0637372
0.2602042 0.4303021 0.0776514
0.2840982 0.4171305 0.0886313
0.3009860 0.4016808 0.0928464
0.3142055 0.3896484 0.0955460
0.3232042 0.3797936 0.0970646
0.3371620 0.3793126 0.0846449
0.3479623 0.3741393 0.0667271
0.3542240 0.3668245 0.0742361
0.3598133 0.3601294 0.1034506
0.3716006 0.3499519 0.1254110
0.4044414 0.3571319 0.1350756
0.4474885 0.3686537 0.1346421
0.5073661 0.3799359 0.1247569
0.5701140 0.3964326 0.1282824
0.6349792 0.4088862 0.1204633
0.7038199 0.4249962 0.1119004
0.7413502 0.4289418 0.1253973
0.7879966 0.4402723 0.1502951
0.8144705 0.4201828 0.1069146
0.8481799 0.4191673 0.0913672
0.8657916 0.4309274 0.1194938
0.9104897 0.4264152 0.0946761
1.0000000 0.4636488 0.0923128
1.0000000 0.5598085 0.2212716
1.0000000 0.5126438 0.2430303
1.0000000 0.5106312 0.2420546
1.0000000 0.5154148 0.2291484
1.0000000 0.5124581 0.2200280
1.0000000 0.5105395 0.2103082
0.1269807 0.4736885 0.0369941
0.1626854 0.4799594 0.0460935
0.1928598 0.4778708 0.0532023
0.2208513 0.4710757 0.0617377
0.2506642 0.4633890 0.0729952
0.2795065 0.4541952 0.0840295
0.3087241 0.4470584 0.0934875
0.3272195 0.4335469 0.0949224
0.3406071 0.4246166 0.0950668
0.3577823 0.4273659 0.1017071
0.3744672 0.4289078 0.1039255
0.3883340 0.4219749 0.0990295
0.3943637 0.4118169 0.1090219
0.4104911 0.4061324 0.1207475
0.4367323 0.3999108 0.1285198
0.4694742 0.4041453 0.1299131
0.5082813 0.4091822 0.1176665
0.5620306 0.4212118 0.1119569
0.6293463 0.4418334 0.1173433
0.7160736 0.4608943 0.0931659
0.7758091 0.4717879 0.0853649
0.8198269 0.4861829 0.1355679
0.8656469 0.4839005 0.1327610
0.9041962 0.4720319 0.0903023
0.9138399 0.4768768 0.1020777
0.9143920 0.4884169 0.1390164
0.9688013 0.4868447 0.1029027
1.0000000 0.4988911 0.1264305
1.0000000 0.5362041 0.2324342
1.0000000 0.5604908 0.2525148
1.0000000 0.5715799 0.2542932
1.0000000 0.5673050 0.2507908
1.0000000 0.5636596 0.2460210
0.1115103 0.5048237 0.0352784
0.1422181 0.5051339 0.0399575
0.1722120 0.5021880 0.0452505
0.2026434 0.4975199 0.0527163
0.2346544 0.4921186 0.0620151
0.2681499 0.4871939 0.0728022
0.3044210 0.4823924 0.0851484
0.3293960 0.4682351 0.0889043
0.3465448 0.4533380 0.0884119
0.3648748 0.4537135 0.0807771
0.3816381 0.4602793 0.0833032
0.4133932 0.4708859 0.0949442
0.4345964 0.4692217 0.1025967
0.4425677 0.4560110 0.1043592
0.4682658 0.4499460 0.1051738
0.4858051 0.4401842 0.1144045
0.5213332 0.4452588 0.1284553
0.5688796 0.4544697 0.1112978
0.6294230 0.4798807 0.1075277
0.7074256 0.5040358 0.1098839
0.7768023 0.5240268 0.1140874
0.8259224 0.5265996 0.1147555
0.8714074 0.5339080 0.1388224
0.9137729 0.5351452 0.1457440
0.9528252 0.5300469 0.1079714
0.9467145 0.5449612 0.1635961
0.9479525 0.5574337 0.2191953
0.9982819 0.5561676 0.1860802
1.0000000 0.5676256 0.1944576
1.0000000 0.6033880 0.2518538
1.0000000 0.6181558 0.2773771
1.0000000 0.6180743 0.2751382
1.0000000 0.6183049 0.2833617
0.0965758 0.5329224 0.0308126
0.1264347 0.5317540 0.0337010
0.1569927 0.5295723 0.0381052
0.1888657 0.5269660 0.0440514
0.2215736 0.5231048 0.0513844
0.2565977 0.5198950 0.0605661
0.2952990 0.5169867 0.0721176
0.3281034 0.5058997 0.0785187
0.3583804 0.4937097 0.0851853
0.3991466 0.5026522 0.0910256
0.4168250 0.5081180 0.0823109
0.4231825 0.4986738 0.0788180
0.4426871 0.4979949 0.0819394
0.4740093 0.5075625 0.0859529
0.4983883 0.5033587 0.0857469
0.5265497 0.4997084 0.0958272
0.5400968 0.4855224 0.1118210
0.5792405 0.4908029 0.1256175
0.6282672 0.5079709 0.1188561
0.6918786 0.5357593 0.1107262
0.7618553 0.5648061 0.1289890
0.8303117 0.5793194 0.1256500
0.8737002 0.5792899 0.1296589
0.9196896 0.5856868 0.1420983
0.9615032 0.5881072 0.1507643
1.0000000 0.5953150 0.1221823
1.0000000 0.6121783 0.2047923
1.0000000 0.6152692 0.2650936
1.0000000 0.6195267 0.2451344
1.0000000 0.6348373 0.2593750
1.0000000 0.6482945 0.2875973
1.0000000 0.6547675 0.2907069
1.0000000 0.6576735 0.3079977
0.0857861 0.5624122 0.0260784
0.1152763 0.5599120 0.0284565
0.1460314 0.5582103 0.0320067
0.1776686 0.5561137 0.0363949
0.2107305 0.5535579 0.0419660
0.2451618 0.5506675 0.0485259
0.2821281 0.5473789 0.0565849
0.3195417 0.5423454 0.0637504
0.3562145 0.5361338 0.0700185
0.4069487 0.5475325 0.0795548
0.4642390 0.5765504 0.0894108
0.4816311 0.5752801 0.0791340
0.4802454 0.5512816 0.0710806
0.5022302 0.5489760 0.0776233
0.5221116 0.5445205 0.0795545
0.5450128 0.5432815 0.0968229
0.5728168 0.5398656 0.1011567
0.5907072 0.5293613 0.1167144
0.6336687 0.5439333 0.1393845
0.6894969 0.5720232 0.1410299
0.7582613 0.6061144 0.1502305
0.8192189 0.6237097 0.1638439
0.8751318 0.6329089 0.1543321
0.9122929 0.6339427 0.1597752
0.9535845 0.6368644 0.1724426
1.0000000 0.6458584 0.1508311
1.0000000 0.6652682 0.0944547
1.0000000 0.6761514 0.1429644
1.0000000 0.6806336 0.2765040
1.0000000 0.6754122 0.2824761
1.0000000 0.6759458 0.2869932
1.0000000 0.6803747 0.2902934
1.0000000 0.6833603 0.3131901
0.0790961 0.5908747 0.0232748
0.1079481 0.5890119 0.0245975
0.1382362 0.5875055 0.0269854
0.1694705 0.5856980 0.0300862
0.2023100 0.5837814 0.0343408
0.2362272 0.5814491 0.0392227
0.2720078 0.5786833 0.0452899
0.3083293 0.5748491 0.0511847
0.3461190 0.5701493 0.0572375
0.3854266 0.5678668 0.0600483
0.4337092 0.5778427 0.0635188
0.4731495 0.5885960 0.0650275
0.5001896 0.5898585 0.0735417
0.5159569 0.5793825 0.0761615
0.5446811 0.5859242 0.0878586
0.5693278 0.5869873 0.0998293
0.5933253 0.5813699 0.1028930
0.6167746 0.5783971 0.1032025
0.6370550 0.5730659 0.1208031
0.6883905 0.6005589 0.1350313
0.7595803 0.6433568 0.1414746
0.8213225 0.6688745 0.1559969
0.8702446 0.6779206 0.1775957
0.9078579 0.6826744 0.1973842
0.9516800 0.6852182 0.2028958
1.0000000 0.6970756 0.1870725
1.0000000 0.7261119 0.1499063
1.0000000 0.7379754 0.0991883
1.0000000 0.7402589 0.1742734
1.0000000 0.7291442 0.2292028
1.0000000 0.7166669 0.2685297
1.0000000 0.7131917 0.2967184
1.0000000 0.7107020 0.3154146
0.0755034 0.6211607 0.0216729
0.1034565 0.6190087 0.0217143
0.1331774 0.6174187 0.0231503
0.1639827 0.6157506 0.0252774
0.1963272 0.6141528 0.0284195
0.2296729 0.6122986 0.0320409
0.2646305 0.6103258 0.0367449
0.3004195 0.6079372 0.0415399
0.3378734 0.6052795 0.0472254
0.3756732 0.6021940 0.0515366
0.4146515 0.6004376 0.0555780
0.4476406 0.5961414 0.0557628
0.4733945 0.5875775 0.0566024
0.4973798 0.5825087 0.0610976
0.5214800 0.5828410 0.0670373
0.5633715 0.6019498 0.0892925
0.5992405 0.6146629 0.1043471
0.6202891 0.6108184 0.1086511
0.6554561 0.6198226 0.1113291
0.6844917 0.6266130 0.1260637
0.7445049 0.6607405 0.1373251
0.8198137 0.7031995 0.1471241
0.8796242 0.7257420 0.1702452
0.9292254 0.7361836 0.1951196
0.9818616 0.7458080 0.2038154
1.0000000 0.7606058 0.1892251
1.0000000 0.7784333 0.1472776
1.0000000 0.7890303 0.1527146
1.0000000 0.7981978 0.1895546
1.0000000 0.7801346 0.1660063
1.0000000 0.7606377 0.2364242
1.0000000 0.7540824 0.3115458
1.0000000 0.7450523 0.3186592
0.0728611 0.6514858 0.0192125
0.1007194 0.6492189 0.0192947
0.1300249 0.6475725 0.0202173
0.1603916 0.6459853 0.0216589
0.1921296 0.6445313 0.0239382
0.2248019 0.6429375 0.0265882
0.2588123 0.6412943 0.0301553
0.2936333 0.6394379 0.0338947
0.3296705 0.6373298 0.0386132
0.3661434 0.6349108 0.0430168
0.4032880 0.6321396 0.0485823
0.4385993 0.6279317 0.0527523
0.4690546 0.6204796 0.0562320
0.4943323 0.6114508 0.0594164
0.5123115 0.6017417 0.0599364
0.5432109 0.6074956 0.0698782
0.5835209 0.6251189 0.0864722
0.6190416 0.6376217 0.1006743
0.6537522 0.6483731 0.1081380
0.7001262 0.6705088 0.1194296
0.7365644 0.6822765 0.1369395
0.7956572 0.7136638 0.1585653
0.8746019 0.7579668 0.1895465
0.9478871 0.7896369 0.2092289
1.0000000 0.8087134 0.1940439
1.0000000 0.8341617 0.1607917
1.0000000 0.8468677 0.1392867
1.0000000 0.8410387 0.2524623
1.0000000 0.8373382 0.2081347
1.0000000 0.8223663 0.1600346
1.0000000 0.8062607 0.2150632
1.0000000 0.8013156 0.3131401
1.0000000 0.7882936 0.3067736
0.0720214 0.6813653 0.0179268
0.0993620 0.6793351 0.0174946
0.1282483 0.6777429 0.0179731
0.1582003 0.6762459 0.0188995
0.1893862 0.6748951 0.0205225
0.2214499 0.6734792 0.0224295
0.2546586 0.6720490 0.0251032
0.2886092 0.6704899 0.0279600
0.3235096 0.6687250 0.0317309
0.3588349 0.6667475 0.0355500
0.3944809 0.6642856 0.0405369
0.4293151 0.6608724 0.0452997
0.4600527 0.6542682 0.0496699
0.4894578 0.6483682 0.0544893
0.5139720 0.6409392 0.0573748
0.5417605 0.6402593 0.0626592
0.5757086 0.6493191 0.0719017
0.6146902 0.6634104 0.0844680
0.6517974 0.6751900 0.0942765
0.6988869 0.6978081 0.1091321
0.7514041 0.7251420 0.1277069
0.7880639 0.7354604 0.1534035
0.8474586 0.7630241 0.1815395
0.9360783 0.8112890 0.2091800
1.0000000 0.8577857 0.2071332
1.0000000 0.9040388 0.1408553
1.0000000 0.9077704 0.1605242
1.0000000 0.8900073 0.2617269
1.0000000 0.8730058 0.1916724
1.0000000 0.8554712 0.1567518
1.0000000 0.8473191 0.2364241
1.0000000 0.8459960 0.2693119
1.0000000 0.8318172 0.2828157
0.0714956 0.7113981 0.0164859
0.0988215 0.7094995 0.0160426
0.1274077 0.7079695 0.0162663
0.1569893 0.7065411 0.0168423
0.1876463 0.7052287 0.0179747
0.2191220 0.7038855 0.0193246
0.2515484 0.7025164 0.0212887
0.2846360 0.7010526 0.0234069
0.3184241 0.6993852 0.0262619
0.3525683 0.6975264 0.0292300
0.3868124 0.6951962 0.0330771
0.4206681 0.6923232 0.0370346
0.4528375 0.6881090 0.0414857
0.4846805 0.6847621 0.0466650
0.5146398 0.6814628 0.0519232
0.5453601 0.6812751 0.0574204
0.5768831 0.6846702 0.0636232
0.6126016 0.6934266 0.0713668
0.6506051 0.7053485 0.0806214
0.6946588 0.7229907 0.0947552
0.7461929 0.7488102 0.1119412
0.8008198 0.7763450 0.1359494
0.8415924 0.7870523 0.1657925
0.9070667 0.8182769 0.1999021
1.0000000 0.8819986 0.2323287
1.0000000 0.9521377 0.2275413
1.0000000 0.9562979 0.2245359
1.0000000 0.9306038 0.2267750
1.0000000 0.9196576 0.1804027
1.0000000 0.9008067 0.1911741
1.0000000 0.8774531 0.3100174
1.0000000 0.8717034 0.2533704
1.0000000 0.8575639 0.2667839
0.0717336 0.7412682 0.0154094
0.0989535 0.7396231 0.0149176
0.1272488 0.7382194 0.0149494
0.1565056 0.7368748 0.0152790
0.1867327 0.7356104 0.0160570
0.2177370 0.7343322 0.0170060
0.2495679 0.7330369 0.0184534
0.2820100 0.7316779 0.0200210
0.3150430 0.7301623 0.0221854
0.3484248 0.7285063 0.0244681
0.3819332 0.7265282 0.0274475
0.4153212 0.7242970 0.0306190
0.4480868 0.7216928 0.0344704
0.4805036 0.7194612 0.0387097
0.5121358 0.7179095 0.0433162
0.5441258 0.7181012 0.0484177
0.5761812 0.7200809 0.0538161
0.6109003 0.7259945 0.0599825
0.6488034 0.7360949 0.0678317
0.6914969 0.7510305 0.0798723
0.7390628 0.7714820 0.0950524
0.7952037 0.8004324 0.1175979
0.8539446 0.8304879 0.1479610
0.9063958 0.8522324 0.1880864
0.9948938 0.9087846 0.2427101
1.0000000 0.9962090 0.3078560
1.0000000 0.9669524 0.2682058
1.0000000 0.9622122 0.2125017
1.0000000 0.9585318 0.1829717
1.0000000 0.9382033 0.2154776
1.0000000 0.9011366 0.3159678
1.0000000 0.8814593 0.2736261
1.0000000 0.8780879 0.2711220
0.0732721 0.7705651 0.0149449
0.0996334 0.7697006 0.0140894
0.1275315 0.7685202 0.0139310
0.1564818 0.7672592 0.0140846
0.1863337 0.7660148 0.0146084
