presets/experimental/experimental-portrait/look.cube
# Approximate v0 colour conversion; calibrate before claiming visual parity.
LUT_3D_SIZE 9
DOMAIN_MIN 0 0 0
DOMAIN_MAX 1 1 1
0.0208947 0.0208947 0.0208947
0.0572053 0.0572053 0.0572053
0.0952723 0.0952723 0.0952723
0.1393668 0.1393668 0.1393668
0.1844170 0.1844170 0.1844170
0.2120673 0.2120673 0.2120673
0.2351383 0.2351383 0.2351383
0.2577388 0.2577388 0.2577388
0.2801363 0.2801363 0.2801363
0.0969323 0.0969323 0.0969323
0.0955960 0.0955960 0.0955960
0.1225959 0.1225959 0.1225959
0.1545053 0.1545053 0.1545053
0.1872317 0.1872317 0.1872317
0.2074161 0.2074161 0.2074161
0.2241710 0.2241710 0.2241710
0.2405513 0.2405513 0.2405513
0.2567179 0.2567179 0.2567179
0.1788610 0.1788610 0.1788610
0.1692614 0.1692614 0.1692614
0.1762093 0.1762093 0.1762093
0.2038727 0.2038727 0.2038727
0.2387359 0.2387359 0.2387359
0.2599315 0.2599315 0.2599315
0.2775363 0.2775363 0.2775363
0.2946428 0.2946428 0.2946428
0.3114264 0.3114264 0.3114264
0.2591482 0.2591482 0.2591482
0.2485456 0.2485456 0.2485456
0.2446837 0.2446837 0.2446837
0.2579894 0.2579894 0.2579894
0.2830750 0.2830750 0.2830750
0.3050301 0.3050301 0.3050301
0.3232465 0.3232465 0.3232465
0.3410513 0.3410513 0.3410513
0.3585091 0.3585091 0.3585091
0.3389270 0.3389270 0.3389270
0.3281371 0.3281371 0.3281371
0.3215371 0.3215371 0.3215371
0.3231307 0.3231307 0.3231307
0.3394830 0.3394830 0.3394830
0.3485068 0.3485068 0.3485068
0.3665817 0.3665817 0.3665817
0.3846231 0.3846231 0.3846231
0.4025349 0.4025349 0.4025349
0.3815666 0.3815666 0.3815666
0.3707287 0.3707287 0.3707287
0.3636085 0.3636085 0.3636085
0.3620746 0.3620746 0.3620746
0.3718788 0.3718788 0.3718788
0.3851775 0.3851775 0.3851775
0.3900717 0.3900717 0.3900717
0.4077388 0.4077388 0.4077388
0.4255577 0.4255577 0.4255577
0.4242194 0.4242194 0.4242194
0.4133589 0.4133589 0.4133589
0.4059387 0.4059387 0.4059387
0.4024700 0.4024700 0.4024700
0.4074649 0.4074649 0.4074649
0.4166577 0.4166577 0.4166577
0.4282508 0.4282508 0.4282508
0.4313492 0.4313492 0.4313492
0.4487287 0.4487287 0.4487287
0.4662360 0.4662360 0.4662360
0.4552641 0.4552641 0.4552641
0.4476516 0.4476516 0.4476516
0.4430274 0.4430274 0.4430274
0.4446219 0.4446219 0.4446219
0.4505991 0.4505991 0.4505991
0.4590545 0.4590545 0.4590545
0.4705617 0.4705617 0.4705617
0.4720455 0.4720455 0.4720455
0.5043525 0.5043525 0.5043525
0.4932628 0.4932628 0.4932628
0.4855113 0.4855113 0.4855113
0.4802218 0.4802218 0.4802218
0.4796080 0.4796080 0.4796080
0.4832977 0.4832977 0.4832977
0.4894094 0.4894094 0.4894094
0.4983099 0.4983099 0.4983099
0.5100275 0.5100275 0.5100275
0.0768792 0.0768792 0.0768792
0.0598960 0.0598960 0.0598960
0.1051305 0.1051305 0.1051305
0.1618603 0.1618603 0.1618603
0.2123545 0.2123545 0.2123545
0.2417621 0.2417621 0.2417621
0.2658129 0.2658129 0.2658129
0.2892262 0.2892262 0.2892262
0.3123365 0.3123365 0.3123365
0.1543060 0.1543060 0.1543060
0.1862709 0.1862709 0.1862709
0.1788053 0.1788053 0.1788053
0.2295272 0.2295272 0.2295272
0.2749813 0.2749813 0.2749813
0.3019145 0.3019145 0.3019145
0.3243614 0.3243614 0.3243614
0.3464947 0.3464947 0.3464947
0.3685072 0.3685072 0.3685072
0.2734583 0.2734583 0.2734583
0.2217752 0.2217752 0.2217752
0.1742972 0.1742972 0.1742972
0.2249072 0.2249072 0.2249072
0.2699872 0.2699872 0.2699872
0.2940680 0.2940680 0.2940680
0.3129778 0.3129778 0.3129778
0.3308557 0.3308557 0.3308557
0.3481398 0.3481398 0.3481398
0.3419141 0.3419141 0.3419141
0.2978741 0.2978741 0.2978741
0.2622100 0.2622100 0.2622100
0.2605550 0.2605550 0.2605550
0.2983705 0.2983705 0.2983705
0.3257402 0.3257402 0.3257402
0.3472789 0.3472789 0.3472789
0.3674172 0.3674172 0.3674172
0.3866124 0.3866124 0.3866124
0.4133587 0.4133587 0.4133587
0.3753688 0.3753688 0.3753688
0.3487883 0.3487883 0.3487883
0.3335427 0.3335427 0.3335427
0.3434890 0.3434890 0.3434890
0.3587958 0.3587958 0.3587958
0.3805700 0.3805700 0.3805700
0.4018374 0.4018374 0.4018374
0.4223441 0.4223441 0.4223441
0.4525941 0.4525941 0.4525941
0.4169699 0.4169699 0.4169699
0.3937379 0.3937379 0.3937379
0.3775479 0.3775479 0.3775479
0.3771217 0.3771217 0.3771217
0.3898555 0.3898555 0.3898555
0.4001156 0.4001156 0.4001156
0.4207718 0.4207718 0.4207718
0.4413695 0.4413695 0.4413695
0.4923420 0.4923420 0.4923420
0.4586390 0.4586390 0.4586390
0.4381746 0.4381746 0.4381746
0.4220740 0.4220740 0.4220740
0.4158814 0.4158814 0.4158814
0.4216439 0.4216439 0.4216439
0.4332000 0.4332000 0.4332000
0.4411944 0.4411944 0.4411944
0.4610795 0.4610795 0.4610795
0.5317711 0.5317711 0.5317711
0.4999411 0.4999411 0.4999411
0.4814943 0.4814943 0.4814943
0.4657885 0.4657885 0.4657885
0.4566116 0.4566116 0.4566116
0.4577416 0.4577416 0.4577416
0.4641716 0.4641716 0.4641716
0.4757274 0.4757274 0.4757274
0.4817575 0.4817575 0.4817575
0.5677837 0.5677837 0.5677837
0.5379102 0.5379102 0.5379102
0.5205210 0.5205210 0.5205210
0.5052056 0.5052056 0.5052056
0.4946504 0.4946504 0.4946504
0.4930104 0.4930104 0.4930104
0.4960429 0.4960429 0.4960429
0.5035050 0.5035050 0.5035050
0.5154388 0.5154388 0.5154388
0.1470102 0.1470102 0.1470102
0.1226425 0.1226425 0.1226425
0.1183073 0.1183073 0.1183073
0.1520222 0.1520222 0.1520222
0.2050567 0.2050567 0.2050567
0.2387945 0.2387945 0.2387945
0.2665991 0.2665991 0.2665991
0.2934657 0.2934657 0.2934657
0.3195984 0.3195984 0.3195984
0.2210950 0.2210950 0.2210950
0.3220487 0.3220487 0.3220487
0.2417662 0.2417662 0.2417662
0.2598844 0.2598844 0.2598844
0.3068252 0.3068252 0.3068252
0.3349646 0.3349646 0.3349646
0.3581415 0.3581415 0.3581415
0.3808013 0.3808013 0.3808013
0.4032764 0.4032764 0.4032764
0.3091098 0.3091098 0.3091098
0.3616858 0.3616858 0.3616858
0.4079664 0.4079664 0.4079664
0.3228410 0.3228410 0.3228410
0.3666101 0.3666101 0.3666101
0.3905870 0.3905870 0.3905870
0.4115031 0.4115031 0.4115031
0.4326505 0.4326505 0.4326505
0.4540348 0.4540348 0.4540348
0.4560977 0.4560977 0.4560977
0.4427596 0.4427596 0.4427596
0.3544645 0.3544645 0.3544645
0.2583281 0.2583281 0.2583281
0.3291790 0.3291790 0.3291790
0.3640081 0.3640081 0.3640081
0.3879211 0.3879211 0.3879211
0.4090236 0.4090236 0.4090236
0.4285357 0.4285357 0.4285357
0.5242736 0.5242736 0.5242736
0.4911527 0.4911527 0.4911527
0.4212782 0.4212782 0.4212782
0.3592243 0.3592243 0.3592243
0.3454511 0.3454511 0.3454511
0.3707687 0.3707687 0.3707687
0.3997615 0.3997615 0.3997615
0.4259862 0.4259862 0.4259862
0.4498108 0.4498108 0.4498108
0.5592587 0.5592587 0.5592587
0.5226229 0.5226229 0.5226229
0.4607156 0.4607156 0.4607156
0.4098915 0.4098915 0.4098915
0.3842109 0.3842109 0.3842109
0.3931194 0.3931194 0.3931194
0.4106888 0.4106888 0.4106888
0.4366452 0.4366452 0.4366452
0.4615603 0.4615603 0.4615603
0.5946131 0.5946131 0.5946131
0.5567163 0.5567163 0.5567163
0.5009811 0.5009811 0.5009811
0.4581389 0.4581389 0.4581389
0.4300845 0.4300845 0.4300845
0.4268737 0.4268737 0.4268737
0.4370250 0.4370250 0.4370250
0.4510036 0.4510036 0.4510036
0.4750120 0.4750120 0.4750120
0.6299912 0.6299912 0.6299912
0.5919422 0.5919422 0.5919422
0.5409460 0.5409460 0.5409460
0.5039493 0.5039493 0.5039493
0.4765895 0.4765895 0.4765895
0.4677822 0.4677822 0.4677822
0.4692152 0.4692152 0.4692152
0.4799253 0.4799253 0.4799253
0.4910647 0.4910647 0.4910647
0.6626426 0.6626426 0.6626426
0.6249428 0.6249428 0.6249428
0.5773866 0.5773866 0.5773866
0.5446125 0.5446125 0.5446125
0.5184564 0.5184564 0.5184564
0.5074712 0.5074712 0.5074712
0.5043073 0.5043073 0.5043073
0.5083617 0.5083617 0.5083617
0.5199605 0.5199605 0.5199605
0.1967805 0.1967805 0.1967805
0.1721755 0.1721755 0.1721755
0.1581220 0.1581220 0.1581220
0.1623785 0.1623785 0.1623785
0.1959792 0.1959792 0.1959792
0.2266003 0.2266003 0.2266003
0.2544169 0.2544169 0.2544169
0.2826314 0.2826314 0.2826314
0.3108729 0.3108729 0.3108729
0.2480896 0.2480896 0.2480896
0.3381387 0.3381387 0.3381387
0.3003631 0.3003631 0.3003631
0.2780334 0.2780334 0.2780334
0.3041051 0.3041051 0.3041051
0.3334787 0.3334787 0.3334787
0.3597061 0.3597061 0.3597061
0.3856699 0.3856699 0.3856699
0.4111523 0.4111523 0.4111523
0.3599777 0.3599777 0.3599777
0.4191892 0.4191892 0.4191892
0.4678309 0.4678309 0.4678309
0.3959022 0.3959022 0.3959022
0.4068424 0.4068424 0.4068424
0.4308167 0.4308167 0.4308167
0.4514447 0.4514447 0.4514447
0.4720650 0.4720650 0.4720650
0.4928716 0.4928716 0.4928716
0.4316261 0.4316261 0.4316261
0.4841112 0.4841112 0.4841112
0.5369690 0.5369690 0.5369690
0.6065339 0.6065339 0.6065339
0.4381758 0.4381758 0.4381758
0.4619858 0.4619858 0.4619858
0.4822956 0.4822956 0.4822956
0.5034870 0.5034870 0.5034870
0.5249296 0.5249296 0.5249296
0.6077242 0.6077242 0.6077242
0.6108573 0.6108573 0.6108573
0.5809442 0.5809442 0.5809442
0.4634173 0.4634173 0.4634173
0.3450692 0.3450692 0.3450692
0.3896974 0.3896974 0.3896974
0.4308872 0.4308872 0.4308872
0.4621941 0.4621941 0.4621941
0.4882702 0.4882702 0.4882702
0.6501019 0.6501019 0.6501019
0.6385977 0.6385977 0.6385977
0.5941644 0.5941644 0.5941644
0.4959418 0.4959418 0.4959418
0.4020490 0.4020490 0.4020490
0.3938608 0.3938608 0.3938608
0.4225673 0.4225673 0.4225673
0.4579209 0.4579209 0.4579209
0.4882599 0.4882599 0.4882599
0.6870071 0.6870071 0.6870071
0.6665174 0.6665174 0.6665174
0.6162556 0.6162556 0.6162556
0.5332086 0.5332086 0.5332086
0.4591231 0.4591231 0.4591231
0.4348841 0.4348841 0.4348841
0.4389763 0.4389763 0.4389763
0.4606358 0.4606358 0.4606358
0.4910350 0.4910350 0.4910350
0.7219710 0.7219710 0.7219710
0.6953834 0.6953834 0.6953834
0.6437630 0.6437630 0.6437630
0.5716443 0.5716443 0.5716443
0.5106832 0.5106832 0.5106832
0.4846868 0.4846868 0.4846868
0.4751610 0.4751610 0.4751610
0.4825825 0.4825825 0.4825825
0.4994667 0.4994667 0.4994667
0.7533098 0.7533098 0.7533098
0.7230230 0.7230230 0.7230230
0.6718342 0.6718342 0.6718342
0.6072009 0.6072009 0.6072009
0.5547971 0.5547971 0.5547971
0.5300165 0.5300165 0.5300165
0.5161153 0.5161153 0.5161153
0.5131619 0.5131619 0.5131619
0.5231134 0.5231134 0.5231134
0.2493136 0.2493136 0.2493136
0.2239404 0.2239404 0.2239404
0.2056333 0.2056333 0.2056333
0.2000288 0.2000288 0.2000288
0.2077524 0.2077524 0.2077524
0.2236222 0.2236222 0.2236222
0.2454714 0.2454714 0.2454714
0.2701100 0.2701100 0.2701100
0.2966407 0.2966407 0.2966407
0.2751777 0.2751777 0.2751777
0.3799850 0.3799850 0.3799850
0.3500225 0.3500225 0.3500225
0.3250987 0.3250987 0.3250987
0.3202410 0.3202410 0.3202410
0.3323386 0.3323386 0.3323386
0.3530419 0.3530419 0.3530419
0.3773001 0.3773001 0.3773001
0.4034504 0.4034504 0.4034504
0.3993702 0.3993702 0.3993702
0.4458428 0.4458428 0.4458428
0.5123162 0.5123162 0.5123162
0.4694966 0.4694966 0.4694966
0.4358017 0.4358017 0.4358017
0.4403715 0.4403715 0.4403715
0.4592386 0.4592386 0.4592386
0.4822671 0.4822671 0.4822671
0.5065358 0.5065358 0.5065358
0.4900448 0.4900448 0.4900448
0.5473349 0.5473349 0.5473349
0.6039614 0.6039614 0.6039614
0.6426818 0.6426818 0.6426818
0.5501598 0.5501598 0.5501598
0.5345666 0.5345666 0.5345666
0.5491632 0.5491632 0.5491632
0.5671610 0.5671610 0.5671610
0.5859479 0.5859479 0.5859479
0.5616400 0.5616400 0.5616400
0.6151058 0.6151058 0.6151058
0.6712644 0.6712644 0.6712644
0.7310079 0.7310079 0.7310079
0.8114947 0.8114947 0.8114947
0.5768718 0.5768718 0.5768718
0.5721371 0.5721371 0.5721371
0.5855699 0.5855699 0.5855699
0.6049959 0.6049959 0.6049959
0.6496586 0.6496586 0.6496586
0.6963445 0.6963445 0.6963445
0.7384278 0.7384278 0.7384278
0.7558789 0.7558789 0.7558789
0.6434583 0.6434583 0.6434583
0.3977083 0.3977083 0.3977083
0.4667849 0.4667849 0.4667849
0.5193913 0.5193913 0.5193913
0.5550068 0.5550068 0.5550068
0.7479647 0.7479647 0.7479647
0.7866314 0.7866314 0.7866314
0.7816636 0.7816636 0.7816636
0.7459086 0.7459086 0.7459086
0.6161568 0.6161568 0.6161568
0.4855732 0.4855732 0.4855732
0.4387855 0.4387855 0.4387855
0.4797009 0.4797009 0.4797009
0.5270602 0.5270602 0.5270602
0.8190781 0.8190781 0.8190781
0.8186993 0.8186993 0.8186993
0.8001150 0.8001150 0.8001150
0.7488496 0.7488496 0.7488496
0.6348010 0.6348010 0.6348010
0.5468318 0.5468318 0.5468318
0.4970081 0.4970081 0.4970081
0.4841200 0.4841200 0.4841200
0.5122317 0.5122317 0.5122317
0.8314188 0.8314188 0.8314188
0.8452565 0.8452565 0.8452565
0.8183779 0.8183779 0.8183779
0.7613318 0.7613318 0.7613318
0.6616493 0.6616493 0.6616493
0.5940485 0.5940485 0.5940485
0.5514060 0.5514060 0.5514060
0.5246425 0.5246425 0.5246425
0.5256073 0.5256073 0.5256073
0.2795404 0.2795404 0.2795404
0.2537302 0.2537302 0.2537302
0.2337330 0.2337330 0.2337330
0.2246727 0.2246727 0.2246727
0.2269963 0.2269963 0.2269963
0.2345464 0.2345464 0.2345464
0.2473243 0.2473243 0.2473243
0.2681910 0.2681910 0.2681910
0.2918961 0.2918961 0.2918961
0.3059748 0.3059748 0.3059748
0.4091307 0.4091307 0.4091307
0.3805276 0.3805276 0.3805276
0.3544077 0.3544077 0.3544077
0.3436841 0.3436841 0.3436841
0.3461328 0.3461328 0.3461328
0.3562619 0.3562619 0.3562619
0.3759221 0.3759221 0.3759221
0.3992285 0.3992285 0.3992285
0.4194231 0.4194231 0.4194231
0.4612460 0.4612460 0.4612460
0.5416371 0.5416371 0.5416371
0.5052735 0.5052735 0.5052735
0.4679816 0.4679816 0.4679816
0.4599563 0.4599563 0.4599563
0.4652165 0.4652165 0.4652165
0.4830567 0.4830567 0.4830567
0.5055980 0.5055980 0.5055980
0.5173642 0.5173642 0.5173642
0.5726126 0.5726126 0.5726126
0.6229968 0.6229968 0.6229968
0.6715214 0.6715214 0.6715214
0.6039229 0.6039229 0.6039229
0.5684091 0.5684091 0.5684091
0.5633884 0.5633884 0.5633884
0.5784193 0.5784193 0.5784193
0.5987609 0.5987609 0.5987609
0.5965073 0.5965073 0.5965073
0.6537196 0.6537196 0.6537196
0.7150303 0.7150303 0.7150303
0.7767192 0.7767192 0.7767192
0.8212375 0.8212375 0.8212375
0.7120424 0.7120424 0.7120424
0.6501628 0.6501628 0.6501628
0.6549094 0.6549094 0.6549094
0.6662028 0.6662028 0.6662028
0.6332200 0.6332200 0.6332200
0.6872589 0.6872589 0.6872589
0.7439091 0.7439091 0.7439091
0.8008172 0.8008172 0.8008172
0.8663785 0.8663785 0.8663785
0.9074643 0.9074643 0.9074643
0.6727434 0.6727434 0.6727434
0.6438549 0.6438549 0.6438549
0.6550037 0.6550037 0.6550037
0.7152490 0.7152490 0.7152490
0.7636431 0.7636431 0.7636431
0.8096214 0.8096214 0.8096214
0.8448540 0.8448540 0.8448540
0.8390317 0.8390317 0.8390317
0.7369804 0.7369804 0.7369804
0.4630218 0.4630218 0.4630218
0.5149676 0.5149676 0.5149676
0.5815869 0.5815869 0.5815869
0.8008175 0.8008175 0.8008175
0.8517475 0.8517475 0.8517475
0.8800012 0.8800012 0.8800012
0.8655868 0.8655868 0.8655868
0.7996500 0.7996500 0.7996500
0.6890006 0.6890006 0.6890006
0.5546186 0.5546186 0.5546186
0.4862730 0.4862730 0.4862730
0.5254148 0.5254148 0.5254148
0.8383349 0.8383349 0.8383349
0.8643440 0.8643440 0.8643440
0.8845166 0.8845166 0.8845166
0.8708626 0.8708626 0.8708626
0.7913706 0.7913706 0.7913706
0.6991914 0.6991914 0.6991914
0.6088912 0.6088912 0.6088912
0.5458145 0.5458145 0.5458145
0.5265434 0.5265434 0.5265434
0.3092498 0.3092498 0.3092498
0.2832882 0.2832882 0.2832882
0.2619648 0.2619648 0.2619648
0.2502524 0.2502524 0.2502524
0.2484256 0.2484256 0.2484256
0.2526980 0.2526980 0.2526980
0.2595775 0.2595775 0.2595775
0.2710183 0.2710183 0.2710183
0.2912688 0.2912688 0.2912688
0.3254036 0.3254036 0.3254036
0.4371094 0.4371094 0.4371094
0.4110413 0.4110413 0.4110413
0.3840794 0.3840794 0.3840794
0.3693508 0.3693508 0.3693508
0.3677699 0.3677699 0.3677699
0.3711321 0.3711321 0.3711321
0.3802205 0.3802205 0.3802205
0.3992043 0.3992043 0.3992043
0.4160038 0.4160038 0.4160038
0.4573008 0.4573008 0.4573008
0.5665446 0.5665446 0.5665446
0.5393485 0.5393485 0.5393485
0.5010626 0.5010626 0.5010626
0.4881607 0.4881607 0.4881607
0.4849367 0.4849367 0.4849367
0.4899303 0.4899303 0.4899303
0.5070070 0.5070070 0.5070070
0.5137739 0.5137739 0.5137739
0.5623457 0.5623457 0.5623457
0.6081597 0.6081597 0.6081597
0.6890549 0.6890549 0.6890549
0.6484100 0.6484100 0.6484100
0.6110030 0.6110030 0.6110030
0.5933999 0.5933999 0.5933999
0.5905826 0.5905826 0.5905826
0.6048116 0.6048116 0.6048116
0.6029311 0.6029311 0.6029311
0.6547634 0.6547634 0.6547634
0.7074312 0.7074312 0.7074312
0.7558860 0.7558860 0.7558860
0.8132359 0.8132359 0.8132359
0.7824064 0.7824064 0.7824064
0.7162293 0.7162293 0.7162293
0.6887698 0.6887698 0.6887698
0.6964868 0.6964868 0.6964868
0.6499315 0.6499315 0.6499315
0.7022789 0.7022789 0.7022789
0.7559504 0.7559504 0.7559504
0.8065982 0.8065982 0.8065982
0.8545572 0.8545572 0.8545572
0.8834753 0.8834753 0.8834753
0.8192716 0.8192716 0.8192716
0.7392512 0.7392512 0.7392512
0.7361580 0.7361580 0.7361580
0.6980855 0.6980855 0.6980855
0.7506446 0.7506446 0.7506446
0.8043482 0.8043482 0.8043482
0.8545152 0.8545152 0.8545152
0.9022100 0.9022100 0.9022100
0.9296548 0.9296548 0.9296548
0.9550660 0.9550660 0.9550660
0.7699017 0.7699017 0.7699017
0.7262043 0.7262043 0.7262043
0.7460027 0.7460027 0.7460027
0.7960400 0.7960400 0.7960400
0.8470210 0.8470210 0.8470210
0.8943836 0.8943836 0.8943836
0.9413548 0.9413548 0.9413548
0.9291725 0.9291725 0.9291725
0.8489768 0.8489768 0.8489768
0.5399208 0.5399208 0.5399208
0.5716111 0.5716111 0.5716111
0.7855735 0.7855735 0.7855735
0.8326778 0.8326778 0.8326778
0.8804194 0.8804194 0.8804194
0.9162985 0.9162985 0.9162985
0.9349807 0.9349807 0.9349807
0.8824641 0.8824641 0.8824641
0.7805738 0.7805738 0.7805738
0.6218851 0.6218851 0.6218851
0.5292441 0.5292441 0.5292441
0.3092498 0.3092498 0.3092498
0.2954789 0.2954789 0.2954789
0.2849981 0.2849981 0.2849981
0.2754630 0.2754630 0.2754630
0.2704794 0.2704794 0.2704794
0.2722207 0.2722207 0.2722207
0.2766567 0.2766567 0.2766567
0.2837532 0.2837532 0.2837532
0.2945701 0.2945701 0.2945701
0.3241166 0.3241166 0.3241166
0.4258546 0.4258546 0.4258546
0.4195499 0.4195499 0.4195499
0.4109351 0.4109351 0.4109351
0.3952160 0.3952160 0.3952160
0.3907839 0.3907839 0.3907839
0.3911436 0.3911436 0.3911436
0.3952137 0.3952137 0.3952137
0.4039196 0.4039196 0.4039196
0.3960785 0.3960785 0.3960785
0.4404774 0.4404774 0.4404774
0.5436632 0.5436632 0.5436632
0.5458897 0.5458897 0.5458897
0.5324410 0.5324410 0.5324410
0.5169648 0.5169648 0.5169648
0.5100118 0.5100118 0.5100118
0.5087812 0.5087812 0.5087812
0.5139876 0.5139876 0.5139876
0.4873560 0.4873560 0.4873560
0.5302775 0.5302775 0.5302775
0.5700319 0.5700319 0.5700319
0.6545446 0.6545446 0.6545446
0.6634608 0.6634608 0.6634608
0.6487781 0.6487781 0.6487781
0.6277063 0.6277063 0.6277063
0.6164640 0.6164640 0.6164640
0.6155776 0.6155776 0.6155776
0.5699938 0.5699938 0.5699938
0.6165414 0.6165414 0.6165414
0.6630881 0.6630881 0.6630881
0.7046727 0.7046727 0.7046727
0.7674618 0.7674618 0.7674618
0.7848671 0.7848671 0.7848671
0.7681685 0.7681685 0.7681685
0.7313437 0.7313437 0.7313437
0.7160959 0.7160959 0.7160959
0.6127543 0.6127543 0.6127543
0.6601422 0.6601422 0.6601422
0.7083931 0.7083931 0.7083931
0.7533953 0.7533953 0.7533953
0.7959619 0.7959619 0.7959619
0.8352865 0.8352865 0.8352865
0.8456016 0.8456016 0.8456016
0.8033234 0.8033234 0.8033234
0.7699576 0.7699576 0.7699576
0.6556727 0.6556727 0.6556727
0.7034062 0.7034062 0.7034062
0.7522321 0.7522321 0.7522321
0.7983231 0.7983231 0.7983231
0.8434301 0.8434301 0.8434301
0.8686049 0.8686049 0.8686049
0.8898228 0.8898228 0.8898228
0.9049360 0.9049360 0.9049360
0.8229923 0.8229923 0.8229923
0.6989146 0.6989146 0.6989146
0.7468276 0.7468276 0.7468276
0.7956930 0.7956930 0.7956930
0.8414199 0.8414199 0.8414199
0.8858918 0.8858918 0.8858918
0.9115053 0.9115053 0.9115053
0.9329771 0.9329771 0.9329771
0.9559562 0.9559562 0.9559562
0.8665959 0.8665959 0.8665959
0.7388120 0.7388120 0.7388120
0.7849593 0.7849593 0.7849593
0.8319082 0.8319082 0.8319082
0.8756795 0.8756795 0.8756795
0.9187701 0.9187701 0.9187701
0.9448875 0.9448875 0.9448875
0.9651886 0.9651886 0.9651886
0.9490551 0.9490551 0.9490551
0.6070573 0.6070573 0.6070573
0.3092498 0.3092498 0.3092498
0.2963041 0.2963041 0.2963041
0.2860560 0.2860560 0.2860560
0.2811714 0.2811714 0.2811714
0.2825713 0.2825713 0.2825713
0.2872277 0.2872277 0.2872277
0.2916682 0.2916682 0.2916682
0.2969668 0.2969668 0.2969668
0.3047301 0.3047301 0.3047301
0.3232328 0.3232328 0.3232328
0.4183075 0.4183075 0.4183075
0.4123059 0.4123059 0.4123059
0.4035935 0.4035935 0.4035935
0.4010199 0.4010199 0.4010199
0.4035522 0.4035522 0.4035522
0.4085434 0.4085434 0.4085434
0.4104548 0.4104548 0.4104548
0.4156576 0.4156576 0.4156576
0.3824672 0.3824672 0.3824672
0.4321324 0.4321324 0.4321324
0.5283634 0.5283634 0.5283634
0.5302682 0.5302682 0.5302682
0.5228211 0.5228211 0.5228211
0.5223863 0.5223863 0.5223863
0.5252979 0.5252979 0.5252979
0.5272853 0.5272853 0.5272853
0.5282421 0.5282421 0.5282421
0.4692597 0.4692597 0.4692597
0.5084308 0.5084308 0.5084308
0.5443498 0.5443498 0.5443498
0.6315916 0.6315916 0.6315916
0.6396134 0.6396134 0.6396134
0.6353112 0.6353112 0.6353112
0.6351689 0.6351689 0.6351689
0.6390270 0.6390270 0.6390270
0.6339531 0.6339531 0.6339531
0.5476885 0.5476885 0.5476885
0.5905984 0.5905984 0.5905984
0.6329216 0.6329216 0.6329216
0.6700692 0.6700692 0.6700692
0.7366072 0.7366072 0.7366072
0.7531730 0.7531730 0.7531730
0.7481490 0.7481490 0.7481490
0.7475878 0.7475878 0.7475878
0.7425340 0.7425340 0.7425340
0.5879078 0.5879078 0.5879078
0.6318563 0.6318563 0.6318563
0.6761880 0.6761880 0.6761880
0.7168914 0.7168914 0.7168914
0.7547551 0.7547551 0.7547551
0.8011398 0.8011398 0.8011398
0.8109875 0.8109875 0.8109875
0.8070496 0.8070496 0.8070496
0.8046124 0.8046124 0.8046124
0.6278379 0.6278379 0.6278379
0.6723059 0.6723059 0.6723059
0.7176421 0.7176421 0.7176421
0.7601870 0.7601870 0.7601870
0.8021709 0.8021709 0.8021709
0.8262237 0.8262237 0.8262237
0.8536889 0.8536889 0.8536889
0.8669502 0.8669502 0.8669502
0.8665348 0.8665348 0.8665348
0.6674851 0.6674851 0.6674851
0.7121628 0.7121628 0.7121628
0.7577695 0.7577695 0.7577695
0.8006955 0.8006955 0.8006955
0.8433509 0.8433509 0.8433509
0.8685359 0.8685359 0.8685359
0.8874474 0.8874474 0.8874474
0.9052506 0.9052506 0.9052506
0.9229257 0.9229257 0.9229257
0.7044259 0.7044259 0.7044259
0.7492562 0.7492562 0.7492562
0.7948940 0.7948940 0.7948940
0.8375771 0.8375771 0.8375771
0.8795754 0.8795754 0.8795754
0.9043503 0.9043503 0.9043503
0.9239312 0.9239312 0.9239312
0.9444792 0.9444792 0.9444792
0.9664137 0.9664137 0.9664137
