presets/experimental/experimental-portrait/look.cube
# Approximate v0 colour conversion; calibrate before claiming visual parity.
LUT_3D_SIZE 33
DOMAIN_MIN 0 0 0
DOMAIN_MAX 1 1 1
0.0208947 0.0208947 0.0208947
0.0349885 0.0349885 0.0349885
0.0470908 0.0470908 0.0470908
0.0518082 0.0518082 0.0518082
0.0572053 0.0572053 0.0572053
0.0654302 0.0654302 0.0654302
0.0740909 0.0740909 0.0740909
0.0844162 0.0844162 0.0844162
0.0952723 0.0952723 0.0952723
0.1063157 0.1063157 0.1063157
0.1171597 0.1171597 0.1171597
0.1281892 0.1281892 0.1281892
0.1393668 0.1393668 0.1393668
0.1506269 0.1506269 0.1506269
0.1619388 0.1619388 0.1619388
0.1731794 0.1731794 0.1731794
0.1844170 0.1844170 0.1844170
0.1946831 0.1946831 0.1946831
0.2004749 0.2004749 0.2004749
0.2062657 0.2062657 0.2062657
0.2120673 0.2120673 0.2120673
0.2178457 0.2178457 0.2178457
0.2236171 0.2236171 0.2236171
0.2293814 0.2293814 0.2293814
0.2351383 0.2351383 0.2351383
0.2408780 0.2408780 0.2408780
0.2465217 0.2465217 0.2465217
0.2521328 0.2521328 0.2521328
0.2577388 0.2577388 0.2577388
0.2633430 0.2633430 0.2633430
0.2689437 0.2689437 0.2689437
0.2745406 0.2745406 0.2745406
0.2801363 0.2801363 0.2801363
0.0410130 0.0410130 0.0410130
0.0420168 0.0420168 0.0420168
0.0505281 0.0505281 0.0505281
0.0556423 0.0556423 0.0556423
0.0590564 0.0590564 0.0590564
0.0639408 0.0639408 0.0639408
0.0693637 0.0693637 0.0693637
0.0764840 0.0764840 0.0764840
0.0869714 0.0869714 0.0869714
0.0976493 0.0976493 0.0976493
0.1081928 0.1081928 0.1081928
0.1190797 0.1190797 0.1190797
0.1300923 0.1300923 0.1300923
0.1412137 0.1412137 0.1412137
0.1523989 0.1523989 0.1523989
0.1636071 0.1636071 0.1636071
0.1748304 0.1748304 0.1748304
0.1851650 0.1851650 0.1851650
0.1909805 0.1909805 0.1909805
0.1967942 0.1967942 0.1967942
0.2026061 0.2026061 0.2026061
0.2084061 0.2084061 0.2084061
0.2141843 0.2141843 0.2141843
0.2199592 0.2199592 0.2199592
0.2257308 0.2257308 0.2257308
0.2314957 0.2314957 0.2314957
0.2371614 0.2371614 0.2371614
0.2428000 0.2428000 0.2428000
0.2484375 0.2484375 0.2484375
0.2540696 0.2540696 0.2540696
0.2596949 0.2596949 0.2596949
0.2653160 0.2653160 0.2653160
0.2709332 0.2709332 0.2709332
0.0606868 0.0606868 0.0606868
0.0589510 0.0589510 0.0589510
0.0609551 0.0609551 0.0609551
0.0661891 0.0661891 0.0661891
0.0713008 0.0713008 0.0713008
0.0769614 0.0769614 0.0769614
0.0831272 0.0831272 0.0831272
0.0898231 0.0898231 0.0898231
0.0973218 0.0973218 0.0973218
0.1047241 0.1047241 0.1047241
0.1122176 0.1122176 0.1122176
0.1198174 0.1198174 0.1198174
0.1276074 0.1276074 0.1276074
0.1354964 0.1354964 0.1354964
0.1434676 0.1434676 0.1434676
0.1537681 0.1537681 0.1537681
0.1649654 0.1649654 0.1649654
0.1752707 0.1752707 0.1752707
0.1810889 0.1810889 0.1810889
0.1868980 0.1868980 0.1868980
0.1927084 0.1927084 0.1927084
0.1985203 0.1985203 0.1985203
0.2043268 0.2043268 0.2043268
0.2101319 0.2101319 0.2101319
0.2159333 0.2159333 0.2159333
0.2217310 0.2217310 0.2217310
0.2274329 0.2274329 0.2274329
0.2330948 0.2330948 0.2330948
0.2387530 0.2387530 0.2387530
0.2444053 0.2444053 0.2444053
0.2500495 0.2500495 0.2500495
0.2556864 0.2556864 0.2556864
0.2613206 0.2613206 0.2613206
0.0788837 0.0788837 0.0788837
0.0768784 0.0768784 0.0768784
0.0759631 0.0759631 0.0759631
0.0780642 0.0780642 0.0780642
0.0822466 0.0822466 0.0822466
0.0885418 0.0885418 0.0885418
0.0954474 0.0954474 0.0954474
0.1023859 0.1023859 0.1023859
0.1102989 0.1102989 0.1102989
0.1178477 0.1178477 0.1178477
0.1255876 0.1255876 0.1255876
0.1333547 0.1333547 0.1333547
0.1412988 0.1412988 0.1412988
0.1492752 0.1492752 0.1492752
0.1573449 0.1573449 0.1573449
0.1654497 0.1654497 0.1654497
0.1735379 0.1735379 0.1735379
0.1809505 0.1809505 0.1809505
0.1851446 0.1851446 0.1851446
0.1893119 0.1893119 0.1893119
0.1934725 0.1934725 0.1934725
0.1976310 0.1976310 0.1976310
0.2017877 0.2017877 0.2017877
0.2059237 0.2059237 0.2059237
0.2100508 0.2100508 0.2100508
0.2141752 0.2141752 0.2141752
0.2182364 0.2182364 0.2182364
0.2231562 0.2231562 0.2231562
0.2288226 0.2288226 0.2288226
0.2344888 0.2344888 0.2344888
0.2401647 0.2401647 0.2401647
0.2458319 0.2458319 0.2458319
0.2514879 0.2514879 0.2514879
0.0969323 0.0969323 0.0969323
0.0948579 0.0948579 0.0948579
0.0934434 0.0934434 0.0934434
0.0930406 0.0930406 0.0930406
0.0955960 0.0955960 0.0955960
0.0994888 0.0994888 0.0994888
0.1068247 0.1068247 0.1068247
0.1144431 0.1144431 0.1144431
0.1225959 0.1225959 0.1225959
0.1305292 0.1305292 0.1305292
0.1384039 0.1384039 0.1384039
0.1464177 0.1464177 0.1464177
0.1545053 0.1545053 0.1545053
0.1626544 0.1626544 0.1626544
0.1708084 0.1708084 0.1708084
0.1790116 0.1790116 0.1790116
0.1872317 0.1872317 0.1872317
0.1947319 0.1947319 0.1947319
0.1989741 0.1989741 0.1989741
0.2032136 0.2032136 0.2032136
0.2074161 0.2074161 0.2074161
0.2116156 0.2116156 0.2116156
0.2158124 0.2158124 0.2158124
0.2200068 0.2200068 0.2200068
0.2241710 0.2241710 0.2241710
0.2283303 0.2283303 0.2283303
0.2324252 0.2324252 0.2324252
0.2364972 0.2364972 0.2364972
0.2405513 0.2405513 0.2405513
0.2445988 0.2445988 0.2445988
0.2486434 0.2486434 0.2486434
0.2526851 0.2526851 0.2526851
0.2567179 0.2567179 0.2567179
0.1165813 0.1165813 0.1165813
0.1138968 0.1138968 0.1138968
0.1118784 0.1118784 0.1118784
0.1101801 0.1101801 0.1101801
0.1105811 0.1105811 0.1105811
0.1137351 0.1137351 0.1137351
0.1177504 0.1177504 0.1177504
0.1258666 0.1258666 0.1258666
0.1344038 0.1344038 0.1344038
0.1427385 0.1427385 0.1427385
0.1508130 0.1508130 0.1508130
0.1590672 0.1590672 0.1590672
0.1673241 0.1673241 0.1673241
0.1756374 0.1756374 0.1756374
0.1839458 0.1839458 0.1839458
0.1922138 0.1922138 0.1922138
0.2005312 0.2005312 0.2005312
0.2081382 0.2081382 0.2081382
0.2124304 0.2124304 0.2124304
0.2167209 0.2167209 0.2167209
0.2209989 0.2209989 0.2209989
0.2252431 0.2252431 0.2252431
0.2294838 0.2294838 0.2294838
0.2337211 0.2337211 0.2337211
0.2379504 0.2379504 0.2379504
0.2421486 0.2421486 0.2421486
0.2462811 0.2462811 0.2462811
0.2503898 0.2503898 0.2503898
0.2544950 0.2544950 0.2544950
0.2585759 0.2585759 0.2585759
0.2626530 0.2626530 0.2626530
0.2667267 0.2667267 0.2667267
0.2707972 0.2707972 0.2707972
0.1364829 0.1364829 0.1364829
0.1339018 0.1339018 0.1339018
0.1318889 0.1318889 0.1318889
0.1299547 0.1299547 0.1299547
0.1289717 0.1289717 0.1289717
0.1299768 0.1299768 0.1299768
0.1341173 0.1341173 0.1341173
0.1377353 0.1377353 0.1377353
0.1461570 0.1461570 0.1461570
0.1546859 0.1546859 0.1546859
0.1629124 0.1629124 0.1629124
0.1713535 0.1713535 0.1713535
0.1797946 0.1797946 0.1797946
0.1882614 0.1882614 0.1882614
0.1967248 0.1967248 0.1967248
0.2051485 0.2051485 0.2051485
0.2135321 0.2135321 0.2135321
0.2212494 0.2212494 0.2212494
0.2255948 0.2255948 0.2255948
0.2299369 0.2299369 0.2299369
0.2342763 0.2342763 0.2342763
0.2385910 0.2385910 0.2385910
0.2428778 0.2428778 0.2428778
0.2471600 0.2471600 0.2471600
0.2514382 0.2514382 0.2514382
0.2556995 0.2556995 0.2556995
0.2598712 0.2598712 0.2598712
0.2640183 0.2640183 0.2640183
0.2681611 0.2681611 0.2681611
0.2722957 0.2722957 0.2722957
0.2764060 0.2764060 0.2764060
0.2805117 0.2805117 0.2805117
0.2846137 0.2846137 0.2846137
0.1576403 0.1576403 0.1576403
0.1545428 0.1545428 0.1545428
0.1521995 0.1521995 0.1521995
0.1501491 0.1501491 0.1501491
0.1486831 0.1486831 0.1486831
0.1484444 0.1484444 0.1484444
0.1505560 0.1505560 0.1505560
0.1550704 0.1550704 0.1550704
0.1579896 0.1579896 0.1579896
0.1664359 0.1664359 0.1664359
0.1747778 0.1747778 0.1747778
0.1833122 0.1833122 0.1833122
0.1919302 0.1919302 0.1919302
0.2005543 0.2005543 0.2005543
0.2091878 0.2091878 0.2091878
0.2177871 0.2177871 0.2177871
0.2263069 0.2263069 0.2263069
0.2341090 0.2341090 0.2341090
0.2384931 0.2384931 0.2384931
0.2428876 0.2428876 0.2428876
0.2472770 0.2472770 0.2472770
0.2516620 0.2516620 0.2516620
0.2560082 0.2560082 0.2560082
0.2603354 0.2603354 0.2603354
0.2646570 0.2646570 0.2646570
0.2689734 0.2689734 0.2689734
0.2731998 0.2731998 0.2731998
0.2773852 0.2773852 0.2773852
0.2815653 0.2815653 0.2815653
0.2857407 0.2857407 0.2857407
0.2899017 0.2899017 0.2899017
0.2940423 0.2940423 0.2940423
0.2981783 0.2981783 0.2981783
0.1788610 0.1788610 0.1788610
0.1756730 0.1756730 0.1756730
0.1732706 0.1732706 0.1732706
0.1711248 0.1711248 0.1711248
0.1692614 0.1692614 0.1692614
0.1682617 0.1682617 0.1682617
0.1688615 0.1688615 0.1688615
0.1714186 0.1714186 0.1714186
0.1762093 0.1762093 0.1762093
0.1783631 0.1783631 0.1783631
0.1866119 0.1866119 0.1866119
0.1951438 0.1951438 0.1951438
0.2038727 0.2038727 0.2038727
0.2126088 0.2126088 0.2126088
0.2213640 0.2213640 0.2213640
0.2300884 0.2300884 0.2300884
0.2387359 0.2387359 0.2387359
0.2466405 0.2466405 0.2466405
0.2510944 0.2510944 0.2510944
0.2555013 0.2555013 0.2555013
0.2599315 0.2599315 0.2599315
0.2643649 0.2643649 0.2643649
0.2687929 0.2687929 0.2687929
0.2731684 0.2731684 0.2731684
0.2775363 0.2775363 0.2775363
0.2818976 0.2818976 0.2818976
0.2861886 0.2861886 0.2861886
0.2904222 0.2904222 0.2904222
0.2946428 0.2946428 0.2946428
0.2988576 0.2988576 0.2988576
0.3030669 0.3030669 0.3030669
0.3072546 0.3072546 0.3072546
0.3114264 0.3114264 0.3114264
0.1987447 0.1987447 0.1987447
0.1952869 0.1952869 0.1952869
0.1927253 0.1927253 0.1927253
0.1906306 0.1906306 0.1906306
0.1887107 0.1887107 0.1887107
0.1873840 0.1873840 0.1873840
0.1871129 0.1871129 0.1871129
0.1883493 0.1883493 0.1883493
0.1915112 0.1915112 0.1915112
0.1966841 0.1966841 0.1966841
0.1979096 0.1979096 0.1979096
0.2061504 0.2061504 0.2061504
0.2148169 0.2148169 0.2148169
0.2235718 0.2235718 0.2235718
0.2323877 0.2323877 0.2323877
0.2412010 0.2412010 0.2412010
0.2499639 0.2499639 0.2499639
0.2579624 0.2579624 0.2579624
0.2624753 0.2624753 0.2624753
0.2669561 0.2669561 0.2669561
0.2714060 0.2714060 0.2714060
0.2758575 0.2758575 0.2758575
0.2803309 0.2803309 0.2803309
0.2847825 0.2847825 0.2847825
0.2891953 0.2891953 0.2891953
0.2936002 0.2936002 0.2936002
0.2979330 0.2979330 0.2979330
0.3022331 0.3022331 0.3022331
0.3064928 0.3064928 0.3064928
0.3107454 0.3107454 0.3107454
0.3149913 0.3149913 0.3149913
0.3192310 0.3192310 0.3192310
0.3234393 0.3234393 0.3234393
0.2187480 0.2187480 0.2187480
0.2152333 0.2152333 0.2152333
0.2126620 0.2126620 0.2126620
0.2104551 0.2104551 0.2104551
0.2084222 0.2084222 0.2084222
0.2068314 0.2068314 0.2068314
0.2059857 0.2059857 0.2059857
0.2062798 0.2062798 0.2062798
0.2082073 0.2082073 0.2082073
0.2118488 0.2118488 0.2118488
0.2169276 0.2169276 0.2169276
0.2174545 0.2174545 0.2174545
0.2258540 0.2258540 0.2258540
0.2345149 0.2345149 0.2345149
0.2433167 0.2433167 0.2433167
0.2521810 0.2521810 0.2521810
0.2610442 0.2610442 0.2610442
0.2691311 0.2691311 0.2691311
0.2736932 0.2736932 0.2736932
0.2782456 0.2782456 0.2782456
0.2827492 0.2827492 0.2827492
0.2872388 0.2872388 0.2872388
0.2917179 0.2917179 0.2917179
0.2962206 0.2962206 0.2962206
0.3006908 0.3006908 0.3006908
0.3051382 0.3051382 0.3051382
0.3095113 0.3095113 0.3095113
0.3138552 0.3138552 0.3138552
0.3181745 0.3181745 0.3181745
0.3224655 0.3224655 0.3224655
0.3267488 0.3267488 0.3267488
0.3310249 0.3310249 0.3310249
0.3352883 0.3352883 0.3352883
0.2388823 0.2388823 0.2388823
0.2352084 0.2352084 0.2352084
0.2326537 0.2326537 0.2326537
0.2304667 0.2304667 0.2304667
0.2284527 0.2284527 0.2284527
0.2267362 0.2267362 0.2267362
0.2254848 0.2254848 0.2254848
0.2250648 0.2250648 0.2250648
0.2260309 0.2260309 0.2260309
0.2284222 0.2284222 0.2284222
0.2321344 0.2321344 0.2321344
0.2373318 0.2373318 0.2373318
0.2372660 0.2372660 0.2372660
0.2456688 0.2456688 0.2456688
0.2543497 0.2543497 0.2543497
0.2631930 0.2631930 0.2631930
0.2720738 0.2720738 0.2720738
0.2802068 0.2802068 0.2802068
0.2848003 0.2848003 0.2848003
0.2893866 0.2893866 0.2893866
0.2939517 0.2939517 0.2939517
0.2984831 0.2984831 0.2984831
0.3030044 0.3030044 0.3030044
0.3075157 0.3075157 0.3075157
0.3120323 0.3120323 0.3120323
0.3165212 0.3165212 0.3165212
0.3209346 0.3209346 0.3209346
0.3253179 0.3253179 0.3253179
0.3296932 0.3296932 0.3296932
0.3340308 0.3340308 0.3340308
0.3383526 0.3383526 0.3383526
0.3426664 0.3426664 0.3426664
0.3469727 0.3469727 0.3469727
0.2591482 0.2591482 0.2591482
0.2554580 0.2554580 0.2554580
0.2528438 0.2528438 0.2528438
0.2505918 0.2505918 0.2505918
0.2485456 0.2485456 0.2485456
0.2467532 0.2467532 0.2467532
0.2452826 0.2452826 0.2452826
0.2444098 0.2444098 0.2444098
0.2446837 0.2446837 0.2446837
0.2460937 0.2460937 0.2460937
0.2486710 0.2486710 0.2486710
0.2526037 0.2526037 0.2526037
0.2579894 0.2579894 0.2579894
0.2572122 0.2572122 0.2572122
0.2655644 0.2655644 0.2655644
0.2742562 0.2742562 0.2742562
0.2830750 0.2830750 0.2830750
0.2912130 0.2912130 0.2912130
0.2958206 0.2958206 0.2958206
0.3004272 0.3004272 0.3004272
0.3050301 0.3050301 0.3050301
0.3096012 0.3096012 0.3096012
0.3141582 0.3141582 0.3141582
0.3187068 0.3187068 0.3187068
0.3232465 0.3232465 0.3232465
0.3277647 0.3277647 0.3277647
0.3322166 0.3322166 0.3322166
0.3366381 0.3366381 0.3366381
0.3410513 0.3410513 0.3410513
0.3454510 0.3454510 0.3454510
0.3498126 0.3498126 0.3498126
0.3541651 0.3541651 0.3541651
0.3585091 0.3585091 0.3585091
0.2794512 0.2794512 0.2794512
0.2757512 0.2757512 0.2757512
0.2731309 0.2731309 0.2731309
0.2708742 0.2708742 0.2708742
0.2688304 0.2688304 0.2688304
0.2669519 0.2669519 0.2669519
0.2653043 0.2653043 0.2653043
0.2641431 0.2641431 0.2641431
0.2638283 0.2638283 0.2638283
0.2644774 0.2644774 0.2644774
0.2661346 0.2661346 0.2661346
0.2690227 0.2690227 0.2690227
0.2731983 0.2731983 0.2731983
0.2786087 0.2786087 0.2786087
0.2771234 0.2771234 0.2771234
0.2855011 0.2855011 0.2855011
0.2941523 0.2941523 0.2941523
0.3022229 0.3022229 0.3022229
0.3068182 0.3068182 0.3068182
0.3114293 0.3114293 0.3114293
0.3160442 0.3160442 0.3160442
0.3206511 0.3206511 0.3206511
0.3252349 0.3252349 0.3252349
0.3298131 0.3298131 0.3298131
0.3343845 0.3343845 0.3343845
0.3389478 0.3389478 0.3389478
0.3434027 0.3434027 0.3434027
0.3478557 0.3478557 0.3478557
0.3523029 0.3523029 0.3523029
0.3567418 0.3567418 0.3567418
0.3611536 0.3611536 0.3611536
0.3655412 0.3655412 0.3655412
0.3699201 0.3699201 0.3699201
0.2998638 0.2998638 0.2998638
0.2961786 0.2961786 0.2961786
0.2934948 0.2934948 0.2934948
0.2911935 0.2911935 0.2911935
0.2891429 0.2891429 0.2891429
0.2872385 0.2872385 0.2872385
0.2855044 0.2855044 0.2855044
0.2841676 0.2841676 0.2841676
0.2834427 0.2834427 0.2834427
0.2834911 0.2834911 0.2834911
0.2844003 0.2844003 0.2844003
0.2864232 0.2864232 0.2864232
0.2895629 0.2895629 0.2895629
0.2938417 0.2938417 0.2938417
0.2993117 0.2993117 0.2993117
0.2971377 0.2971377 0.2971377
0.3054870 0.3054870 0.3054870
0.3133994 0.3133994 0.3133994
0.3179416 0.3179416 0.3179416
0.3225117 0.3225117 0.3225117
0.3271005 0.3271005 0.3271005
0.3317008 0.3317008 0.3317008
0.3362894 0.3362894 0.3362894
0.3408756 0.3408756 0.3408756
0.3454605 0.3454605 0.3454605
0.3500419 0.3500419 0.3500419
0.3545386 0.3545386 0.3545386
0.3589871 0.3589871 0.3589871
0.3634520 0.3634520 0.3634520
0.3679188 0.3679188 0.3679188
0.3723784 0.3723784 0.3723784
0.3767997 0.3767997 0.3767997
0.3812111 0.3812111 0.3812111
0.3202783 0.3202783 0.3202783
0.3166446 0.3166446 0.3166446
0.3139455 0.3139455 0.3139455
0.3116261 0.3116261 0.3116261
0.3095401 0.3095401 0.3095401
0.3075921 0.3075921 0.3075921
0.3057847 0.3057847 0.3057847
0.3043168 0.3043168 0.3043168
0.3032948 0.3032948 0.3032948
0.3029048 0.3029048 0.3029048
0.3032546 0.3032546 0.3032546
0.3045629 0.3045629 0.3045629
0.3068294 0.3068294 0.3068294
0.3101258 0.3101258 0.3101258
0.3145337 0.3145337 0.3145337
0.3200757 0.3200757 0.3200757
0.3171954 0.3171954 0.3171954
0.3247998 0.3247998 0.3247998
0.3292260 0.3292260 0.3292260
0.3337087 0.3337087 0.3337087
0.3382328 0.3382328 0.3382328
0.3427865 0.3427865 0.3427865
0.3473549 0.3473549 0.3473549
0.3519265 0.3519265 0.3519265
0.3565062 0.3565062 0.3565062
0.3610899 0.3610899 0.3610899
0.3656066 0.3656066 0.3656066
0.3700758 0.3700758 0.3700758
0.3745371 0.3745371 0.3745371
0.3790116 0.3790116 0.3790116
0.3834940 0.3834940 0.3834940
0.3879592 0.3879592 0.3879592
0.3923991 0.3923991 0.3923991
0.3389270 0.3389270 0.3389270
0.3353130 0.3353130 0.3353130
0.3325747 0.3325747 0.3325747
0.3302369 0.3302369 0.3302369
0.3281371 0.3281371 0.3281371
0.3261741 0.3261741 0.3261741
0.3243342 0.3243342 0.3243342
0.3227727 0.3227727 0.3227727
0.3215371 0.3215371 0.3215371
0.3208290 0.3208290 0.3208290
0.3207845 0.3207845 0.3207845
0.3215327 0.3215327 0.3215327
0.3231307 0.3231307 0.3231307
0.3256570 0.3256570 0.3256570
0.3292240 0.3292240 0.3292240
0.3338412 0.3338412 0.3338412
0.3394830 0.3394830 0.3394830
0.3357827 0.3357827 0.3357827
0.3397369 0.3397369 0.3397369
0.3440865 0.3440865 0.3440865
0.3485068 0.3485068 0.3485068
0.3529806 0.3529806 0.3529806
0.3574943 0.3574943 0.3574943
0.3620256 0.3620256 0.3620256
0.3665817 0.3665817 0.3665817
0.3711538 0.3711538 0.3711538
0.3756666 0.3756666 0.3756666
0.3801516 0.3801516 0.3801516
0.3846231 0.3846231 0.3846231
0.3890929 0.3890929 0.3890929
0.3935777 0.3935777 0.3935777
0.3980709 0.3980709 0.3980709
0.4025349 0.4025349 0.4025349
0.3495787 0.3495787 0.3495787
0.3459964 0.3459964 0.3459964
0.3432475 0.3432475 0.3432475
0.3408839 0.3408839 0.3408839
0.3387651 0.3387651 0.3387651
0.3367952 0.3367952 0.3367952
0.3349501 0.3349501 0.3349501
0.3333419 0.3333419 0.3333419
0.3320176 0.3320176 0.3320176
0.3311698 0.3311698 0.3311698
0.3309452 0.3309452 0.3309452
0.3314218 0.3314218 0.3314218
0.3326783 0.3326783 0.3326783
0.3348076 0.3348076 0.3348076
0.3379403 0.3379403 0.3379403
0.3420755 0.3420755 0.3420755
0.3472055 0.3472055 0.3472055
0.3527614 0.3527614 0.3527614
0.3468311 0.3468311 0.3468311
0.3501323 0.3501323 0.3501323
0.3544770 0.3544770 0.3544770
0.3588920 0.3588920 0.3588920
0.3633604 0.3633604 0.3633604
0.3678615 0.3678615 0.3678615
0.3723907 0.3723907 0.3723907
0.3769411 0.3769411 0.3769411
0.3814388 0.3814388 0.3814388
0.3859200 0.3859200 0.3859200
0.3903877 0.3903877 0.3903877
0.3948572 0.3948572 0.3948572
0.3993279 0.3993279 0.3993279
0.4038246 0.4038246 0.4038246
0.4083025 0.4083025 0.4083025
0.3602312 0.3602312 0.3602312
0.3566821 0.3566821 0.3566821
0.3539237 0.3539237 0.3539237
0.3515476 0.3515476 0.3515476
0.3494130 0.3494130 0.3494130
0.3474244 0.3474244 0.3474244
0.3455720 0.3455720 0.3455720
0.3439243 0.3439243 0.3439243
0.3425246 0.3425246 0.3425246
0.3415567 0.3415567 0.3415567
0.3411738 0.3411738 0.3411738
0.3414118 0.3414118 0.3414118
0.3423688 0.3423688 0.3423688
0.3441419 0.3441419 0.3441419
0.3468766 0.3468766 0.3468766
0.3505595 0.3505595 0.3505595
0.3552022 0.3552022 0.3552022
0.3603331 0.3603331 0.3603331
0.3636074 0.3636074 0.3636074
0.3579190 0.3579190 0.3579190
0.3605629 0.3605629 0.3605629
0.3648936 0.3648936 0.3648936
0.3692945 0.3692945 0.3692945
0.3737451 0.3737451 0.3737451
0.3782340 0.3782340 0.3782340
0.3827537 0.3827537 0.3827537
0.3872286 0.3872286 0.3872286
0.3916969 0.3916969 0.3916969
0.3961567 0.3961567 0.3961567
0.4006211 0.4006211 0.4006211
0.4050886 0.4050886 0.4050886
0.4095717 0.4095717 0.4095717
0.4140594 0.4140594 0.4140594
0.3708926 0.3708926 0.3708926
0.3673699 0.3673699 0.3673699
0.3646029 0.3646029 0.3646029
0.3622150 0.3622150 0.3622150
0.3600690 0.3600690 0.3600690
0.3580716 0.3580716 0.3580716
0.3562064 0.3562064 0.3562064
0.3545176 0.3545176 0.3545176
0.3530539 0.3530539 0.3530539
0.3519824 0.3519824 0.3519824
0.3514599 0.3514599 0.3514599
0.3514855 0.3514855 0.3514855
0.3521722 0.3521722 0.3521722
0.3536208 0.3536208 0.3536208
0.3559877 0.3559877 0.3559877
0.3592487 0.3592487 0.3592487
0.3634336 0.3634336 0.3634336
0.3681195 0.3681195 0.3681195
0.3711321 0.3711321 0.3711321
0.3743973 0.3743973 0.3743973
0.3689995 0.3689995 0.3689995
0.3709849 0.3709849 0.3709849
0.3753018 0.3753018 0.3753018
0.3796867 0.3796867 0.3796867
0.3841235 0.3841235 0.3841235
0.3886021 0.3886021 0.3886021
0.3930454 0.3930454 0.3930454
0.3974899 0.3974899 0.3974899
0.4019377 0.4019377 0.4019377
0.4063914 0.4063914 0.4063914
0.4108523 0.4108523 0.4108523
0.4153177 0.4153177 0.4153177
0.4198106 0.4198106 0.4198106
0.3815666 0.3815666 0.3815666
0.3780697 0.3780697 0.3780697
0.3752854 0.3752854 0.3752854
0.3728858 0.3728858 0.3728858
0.3707287 0.3707287 0.3707287
0.3687230 0.3687230 0.3687230
0.3668511 0.3668511 0.3668511
0.3651342 0.3651342 0.3651342
0.3636085 0.3636085 0.3636085
0.3624509 0.3624509 0.3624509
0.3617948 0.3617948 0.3617948
0.3616313 0.3616313 0.3616313
0.3620746 0.3620746 0.3620746
0.3632379 0.3632379 0.3632379
0.3652556 0.3652556 0.3652556
0.3681237 0.3681237 0.3681237
0.3718788 0.3718788 0.3718788
0.3761456 0.3761456 0.3761456
0.3789102 0.3789102 0.3789102
0.3819212 0.3819212 0.3819212
0.3851775 0.3851775 0.3851775
0.3800699 0.3800699 0.3800699
0.3813983 0.3813983 0.3813983
0.3857008 0.3857008 0.3857008
0.3900717 0.3900717 0.3900717
0.3944975 0.3944975 0.3944975
0.3988994 0.3988994 0.3988994
0.4033112 0.4033112 0.4033112
0.4077388 0.4077388 0.4077388
0.4121753 0.4121753 0.4121753
0.4166241 0.4166241 0.4166241
0.4210813 0.4210813 0.4210813
0.4255577 0.4255577 0.4255577
0.3922412 0.3922412 0.3922412
0.3887785 0.3887785 0.3887785
0.3859808 0.3859808 0.3859808
0.3835609 0.3835609 0.3835609
0.3813923 0.3813923 0.3813923
0.3793787 0.3793787 0.3793787
0.3775001 0.3775001 0.3775001
0.3757589 0.3757589 0.3757589
0.3741875 0.3741875 0.3741875
0.3729651 0.3729651 0.3729651
0.3721822 0.3721822 0.3721822
0.3718431 0.3718431 0.3718431
0.3720634 0.3720634 0.3720634
0.3729678 0.3729678 0.3729678
0.3746639 0.3746639 0.3746639
0.3771668 0.3771668 0.3771668
0.3805190 0.3805190 0.3805190
0.3843916 0.3843916 0.3843916
0.3869216 0.3869216 0.3869216
0.3896912 0.3896912 0.3896912
0.3927002 0.3927002 0.3927002
0.3959477 0.3959477 0.3959477
0.3911299 0.3911299 0.3911299
0.3918027 0.3918027 0.3918027
0.3960923 0.3960923 0.3960923
0.4004520 0.4004520 0.4004520
0.4048013 0.4048013 0.4048013
0.4091709 0.4091709 0.4091709
0.4135687 0.4135687 0.4135687
0.4179808 0.4179808 0.4179808
0.4224112 0.4224112 0.4224112
0.4268551 0.4268551 0.4268551
0.4313097 0.4313097 0.4313097
0.4029165 0.4029165 0.4029165
0.3994888 0.3994888 0.3994888
0.3966811 0.3966811 0.3966811
0.3942470 0.3942470 0.3942470
0.3920620 0.3920620 0.3920620
0.3900385 0.3900385 0.3900385
0.3881528 0.3881528 0.3881528
0.3863904 0.3863904 0.3863904
0.3847799 0.3847799 0.3847799
0.3835016 0.3835016 0.3835016
0.3826148 0.3826148 0.3826148
0.3821289 0.3821289 0.3821289
0.3821503 0.3821503 0.3821503
0.3828132 0.3828132 0.3828132
0.3842076 0.3842076 0.3842076
0.3863665 0.3863665 0.3863665
0.3893385 0.3893385 0.3893385
0.3928401 0.3928401 0.3928401
0.3951485 0.3951485 0.3951485
0.3976907 0.3976907 0.3976907
0.4004666 0.4004666 0.4004666
0.4034761 0.4034761 0.4034761
0.4067189 0.4067189 0.4067189
0.4021805 0.4021805 0.4021805
0.4022001 0.4022001 0.4022001
0.4064789 0.4064789 0.4064789
0.4107629 0.4107629 0.4107629
0.4150795 0.4150795 0.4150795
0.4194413 0.4194413 0.4194413
0.4238255 0.4238255 0.4238255
0.4282348 0.4282348 0.4282348
0.4326631 0.4326631 0.4326631
0.4371052 0.4371052 0.4371052
0.4135932 0.4135932 0.4135932
0.4102005 0.4102005 0.4102005
0.4073837 0.4073837 0.4073837
0.4049359 0.4049359 0.4049359
0.4027383 0.4027383 0.4027383
0.4007043 0.4007043 0.4007043
0.3988092 0.3988092 0.3988092
0.3970278 0.3970278 0.3970278
0.3953836 0.3953836 0.3953836
0.3940563 0.3940563 0.3940563
0.3930780 0.3930780 0.3930780
0.3924619 0.3924619 0.3924619
0.3923090 0.3923090 0.3923090
0.3927610 0.3927610 0.3927610
0.3938855 0.3938855 0.3938855
0.3957318 0.3957318 0.3957318
0.3983530 0.3983530 0.3983530
0.4015070 0.4015070 0.4015070
0.4036054 0.4036054 0.4036054
0.4059303 0.4059303 0.4059303
0.4084826 0.4084826 0.4084826
0.4112626 0.4112626 0.4112626
0.4142706 0.4142706 0.4142706
0.4175091 0.4175091 0.4175091
0.4132486 0.4132486 0.4132486
0.4126063 0.4126063 0.4126063
0.4168161 0.4168161 0.4168161
0.4210723 0.4210723 0.4210723
0.4253819 0.4253819 0.4253819
0.4297242 0.4297242 0.4297242
0.4340989 0.4340989 0.4340989
0.4384997 0.4384997 0.4384997
0.4429202 0.4429202 0.4429202
0.4242194 0.4242194 0.4242194
0.4208560 0.4208560 0.4208560
0.4180297 0.4180297 0.4180297
