presets/experimental/experimental-portrait/look.cube
# Approximate v0 colour conversion; calibrate before claiming visual parity.
LUT_3D_SIZE 5
DOMAIN_MIN 0 0 0
DOMAIN_MAX 1 1 1
0.0208947 0.0208947 0.0208947
0.0952723 0.0952723 0.0952723
0.1844170 0.1844170 0.1844170
0.2351383 0.2351383 0.2351383
0.2801363 0.2801363 0.2801363
0.1788610 0.1788610 0.1788610
0.1762093 0.1762093 0.1762093
0.2387359 0.2387359 0.2387359
0.2775363 0.2775363 0.2775363
0.3114264 0.3114264 0.3114264
0.3389270 0.3389270 0.3389270
0.3215371 0.3215371 0.3215371
0.3394830 0.3394830 0.3394830
0.3665817 0.3665817 0.3665817
0.4025349 0.4025349 0.4025349
0.4242194 0.4242194 0.4242194
0.4059387 0.4059387 0.4059387
0.4074649 0.4074649 0.4074649
0.4282508 0.4282508 0.4282508
0.4487287 0.4487287 0.4487287
0.5043525 0.5043525 0.5043525
0.4855113 0.4855113 0.4855113
0.4796080 0.4796080 0.4796080
0.4894094 0.4894094 0.4894094
0.5100275 0.5100275 0.5100275
0.1470102 0.1470102 0.1470102
0.1183073 0.1183073 0.1183073
0.2050567 0.2050567 0.2050567
0.2665991 0.2665991 0.2665991
0.3195984 0.3195984 0.3195984
0.3091098 0.3091098 0.3091098
0.4079664 0.4079664 0.4079664
0.3666101 0.3666101 0.3666101
0.4115031 0.4115031 0.4115031
0.4540348 0.4540348 0.4540348
0.5242736 0.5242736 0.5242736
0.4212782 0.4212782 0.4212782
0.3454511 0.3454511 0.3454511
0.3997615 0.3997615 0.3997615
0.4498108 0.4498108 0.4498108
0.5946131 0.5946131 0.5946131
0.5009811 0.5009811 0.5009811
0.4300845 0.4300845 0.4300845
0.4370250 0.4370250 0.4370250
0.4750120 0.4750120 0.4750120
0.6626426 0.6626426 0.6626426
0.5773866 0.5773866 0.5773866
0.5184564 0.5184564 0.5184564
0.5043073 0.5043073 0.5043073
0.5199605 0.5199605 0.5199605
0.2493136 0.2493136 0.2493136
0.2056333 0.2056333 0.2056333
0.2077524 0.2077524 0.2077524
0.2454714 0.2454714 0.2454714
0.2966407 0.2966407 0.2966407
0.3993702 0.3993702 0.3993702
0.5123162 0.5123162 0.5123162
0.4358017 0.4358017 0.4358017
0.4592386 0.4592386 0.4592386
0.5065358 0.5065358 0.5065358
0.5616400 0.5616400 0.5616400
0.6712644 0.6712644 0.6712644
0.8114947 0.8114947 0.8114947
0.5721371 0.5721371 0.5721371
0.6049959 0.6049959 0.6049959
0.7479647 0.7479647 0.7479647
0.7816636 0.7816636 0.7816636
0.6161568 0.6161568 0.6161568
0.4387855 0.4387855 0.4387855
0.5270602 0.5270602 0.5270602
0.8314188 0.8314188 0.8314188
0.8183779 0.8183779 0.8183779
0.6616493 0.6616493 0.6616493
0.5514060 0.5514060 0.5514060
0.5256073 0.5256073 0.5256073
0.3092498 0.3092498 0.3092498
0.2619648 0.2619648 0.2619648
0.2484256 0.2484256 0.2484256
0.2595775 0.2595775 0.2595775
0.2912688 0.2912688 0.2912688
0.4160038 0.4160038 0.4160038
0.5665446 0.5665446 0.5665446
0.5010626 0.5010626 0.5010626
0.4849367 0.4849367 0.4849367
0.5070070 0.5070070 0.5070070
0.6029311 0.6029311 0.6029311
0.7074312 0.7074312 0.7074312
0.8132359 0.8132359 0.8132359
0.7162293 0.7162293 0.7162293
0.6964868 0.6964868 0.6964868
0.6980855 0.6980855 0.6980855
0.8043482 0.8043482 0.8043482
0.9022100 0.9022100 0.9022100
0.9550660 0.9550660 0.9550660
0.7262043 0.7262043 0.7262043
0.7855735 0.7855735 0.7855735
0.8804194 0.8804194 0.8804194
0.9349807 0.9349807 0.9349807
0.7805738 0.7805738 0.7805738
0.5292441 0.5292441 0.5292441
0.3092498 0.3092498 0.3092498
0.2860560 0.2860560 0.2860560
0.2825713 0.2825713 0.2825713
0.2916682 0.2916682 0.2916682
0.3047301 0.3047301 0.3047301
0.3824672 0.3824672 0.3824672
0.5283634 0.5283634 0.5283634
0.5228211 0.5228211 0.5228211
0.5252979 0.5252979 0.5252979
0.5282421 0.5282421 0.5282421
0.5476885 0.5476885 0.5476885
0.6329216 0.6329216 0.6329216
0.7366072 0.7366072 0.7366072
0.7481490 0.7481490 0.7481490
0.7425340 0.7425340 0.7425340
0.6278379 0.6278379 0.6278379
0.7176421 0.7176421 0.7176421
0.8021709 0.8021709 0.8021709
0.8536889 0.8536889 0.8536889
0.8665348 0.8665348 0.8665348
0.7044259 0.7044259 0.7044259
0.7948940 0.7948940 0.7948940
0.8795754 0.8795754 0.8795754
0.9239312 0.9239312 0.9239312
0.9664137 0.9664137 0.9664137
