presets/experimental/experimental-nightstreet/look.cube
# Approximate v0 colour conversion; calibrate before claiming visual parity.
LUT_3D_SIZE 33
DOMAIN_MIN 0 0 0
DOMAIN_MAX 1 1 1
0.0177481 0.0177481 0.0177481
0.0184762 0.0184762 0.0184762
0.0195948 0.0195948 0.0195948
0.0243178 0.0243178 0.0243178
0.0294195 0.0294195 0.0294195
0.0360805 0.0360805 0.0360805
0.0427773 0.0427773 0.0427773
0.0495602 0.0495602 0.0495602
0.0576930 0.0576930 0.0576930
0.0659988 0.0659988 0.0659988
0.0743496 0.0743496 0.0743496
0.0827157 0.0827157 0.0827157
0.0911028 0.0911028 0.0911028
0.0995066 0.0995066 0.0995066
0.1079181 0.1079181 0.1079181
0.1210238 0.1210238 0.1210238
0.1351874 0.1351874 0.1351874
0.1493605 0.1493605 0.1493605
0.1635392 0.1635392 0.1635392
0.1777207 0.1777207 0.1777207
0.1919035 0.1919035 0.1919035
0.2060863 0.2060863 0.2060863
0.2119156 0.2119156 0.2119156
0.2120787 0.2120787 0.2120787
0.2120787 0.2120787 0.2120787
0.2120787 0.2120787 0.2120787
0.2120787 0.2120787 0.2120787
0.2120787 0.2120787 0.2120787
0.2120787 0.2120787 0.2120787
0.2120787 0.2120787 0.2120787
0.2120787 0.2120787 0.2120787
0.2120787 0.2120787 0.2120787
0.2120787 0.2120787 0.2120787
0.0323846 0.0323846 0.0323846
0.0351112 0.0351112 0.0351112
0.0380664 0.0380664 0.0380664
0.0431339 0.0431339 0.0431339
0.0484522 0.0484522 0.0484522
0.0548029 0.0548029 0.0548029
0.0612165 0.0612165 0.0612165
0.0677819 0.0677819 0.0677819
0.0756963 0.0756963 0.0756963
0.0838238 0.0838238 0.0838238
0.0920518 0.0920518 0.0920518
0.1003148 0.1003148 0.1003148
0.1086267 0.1086267 0.1086267
0.1169773 0.1169773 0.1169773
0.1253459 0.1253459 0.1253459
0.1384111 0.1384111 0.1384111
0.1525520 0.1525520 0.1525520
0.1667146 0.1667146 0.1667146
0.1808904 0.1808904 0.1808904
0.1950724 0.1950724 0.1950724
0.2092569 0.2092569 0.2092569
0.2234412 0.2234412 0.2234412
0.2292710 0.2292710 0.2292710
0.2294341 0.2294341 0.2294341
0.2294341 0.2294341 0.2294341
0.2294341 0.2294341 0.2294341
0.2294341 0.2294341 0.2294341
0.2294341 0.2294341 0.2294341
0.2294341 0.2294341 0.2294341
0.2294341 0.2294341 0.2294341
0.2294341 0.2294341 0.2294341
0.2294341 0.2294341 0.2294341
0.2294341 0.2294341 0.2294341
0.0470213 0.0470213 0.0470213
0.0517460 0.0517460 0.0517460
0.0565379 0.0565379 0.0565379
0.0619501 0.0619501 0.0619501
0.0674849 0.0674849 0.0674849
0.0735253 0.0735253 0.0735253
0.0796557 0.0796557 0.0796557
0.0860035 0.0860035 0.0860035
0.0936995 0.0936995 0.0936995
0.1016489 0.1016489 0.1016489
0.1097539 0.1097539 0.1097539
0.1179139 0.1179139 0.1179139
0.1261506 0.1261506 0.1261506
0.1344479 0.1344479 0.1344479
0.1427737 0.1427737 0.1427737
0.1557985 0.1557985 0.1557985
0.1699166 0.1699166 0.1699166
0.1840688 0.1840688 0.1840688
0.1982416 0.1982416 0.1982416
0.2124241 0.2124241 0.2124241
0.2266103 0.2266103 0.2266103
0.2407961 0.2407961 0.2407961
0.2466263 0.2466263 0.2466263
0.2467894 0.2467894 0.2467894
0.2467894 0.2467894 0.2467894
0.2467894 0.2467894 0.2467894
0.2467894 0.2467894 0.2467894
0.2467894 0.2467894 0.2467894
0.2467894 0.2467894 0.2467894
0.2467894 0.2467894 0.2467894
0.2467894 0.2467894 0.2467894
0.2467894 0.2467894 0.2467894
0.2467894 0.2467894 0.2467894
0.0640745 0.0640745 0.0640745
0.0696300 0.0696300 0.0696300
0.0752043 0.0752043 0.0752043
0.0809510 0.0809510 0.0809510
0.0867630 0.0867630 0.0867630
0.0928438 0.0928438 0.0928438
0.0990040 0.0990040 0.0990040
0.1053553 0.1053553 0.1053553
0.1130506 0.1130506 0.1130506
0.1209941 0.1209941 0.1209941
0.1290932 0.1290932 0.1290932
0.1372480 0.1372480 0.1372480
0.1454810 0.1454810 0.1454810
0.1537766 0.1537766 0.1537766
0.1621013 0.1621013 0.1621013
0.1751263 0.1751263 0.1751263
0.1892462 0.1892462 0.1892462
0.2034010 0.2034010 0.2034010
0.2175764 0.2175764 0.2175764
0.2317609 0.2317609 0.2317609
0.2459488 0.2459488 0.2459488
0.2601356 0.2601356 0.2601356
0.2659661 0.2659661 0.2659661
0.2661292 0.2661292 0.2661292
0.2661292 0.2661292 0.2661292
0.2661292 0.2661292 0.2661292
0.2661292 0.2661292 0.2661292
0.2661292 0.2661292 0.2661292
0.2661292 0.2661292 0.2661292
0.2661292 0.2661292 0.2661292
0.2661292 0.2661292 0.2661292
0.2661292 0.2661292 0.2661292
0.2661292 0.2661292 0.2661292
0.0818664 0.0818664 0.0818664
0.0878959 0.0878959 0.0878959
0.0939301 0.0939301 0.0939301
0.1000084 0.1000084 0.1000084
0.1061162 0.1061162 0.1061162
0.1123448 0.1123448 0.1123448
0.1186302 0.1186302 0.1186302
0.1250527 0.1250527 0.1250527
0.1328139 0.1328139 0.1328139
0.1408040 0.1408040 0.1408040
0.1489329 0.1489329 0.1489329
0.1571126 0.1571126 0.1571126
0.1653638 0.1653638 0.1653638
0.1736732 0.1736732 0.1736732
0.1820098 0.1820098 0.1820098
0.1950474 0.1950474 0.1950474
0.2091766 0.2091766 0.2091766
0.2233379 0.2233379 0.2233379
0.2375176 0.2375176 0.2375176
0.2517048 0.2517048 0.2517048
0.2658942 0.2658942 0.2658942
0.2800819 0.2800819 0.2800819
0.2859125 0.2859125 0.2859125
0.2860756 0.2860756 0.2860756
0.2860756 0.2860756 0.2860756
0.2860756 0.2860756 0.2860756
0.2860756 0.2860756 0.2860756
0.2860756 0.2860756 0.2860756
0.2860756 0.2860756 0.2860756
0.2860756 0.2860756 0.2860756
0.2860756 0.2860756 0.2860756
0.2860756 0.2860756 0.2860756
0.2860756 0.2860756 0.2860756
0.1003429 0.1003429 0.1003429
0.1065995 0.1065995 0.1065995
0.1128614 0.1128614 0.1128614
0.1191736 0.1191736 0.1191736
0.1254942 0.1254942 0.1254942
0.1318491 0.1318491 0.1318491
0.1382439 0.1382439 0.1382439
0.1447350 0.1447350 0.1447350
0.1525613 0.1525613 0.1525613
0.1605999 0.1605999 0.1605999
0.1687610 0.1687610 0.1687610
0.1769677 0.1769677 0.1769677
0.1852391 0.1852391 0.1852391
0.1935639 0.1935639 0.1935639
0.2019135 0.2019135 0.2019135
0.2149656 0.2149656 0.2149656
0.2291054 0.2291054 0.2291054
0.2432740 0.2432740 0.2432740
0.2574583 0.2574583 0.2574583
0.2716486 0.2716486 0.2716486
0.2858398 0.2858398 0.2858398
0.3000285 0.3000285 0.3000285
0.3058594 0.3058594 0.3058594
0.3060226 0.3060226 0.3060226
0.3060226 0.3060226 0.3060226
0.3060226 0.3060226 0.3060226
0.3060226 0.3060226 0.3060226
0.3060226 0.3060226 0.3060226
0.3060226 0.3060226 0.3060226
0.3060226 0.3060226 0.3060226
0.3060226 0.3060226 0.3060226
0.3060226 0.3060226 0.3060226
0.3060226 0.3060226 0.3060226
0.1194225 0.1194225 0.1194225
0.1256886 0.1256886 0.1256886
0.1319737 0.1319737 0.1319737
0.1384336 0.1384336 0.1384336
0.1448940 0.1448940 0.1448940
0.1513565 0.1513565 0.1513565
0.1578468 0.1578468 0.1578468
0.1644043 0.1644043 0.1644043
0.1722951 0.1722951 0.1722951
0.1803835 0.1803835 0.1803835
0.1885788 0.1885788 0.1885788
0.1968145 0.1968145 0.1968145
0.2051077 0.2051077 0.2051077
0.2134491 0.2134491 0.2134491
0.2218129 0.2218129 0.2218129
0.2348812 0.2348812 0.2348812
0.2490327 0.2490327 0.2490327
0.2632094 0.2632094 0.2632094
0.2773986 0.2773986 0.2773986
0.2915923 0.2915923 0.2915923
0.3057856 0.3057856 0.3057856
0.3199755 0.3199755 0.3199755
0.3258067 0.3258067 0.3258067
0.3259699 0.3259699 0.3259699
0.3259699 0.3259699 0.3259699
0.3259699 0.3259699 0.3259699
0.3259699 0.3259699 0.3259699
0.3259699 0.3259699 0.3259699
0.3259699 0.3259699 0.3259699
0.3259699 0.3259699 0.3259699
0.3259699 0.3259699 0.3259699
0.3259699 0.3259699 0.3259699
0.3259699 0.3259699 0.3259699
0.1386059 0.1386059 0.1386059
0.1448709 0.1448709 0.1448709
0.1511670 0.1511670 0.1511670
0.1577520 0.1577520 0.1577520
0.1643316 0.1643316 0.1643316
0.1708893 0.1708893 0.1708893
0.1774649 0.1774649 0.1774649
0.1840836 0.1840836 0.1840836
0.1920344 0.1920344 0.1920344
0.2001702 0.2001702 0.2001702
0.2083985 0.2083985 0.2083985
0.2166623 0.2166623 0.2166623
0.2249770 0.2249770 0.2249770
0.2333348 0.2333348 0.2333348
0.2417127 0.2417127 0.2417127
0.2547969 0.2547969 0.2547969
0.2689603 0.2689603 0.2689603
0.2831449 0.2831449 0.2831449
0.2973393 0.2973393 0.2973393
0.3115365 0.3115365 0.3115365
0.3257319 0.3257319 0.3257319
0.3399228 0.3399228 0.3399228
0.3457544 0.3457544 0.3457544
0.3459176 0.3459176 0.3459176
0.3459176 0.3459176 0.3459176
0.3459176 0.3459176 0.3459176
0.3459176 0.3459176 0.3459176
0.3459176 0.3459176 0.3459176
0.3459176 0.3459176 0.3459176
0.3459176 0.3459176 0.3459176
0.3459176 0.3459176 0.3459176
0.3459176 0.3459176 0.3459176
0.3459176 0.3459176 0.3459176
0.1580346 0.1580346 0.1580346
0.1642729 0.1642729 0.1642729
0.1705521 0.1705521 0.1705521
0.1772081 0.1772081 0.1772081
0.1838579 0.1838579 0.1838579
0.1904821 0.1904821 0.1904821
0.1971190 0.1971190 0.1971190
0.2037866 0.2037866 0.2037866
0.2117872 0.2117872 0.2117872
0.2199645 0.2199645 0.2199645
0.2282226 0.2282226 0.2282226
0.2365123 0.2365123 0.2365123
0.2448477 0.2448477 0.2448477
0.2532215 0.2532215 0.2532215
0.2616133 0.2616133 0.2616133
0.2747130 0.2747130 0.2747130
0.2888881 0.2888881 0.2888881
0.3030809 0.3030809 0.3030809
0.3172810 0.3172810 0.3172810
0.3314820 0.3314820 0.3314820
0.3456794 0.3456794 0.3456794
0.3598711 0.3598711 0.3598711
0.3657029 0.3657029 0.3657029
0.3658661 0.3658661 0.3658661
0.3658661 0.3658661 0.3658661
0.3658661 0.3658661 0.3658661
0.3658661 0.3658661 0.3658661
0.3658661 0.3658661 0.3658661
0.3658661 0.3658661 0.3658661
0.3658661 0.3658661 0.3658661
0.3658661 0.3658661 0.3658661
0.3658661 0.3658661 0.3658661
0.3658661 0.3658661 0.3658661
0.1802781 0.1802781 0.1802781
0.1864862 0.1864862 0.1864862
0.1927453 0.1927453 0.1927453
0.1994760 0.1994760 0.1994760
0.2061997 0.2061997 0.2061997
0.2128944 0.2128944 0.2128944
0.2195967 0.2195967 0.2195967
0.2263173 0.2263173 0.2263173
0.2343719 0.2343719 0.2343719
0.2425941 0.2425941 0.2425941
0.2508847 0.2508847 0.2508847
0.2592028 0.2592028 0.2592028
0.2675607 0.2675607 0.2675607
0.2759521 0.2759521 0.2759521
0.2843590 0.2843590 0.2843590
0.2974759 0.2974759 0.2974759
0.3116640 0.3116640 0.3116640
0.3258660 0.3258660 0.3258660
0.3400722 0.3400722 0.3400722
0.3542773 0.3542773 0.3542773
0.3684771 0.3684771 0.3684771
0.3826698 0.3826698 0.3826698
0.3885018 0.3885018 0.3885018
0.3886650 0.3886650 0.3886650
0.3886650 0.3886650 0.3886650
0.3886650 0.3886650 0.3886650
0.3886650 0.3886650 0.3886650
0.3886650 0.3886650 0.3886650
0.3886650 0.3886650 0.3886650
0.3886650 0.3886650 0.3886650
0.3886650 0.3886650 0.3886650
0.3886650 0.3886650 0.3886650
0.3886650 0.3886650 0.3886650
0.2040687 0.2040687 0.2040687
0.2102451 0.2102451 0.2102451
0.2164803 0.2164803 0.2164803
0.2232577 0.2232577 0.2232577
0.2300287 0.2300287 0.2300287
0.2367733 0.2367733 0.2367733
0.2435230 0.2435230 0.2435230
0.2502850 0.2502850 0.2502850
0.2583824 0.2583824 0.2583824
0.2666411 0.2666411 0.2666411
0.2749586 0.2749586 0.2749586
0.2833002 0.2833002 0.2833002
0.2916769 0.2916769 0.2916769
0.3000833 0.3000833 0.3000833
0.3085033 0.3085033 0.3085033
0.3216359 0.3216359 0.3216359
0.3358359 0.3358359 0.3358359
0.3500461 0.3500461 0.3500461
0.3642578 0.3642578 0.3642578
0.3784666 0.3784666 0.3784666
0.3926686 0.3926686 0.3926686
0.4068624 0.4068624 0.4068624
0.4126946 0.4126946 0.4126946
0.4128578 0.4128578 0.4128578
0.4128578 0.4128578 0.4128578
0.4128578 0.4128578 0.4128578
0.4128578 0.4128578 0.4128578
0.4128578 0.4128578 0.4128578
0.4128578 0.4128578 0.4128578
0.4128578 0.4128578 0.4128578
0.4128578 0.4128578 0.4128578
0.4128578 0.4128578 0.4128578
0.4128578 0.4128578 0.4128578
0.2279056 0.2279056 0.2279056
0.2340531 0.2340531 0.2340531
0.2402661 0.2402661 0.2402661
0.2470842 0.2470842 0.2470842
0.2538965 0.2538965 0.2538965
0.2606854 0.2606854 0.2606854
0.2674774 0.2674774 0.2674774
0.2742767 0.2742767 0.2742767
0.2824126 0.2824126 0.2824126
0.2907044 0.2907044 0.2907044
0.2990462 0.2990462 0.2990462
0.3074088 0.3074088 0.3074088
0.3158023 0.3158023 0.3158023
0.3242219 0.3242219 0.3242219
0.3326536 0.3326536 0.3326536
0.3458002 0.3458002 0.3458002
0.3600106 0.3600106 0.3600106
0.3742283 0.3742283 0.3742283
0.3884449 0.3884449 0.3884449
0.4026570 0.4026570 0.4026570
0.4168610 0.4168610 0.4168610
0.4310558 0.4310558 0.4310558
0.4368882 0.4368882 0.4368882
0.4370513 0.4370513 0.4370513
0.4370513 0.4370513 0.4370513
0.4370513 0.4370513 0.4370513
0.4370513 0.4370513 0.4370513
0.4370513 0.4370513 0.4370513
0.4370513 0.4370513 0.4370513
0.4370513 0.4370513 0.4370513
0.4370513 0.4370513 0.4370513
0.4370513 0.4370513 0.4370513
0.4370513 0.4370513 0.4370513
0.2518374 0.2518374 0.2518374
0.2579616 0.2579616 0.2579616
0.2641564 0.2641564 0.2641564
0.2710028 0.2710028 0.2710028
0.2778443 0.2778443 0.2778443
0.2846658 0.2846658 0.2846658
0.2914893 0.2914893 0.2914893
0.2983174 0.2983174 0.2983174
0.3064834 0.3064834 0.3064834
0.3148011 0.3148011 0.3148011
0.3231617 0.3231617 0.3231617
0.3315406 0.3315406 0.3315406
0.3399466 0.3399466 0.3399466
0.3483759 0.3483759 0.3483759
0.3568161 0.3568161 0.3568161
0.3699728 0.3699728 0.3699728
0.3841914 0.3841914 0.3841914
0.3984147 0.3984147 0.3984147
0.4126350 0.4126350 0.4126350
0.4268496 0.4268496 0.4268496
0.4410553 0.4410553 0.4410553
0.4552508 0.4552508 0.4552508
0.4610835 0.4610835 0.4610835
0.4612467 0.4612467 0.4612467
0.4612467 0.4612467 0.4612467
0.4612467 0.4612467 0.4612467
0.4612467 0.4612467 0.4612467
0.4612467 0.4612467 0.4612467
0.4612467 0.4612467 0.4612467
0.4612467 0.4612467 0.4612467
0.4612467 0.4612467 0.4612467
0.4612467 0.4612467 0.4612467
0.4612467 0.4612467 0.4612467
0.2758138 0.2758138 0.2758138
0.2819189 0.2819189 0.2819189
0.2880987 0.2880987 0.2880987
0.2949683 0.2949683 0.2949683
0.3018340 0.3018340 0.3018340
0.3086830 0.3086830 0.3086830
0.3155333 0.3155333 0.3155333
0.3223861 0.3223861 0.3223861
0.3305781 0.3305781 0.3305781
0.3389182 0.3389182 0.3389182
0.3472949 0.3472949 0.3472949
0.3556875 0.3556875 0.3556875
0.3641038 0.3641038 0.3641038
0.3725409 0.3725409 0.3725409
0.3809878 0.3809878 0.3809878
0.3941524 0.3941524 0.3941524
0.4083770 0.4083770 0.4083770
0.4226044 0.4226044 0.4226044
0.4368276 0.4368276 0.4368276
0.4510441 0.4510441 0.4510441
0.4652509 0.4652509 0.4652509
0.4794471 0.4794471 0.4794471
0.4852800 0.4852800 0.4852800
0.4854432 0.4854432 0.4854432
0.4854432 0.4854432 0.4854432
0.4854432 0.4854432 0.4854432
0.4854432 0.4854432 0.4854432
0.4854432 0.4854432 0.4854432
0.4854432 0.4854432 0.4854432
0.4854432 0.4854432 0.4854432
0.4854432 0.4854432 0.4854432
0.4854432 0.4854432 0.4854432
0.4854432 0.4854432 0.4854432
0.2998373 0.2998373 0.2998373
0.3059277 0.3059277 0.3059277
0.3120959 0.3120959 0.3120959
0.3189838 0.3189838 0.3189838
0.3258684 0.3258684 0.3258684
0.3327394 0.3327394 0.3327394
0.3396111 0.3396111 0.3396111
0.3464845 0.3464845 0.3464845
0.3546981 0.3546981 0.3546981
0.3630572 0.3630572 0.3630572
0.3714469 0.3714469 0.3714469
0.3798504 0.3798504 0.3798504
0.3882747 0.3882747 0.3882747
0.3967176 0.3967176 0.3967176
0.4051692 0.4051692 0.4051692
0.4183391 0.4183391 0.4183391
0.4325678 0.4325678 0.4325678
0.4467977 0.4467977 0.4467977
0.4610229 0.4610229 0.4610229
0.4752406 0.4752406 0.4752406
0.4894479 0.4894479 0.4894479
0.5036447 0.5036447 0.5036447
0.5094777 0.5094777 0.5094777
0.5096410 0.5096410 0.5096410
0.5096410 0.5096410 0.5096410
0.5096410 0.5096410 0.5096410
0.5096410 0.5096410 0.5096410
0.5096410 0.5096410 0.5096410
0.5096410 0.5096410 0.5096410
0.5096410 0.5096410 0.5096410
0.5096410 0.5096410 0.5096410
0.5096410 0.5096410 0.5096410
0.5096410 0.5096410 0.5096410
0.3239004 0.3239004 0.3239004
0.3299797 0.3299797 0.3299797
0.3361393 0.3361393 0.3361393
0.3430419 0.3430419 0.3430419
0.3499417 0.3499417 0.3499417
0.3568301 0.3568301 0.3568301
0.3637191 0.3637191 0.3637191
0.3706094 0.3706094 0.3706094
0.3788407 0.3788407 0.3788407
0.3872154 0.3872154 0.3872154
0.3956159 0.3956159 0.3956159
0.4040282 0.4040282 0.4040282
0.4124586 0.4124586 0.4124586
0.4209058 0.4209058 0.4209058
0.4293607 0.4293607 0.4293607
0.4425334 0.4425334 0.4425334
0.4567641 0.4567641 0.4567641
0.4709952 0.4709952 0.4709952
0.4852210 0.4852210 0.4852210
0.4994389 0.4994389 0.4994389
0.5136464 0.5136464 0.5136464
0.5278434 0.5278434 0.5278434
0.5336765 0.5336765 0.5336765
0.5338397 0.5338397 0.5338397
0.5338397 0.5338397 0.5338397
0.5338397 0.5338397 0.5338397
0.5338397 0.5338397 0.5338397
0.5338397 0.5338397 0.5338397
0.5338397 0.5338397 0.5338397
0.5338397 0.5338397 0.5338397
0.5338397 0.5338397 0.5338397
0.5338397 0.5338397 0.5338397
0.5338397 0.5338397 0.5338397
0.3479855 0.3479855 0.3479855
0.3540556 0.3540556 0.3540556
0.3602083 0.3602083 0.3602083
0.3671235 0.3671235 0.3671235
0.3740364 0.3740364 0.3740364
0.3809400 0.3809400 0.3809400
0.3878440 0.3878440 0.3878440
0.3947490 0.3947490 0.3947490
0.4029960 0.4029960 0.4029960
0.4113844 0.4113844 0.4113844
0.4197942 0.4197942 0.4197942
0.4282142 0.4282142 0.4282142
0.4366497 0.4366497 0.4366497
0.4451003 0.4451003 0.4451003
0.4535577 0.4535577 0.4535577
0.4667318 0.4667318 0.4667318
0.4809636 0.4809636 0.4809636
0.4951950 0.4951950 0.4951950
0.5094206 0.5094206 0.5094206
0.5236382 0.5236382 0.5236382
0.5378457 0.5378457 0.5378457
0.5520427 0.5520427 0.5520427
0.5578759 0.5578759 0.5578759
0.5580391 0.5580391 0.5580391
0.5580391 0.5580391 0.5580391
0.5580391 0.5580391 0.5580391
0.5580391 0.5580391 0.5580391
0.5580391 0.5580391 0.5580391
0.5580391 0.5580391 0.5580391
0.5580391 0.5580391 0.5580391
0.5580391 0.5580391 0.5580391
0.5580391 0.5580391 0.5580391
0.5580391 0.5580391 0.5580391
0.3777370 0.3777370 0.3777370
0.3838002 0.3838002 0.3838002
0.3899478 0.3899478 0.3899478
0.3968743 0.3968743 0.3968743
0.4037990 0.4037990 0.4037990
0.4107167 0.4107167 0.4107167
0.4176348 0.4176348 0.4176348
0.4245534 0.4245534 0.4245534
0.4328152 0.4328152 0.4328152
0.4412173 0.4412173 0.4412173
0.4496363 0.4496363 0.4496363
0.4580636 0.4580636 0.4580636
0.4665038 0.4665038 0.4665038
0.4749566 0.4749566 0.4749566
0.4834153 0.4834153 0.4834153
0.4965896 0.4965896 0.4965896
0.5108202 0.5108202 0.5108202
0.5250503 0.5250503 0.5250503
0.5392747 0.5392747 0.5392747
0.5534911 0.5534911 0.5534911
0.5676978 0.5676978 0.5676978
0.5818943 0.5818943 0.5818943
0.5877272 0.5877272 0.5877272
0.5878904 0.5878904 0.5878904
0.5878904 0.5878904 0.5878904
0.5878904 0.5878904 0.5878904
0.5878904 0.5878904 0.5878904
0.5878904 0.5878904 0.5878904
0.5878904 0.5878904 0.5878904
0.5878904 0.5878904 0.5878904
0.5878904 0.5878904 0.5878904
0.5878904 0.5878904 0.5878904
0.5878904 0.5878904 0.5878904
0.4182797 0.4182797 0.4182797
0.4243373 0.4243373 0.4243373
0.4304810 0.4304810 0.4304810
0.4374192 0.4374192 0.4374192
0.4443565 0.4443565 0.4443565
0.4512895 0.4512895 0.4512895
0.4582225 0.4582225 0.4582225
0.4651559 0.4651559 0.4651559
0.4734339 0.4734339 0.4734339
0.4818510 0.4818510 0.4818510
0.4902803 0.4902803 0.4902803
0.4987158 0.4987158 0.4987158
0.5071611 0.5071611 0.5071611
0.5156161 0.5156161 0.5156161
0.5240758 0.5240758 0.5240758
0.5372488 0.5372488 0.5372488
0.5514763 0.5514763 0.5514763
0.5657033 0.5657033 0.5657033
0.5799250 0.5799250 0.5799250
0.5941390 0.5941390 0.5941390
0.6083441 0.6083441 0.6083441
0.6225396 0.6225396 0.6225396
0.6283724 0.6283724 0.6283724
0.6285356 0.6285356 0.6285356
0.6285356 0.6285356 0.6285356
0.6285356 0.6285356 0.6285356
0.6285356 0.6285356 0.6285356
0.6285356 0.6285356 0.6285356
0.6285356 0.6285356 0.6285356
0.6285356 0.6285356 0.6285356
0.6285356 0.6285356 0.6285356
0.6285356 0.6285356 0.6285356
0.6285356 0.6285356 0.6285356
0.4588558 0.4588558 0.4588558
0.4649109 0.4649109 0.4649109
0.4710532 0.4710532 0.4710532
0.4780002 0.4780002 0.4780002
0.4849465 0.4849465 0.4849465
0.4918904 0.4918904 0.4918904
0.4988343 0.4988343 0.4988343
0.5057786 0.5057786 0.5057786
0.5140686 0.5140686 0.5140686
0.5224966 0.5224966 0.5224966
0.5309337 0.5309337 0.5309337
0.5393754 0.5393754 0.5393754
0.5478243 0.5478243 0.5478243
0.5562808 0.5562808 0.5562808
0.5647408 0.5647408 0.5647408
0.5779117 0.5779117 0.5779117
0.5921351 0.5921351 0.5921351
0.6063581 0.6063581 0.6063581
0.6205764 0.6205764 0.6205764
0.6347875 0.6347875 0.6347875
0.6489907 0.6489907 0.6489907
0.6631852 0.6631852 0.6631852
0.6690176 0.6690176 0.6690176
0.6691808 0.6691808 0.6691808
0.6691808 0.6691808 0.6691808
0.6691808 0.6691808 0.6691808
0.6691808 0.6691808 0.6691808
0.6691808 0.6691808 0.6691808
0.6691808 0.6691808 0.6691808
0.6691808 0.6691808 0.6691808
0.6691808 0.6691808 0.6691808
0.6691808 0.6691808 0.6691808
0.6691808 0.6691808 0.6691808
0.4994539 0.4994539 0.4994539
0.5055083 0.5055083 0.5055083
0.5116506 0.5116506 0.5116506
0.5186039 0.5186039 0.5186039
0.5255569 0.5255569 0.5255569
0.5325085 0.5325085 0.5325085
0.5394602 0.5394602 0.5394602
0.5464125 0.5464125 0.5464125
0.5547113 0.5547113 0.5547113
0.5631475 0.5631475 0.5631475
0.5715901 0.5715901 0.5715901
0.5800362 0.5800362 0.5800362
0.5884876 0.5884876 0.5884876
0.5969450 0.5969450 0.5969450
0.6054050 0.6054050 0.6054050
0.6185735 0.6185735 0.6185735
0.6327931 0.6327931 0.6327931
0.6470121 0.6470121 0.6470121
0.6612269 0.6612269 0.6612269
0.6754353 0.6754353 0.6754353
0.6896367 0.6896367 0.6896367
0.7038299 0.7038299 0.7038299
0.7096618 0.7096618 0.7096618
0.7098250 0.7098250 0.7098250
0.7098250 0.7098250 0.7098250
0.7098250 0.7098250 0.7098250
0.7098250 0.7098250 0.7098250
0.7098250 0.7098250 0.7098250
0.7098250 0.7098250 0.7098250
0.7098250 0.7098250 0.7098250
0.7098250 0.7098250 0.7098250
0.7098250 0.7098250 0.7098250
0.7098250 0.7098250 0.7098250
0.5400657 0.5400657 0.5400657
0.5461210 0.5461210 0.5461210
0.5522644 0.5522644 0.5522644
0.5592222 0.5592222 0.5592222
0.5661797 0.5661797 0.5661797
0.5731363 0.5731363 0.5731363
0.5800933 0.5800933 0.5800933
0.5870514 0.5870514 0.5870514
0.5953564 0.5953564 0.5953564
0.6037981 0.6037981 0.6037981
0.6122448 0.6122448 0.6122448
0.6206942 0.6206942 0.6206942
0.6291477 0.6291477 0.6291477
0.6376053 0.6376053 0.6376053
0.6460651 0.6460651 0.6460651
0.6592316 0.6592316 0.6592316
0.6734477 0.6734477 0.6734477
0.6876633 0.6876633 0.6876633
0.7018746 0.7018746 0.7018746
0.7160805 0.7160805 0.7160805
0.7302802 0.7302802 0.7302802
0.7444725 0.7444725 0.7444725
0.7503044 0.7503044 0.7503044
0.7504675 0.7504675 0.7504675
0.7504675 0.7504675 0.7504675
0.7504675 0.7504675 0.7504675
0.7504675 0.7504675 0.7504675
0.7504675 0.7504675 0.7504675
0.7504675 0.7504675 0.7504675
0.7504675 0.7504675 0.7504675
0.7504675 0.7504675 0.7504675
0.7504675 0.7504675 0.7504675
0.7504675 0.7504675 0.7504675
0.5806854 0.5806854 0.5806854
0.5867417 0.5867417 0.5867417
0.5928865 0.5928865 0.5928865
0.5998472 0.5998472 0.5998472
0.6068079 0.6068079 0.6068079
0.6137683 0.6137683 0.6137683
0.6207292 0.6207292 0.6207292
0.6276915 0.6276915 0.6276915
0.6360010 0.6360010 0.6360010
0.6444468 0.6444468 0.6444468
0.6528963 0.6528963 0.6528963
0.6613478 0.6613478 0.6613478
0.6698028 0.6698028 0.6698028
0.6782604 0.6782604 0.6782604
0.6867196 0.6867196 0.6867196
0.6998843 0.6998843 0.6998843
0.7140971 0.7140971 0.7140971
0.7283098 0.7283098 0.7283098
0.7425186 0.7425186 0.7425186
0.7567231 0.7567231 0.7567231
0.7709213 0.7709213 0.7709213
0.7851128 0.7851128 0.7851128
0.7909443 0.7909443 0.7909443
0.7911075 0.7911075 0.7911075
0.7911075 0.7911075 0.7911075
0.7911075 0.7911075 0.7911075
0.7911075 0.7911075 0.7911075
0.7911075 0.7911075 0.7911075
0.7911075 0.7911075 0.7911075
0.7911075 0.7911075 0.7911075
0.7911075 0.7911075 0.7911075
0.7911075 0.7911075 0.7911075
0.7911075 0.7911075 0.7911075
0.6213095 0.6213095 0.6213095
0.6273670 0.6273670 0.6273670
0.6335129 0.6335129 0.6335129
0.6404754 0.6404754 0.6404754
0.6474380 0.6474380 0.6474380
0.6544009 0.6544009 0.6544009
0.6613645 0.6613645 0.6613645
0.6683294 0.6683294 0.6683294
0.6766418 0.6766418 0.6766418
0.6850902 0.6850902 0.6850902
0.6935419 0.6935419 0.6935419
0.7019950 0.7019950 0.7019950
0.7104505 0.7104505 0.7104505
0.7189083 0.7189083 0.7189083
0.7273671 0.7273671 0.7273671
0.7405302 0.7405302 0.7405302
0.7547411 0.7547411 0.7547411
0.7689513 0.7689513 0.7689513
0.7831583 0.7831583 0.7831583
0.7973611 0.7973611 0.7973611
0.8115579 0.8115579 0.8115579
0.8257490 0.8257490 0.8257490
0.8315805 0.8315805 0.8315805
0.8317437 0.8317437 0.8317437
0.8317437 0.8317437 0.8317437
0.8317437 0.8317437 0.8317437
0.8317437 0.8317437 0.8317437
0.8317437 0.8317437 0.8317437
0.8317437 0.8317437 0.8317437
0.8317437 0.8317437 0.8317437
0.8317437 0.8317437 0.8317437
0.8317437 0.8317437 0.8317437
0.8317437 0.8317437 0.8317437
0.6619343 0.6619343 0.6619343
0.6679930 0.6679930 0.6679930
0.6741401 0.6741401 0.6741401
