presets/experimental/experimental-nightstreet/look.cube
# Approximate v0 colour conversion; calibrate before claiming visual parity.
LUT_3D_SIZE 9
DOMAIN_MIN 0 0 0
DOMAIN_MAX 1 1 1
0.0177481 0.0177481 0.0177481
0.0294195 0.0294195 0.0294195
0.0576930 0.0576930 0.0576930
0.0911028 0.0911028 0.0911028
0.1351874 0.1351874 0.1351874
0.1919035 0.1919035 0.1919035
0.2120787 0.2120787 0.2120787
0.2120787 0.2120787 0.2120787
0.2120787 0.2120787 0.2120787
0.0818664 0.0818664 0.0818664
0.1061162 0.1061162 0.1061162
0.1328139 0.1328139 0.1328139
0.1653638 0.1653638 0.1653638
0.2091766 0.2091766 0.2091766
0.2658942 0.2658942 0.2658942
0.2860756 0.2860756 0.2860756
0.2860756 0.2860756 0.2860756
0.2860756 0.2860756 0.2860756
0.1580346 0.1580346 0.1580346
0.1838579 0.1838579 0.1838579
0.2117872 0.2117872 0.2117872
0.2448477 0.2448477 0.2448477
0.2888881 0.2888881 0.2888881
0.3456794 0.3456794 0.3456794
0.3658661 0.3658661 0.3658661
0.3658661 0.3658661 0.3658661
0.3658661 0.3658661 0.3658661
0.2518374 0.2518374 0.2518374
0.2778443 0.2778443 0.2778443
0.3064834 0.3064834 0.3064834
0.3399466 0.3399466 0.3399466
0.3841914 0.3841914 0.3841914
0.4410553 0.4410553 0.4410553
0.4612467 0.4612467 0.4612467
0.4612467 0.4612467 0.4612467
0.4612467 0.4612467 0.4612467
0.3479855 0.3479855 0.3479855
0.3740364 0.3740364 0.3740364
0.4029960 0.4029960 0.4029960
0.4366497 0.4366497 0.4366497
0.4809636 0.4809636 0.4809636
0.5378457 0.5378457 0.5378457
0.5580391 0.5580391 0.5580391
0.5580391 0.5580391 0.5580391
0.5580391 0.5580391 0.5580391
0.4994539 0.4994539 0.4994539
0.5255569 0.5255569 0.5255569
0.5547113 0.5547113 0.5547113
0.5884876 0.5884876 0.5884876
0.6327931 0.6327931 0.6327931
0.6896367 0.6896367 0.6896367
0.7098250 0.7098250 0.7098250
0.7098250 0.7098250 0.7098250
0.7098250 0.7098250 0.7098250
0.6619343 0.6619343 0.6619343
0.6880678 0.6880678 0.6880678
0.7172772 0.7172772 0.7172772
0.7510901 0.7510901 0.7510901
0.7953781 0.7953781 0.7953781
0.8521909 0.8521909 0.8521909
0.8723758 0.8723758 0.8723758
0.8723758 0.8723758 0.8723758
0.8723758 0.8723758 0.8723758
0.7090554 0.7090554 0.7090554
0.7351917 0.7351917 0.7351917
0.7644043 0.7644043 0.7644043
0.7982198 0.7982198 0.7982198
0.8425065 0.8425065 0.8425065
0.8993161 0.8993161 0.8993161
0.9195014 0.9195014 0.9195014
0.9195014 0.9195014 0.9195014
0.9195014 0.9195014 0.9195014
0.7090554 0.7090554 0.7090554
0.7351917 0.7351917 0.7351917
0.7644043 0.7644043 0.7644043
0.7982198 0.7982198 0.7982198
0.8425065 0.8425065 0.8425065
0.8993161 0.8993161 0.8993161
0.9195014 0.9195014 0.9195014
0.9195014 0.9195014 0.9195014
0.9195014 0.9195014 0.9195014
0.0106937 0.0106937 0.0106937
0.0367284 0.0367284 0.0367284
0.0651601 0.0651601 0.0651601
0.0985605 0.0985605 0.0985605
0.1426472 0.1426472 0.1426472
0.1993727 0.1993727 0.1993727
0.2195492 0.2195492 0.2195492
0.2195492 0.2195492 0.2195492
0.2195492 0.2195492 0.2195492
0.0872535 0.0872535 0.0872535
0.1134919 0.1134919 0.1134919
0.1398555 0.1398555 0.1398555
0.1726327 0.1726327 0.1726327
0.2165927 0.2165927 0.2165927
0.2733633 0.2733633 0.2733633
0.2935488 0.2935488 0.2935488
0.2935488 0.2935488 0.2935488
0.2935488 0.2935488 0.2935488
0.1650386 0.1650386 0.1650386
0.1908695 0.1908695 0.1908695
0.2186614 0.2186614 0.2186614
0.2520328 0.2520328 0.2520328
0.2962906 0.2962906 0.2962906
0.3531514 0.3531514 0.3531514
0.3733429 0.3733429 0.3733429
0.3733429 0.3733429 0.3733429
0.3733429 0.3733429 0.3733429
0.2591352 0.2591352 0.2591352
0.2850034 0.2850034 0.2850034
0.3135022 0.3135022 0.3135022
0.3471184 0.3471184 0.3471184
0.3915908 0.3915908 0.3915908
0.4485334 0.4485334 0.4485334
0.4687304 0.4687304 0.4687304
0.4687304 0.4687304 0.4687304
0.4687304 0.4687304 0.4687304
0.3553747 0.3553747 0.3553747
0.3813597 0.3813597 0.3813597
0.4102598 0.4102598 0.4102598
0.4439444 0.4439444 0.4439444
0.4883917 0.4883917 0.4883917
0.5453350 0.5453350 0.5453350
0.5655316 0.5655316 0.5655316
0.5655316 0.5655316 0.5655316
0.5655316 0.5655316 0.5655316
0.5069021 0.5069021 0.5069021
0.5329945 0.5329945 0.5329945
0.5621432 0.5621432 0.5621432
0.5959316 0.5959316 0.5959316
0.6402772 0.6402772 0.6402772
0.6971423 0.6971423 0.6971423
0.7173318 0.7173318 0.7173318
0.7173318 0.7173318 0.7173318
0.7173318 0.7173318 0.7173318
0.6694044 0.6694044 0.6694044
0.6955391 0.6955391 0.6955391
0.7247530 0.7247530 0.7247530
0.7585757 0.7585757 0.7585757
0.8028803 0.8028803 0.8028803
0.8597035 0.8597035 0.8597035
0.8798901 0.8798901 0.8798901
0.8798901 0.8798901 0.8798901
0.8798901 0.8798901 0.8798901
0.7165272 0.7165272 0.7165272
0.7426653 0.7426653 0.7426653
0.7718830 0.7718830 0.7718830
0.8057080 0.8057080 0.8057080
0.8500094 0.8500094 0.8500094
0.9068297 0.9068297 0.9068297
0.9270160 0.9270160 0.9270160
0.9270160 0.9270160 0.9270160
0.9270160 0.9270160 0.9270160
0.7165272 0.7165272 0.7165272
0.7426653 0.7426653 0.7426653
0.7718830 0.7718830 0.7718830
0.8057080 0.8057080 0.8057080
0.8500094 0.8500094 0.8500094
0.9068297 0.9068297 0.9068297
0.9270160 0.9270160 0.9270160
0.9270160 0.9270160 0.9270160
0.9270160 0.9270160 0.9270160
0.0176236 0.0176236 0.0176236
0.0441561 0.0441561 0.0441561
0.0729658 0.0729658 0.0729658
0.1065229 0.1065229 0.1065229
0.1506795 0.1506795 0.1506795
0.2074276 0.2074276 0.2074276
0.2276058 0.2276058 0.2276058
0.2276058 0.2276058 0.2276058
0.2276058 0.2276058 0.2276058
0.0933102 0.0933102 0.0933102
0.1191411 0.1191411 0.1191411
0.1469330 0.1469330 0.1469330
0.1803044 0.1803044 0.1803044
0.2245621 0.2245621 0.2245621
0.2814229 0.2814229 0.2814229
0.3016144 0.3016144 0.3016144
0.3016144 0.3016144 0.3016144
0.3016144 0.3016144 0.3016144
0.1721636 0.1721636 0.1721636
0.1976341 0.1976341 0.1976341
0.2243200 0.2243200 0.2243200
0.2595096 0.2595096 0.2595096
0.3042439 0.3042439 0.3042439
0.3612161 0.3612161 0.3612161
0.3814138 0.3814138 0.3814138
0.3814138 0.3814138 0.3814138
0.3814138 0.3814138 0.3814138
0.2667938 0.2667938 0.2667938
0.2924253 0.2924253 0.2924253
0.3203265 0.3203265 0.3203265
0.3544639 0.3544639 0.3544639
0.3995390 0.3995390 0.3995390
0.4566102 0.4566102 0.4566102
0.4768125 0.4768125 0.4768125
0.4768125 0.4768125 0.4768125
0.4768125 0.4768125 0.4768125
0.3632611 0.3632611 0.3632611
0.3891532 0.3891532 0.3891532
0.4179211 0.4179211 0.4179211
0.4516346 0.4516346 0.4516346
0.4963952 0.4963952 0.4963952
0.5534288 0.5534288 0.5534288
0.5736268 0.5736268 0.5736268
0.5736268 0.5736268 0.5736268
0.5736268 0.5736268 0.5736268
0.5149232 0.5149232 0.5149232
0.5410034 0.5410034 0.5410034
0.5701496 0.5701496 0.5701496
0.6039619 0.6039619 0.6039619
0.6483808 0.6483808 0.6483808
0.7052532 0.7052532 0.7052532
0.7254405 0.7254405 0.7254405
0.7254405 0.7254405 0.7254405
0.7254405 0.7254405 0.7254405
0.6774627 0.6774627 0.6774627
0.7036022 0.7036022 0.7036022
0.7328240 0.7328240 0.7328240
0.7666630 0.7666630 0.7666630
0.8109875 0.8109875 0.8109875
0.8678174 0.8678174 0.8678174
0.8880053 0.8880053 0.8880053
0.8880053 0.8880053 0.8880053
0.8880053 0.8880053 0.8880053
0.7245880 0.7245880 0.7245880
0.7507315 0.7507315 0.7507315
0.7799575 0.7799575 0.7799575
0.8137967 0.8137967 0.8137967
0.8581153 0.8581153 0.8581153
0.9149440 0.9149440 0.9149440
0.9351321 0.9351321 0.9351321
0.9351321 0.9351321 0.9351321
0.9351321 0.9351321 0.9351321
0.7245880 0.7245880 0.7245880
0.7507315 0.7507315 0.7507315
0.7799575 0.7799575 0.7799575
0.8137967 0.8137967 0.8137967
0.8581153 0.8581153 0.8581153
0.9149440 0.9149440 0.9149440
0.9351321 0.9351321 0.9351321
0.9351321 0.9351321 0.9351321
0.9351321 0.9351321 0.9351321
0.0270931 0.0270931 0.0270931
0.0533617 0.0533617 0.0533617
0.0823893 0.0823893 0.0823893
0.1160700 0.1160700 0.1160700
0.1602894 0.1602894 0.1602894
0.2170598 0.2170598 0.2170598
0.2372394 0.2372394 0.2372394
0.2372394 0.2372394 0.2372394
0.2372394 0.2372394 0.2372394
0.1016761 0.1016761 0.1016761
0.1275442 0.1275442 0.1275442
0.1560430 0.1560430 0.1560430
0.1896592 0.1896592 0.1896592
0.2341317 0.2341317 0.2341317
0.2910743 0.2910743 0.2910743
0.3112713 0.3112713 0.3112713
0.3112713 0.3112713 0.3112713
0.3112713 0.3112713 0.3112713
0.1810631 0.1810631 0.1810631
0.2066946 0.2066946 0.2066946
0.2345958 0.2345958 0.2345958
0.2687332 0.2687332 0.2687332
0.3138083 0.3138083 0.3138083
0.3708795 0.3708795 0.3708795
0.3910819 0.3910819 0.3910819
0.3910819 0.3910819 0.3910819
0.3910819 0.3910819 0.3910819
0.2760837 0.2760837 0.2760837
0.3016872 0.3016872 0.3016872
0.3290799 0.3290799 0.3290799
0.3625054 0.3625054 0.3625054
0.4090929 0.4090929 0.4090929
0.4662980 0.4662980 0.4662980
0.4865000 0.4865000 0.4865000
0.4865000 0.4865000 0.4865000
0.4865000 0.4865000 0.4865000
0.3727425 0.3727425 0.3727425
0.3985884 0.3985884 0.3985884
0.4271875 0.4271875 0.4271875
0.4605046 0.4605046 0.4605046
0.5060442 0.5060442 0.5060442
0.5631485 0.5631485 0.5631485
0.5833368 0.5833368 0.5833368
0.5833368 0.5833368 0.5833368
0.5833368 0.5833368 0.5833368
0.5245304 0.5245304 0.5245304
0.5506102 0.5506102 0.5506102
0.5797681 0.5797681 0.5797681
0.6136331 0.6136331 0.6136331
0.6582038 0.6582038 0.6582038
0.7149914 0.7149914 0.7149914
0.7351685 0.7351685 0.7351685
0.7351685 0.7351685 0.7351685
0.7351685 0.7351685 0.7351685
0.6871071 0.6871071 0.6871071
0.7132578 0.7132578 0.7132578
0.7424963 0.7424963 0.7424963
0.7763654 0.7763654 0.7763654
0.8207196 0.8207196 0.8207196
0.8775603 0.8775603 0.8775603
0.8977551 0.8977551 0.8977551
0.8977551 0.8977551 0.8977551
0.8977551 0.8977551 0.8977551
0.7342343 0.7342343 0.7342343
0.7603898 0.7603898 0.7603898
0.7896314 0.7896314 0.7896314
0.8234964 0.8234964 0.8234964
0.8678396 0.8678396 0.8678396
0.9246907 0.9246907 0.9246907
0.9448869 0.9448869 0.9448869
0.9448869 0.9448869 0.9448869
0.9448869 0.9448869 0.9448869
0.7342343 0.7342343 0.7342343
0.7603898 0.7603898 0.7603898
0.7896314 0.7896314 0.7896314
0.8234964 0.8234964 0.8234964
0.8678396 0.8678396 0.8678396
0.9246907 0.9246907 0.9246907
0.9448869 0.9448869 0.9448869
0.9448869 0.9448869 0.9448869
0.9448869 0.9448869 0.9448869
0.0367993 0.0367993 0.0367993
0.0629577 0.0629577 0.0629577
0.0920837 0.0920837 0.0920837
0.1258228 0.1258228 0.1258228
0.1700634 0.1700634 0.1700634
0.2268393 0.2268393 0.2268393
0.2470196 0.2470196 0.2470196
0.2470196 0.2470196 0.2470196
0.2470196 0.2470196 0.2470196
0.1109335 0.1109335 0.1109335
0.1369185 0.1369185 0.1369185
0.1658185 0.1658185 0.1658185
0.1995031 0.1995031 0.1995031
0.2439504 0.2439504 0.2439504
0.3008937 0.3008937 0.3008937
0.3210903 0.3210903 0.3210903
0.3210903 0.3210903 0.3210903
0.3210903 0.3210903 0.3210903
0.1905483 0.1905483 0.1905483
0.2164404 0.2164404 0.2164404
0.2452083 0.2452083 0.2452083
0.2789218 0.2789218 0.2789218
0.3236824 0.3236824 0.3236824
0.3807160 0.3807160 0.3807160
0.4009141 0.4009141 0.4009141
0.4009141 0.4009141 0.4009141
0.4009141 0.4009141 0.4009141
0.2857604 0.2857604 0.2857604
0.3116063 0.3116063 0.3116063
0.3402053 0.3402053 0.3402053
0.3735224 0.3735224 0.3735224
0.4190620 0.4190620 0.4190620
0.4761664 0.4761664 0.4761664
0.4963546 0.4963546 0.4963546
0.4963546 0.4963546 0.4963546
0.4963546 0.4963546 0.4963546
0.3824984 0.3824984 0.3824984
0.4084387 0.4084387 0.4084387
0.4372681 0.4372681 0.4372681
0.4700772 0.4700772 0.4700772
0.5162662 0.5162662 0.5162662
0.5730557 0.5730557 0.5730557
0.5932130 0.5932130 0.5932130
0.5932130 0.5932130 0.5932130
0.5932130 0.5932130 0.5932130
0.5343240 0.5343240 0.5343240
0.5604346 0.5604346 0.5604346
0.5896501 0.5896501 0.5896501
0.6236638 0.6236638 0.6236638
0.6686167 0.6686167 0.6686167
0.7248838 0.7248838 0.7248838
0.7450558 0.7450558 0.7450558
0.7450558 0.7450558 0.7450558
0.7450558 0.7450558 0.7450558
0.6969097 0.6969097 0.6969097
0.7230787 0.7230787 0.7230787
0.7523395 0.7523395 0.7523395
0.7862440 0.7862440 0.7862440
0.8306151 0.8306151 0.8306151
0.8875066 0.8875066 0.8875066
0.9077389 0.9077389 0.9077389
0.9077389 0.9077389 0.9077389
0.9077389 0.9077389 0.9077389
0.7440380 0.7440380 0.7440380
0.7702105 0.7702105 0.7702105
0.7994706 0.7994706 0.7994706
0.8333638 0.8333638 0.8333638
0.8777232 0.8777232 0.8777232
0.9346587 0.9346587 0.9346587
0.9548930 0.9548930 0.9548930
0.9548930 0.9548930 0.9548930
0.9548930 0.9548930 0.9548930
0.7440380 0.7440380 0.7440380
0.7702105 0.7702105 0.7702105
0.7994706 0.7994706 0.7994706
0.8333638 0.8333638 0.8333638
0.8777232 0.8777232 0.8777232
0.9346587 0.9346587 0.9346587
0.9548930 0.9548930 0.9548930
0.9548930 0.9548930 0.9548930
0.9548930 0.9548930 0.9548930
0.0520902 0.0520902 0.0520902
0.0782160 0.0782160 0.0782160
0.1074018 0.1074018 0.1074018
0.1411786 0.1411786 0.1411786
0.1854165 0.1854165 0.1854165
0.2421807 0.2421807 0.2421807
0.2623594 0.2623594 0.2623594
0.2623594 0.2623594 0.2623594
0.2623594 0.2623594 0.2623594
0.1260716 0.1260716 0.1260716
0.1521640 0.1521640 0.1521640
0.1813127 0.1813127 0.1813127
0.2151011 0.2151011 0.2151011
0.2594467 0.2594467 0.2594467
0.3163117 0.3163117 0.3163117
0.3365013 0.3365013 0.3365013
0.3365013 0.3365013 0.3365013
0.3365013 0.3365013 0.3365013
0.2058211 0.2058211 0.2058211
0.2319013 0.2319013 0.2319013
0.2610475 0.2610475 0.2610475
0.2948598 0.2948598 0.2948598
0.3392787 0.3392787 0.3392787
0.3961511 0.3961511 0.3961511
0.4163384 0.4163384 0.4163384
0.4163384 0.4163384 0.4163384
0.4163384 0.4163384 0.4163384
0.3011589 0.3011589 0.3011589
0.3272389 0.3272389 0.3272389
0.3563967 0.3563967 0.3563967
0.3902617 0.3902617 0.3902617
0.4348323 0.4348323 0.4348323
0.4916200 0.4916200 0.4916200
0.5117970 0.5117970 0.5117970
0.5117970 0.5117970 0.5117970
0.5117970 0.5117970 0.5117970
0.3979347 0.3979347 0.3979347
0.4240453 0.4240453 0.4240453
0.4532608 0.4532608 0.4532608
0.4872746 0.4872746 0.4872746
0.5322274 0.5322274 0.5322274
0.5884945 0.5884945 0.5884945
0.6086665 0.6086665 0.6086665
0.6086665 0.6086665 0.6086665
0.6086665 0.6086665 0.6086665
0.5497344 0.5497344 0.5497344
0.5759079 0.5759079 0.5759079
0.6052046 0.6052046 0.6052046
0.6393175 0.6393175 0.6393175
0.6848075 0.6848075 0.6848075
0.7400151 0.7400151 0.7400151
0.7605944 0.7605944 0.7605944
0.7605944 0.7605944 0.7605944
0.7605944 0.7605944 0.7605944
0.7122966 0.7122966 0.7122966
0.7384959 0.7384959 0.7384959
0.7677763 0.7677763 0.7677763
0.8016942 0.8016942 0.8016942
0.8459796 0.8459796 0.8459796
0.9036002 0.9036002 0.9036002
0.9241804 0.9241804 0.9241804
0.9241804 0.9241804 0.9241804
0.9241804 0.9241804 0.9241804
0.7594222 0.7594222 0.7594222
0.7856234 0.7856234 0.7856234
0.8149009 0.8149009 0.8149009
0.8488130 0.8488130 0.8488130
0.8931965 0.8931965 0.8931965
0.9509632 0.9509632 0.9509632
0.9715010 0.9715010 0.9715010
0.9715010 0.9715010 0.9715010
0.9715010 0.9715010 0.9715010
0.7594222 0.7594222 0.7594222
0.7856234 0.7856234 0.7856234
0.8149009 0.8149009 0.8149009
0.8488130 0.8488130 0.8488130
0.8931965 0.8931965 0.8931965
0.9509632 0.9509632 0.9509632
0.9715010 0.9715010 0.9715010
0.9715010 0.9715010 0.9715010
0.9715010 0.9715010 0.9715010
0.0684927 0.0684927 0.0684927
0.0946256 0.0946256 0.0946256
0.1238283 0.1238283 0.1238283
0.1576163 0.1576163 0.1576163
0.2018489 0.2018489 0.2018489
0.2586036 0.2586036 0.2586036
0.2787813 0.2787813 0.2787813
0.2787813 0.2787813 0.2787813
0.2787813 0.2787813 0.2787813
0.1424861 0.1424861 0.1424861
0.1686208 0.1686208 0.1686208
0.1978348 0.1978348 0.1978348
0.2316574 0.2316574 0.2316574
0.2759621 0.2759621 0.2759621
0.3327852 0.3327852 0.3327852
0.3529719 0.3529719 0.3529719
0.3529719 0.3529719 0.3529719
0.3529719 0.3529719 0.3529719
0.2222729 0.2222729 0.2222729
0.2484124 0.2484124 0.2484124
0.2776342 0.2776342 0.2776342
0.3114732 0.3114732 0.3114732
0.3557976 0.3557976 0.3557976
0.4126276 0.4126276 0.4126276
0.4328154 0.4328154 0.4328154
0.4328154 0.4328154 0.4328154
0.4328154 0.4328154 0.4328154
0.3176480 0.3176480 0.3176480
0.3437986 0.3437986 0.3437986
0.3730372 0.3730372 0.3730372
0.4069063 0.4069063 0.4069063
0.4512605 0.4512605 0.4512605
0.5081011 0.5081011 0.5081011
0.5282960 0.5282960 0.5282960
0.5282960 0.5282960 0.5282960
0.5282960 0.5282960 0.5282960
0.4144328 0.4144328 0.4144328
0.4406017 0.4406017 0.4406017
0.4698624 0.4698624 0.4698624
0.5037669 0.5037669 0.5037669
0.5481381 0.5481381 0.5481381
0.6050297 0.6050297 0.6050297
0.6252618 0.6252618 0.6252618
0.6252618 0.6252618 0.6252618
0.6252618 0.6252618 0.6252618
0.5662088 0.5662088 0.5662088
0.5924083 0.5924083 0.5924083
0.6216887 0.6216887 0.6216887
0.6556066 0.6556066 0.6556066
0.6998918 0.6998918 0.6998918
0.7575125 0.7575125 0.7575125
0.7780927 0.7780927 0.7780927
0.7780927 0.7780927 0.7780927
0.7780927 0.7780927 0.7780927
0.7287523 0.7287523 0.7287523
0.7549685 0.7549685 0.7549685
0.7842551 0.7842551 0.7842551
0.8182061 0.8182061 0.8182061
0.8629695 0.8629695 0.8629695
0.9289692 0.9289692 0.9289692
0.9469155 0.9469155 0.9469155
0.9469155 0.9469155 0.9469155
0.9469155 0.9469155 0.9469155
0.7758763 0.7758763 0.7758763
0.8020947 0.8020947 0.8020947
0.8313826 0.8313826 0.8313826
0.8653443 0.8653443 0.8653443
0.9102200 0.9102200 0.9102200
0.9725022 0.9725022 0.9725022
0.9933900 0.9933900 0.9933900
0.9933900 0.9933900 0.9933900
0.9933900 0.9933900 0.9933900
0.7758763 0.7758763 0.7758763
0.8020947 0.8020947 0.8020947
0.8313826 0.8313826 0.8313826
0.8653443 0.8653443 0.8653443
0.9102200 0.9102200 0.9102200
0.9725022 0.9725022 0.9725022
0.9933900 0.9933900 0.9933900
0.9933900 0.9933900 0.9933900
0.9933900 0.9933900 0.9933900
0.0732496 0.0732496 0.0732496
0.0993837 0.0993837 0.0993837
0.1285874 0.1285874 0.1285874
0.1623762 0.1623762 0.1623762
0.2066084 0.2066084 0.2066084
0.2633621 0.2633621 0.2633621
0.2835399 0.2835399 0.2835399
0.2835399 0.2835399 0.2835399
0.2835399 0.2835399 0.2835399
0.1472462 0.1472462 0.1472462
0.1733842 0.1733842 0.1733842
0.2026020 0.2026020 0.2026020
0.2364269 0.2364269 0.2364269
0.2807284 0.2807284 0.2807284
0.3375487 0.3375487 0.3375487
0.3577350 0.3577350 0.3577350
0.3577350 0.3577350 0.3577350
0.3577350 0.3577350 0.3577350
0.2270354 0.2270354 0.2270354
0.2531789 0.2531789 0.2531789
0.2824049 0.2824049 0.2824049
0.3162441 0.3162441 0.3162441
0.3605628 0.3605628 0.3605628
0.4173914 0.4173914 0.4173914
0.4375796 0.4375796 0.4375796
0.4375796 0.4375796 0.4375796
0.4375796 0.4375796 0.4375796
0.3224125 0.3224125 0.3224125
0.3485679 0.3485679 0.3485679
0.3778095 0.3778095 0.3778095
0.4116746 0.4116746 0.4116746
0.4560177 0.4560177 0.4560177
0.5128688 0.5128688 0.5128688
0.5330650 0.5330650 0.5330650
0.5330650 0.5330650 0.5330650
0.5330650 0.5330650 0.5330650
0.4191983 0.4191983 0.4191983
0.4453708 0.4453708 0.4453708
0.4746309 0.4746309 0.4746309
0.5085241 0.5085241 0.5085241
0.5528835 0.5528835 0.5528835
0.6098189 0.6098189 0.6098189
0.6300533 0.6300533 0.6300533
0.6300533 0.6300533 0.6300533
0.6300533 0.6300533 0.6300533
0.5709718 0.5709718 0.5709718
0.5971729 0.5971729 0.5971729
0.6264505 0.6264505 0.6264505
0.6603625 0.6603625 0.6603625
0.7047460 0.7047460 0.7047460
0.7625128 0.7625128 0.7625128
0.7830505 0.7830505 0.7830505
0.7830505 0.7830505 0.7830505
0.7830505 0.7830505 0.7830505
0.7335136 0.7335136 0.7335136
0.7597319 0.7597319 0.7597319
0.7890198 0.7890198 0.7890198
0.8229815 0.8229815 0.8229815
0.8678573 0.8678573 0.8678573
0.9302659 0.9302659 0.9302659
0.9510273 0.9510273 0.9510273
0.9510273 0.9510273 0.9510273
0.9510273 0.9510273 0.9510273
0.7806383 0.7806383 0.7806383
0.8068581 0.8068581 0.8068581
0.8361477 0.8361477 0.8361477
0.8701216 0.8701216 0.8701216
0.9150984 0.9150984 0.9150984
0.9770923 0.9770923 0.9770923
0.9982553 0.9982553 0.9982553
0.9982553 0.9982553 0.9982553
0.9982553 0.9982553 0.9982553
0.7806383 0.7806383 0.7806383
0.8068581 0.8068581 0.8068581
0.8361477 0.8361477 0.8361477
0.8701216 0.8701216 0.8701216
0.9150984 0.9150984 0.9150984
0.9770923 0.9770923 0.9770923
0.9982553 0.9982553 0.9982553
0.9982553 0.9982553 0.9982553
0.9982553 0.9982553 0.9982553
0.0732496 0.0732496 0.0732496
0.0993837 0.0993837 0.0993837
0.1285874 0.1285874 0.1285874
0.1623762 0.1623762 0.1623762
0.2066084 0.2066084 0.2066084
0.2633621 0.2633621 0.2633621
0.2835399 0.2835399 0.2835399
0.2835399 0.2835399 0.2835399
0.2835399 0.2835399 0.2835399
0.1472462 0.1472462 0.1472462
0.1733842 0.1733842 0.1733842
0.2026020 0.2026020 0.2026020
0.2364269 0.2364269 0.2364269
0.2807284 0.2807284 0.2807284
0.3375487 0.3375487 0.3375487
0.3577350 0.3577350 0.3577350
0.3577350 0.3577350 0.3577350
0.3577350 0.3577350 0.3577350
0.2270354 0.2270354 0.2270354
0.2531789 0.2531789 0.2531789
0.2824049 0.2824049 0.2824049
0.3162441 0.3162441 0.3162441
0.3605628 0.3605628 0.3605628
0.4173914 0.4173914 0.4173914
0.4375796 0.4375796 0.4375796
0.4375796 0.4375796 0.4375796
0.4375796 0.4375796 0.4375796
0.3224125 0.3224125 0.3224125
0.3485679 0.3485679 0.3485679
0.3778095 0.3778095 0.3778095
0.4116746 0.4116746 0.4116746
0.4560177 0.4560177 0.4560177
0.5128688 0.5128688 0.5128688
0.5330650 0.5330650 0.5330650
0.5330650 0.5330650 0.5330650
0.5330650 0.5330650 0.5330650
0.4191983 0.4191983 0.4191983
0.4453708 0.4453708 0.4453708
0.4746309 0.4746309 0.4746309
0.5085241 0.5085241 0.5085241
0.5528835 0.5528835 0.5528835
0.6098189 0.6098189 0.6098189
0.6300533 0.6300533 0.6300533
0.6300533 0.6300533 0.6300533
0.6300533 0.6300533 0.6300533
0.5709718 0.5709718 0.5709718
0.5971729 0.5971729 0.5971729
0.6264505 0.6264505 0.6264505
0.6603625 0.6603625 0.6603625
0.7047460 0.7047460 0.7047460
0.7625128 0.7625128 0.7625128
0.7830505 0.7830505 0.7830505
0.7830505 0.7830505 0.7830505
0.7830505 0.7830505 0.7830505
0.7335136 0.7335136 0.7335136
0.7597319 0.7597319 0.7597319
0.7890198 0.7890198 0.7890198
0.8229815 0.8229815 0.8229815
0.8678573 0.8678573 0.8678573
0.9302659 0.9302659 0.9302659
0.9510273 0.9510273 0.9510273
0.9510273 0.9510273 0.9510273
0.9510273 0.9510273 0.9510273
0.7806383 0.7806383 0.7806383
0.8068581 0.8068581 0.8068581
0.8361477 0.8361477 0.8361477
0.8701216 0.8701216 0.8701216
0.9150984 0.9150984 0.9150984
0.9770923 0.9770923 0.9770923
0.9982553 0.9982553 0.9982553
0.9982553 0.9982553 0.9982553
0.9982553 0.9982553 0.9982553
0.7806383 0.7806383 0.7806383
0.8068581 0.8068581 0.8068581
0.8361477 0.8361477 0.8361477
0.8701216 0.8701216 0.8701216
0.9150984 0.9150984 0.9150984
0.9770923 0.9770923 0.9770923
0.9982553 0.9982553 0.9982553
0.9982553 0.9982553 0.9982553
0.9982553 0.9982553 0.9982553
