presets/experimental/experimental-nightstreet/look.cube
# Approximate v0 colour conversion; calibrate before claiming visual parity.
LUT_3D_SIZE 5
DOMAIN_MIN 0 0 0
DOMAIN_MAX 1 1 1
0.0177481 0.0177481 0.0177481
0.0576930 0.0576930 0.0576930
0.1351874 0.1351874 0.1351874
0.2120787 0.2120787 0.2120787
0.2120787 0.2120787 0.2120787
0.1580346 0.1580346 0.1580346
0.2117872 0.2117872 0.2117872
0.2888881 0.2888881 0.2888881
0.3658661 0.3658661 0.3658661
0.3658661 0.3658661 0.3658661
0.3479855 0.3479855 0.3479855
0.4029960 0.4029960 0.4029960
0.4809636 0.4809636 0.4809636
0.5580391 0.5580391 0.5580391
0.5580391 0.5580391 0.5580391
0.6619343 0.6619343 0.6619343
0.7172772 0.7172772 0.7172772
0.7953781 0.7953781 0.7953781
0.8723758 0.8723758 0.8723758
0.8723758 0.8723758 0.8723758
0.7090554 0.7090554 0.7090554
0.7644043 0.7644043 0.7644043
0.8425065 0.8425065 0.8425065
0.9195014 0.9195014 0.9195014
0.9195014 0.9195014 0.9195014
0.0176236 0.0176236 0.0176236
0.0729658 0.0729658 0.0729658
0.1506795 0.1506795 0.1506795
0.2276058 0.2276058 0.2276058
0.2276058 0.2276058 0.2276058
0.1721636 0.1721636 0.1721636
0.2243200 0.2243200 0.2243200
0.3042439 0.3042439 0.3042439
0.3814138 0.3814138 0.3814138
0.3814138 0.3814138 0.3814138
0.3632611 0.3632611 0.3632611
0.4179211 0.4179211 0.4179211
0.4963952 0.4963952 0.4963952
0.5736268 0.5736268 0.5736268
0.5736268 0.5736268 0.5736268
0.6774627 0.6774627 0.6774627
0.7328240 0.7328240 0.7328240
0.8109875 0.8109875 0.8109875
0.8880053 0.8880053 0.8880053
0.8880053 0.8880053 0.8880053
0.7245880 0.7245880 0.7245880
0.7799575 0.7799575 0.7799575
0.8581153 0.8581153 0.8581153
0.9351321 0.9351321 0.9351321
0.9351321 0.9351321 0.9351321
0.0367993 0.0367993 0.0367993
0.0920837 0.0920837 0.0920837
0.1700634 0.1700634 0.1700634
0.2470196 0.2470196 0.2470196
0.2470196 0.2470196 0.2470196
0.1905483 0.1905483 0.1905483
0.2452083 0.2452083 0.2452083
0.3236824 0.3236824 0.3236824
0.4009141 0.4009141 0.4009141
0.4009141 0.4009141 0.4009141
0.3824984 0.3824984 0.3824984
0.4372681 0.4372681 0.4372681
0.5162662 0.5162662 0.5162662
0.5932130 0.5932130 0.5932130
0.5932130 0.5932130 0.5932130
0.6969097 0.6969097 0.6969097
0.7523395 0.7523395 0.7523395
0.8306151 0.8306151 0.8306151
0.9077389 0.9077389 0.9077389
0.9077389 0.9077389 0.9077389
0.7440380 0.7440380 0.7440380
0.7994706 0.7994706 0.7994706
0.8777232 0.8777232 0.8777232
0.9548930 0.9548930 0.9548930
0.9548930 0.9548930 0.9548930
0.0684927 0.0684927 0.0684927
0.1238283 0.1238283 0.1238283
0.2018489 0.2018489 0.2018489
0.2787813 0.2787813 0.2787813
0.2787813 0.2787813 0.2787813
0.2222729 0.2222729 0.2222729
0.2776342 0.2776342 0.2776342
0.3557976 0.3557976 0.3557976
0.4328154 0.4328154 0.4328154
0.4328154 0.4328154 0.4328154
0.4144328 0.4144328 0.4144328
0.4698624 0.4698624 0.4698624
0.5481381 0.5481381 0.5481381
0.6252618 0.6252618 0.6252618
0.6252618 0.6252618 0.6252618
0.7287523 0.7287523 0.7287523
0.7842551 0.7842551 0.7842551
0.8629695 0.8629695 0.8629695
0.9469155 0.9469155 0.9469155
0.9469155 0.9469155 0.9469155
0.7758763 0.7758763 0.7758763
0.8313826 0.8313826 0.8313826
0.9102200 0.9102200 0.9102200
0.9933900 0.9933900 0.9933900
0.9933900 0.9933900 0.9933900
0.0732496 0.0732496 0.0732496
0.1285874 0.1285874 0.1285874
0.2066084 0.2066084 0.2066084
0.2835399 0.2835399 0.2835399
0.2835399 0.2835399 0.2835399
0.2270354 0.2270354 0.2270354
0.2824049 0.2824049 0.2824049
0.3605628 0.3605628 0.3605628
0.4375796 0.4375796 0.4375796
0.4375796 0.4375796 0.4375796
0.4191983 0.4191983 0.4191983
0.4746309 0.4746309 0.4746309
0.5528835 0.5528835 0.5528835
0.6300533 0.6300533 0.6300533
0.6300533 0.6300533 0.6300533
0.7335136 0.7335136 0.7335136
0.7890198 0.7890198 0.7890198
0.8678573 0.8678573 0.8678573
0.9510273 0.9510273 0.9510273
0.9510273 0.9510273 0.9510273
0.7806383 0.7806383 0.7806383
0.8361477 0.8361477 0.8361477
0.9150984 0.9150984 0.9150984
0.9982553 0.9982553 0.9982553
0.9982553 0.9982553 0.9982553
