presets/series/movie/series-movie-desert-signal/look.cube
# Approximate v0 colour conversion; calibrate before claiming visual parity.
LUT_3D_SIZE 33
DOMAIN_MIN 0 0 0
DOMAIN_MAX 1 1 1
0.1276064 0.0895551 0.0519149
0.1568074 0.0914059 0.0589105
0.1903731 0.0940153 0.0592380
0.2267947 0.0975479 0.0564591
0.2653590 0.1006826 0.0523091
0.3046202 0.1072625 0.0509184
0.3479841 0.1161924 0.0512067
0.4043471 0.1286392 0.0510391
0.4437534 0.1365268 0.0506966
0.4690346 0.1412516 0.0502410
0.4932373 0.1457214 0.0495344
0.5130485 0.1490142 0.0475081
0.5327650 0.1524313 0.0454509
0.5520043 0.1561655 0.0437107
0.5708082 0.1602296 0.0423276
0.5893318 0.1642880 0.0409699
0.5969494 0.1659833 0.0404498
0.6038412 0.1675514 0.0400102
0.6107476 0.1691261 0.0395717
0.6176687 0.1707074 0.0391344
0.6246044 0.1722953 0.0386982
0.6315547 0.1738898 0.0382633
0.6385026 0.1755013 0.0378224
0.6437027 0.1768521 0.0374022
0.6469262 0.1776861 0.0371366
0.6501506 0.1785176 0.0368668
0.6533761 0.1793468 0.0365929
0.6566025 0.1801736 0.0363149
0.6598299 0.1809981 0.0360329
0.6630584 0.1818201 0.0357467
0.6662878 0.1826398 0.0354564
0.6665642 0.1827099 0.0354314
0.6665642 0.1827099 0.0354314
0.1263726 0.1262170 0.0464791
0.1547106 0.1259630 0.0540443
0.1930166 0.1254203 0.0533360
0.2288788 0.1261431 0.0519035
0.2646173 0.1254983 0.0505367
0.3129214 0.1344094 0.0522358
0.3664132 0.1448578 0.0537523
0.4233694 0.1562933 0.0550945
0.4571726 0.1627879 0.0545091
0.4807803 0.1673633 0.0540350
0.5015303 0.1714422 0.0522417
0.5205854 0.1749650 0.0498719
0.5397431 0.1784644 0.0476996
0.5581537 0.1824545 0.0462006
0.5764057 0.1865132 0.0447090
0.5942880 0.1905552 0.0433022
0.6017583 0.1922733 0.0428811
0.6087991 0.1939195 0.0424990
0.6158275 0.1955887 0.0421322
0.6228433 0.1972811 0.0417807
0.6298466 0.1989967 0.0414444
0.6368375 0.2007354 0.0411234
0.6439087 0.2024546 0.0406827
0.6493936 0.2037917 0.0403553
0.6528005 0.2046242 0.0401591
0.6562137 0.2054595 0.0399679
0.6596331 0.2062979 0.0397818
0.6630588 0.2071392 0.0396007
0.6664907 0.2079835 0.0394246
0.6699289 0.2088307 0.0392536
0.6733734 0.2096810 0.0390877
0.6736685 0.2097539 0.0390737
0.6736685 0.2097539 0.0390737
0.1161308 0.1546292 0.0405927
0.1272551 0.1530378 0.0429344
0.1825861 0.1550385 0.0479794
0.2231331 0.1534420 0.0495780
0.2665870 0.1551478 0.0509683
0.3222638 0.1641688 0.0520086
0.3788405 0.1734444 0.0527414
0.4317412 0.1816961 0.0531794
0.4655133 0.1870867 0.0527249
0.4898279 0.1908839 0.0524830
0.5096484 0.1942948 0.0512035
0.5295959 0.1977005 0.0501160
0.5489301 0.2013569 0.0489803
0.5665475 0.2056237 0.0473488
0.5840446 0.2099347 0.0456938
0.6008766 0.2144392 0.0447196
0.6081474 0.2165294 0.0445488
0.6150798 0.2184474 0.0442932
0.6220445 0.2203486 0.0440070
0.6290231 0.2222518 0.0437177
0.6360156 0.2241571 0.0434252
0.6434946 0.2259724 0.0431237
0.6510539 0.2277988 0.0428374
0.6568974 0.2292295 0.0426282
0.6605187 0.2301244 0.0425038
0.6641404 0.2310258 0.0423834
0.6677623 0.2319336 0.0422672
0.6713846 0.2328478 0.0421549
0.6750072 0.2337684 0.0420467
0.6786301 0.2346955 0.0419426
0.6822534 0.2356290 0.0418425
0.6825635 0.2357092 0.0418341
0.6825635 0.2357092 0.0418341
0.1113629 0.1866573 0.0505365
0.1076915 0.1837012 0.0344517
0.1544694 0.1809611 0.0422353
0.2133935 0.1868711 0.0483303
0.2679716 0.1915588 0.0502501
0.3241971 0.1947693 0.0487469
0.3782492 0.2008178 0.0492724
0.4289501 0.2063972 0.0489546
0.4664900 0.2103987 0.0481044
0.4918696 0.2131779 0.0472836
0.5131103 0.2164038 0.0465637
0.5347861 0.2196191 0.0459968
0.5545038 0.2234144 0.0451219
0.5731409 0.2275333 0.0442191
0.5920441 0.2316348 0.0435736
0.6092622 0.2361548 0.0428297
0.6168551 0.2381906 0.0424816
0.6240380 0.2401151 0.0421496
0.6312342 0.2420418 0.0418145
0.6384436 0.2439706 0.0414761
0.6459198 0.2460866 0.0413372
0.6535141 0.2483108 0.0413048
0.6611092 0.2505631 0.0412902
0.6669801 0.2523232 0.0412909
0.6706183 0.2534222 0.0412967
0.6742566 0.2545278 0.0413066
0.6778952 0.2556398 0.0413205
0.6815339 0.2567582 0.0413384
0.6851729 0.2578832 0.0413605
0.6888122 0.2590146 0.0413866
0.6922810 0.2600284 0.0413469
0.6925685 0.2601086 0.0413399
0.6925685 0.2601086 0.0413399
0.1126610 0.2315622 0.0668736
0.0982810 0.2291750 0.0274695
0.1305453 0.2193670 0.0330122
0.1854524 0.2140955 0.0423190
0.2441049 0.2233379 0.0476744
0.2950126 0.2304926 0.0489736
0.3541086 0.2315160 0.0456957
0.4128416 0.2324681 0.0422364
0.4610444 0.2328970 0.0394942
0.4890065 0.2349956 0.0389384
0.5122379 0.2386613 0.0394994
0.5369128 0.2419687 0.0396938
0.5573545 0.2459393 0.0396904
0.5780334 0.2497185 0.0396015
0.5985652 0.2534880 0.0392550
0.6166771 0.2580751 0.0383281
0.6248421 0.2601056 0.0379548
0.6326126 0.2620169 0.0376244
0.6404424 0.2639224 0.0373157
0.6482537 0.2659762 0.0370745
0.6559967 0.2681963 0.0368835
0.6637483 0.2704023 0.0366807
0.6715087 0.2725940 0.0364661
0.6775127 0.2742782 0.0362922
0.6812357 0.2753175 0.0361809
0.6849608 0.2763535 0.0360668
0.6886880 0.2773863 0.0359501
0.6924172 0.2784157 0.0358307
0.6960915 0.2793925 0.0356822
0.6996238 0.2802410 0.0354639
0.7031613 0.2810881 0.0352433
0.7034643 0.2811605 0.0352244
0.7034643 0.2811605 0.0352244
0.1132942 0.2767893 0.0860294
0.0911595 0.2747103 0.0206417
0.1155335 0.2662033 0.0239380
0.1622044 0.2520828 0.0324184
0.2130764 0.2497032 0.0422266
0.2712851 0.2629073 0.0475095
0.3259824 0.2641249 0.0459811
0.3827648 0.2648405 0.0427987
0.4304275 0.2652115 0.0388211
0.4633163 0.2664230 0.0370692
0.4972049 0.2674993 0.0352063
0.5302757 0.2685759 0.0333365
0.5549112 0.2708133 0.0327919
0.5801344 0.2727943 0.0321576
0.6031167 0.2758696 0.0316970
0.6235979 0.2802310 0.0315705
0.6324451 0.2825097 0.0316008
0.6409127 0.2846599 0.0316065
0.6493838 0.2867943 0.0315276
0.6571708 0.2890876 0.0312061
0.6650401 0.2913373 0.0308880
0.6729920 0.2935433 0.0305733
0.6810270 0.2957054 0.0302621
0.6872945 0.2973463 0.0300240
0.6912032 0.2983499 0.0298775
0.6951311 0.2993433 0.0297318
0.6990784 0.3003266 0.0295869
0.7028041 0.3012726 0.0293805
0.7064917 0.3022131 0.0291645
0.7101842 0.3031540 0.0289503
0.7138817 0.3040954 0.0287380
0.7141983 0.3041759 0.0287199
0.7141983 0.3041759 0.0287199
0.1152793 0.3228667 0.1054724
0.0942805 0.3207838 0.0381654
0.1059277 0.3145295 0.0158375
0.1451826 0.3015766 0.0209906
0.1930059 0.2870281 0.0310614
0.2433121 0.2871453 0.0426352
0.2985987 0.2980814 0.0464770
0.3545685 0.3006912 0.0447294
0.3999447 0.3019621 0.0420092
0.4365786 0.3026562 0.0396188
0.4721413 0.3036119 0.0372320
0.5046987 0.3049598 0.0349683
0.5346152 0.3065164 0.0325516
0.5655518 0.3078617 0.0296150
0.5923360 0.3107740 0.0281617
0.6182754 0.3139905 0.0271730
0.6301289 0.3153125 0.0266713
0.6415007 0.3164984 0.0261625
0.6510051 0.3180671 0.0258481
0.6601633 0.3196853 0.0255822
0.6694009 0.3212603 0.0253197
0.6787185 0.3227917 0.0250606
0.6881170 0.3242793 0.0248049
0.6954368 0.3253991 0.0246096
0.6999969 0.3260797 0.0244897
0.7043685 0.3268318 0.0243581
0.7082375 0.3277819 0.0241972
0.7121110 0.3287324 0.0240381
0.7159890 0.3296834 0.0238809
0.7198716 0.3306347 0.0237256
0.7237587 0.3315865 0.0235722
0.7240916 0.3316680 0.0235591
0.7240916 0.3316680 0.0235591
0.1176188 0.3685765 0.1242676
0.0980971 0.3670909 0.0591855
0.0983594 0.3625325 0.0086637
0.1287872 0.3530210 0.0112172
0.1816257 0.3383316 0.0178392
0.2300183 0.3287530 0.0292459
0.2764271 0.3253005 0.0402002
0.3334934 0.3386534 0.0471753
0.3718463 0.3438584 0.0495360
0.4059886 0.3444910 0.0464613
0.4390434 0.3458374 0.0438756
0.4740405 0.3469418 0.0403523
0.5104898 0.3478663 0.0360314
0.5460915 0.3492132 0.0320159
0.5779062 0.3515848 0.0295580
0.6104458 0.3538314 0.0264929
0.6252364 0.3547689 0.0248987
0.6378483 0.3558471 0.0236708
0.6481926 0.3572394 0.0229922
0.6586265 0.3585851 0.0222461
0.6691512 0.3598836 0.0214321
0.6797681 0.3611342 0.0205501
0.6904783 0.3623364 0.0195997
0.6988208 0.3632320 0.0188183
0.7034033 0.3639580 0.0185203
0.7075813 0.3647981 0.0183602
0.7117725 0.3656250 0.0182002
0.7159770 0.3664389 0.0180402
0.7201949 0.3672396 0.0178803
0.7244263 0.3680272 0.0177206
0.7286711 0.3688015 0.0175609
0.7290350 0.3688671 0.0175472
0.7290350 0.3688671 0.0175472
0.1212218 0.4140370 0.1430980
0.1025325 0.4129275 0.0794852
0.0926639 0.4098442 0.0126016
0.1208715 0.4017902 0.0039977
0.1685524 0.3897882 0.0076542
0.2203985 0.3773851 0.0156627
0.2674487 0.3696218 0.0279528
0.3118467 0.3658500 0.0403160
0.3551063 0.3749931 0.0477099
0.3930794 0.3875939 0.0496172
0.4211600 0.3907141 0.0509086
0.4532310 0.3931750 0.0493490
0.4867042 0.3955806 0.0465837
0.5200430 0.3982354 0.0436203
0.5595798 0.3988101 0.0363719
0.5998669 0.3993260 0.0285450
0.6176603 0.3997616 0.0252979
0.6299822 0.4005740 0.0237820
0.6417685 0.4014138 0.0223708
0.6537003 0.4022229 0.0208226
0.6657806 0.4029996 0.0191362
0.6780122 0.4037424 0.0173101
0.6903972 0.4044501 0.0153433
0.6989709 0.4051890 0.0143120
0.7034816 0.4057983 0.0140759
0.7079973 0.4064004 0.0138191
0.7125179 0.4069954 0.0135413
0.7170437 0.4075830 0.0132425
0.7215747 0.4081634 0.0129228
0.7261111 0.4087363 0.0125821
0.7306528 0.4093017 0.0122203
0.7310417 0.4093497 0.0121883
0.7310417 0.4093497 0.0121883
0.1241434 0.4406899 0.1540694
0.1058408 0.4397826 0.0911419
0.0900665 0.4373582 0.0204040
0.1172323 0.4299318 0.0017747
0.1602345 0.4194540 0.0034606
0.2146314 0.4068815 0.0086222
0.2630535 0.3972024 0.0192709
0.3075108 0.3916820 0.0337048
0.3420255 0.3895686 0.0440911
0.3769088 0.4018153 0.0498742
0.4151120 0.4171022 0.0527539
0.4464818 0.4198811 0.0524346
0.4790182 0.4229483 0.0510490
0.5123156 0.4260853 0.0489721
0.5516718 0.4273314 0.0420559
0.5900601 0.4291062 0.0354972
0.6065613 0.4300017 0.0327063
0.6198386 0.4304309 0.0301418
0.6332471 0.4308391 0.0274482
0.6467914 0.4312231 0.0246231
0.6604757 0.4315803 0.0216641
0.6743036 0.4319084 0.0185693
0.6882782 0.4322055 0.0153370
0.6964209 0.4328452 0.0140953
0.7011023 0.4332917 0.0134804
0.7057880 0.4337317 0.0128451
0.7104780 0.4341651 0.0121890
0.7151726 0.4345918 0.0115123
0.7198718 0.4350117 0.0108148
0.7245756 0.4354246 0.0100965
0.7292844 0.4358305 0.0093573
0.7296875 0.4358649 0.0092931
0.7296875 0.4358649 0.0092931
0.1269185 0.4671414 0.1648922
0.1090795 0.4665538 0.1026597
0.0875942 0.4648262 0.0277233
0.1141047 0.4580177 0.0005838
0.1516375 0.4489684 0.0012550
0.2085417 0.4367050 0.0038811
0.2596934 0.4264775 0.0112422
0.3057952 0.4196416 0.0247738
0.3405346 0.4169649 0.0374643
0.3647903 0.4155535 0.0448221
0.4044083 0.4311767 0.0498131
0.4446346 0.4465805 0.0536864
0.4746827 0.4504010 0.0547419
0.5061597 0.4542301 0.0542537
0.5432050 0.4564889 0.0483334
0.5792879 0.4593431 0.0427716
0.5950557 0.4603323 0.0399037
0.6100085 0.4602930 0.0360213
0.6250779 0.4602435 0.0320190
0.6402704 0.4601792 0.0278925
0.6555918 0.4600962 0.0236387
0.6710470 0.4599911 0.0192546
0.6859777 0.4599504 0.0150473
0.6938087 0.4604093 0.0134778
0.6986653 0.4606867 0.0124792
0.7035255 0.4609587 0.0114604
0.7083893 0.4612249 0.0104214
0.7132569 0.4614852 0.0093621
0.7181283 0.4617393 0.0082827
0.7229918 0.4619706 0.0072281
0.7278550 0.4622023 0.0061761
0.7282711 0.4622221 0.0060862
0.7282711 0.4622221 0.0060862
0.1303192 0.4938593 0.1758520
0.1128118 0.4935206 0.1142492
0.0872175 0.4923101 0.0361263
0.1115364 0.4861311 0.0030258
0.1444634 0.4781226 0.0000000
0.2017799 0.4665274 0.0000888
0.2554628 0.4559636 0.0035758
0.3041557 0.4483577 0.0150085
0.3405758 0.4452716 0.0282415
0.3654668 0.4436919 0.0370340
0.3909833 0.4433211 0.0448792
0.4309167 0.4609218 0.0535468
0.4716548 0.4783099 0.0571562
0.5024526 0.4823685 0.0575218
0.5384234 0.4849711 0.0518276
0.5736698 0.4880180 0.0464168
0.5899320 0.4885158 0.0426781
0.6060345 0.4880347 0.0376722
0.6220286 0.4876073 0.0326662
0.6379138 0.4872296 0.0276596
0.6536903 0.4868979 0.0226516
0.6693585 0.4866089 0.0176417
0.6830966 0.4865680 0.0136326
0.6911149 0.4868448 0.0119529
0.6960809 0.4870197 0.0109157
0.7010452 0.4871967 0.0098811
0.7060081 0.4873758 0.0088492
0.7109695 0.4875567 0.0078199
0.7159298 0.4877392 0.0067934
0.7208890 0.4879231 0.0057696
0.7258473 0.4881083 0.0047484
0.7262715 0.4881242 0.0046612
0.7262715 0.4881242 0.0046612
0.1341213 0.5207511 0.1870486
0.1169802 0.5207125 0.1258985
0.0918622 0.5195906 0.0479467
0.1095160 0.5143047 0.0114757
0.1412338 0.5068607 0.0000000
0.1948033 0.4964176 0.0000000
0.2510499 0.4858689 0.0009385
0.3025143 0.4778700 0.0076585
0.3406839 0.4741162 0.0189819
0.3663054 0.4721075 0.0279281
0.3917870 0.4717707 0.0387663
0.4156074 0.4713894 0.0491768
0.4634766 0.4918732 0.0517633
0.5089933 0.5089884 0.0533582
0.5423581 0.5114391 0.0491975
0.5751196 0.5144744 0.0452484
0.5908747 0.5146733 0.0411857
0.6064184 0.5142174 0.0360367
0.6218569 0.5138286 0.0308888
0.6371888 0.5135010 0.0257413
0.6524132 0.5132296 0.0205936
0.6675296 0.5130100 0.0154450
0.6800605 0.5130505 0.0120100
0.6882467 0.5132264 0.0103812
0.6933157 0.5133408 0.0093754
0.6983821 0.5134591 0.0083722
0.7034463 0.5135808 0.0073716
0.7085083 0.5137057 0.0063737
0.7135683 0.5138334 0.0053785
0.7186266 0.5139639 0.0043859
0.7236832 0.5140967 0.0033960
0.7241159 0.5141081 0.0033114
0.7241159 0.5141081 0.0033114
0.1382561 0.5477556 0.1982712
0.1214034 0.5479775 0.1375644
0.0967220 0.5470015 0.0605557
0.1077426 0.5424552 0.0188765
0.1383950 0.5355152 0.0000000
0.1872261 0.5262050 0.0000000
0.2460399 0.5160034 0.0001954
0.3004184 0.5077953 0.0024526
0.3410544 0.5035959 0.0102413
0.3683804 0.5012387 0.0172715
0.3957977 0.5006324 0.0276920
0.4214745 0.5000491 0.0377180
0.4482952 0.5003653 0.0453011
0.4985769 0.5233904 0.0519165
0.5457929 0.5385191 0.0467105
0.5759645 0.5414143 0.0442795
0.5912823 0.5413031 0.0397437
0.6063153 0.5407923 0.0343220
0.6213652 0.5402888 0.0287125
0.6362894 0.5398702 0.0232052
0.6510819 0.5395316 0.0178097
0.6657383 0.5392683 0.0125341
0.6775741 0.5392051 0.0097075
0.6860133 0.5392249 0.0081666
0.6912333 0.5392515 0.0072356
0.6964461 0.5392886 0.0063231
0.7016521 0.5393359 0.0054296
0.7068512 0.5393931 0.0045551
0.7120435 0.5394598 0.0037001
0.7172293 0.5395358 0.0028646
0.7224086 0.5396208 0.0020490
0.7228515 0.5396285 0.0019801
0.7228515 0.5396285 0.0019801
0.1428084 0.5749476 0.2095616
0.1261432 0.5753684 0.1492798
0.1018972 0.5745612 0.0737310
0.1063741 0.5706755 0.0253810
0.1361939 0.5642044 0.0000000
0.1794493 0.5558735 0.0000000
0.2404458 0.5460436 0.0000000
0.2974588 0.5377388 0.0000000
0.3403469 0.5331304 0.0034927
0.3694689 0.5305780 0.0078282
0.3986661 0.5295400 0.0165704
0.4262460 0.5286899 0.0259567
0.4543142 0.5292337 0.0357542
0.4816568 0.5300777 0.0448373
0.5355008 0.5516988 0.0413485
0.5816971 0.5656254 0.0317053
0.5965216 0.5652235 0.0275183
0.6106333 0.5647767 0.0232131
0.6246475 0.5644376 0.0189669
0.6385530 0.5641984 0.0147967
0.6523409 0.5640524 0.0107164
0.6660038 0.5639938 0.0067375
0.6771847 0.5640140 0.0052839
0.6856475 0.5640720 0.0043653
0.6908815 0.5641253 0.0038175
0.6961082 0.5641913 0.0032865
0.7013275 0.5642695 0.0027729
0.7065397 0.5643595 0.0022769
0.7117448 0.5644608 0.0017990
0.7169428 0.5645732 0.0013395
0.7221340 0.5646962 0.0008986
0.7225779 0.5647072 0.0008617
0.7225779 0.5647072 0.0008617
0.1474994 0.6021851 0.2208577
0.1310110 0.6028080 0.1610176
0.1071492 0.6021657 0.0867843
0.1051131 0.5988693 0.0310040
0.1342713 0.5928317 0.0040486
0.1712867 0.5854009 0.0000000
0.2342772 0.5759937 0.0000000
0.2937311 0.5676696 0.0000000
0.3386287 0.5626644 0.0012539
0.3694739 0.5599556 0.0035541
0.4000838 0.5584278 0.0085572
0.4294187 0.5573395 0.0147863
0.4588523 0.5573285 0.0228579
0.4876508 0.5579308 0.0318128
0.5153665 0.5579370 0.0384796
0.5715102 0.5781960 0.0250558
0.5989173 0.5880310 0.0165141
0.6145013 0.5893784 0.0122934
0.6274339 0.5891631 0.0094740
0.6402809 0.5890669 0.0066968
0.6530292 0.5890809 0.0039809
0.6655557 0.5891847 0.0014988
0.6765656 0.5892142 0.0010901
0.6850516 0.5892889 0.0008122
0.6902997 0.5893564 0.0006582
0.6955402 0.5894394 0.0005188
0.7007731 0.5895372 0.0003946
0.7059985 0.5896493 0.0002862
0.7112165 0.5897751 0.0001941
0.7164272 0.5899141 0.0001187
0.7216307 0.5900659 0.0000604
0.7220756 0.5900795 0.0000562
0.7220756 0.5900795 0.0000562
0.1524811 0.6284918 0.2320789
0.1360974 0.6292473 0.1725153
0.1124336 0.6286917 0.0993487
0.1042095 0.6258985 0.0358197
0.1328640 0.6202236 0.0105524
0.1672860 0.6132944 0.0000000
0.2278104 0.6044732 0.0000000
0.2893586 0.5962164 0.0000000
0.3361013 0.5909456 0.0000000
0.3686032 0.5881167 0.0000999
0.4004948 0.5861288 0.0017174
0.4314641 0.5847781 0.0046544
0.4621166 0.5840990 0.0100239
0.4923147 0.5840304 0.0171929
0.5212079 0.5836036 0.0228677
0.5495207 0.5818084 0.0234540
0.5743187 0.5908423 0.0179292
0.5998408 0.6002972 0.0106027
0.6237608 0.6087021 0.0055231
0.6414778 0.6129168 0.0027474
0.6536802 0.6129248 0.0012033
0.6656236 0.6129961 0.0000000
0.6766845 0.6129861 0.0000000
0.6852114 0.6130411 0.0000000
0.6904853 0.6131009 0.0000000
0.6957517 0.6131794 0.0000000
0.7010106 0.6132759 0.0000000
0.7062621 0.6133896 0.0000000
0.7115061 0.6135200 0.0000000
0.7167426 0.6136664 0.0000000
0.7219718 0.6138283 0.0000000
0.7224189 0.6138428 0.0000000
0.7224189 0.6138428 0.0000000
0.1546833 0.6400548 0.2369823
0.1383547 0.6408762 0.1775512
0.1147967 0.6403746 0.1048229
0.1038259 0.6377794 0.0377189
0.1322981 0.6322603 0.0131773
0.1663130 0.6255085 0.0000000
0.2248112 0.6169614 0.0000000
0.2871347 0.6087170 0.0000000
0.3345147 0.6033130 0.0000000
0.3676117 0.6004137 0.0000000
0.4000470 0.5982516 0.0005956
0.4317966 0.5968073 0.0018322
0.4631368 0.5958982 0.0049520
0.4940620 0.5955243 0.0107631
0.5234646 0.5948917 0.0160012
0.5520658 0.5930723 0.0168829
0.5643869 0.5922550 0.0172389
0.5889168 0.6019061 0.0119423
0.6130703 0.6103444 0.0068487
0.6364903 0.6189840 0.0029262
0.6539903 0.6234448 0.0008602
0.6657825 0.6234854 0.0000000
0.6768380 0.6234685 0.0000000
0.6853612 0.6235237 0.0000000
0.6906330 0.6235858 0.0000000
0.6958974 0.6236682 0.0000000
0.7011544 0.6237702 0.0000000
0.7064040 0.6238908 0.0000000
0.7116462 0.6240294 0.0000000
0.7168810 0.6241853 0.0000000
0.7221085 0.6243579 0.0000000
0.7225555 0.6243735 0.0000000
0.7225555 0.6243735 0.0000000
0.1568679 0.6515964 0.2418011
0.1406155 0.6525014 0.1825665
0.1171895 0.6520653 0.1102606
0.1034494 0.6496557 0.0394864
0.1317596 0.6442896 0.0156592
0.1653897 0.6377121 0.0000000
0.2217341 0.6294363 0.0000000
0.2848057 0.6212203 0.0000000
0.3328089 0.6157006 0.0000000
0.3664583 0.6127224 0.0000000
0.3992683 0.6103493 0.0003946
0.4315130 0.6087433 0.0013881
0.4631249 0.6075906 0.0037713
0.4945195 0.6069865 0.0081262
0.5246022 0.6061901 0.0118011
0.5538403 0.6043233 0.0118762
0.5664451 0.6034960 0.0118992
0.5781308 0.6027121 0.0119162
0.6022247 0.6119713 0.0081336
0.6259311 0.6205632 0.0039656
0.6488828 0.6294408 0.0011073
0.6659118 0.6340845 0.0000000
0.6769606 0.6340526 0.0000000
0.6854792 0.6341023 0.0000000
0.6907484 0.6341635 0.0000000
0.6960103 0.6342467 0.0000000
0.7012649 0.6343510 0.0000000
0.7065123 0.6344756 0.0000000
0.7117524 0.6346198 0.0000000
0.7169851 0.6347826 0.0000000
0.7222105 0.6349635 0.0000000
0.7226573 0.6349798 0.0000000
0.7226573 0.6349798 0.0000000
0.1591544 0.6632344 0.2467845
0.1429502 0.6641984 0.1877172
0.1196315 0.6638028 0.1157840
0.1031326 0.6615591 0.0423355
0.1312490 0.6563154 0.0180057
0.1645132 0.6499058 0.0000000
0.2185823 0.6418970 0.0000000
0.2823760 0.6337253 0.0000000
0.3309892 0.6281079 0.0000000
0.3651766 0.6250522 0.0000000
0.3983614 0.6224796 0.0002299
0.4310879 0.6207074 0.0009716
0.4629756 0.6193139 0.0026715
0.4946536 0.6184604 0.0061069
0.5250024 0.6175002 0.0092126
0.5544923 0.6155595 0.0093986
0.5672083 0.6147054 0.0094678
0.5789980 0.6138996 0.0095268
0.5912181 0.6135854 0.0093774
0.6152229 0.6221257 0.0049581
0.6384546 0.6309570 0.0018607
0.6609378 0.6400730 0.0000678
0.6770538 0.6447457 0.0000000
0.6855668 0.6447838 0.0000000
0.6908328 0.6448404 0.0000000
0.6960918 0.6449210 0.0000000
0.7013436 0.6450245 0.0000000
0.7065883 0.6451501 0.0000000
0.7118258 0.6452967 0.0000000
0.7170560 0.6454636 0.0000000
0.7222791 0.6456500 0.0000000
0.7227257 0.6456669 0.0000000
0.7227257 0.6456669 0.0000000
0.1614893 0.6749122 0.2518229
0.1453147 0.6759204 0.1929039
0.1221006 0.6755657 0.1213402
0.1028628 0.6734921 0.0455321
0.1307919 0.6683712 0.0202988
0.1636765 0.6621008 0.0000000
0.2153492 0.6543406 0.0000000
0.2798496 0.6462309 0.0000000
0.3290606 0.6405345 0.0000000
0.3637715 0.6374029 0.0000000
0.3973326 0.6346438 0.0001049
0.4305274 0.6327014 0.0005863
0.4626984 0.6310724 0.0016681
0.4946430 0.6299584 0.0041489
0.5252436 0.6288213 0.0066174
0.5549723 0.6267991 0.0069196
0.5677944 0.6259144 0.0070375
0.5796837 0.6250831 0.0071408
0.5913743 0.6242300 0.0072073
0.6043602 0.6236740 0.0059031
0.6278834 0.6324552 0.0025610
0.6506404 0.6415262 0.0005352
0.6720775 0.6506853 0.0000000
0.6856257 0.6555753 0.0000000
0.6908879 0.6556236 0.0000000
0.6961433 0.6556979 0.0000000
0.7013969 0.6557965 0.0000000
0.7066480 0.6559176 0.0000000
0.7118924 0.6560602 0.0000000
0.7171301 0.6562233 0.0000000
0.7223610 0.6564061 0.0000000
0.7228083 0.6564226 0.0000000
0.7228083 0.6564226 0.0000000
0.1638415 0.6865963 0.2568494
0.1476883 0.6876454 0.1980807
0.1245746 0.6873312 0.1268754
0.1025985 0.6854214 0.0487122
0.1303586 0.6804226 0.0224759
0.1628818 0.6742947 0.0000000
0.2119843 0.6667550 0.0000000
0.2771184 0.6587014 0.0000000
0.3270341 0.6530007 0.0000000
0.3622480 0.6497740 0.0000000
0.3961883 0.6468431 0.0000226
0.4298373 0.6447269 0.0002355
0.4623028 0.6428704 0.0007761
0.4944969 0.6414853 0.0022678
0.5253352 0.6401560 0.0040132
0.5552892 0.6380454 0.0044368
0.5682120 0.6371266 0.0046057
0.5801961 0.6362663 0.0047555
0.5919797 0.6353880 0.0048738
0.6036975 0.6338333 0.0042583
0.6171638 0.6339379 0.0032078
0.6402056 0.6429602 0.0009437
0.6624530 0.6522591 0.0000000
0.6784855 0.6593542 0.0000000
0.6884268 0.6638273 0.0000000
0.6964771 0.6665645 0.0000000
0.7017268 0.6666358 0.0000000
0.7069704 0.6667320 0.0000000
0.7122076 0.6668518 0.0000000
0.7174383 0.6669941 0.0000000
0.7226624 0.6671579 0.0000000
0.7231092 0.6671729 0.0000000
0.7231092 0.6671729 0.0000000
0.1662112 0.6982871 0.2618646
0.1500714 0.6993737 0.2032481
0.1270540 0.6990999 0.1323914
0.1023392 0.6973472 0.0518762
0.1299471 0.6924699 0.0245377
0.1621397 0.6864780 0.0011675
0.2085749 0.6791692 0.0000000
0.2742275 0.6711473 0.0000000
0.3247150 0.6654499 0.0000000
0.3602939 0.6621005 0.0000000
0.3946883 0.6590427 0.0000000
0.4288932 0.6567812 0.0000000
0.4617979 0.6547114 0.0000095
0.4942239 0.6530456 0.0004782
0.5252863 0.6515067 0.0013978
0.5554516 0.6493013 0.0019478
0.5684697 0.6483453 0.0021700
0.5805438 0.6474528 0.0023684
0.5924143 0.6465552 0.0025488
0.6041550 0.6450799 0.0023136
0.6157164 0.6435938 0.0020081
0.6296285 0.6443774 0.0012927
0.6521891 0.6536410 0.0001074
0.6688903 0.6608897 0.0000000
0.6789162 0.6653524 0.0000000
0.6888733 0.6698508 0.0000000
0.6987632 0.6743845 0.0000000
0.7072669 0.6776510 0.0000000
0.7124962 0.6777441 0.0000000
0.7177192 0.6778619 0.0000000
0.7229359 0.6780032 0.0000000
0.7233821 0.6780164 0.0000000
0.7233821 0.6780164 0.0000000
0.1685984 0.7099849 0.2668687
0.1524642 0.7111058 0.2084067
0.1295397 0.7108722 0.1378898
0.1020842 0.7092697 0.0550247
0.1295559 0.7045134 0.0264853
0.1614512 0.6986508 0.0036805
0.2051294 0.6915869 0.0000000
0.2712678 0.6835949 0.0000000
0.3223067 0.6779054 0.0000000
0.3581828 0.6744328 0.0000000
0.3928849 0.6712426 0.0000000
0.4274641 0.6688530 0.0000000
0.4606693 0.6666368 0.0000000
0.4935173 0.6647747 0.0000000
0.5249438 0.6630233 0.0000000
0.5554115 0.6606497 0.0000000
0.5685514 0.6596162 0.0000000
0.5807332 0.6586495 0.0000000
0.5926892 0.6577280 0.0002147
0.6044460 0.6563348 0.0003739
0.6160246 0.6549296 0.0004540
0.6274307 0.6535118 0.0004578
0.6417538 0.6549928 0.0001592
0.6590329 0.6623690 0.0000000
0.6692656 0.6668650 0.0000000
0.6793084 0.6713524 0.0000000
0.6892815 0.6758759 0.0000000
0.6991864 0.6804350 0.0000000
0.7090246 0.6850293 0.0000000
0.7179745 0.6888336 0.0000000
0.7231832 0.6889486 0.0000000
0.7236286 0.6889596 0.0000000
0.7236286 0.6889596 0.0000000
0.1708547 0.7210137 0.2716718
0.1547201 0.7221625 0.2133415
0.1318801 0.7219573 0.1431097
