presets/series/movie/series-movie-desert-signal/look.cube
# Approximate v0 colour conversion; calibrate before claiming visual parity.
LUT_3D_SIZE 5
DOMAIN_MIN 0 0 0
DOMAIN_MAX 1 1 1
0.1276064 0.0895551 0.0519149
0.4437534 0.1365268 0.0506966
0.5969494 0.1659833 0.0404498
0.6469262 0.1776861 0.0371366
0.6665642 0.1827099 0.0354314
0.1212218 0.4140370 0.1430980
0.3551063 0.3749931 0.0477099
0.6176603 0.3997616 0.0252979
0.7034816 0.4057983 0.0140759
0.7310417 0.4093497 0.0121883
0.1524811 0.6284918 0.2320789
0.3361013 0.5909456 0.0000000
0.5743187 0.5908423 0.0179292
0.6904853 0.6131009 0.0000000
0.7224189 0.6138428 0.0000000
0.1708547 0.7210137 0.2716718
0.3199666 0.6896118 0.0000000
0.5683120 0.6705368 0.0000000
0.6599989 0.6682503 0.0000000
0.7206113 0.6960752 0.0000000
0.1800830 0.7653626 0.2915874
0.3094522 0.7363816 0.0000000
0.5661631 0.7143235 0.0000000
0.6532054 0.7054906 0.0000000
0.6845680 0.7013594 0.0000000
0.1037811 0.1469543 0.3472309
0.3437791 0.1539451 0.2481227
0.4963311 0.1223861 0.2307434
0.5608463 0.1066637 0.2053034
0.5862790 0.1011141 0.1931119
0.0652196 0.3932928 0.3486214
0.3869943 0.3634553 0.2968405
0.5497106 0.3238733 0.2057326
0.6234202 0.3348718 0.2029853
0.6509863 0.3409266 0.2023113
0.1058203 0.6005379 0.4570263
0.4236233 0.6006713 0.3499228
0.6027153 0.5881102 0.2419644
0.6888240 0.5709596 0.1988818
0.7311258 0.5691132 0.1845656
0.1325757 0.6887406 0.5033826
0.4646295 0.6959790 0.3834107
0.6019766 0.6808045 0.2265874
0.6977554 0.6718051 0.2115981
0.7601732 0.6840226 0.1880520
0.1460511 0.7326724 0.5262687
0.4756780 0.7422711 0.4307361
0.5973058 0.7240118 0.2305444
0.6834512 0.7106154 0.2147482
0.7253541 0.7068305 0.2028948
0.1168156 0.2210770 0.5541398
0.3281972 0.1619990 0.3933800
0.4379965 0.1745604 0.3655913
0.5093285 0.1685417 0.3927200
0.5298343 0.1655990 0.3922088
0.0672898 0.4547314 0.5706224
0.3834981 0.4169403 0.5279741
0.4154446 0.3270914 0.3611840
0.4624955 0.3246838 0.3662784
0.4894581 0.3234300 0.3658294
0.0485396 0.5754289 0.5551183
0.3769608 0.5598012 0.5409807
0.5991183 0.5855620 0.5261799
0.6140504 0.5296740 0.4500205
0.6358198 0.5241982 0.4364891
0.0734929 0.6843545 0.6142679
0.4327232 0.6578432 0.6004914
0.6651349 0.7302960 0.6235556
0.7146246 0.6818661 0.5232528
0.7319351 0.6636542 0.4936042
0.0854694 0.7224776 0.6308899
0.4576368 0.7086648 0.6343347
0.6658744 0.7641189 0.6405556
0.7021068 0.7191841 0.5397586
0.7294634 0.7058777 0.5132715
0.1428184 0.2746482 0.6524072
0.3198308 0.1534937 0.4817547
0.4216936 0.1837313 0.4179351
0.4693308 0.1829980 0.4181423
0.5015343 0.1827462 0.4345838
0.0892035 0.5058467 0.6762836
0.3702880 0.4292839 0.6208445
0.4359970 0.3646182 0.4434683
0.4558808 0.3489934 0.4218317
0.4856703 0.3514656 0.4358314
0.0577106 0.5831083 0.6313722
0.3593924 0.5862414 0.6385895
0.5874502 0.6214221 0.6496297
0.4543089 0.4119161 0.4116275
0.4883691 0.4253741 0.4275111
0.0509961 0.6455409 0.6369729
0.3763097 0.6395070 0.6372088
0.6405807 0.7151883 0.6896967
0.6974658 0.6930161 0.6498169
0.6726608 0.6352947 0.5818343
0.0651847 0.7064137 0.6728379
0.3968661 0.6984033 0.6758003
0.6821614 0.7706513 0.7329964
0.7456345 0.7852147 0.7278697
0.7472576 0.7482075 0.6768466
0.1620531 0.3066931 0.7003756
0.3143446 0.1498363 0.5265927
0.4241396 0.1858206 0.4580793
0.4584050 0.1877332 0.4398476
0.4783642 0.1872918 0.4412369
0.1058201 0.5338895 0.7264537
0.3662108 0.4367404 0.6682726
0.4518636 0.3789922 0.5032650
0.4607924 0.3634498 0.4526792
0.4733729 0.3596677 0.4487422
0.0728306 0.6048902 0.6831265
0.3597173 0.6143818 0.7041519
0.5967485 0.6424419 0.7069704
0.4796448 0.4571567 0.4770172
0.4733256 0.4290637 0.4461713
0.0584725 0.6450495 0.6690288
0.3702489 0.6488970 0.6771895
0.6520543 0.7464359 0.7522740
0.6602074 0.6793373 0.6762783
0.4701106 0.4558533 0.4426004
0.0547833 0.6778779 0.6751570
0.3813112 0.6818421 0.6854150
0.6350575 0.7384171 0.7196571
0.7369087 0.7755300 0.7571217
0.7466037 0.7556682 0.7302776
