presets/series/movie/series-movie-desert-signal/look.cube
# Approximate v0 colour conversion; calibrate before claiming visual parity.
LUT_3D_SIZE 9
DOMAIN_MIN 0 0 0
DOMAIN_MAX 1 1 1
0.1276064 0.0895551 0.0519149
0.2653590 0.1006826 0.0523091
0.4437534 0.1365268 0.0506966
0.5327650 0.1524313 0.0454509
0.5969494 0.1659833 0.0404498
0.6246044 0.1722953 0.0386982
0.6469262 0.1776861 0.0371366
0.6598299 0.1809981 0.0360329
0.6665642 0.1827099 0.0354314
0.1126610 0.2315622 0.0668736
0.2441049 0.2233379 0.0476744
0.4610444 0.2328970 0.0394942
0.5573545 0.2459393 0.0396904
0.6248421 0.2601056 0.0379548
0.6559967 0.2681963 0.0368835
0.6812357 0.2753175 0.0361809
0.6960915 0.2793925 0.0356822
0.7034643 0.2811605 0.0352244
0.1212218 0.4140370 0.1430980
0.1685524 0.3897882 0.0076542
0.3551063 0.3749931 0.0477099
0.4867042 0.3955806 0.0465837
0.6176603 0.3997616 0.0252979
0.6657806 0.4029996 0.0191362
0.7034816 0.4057983 0.0140759
0.7215747 0.4081634 0.0129228
0.7310417 0.4093497 0.0121883
0.1341213 0.5207511 0.1870486
0.1412338 0.5068607 0.0000000
0.3406839 0.4741162 0.0189819
0.4634766 0.4918732 0.0517633
0.5908747 0.5146733 0.0411857
0.6524132 0.5132296 0.0205936
0.6933157 0.5133408 0.0093754
0.7135683 0.5138334 0.0053785
0.7241159 0.5141081 0.0033114
0.1524811 0.6284918 0.2320789
0.1328640 0.6202236 0.0105524
0.3361013 0.5909456 0.0000000
0.4621166 0.5840990 0.0100239
0.5743187 0.5908423 0.0179292
0.6536802 0.6129248 0.0012033
0.6904853 0.6131009 0.0000000
0.7115061 0.6135200 0.0000000
0.7224189 0.6138428 0.0000000
0.1614893 0.6749122 0.2518229
0.1307919 0.6683712 0.0202988
0.3290606 0.6405345 0.0000000
0.4626984 0.6310724 0.0016681
0.5677944 0.6259144 0.0070375
0.6278834 0.6324552 0.0025610
0.6908879 0.6556236 0.0000000
0.7118924 0.6560602 0.0000000
0.7228083 0.6564226 0.0000000
0.1708547 0.7210137 0.2716718
0.1292054 0.7158248 0.0282118
0.3199666 0.6896118 0.0000000
0.4595058 0.6778672 0.0000000
0.5683120 0.6705368 0.0000000
0.6161815 0.6657933 0.0000000
0.6599989 0.6682503 0.0000000
0.7001478 0.6863992 0.0000000
0.7206113 0.6960752 0.0000000
0.1755212 0.7436068 0.2818015
0.1285070 0.7389439 0.0317126
0.3149760 0.7134949 0.0000000
0.4569656 0.7008658 0.0000000
0.5674431 0.6928378 0.0000000
0.6160974 0.6881578 0.0000000
0.6532734 0.6837838 0.0000000
0.6816764 0.6891575 0.0000000
0.7024714 0.6987911 0.0000000
0.1800830 0.7653626 0.2915874
0.1279131 0.7611643 0.0362603
0.3094522 0.7363816 0.0000000
0.4539823 0.7231016 0.0000000
0.5661631 0.7143235 0.0000000
0.6155231 0.7096836 0.0000000
0.6532054 0.7054906 0.0000000
0.6740725 0.7028201 0.0000000
0.6845680 0.7013594 0.0000000
0.1010258 0.0995263 0.1620262
0.2231658 0.1031279 0.1122698
0.3866972 0.0945366 0.1000878
0.4937858 0.1012361 0.0791413
0.5671882 0.1059812 0.0616761
0.6007355 0.1086670 0.0533221
0.6249723 0.1114844 0.0470414
0.6390994 0.1132183 0.0434296
0.6464596 0.1141361 0.0415671
0.0902017 0.2228804 0.1581735
0.2594337 0.2204080 0.1412686
0.4287311 0.2044881 0.1024686
0.5255509 0.2129582 0.0914493
0.5919265 0.2182142 0.0752360
0.6202354 0.2210648 0.0675523
0.6438078 0.2235923 0.0613643
0.6583207 0.2250875 0.0577222
0.6659000 0.2258749 0.0558254
0.1149012 0.4085943 0.2617383
0.2431217 0.3974222 0.2164740
0.3703845 0.3775589 0.1127770
0.4949555 0.3540694 0.0830268
0.6127305 0.3447148 0.0602268
0.6604518 0.3443737 0.0521062
0.6938508 0.3442380 0.0461008
0.7110154 0.3448295 0.0428910
0.7191683 0.3453758 0.0412688
0.1321851 0.5116272 0.3167376
0.2591321 0.5032182 0.2572136
0.3227636 0.4702417 0.0915719
0.4695953 0.4888445 0.1034623
0.5804212 0.4763290 0.0790524
0.6479258 0.4681317 0.0552869
0.6955283 0.4621585 0.0382184
0.7159088 0.4593222 0.0309678
0.7263944 0.4578716 0.0272470
0.1547812 0.6163192 0.3695447
0.2861245 0.6138668 0.2970283
0.3247948 0.5951819 0.1098335
0.4484644 0.5851980 0.0686915
0.5796740 0.5913291 0.0678118
0.6527081 0.5967995 0.0411848
0.6900101 0.5884925 0.0283768
0.7109681 0.5840535 0.0222131
0.7218249 0.5818725 0.0192393
0.1658290 0.6624082 0.3914519
0.3001600 0.6622174 0.3158640
0.3268531 0.6472781 0.1235720
0.4431772 0.6338781 0.0617599
0.5649110 0.6275397 0.0506116
0.6350476 0.6321711 0.0380017
0.6913073 0.6406509 0.0230975
0.7121338 0.6361171 0.0180739
0.7229439 0.6339170 0.0157106
0.1772850 0.7087240 0.4134029
0.3140366 0.7104861 0.3387941
0.3280703 0.6977948 0.1391994
0.4367380 0.6825730 0.0634745
0.5560100 0.6730123 0.0359452
0.6137521 0.6670770 0.0294423
0.6654478 0.6680568 0.0233332
0.7095856 0.6852218 0.0159307
0.7243095 0.6867293 0.0135431
0.1829652 0.7314497 0.4245069
0.3200724 0.7337752 0.3509631
0.3286417 0.7221804 0.1471648
0.4335883 0.7064402 0.0665270
0.5507145 0.6958404 0.0326200
0.6087752 0.6900575 0.0255791
0.6541624 0.6843828 0.0212457
0.6869972 0.6888496 0.0171785
0.7098871 0.6980364 0.0139173
0.1885057 0.7533625 0.4353209
0.3259278 0.7561758 0.3626898
0.3288644 0.7453995 0.1549920
0.4302440 0.7294432 0.0708954
0.5455670 0.7178451 0.0297638
0.6036295 0.7120975 0.0224750
0.6493610 0.7066902 0.0178818
0.6750462 0.7032808 0.0159494
0.6879394 0.7013849 0.0150856
0.1037811 0.1469543 0.3472309
0.2320673 0.1331127 0.2764462
0.3437791 0.1539451 0.2481227
0.4253559 0.1407135 0.2496078
0.4963311 0.1223861 0.2307434
0.5320287 0.1133733 0.2176272
0.5608463 0.1066637 0.2053034
0.5777555 0.1028526 0.1974971
0.5862790 0.1011141 0.1931119
0.0854292 0.2789554 0.3494851
0.2683426 0.2758158 0.3496243
0.3383745 0.2296278 0.2434892
0.4207264 0.2158854 0.2315224
0.5112424 0.1998414 0.2025328
0.5526722 0.1944920 0.1876047
0.5843795 0.1903538 0.1748344
0.6015200 0.1880367 0.1669948
0.6102411 0.1868815 0.1629068
0.0652196 0.3932928 0.3486214
0.2494943 0.3888865 0.3452991
0.3869943 0.3634553 0.2968405
0.4603951 0.3264152 0.2268490
0.5497106 0.3238733 0.2057326
0.5906603 0.3296367 0.2040844
0.6234202 0.3348718 0.2029853
0.6415787 0.3388842 0.2025693
0.6509863 0.3409266 0.2023113
0.0798331 0.5019087 0.4063555
0.2647503 0.4828109 0.3918187
0.3852238 0.4805361 0.3396818
0.4857809 0.4639393 0.2744057
0.5743505 0.4437129 0.2247841
0.6222087 0.4371949 0.2031686
0.6612320 0.4358375 0.1910349
0.6833136 0.4353941 0.1856890
0.6930598 0.4359218 0.1851998
0.1058203 0.6005379 0.4570263
0.2955942 0.5933330 0.4482348
0.4236233 0.6006713 0.3499228
0.4591262 0.5753100 0.2270442
0.6027153 0.5881102 0.2419644
0.6488895 0.5778873 0.2172899
0.6888240 0.5709596 0.1988818
0.7167063 0.5697492 0.1889599
0.7311258 0.5691132 0.1845656
0.1190738 0.6438820 0.4803514
0.3121929 0.6422536 0.4738429
0.4482911 0.6527225 0.3657306
0.4832569 0.6352635 0.2297362
0.5992579 0.6324715 0.2335808
0.6574869 0.6314637 0.2232226
0.7070872 0.6309042 0.2035705
0.7372364 0.6294453 0.1914829
0.7534228 0.6289138 0.1853697
0.1325757 0.6887406 0.5033826
0.3289636 0.6910651 0.5012834
0.4646295 0.6959790 0.3834107
0.4952109 0.6860794 0.2459488
0.6019766 0.6808045 0.2265874
0.6498107 0.6726229 0.2220219
0.6977554 0.6718051 0.2115981
0.7450900 0.6848630 0.1953924
0.7601732 0.6840226 0.1880520
0.1394617 0.7108266 0.5149282
0.3371191 0.7146257 0.5149599
0.4701670 0.7191822 0.4075941
0.4992864 0.7102229 0.2573537
0.6003303 0.7026490 0.2272709
0.6484281 0.6959526 0.2212630
0.6858390 0.6878450 0.2145805
0.7253962 0.6945178 0.2028967
0.7510302 0.7048912 0.1963336
0.1460511 0.7326724 0.5262687
0.3445934 0.7373023 0.5280665
0.4756780 0.7422711 0.4307361
0.4965900 0.7339493 0.2780825
0.5973058 0.7240118 0.2305444
0.6467366 0.7180753 0.2211721
0.6834512 0.7106154 0.2147482
0.7107600 0.7080216 0.2068171
0.7253541 0.7068305 0.2028948
0.1054519 0.1805821 0.4542341
0.2039570 0.1121480 0.3799291
0.3301816 0.1680425 0.3121739
0.3965648 0.1666915 0.3104046
0.4686057 0.1572005 0.3246912
0.4984647 0.1499849 0.3209359
0.5243678 0.1439789 0.3161863
0.5400957 0.1401678 0.3126393
0.5484138 0.1381131 0.3105712
0.0867016 0.3303157 0.4876606
0.2380084 0.2806315 0.4543877
0.3457354 0.2663723 0.3298951
0.3893000 0.2552620 0.3179826
0.4475096 0.2429150 0.3166883
0.4839224 0.2334673 0.3097758
0.5167639 0.2254075 0.3011682
0.5364565 0.2206105 0.2952221
0.5467973 0.2181288 0.2918947
0.0579571 0.4085895 0.4519548
0.2126522 0.4134244 0.4618131
0.3926187 0.3970512 0.4266550
0.3730346 0.3016143 0.2911082
0.4469846 0.3026331 0.2929158
0.4943167 0.3028666 0.2853428
0.5362074 0.3026276 0.2767175
0.5623905 0.3026211 0.2711047
0.5758540 0.3025945 0.2680826
0.0508752 0.4824767 0.4565083
0.2267459 0.4735254 0.4470790
0.3904888 0.4732509 0.4467724
0.4692130 0.4513816 0.3985603
0.5155145 0.4092535 0.3300211
0.5553332 0.4096045 0.3188365
0.5896307 0.4098445 0.3099488
0.6114100 0.4134323 0.3083194
0.6226478 0.4152825 0.3075844
0.0725607 0.5994433 0.5176678
0.2498743 0.5796169 0.5003805
0.4521784 0.5868930 0.5168630
0.5415192 0.6133069 0.4855513
0.6131493 0.5764825 0.3916421
0.6467281 0.5587331 0.3577540
0.6751165 0.5452237 0.3314573
0.6944859 0.5409752 0.3182457
0.7049214 0.5393826 0.3119470
0.0847034 0.6399893 0.5365886
0.2660469 0.6268660 0.5264745
0.4910786 0.6426664 0.5503402
0.5562914 0.6607614 0.4913768
0.6072749 0.6219658 0.3944680
0.6707466 0.6224144 0.3676740
0.7023035 0.6125035 0.3436948
0.7217004 0.6083878 0.3290164
0.7322613 0.6068054 0.3215355
0.0983074 0.6817124 0.5570313
0.2831735 0.6741888 0.5543858
0.5122190 0.6897058 0.5763243
0.5697797 0.7053665 0.5098810
0.6072385 0.6733884 0.3929999
0.6601647 0.6659881 0.3715182
0.7092314 0.6686402 0.3592045
0.7363603 0.6720154 0.3461159
0.7468773 0.6699910 0.3387214
0.1051748 0.7027777 0.5675103
0.2922387 0.6973617 0.5680667
0.5201293 0.7124610 0.5901381
0.5724166 0.7253080 0.5243680
0.6076808 0.6966274 0.3904002
0.6572515 0.6905777 0.3720435
0.7002040 0.6867955 0.3643378
0.7301695 0.6921199 0.3566596
0.7469118 0.6977362 0.3524580
0.1118167 0.7231781 0.5777448
0.3012072 0.7197206 0.5813431
0.5238041 0.7345784 0.6007936
0.5734448 0.7427946 0.5310600
0.6040262 0.7158009 0.3937903
0.6536449 0.7134135 0.3724717
0.6960542 0.7108511 0.3687002
0.7197555 0.7081570 0.3625966
0.7313594 0.7062574 0.3595774
0.1168156 0.2210770 0.5541398
0.1744739 0.1004261 0.4750970
0.3281972 0.1619990 0.3933800
0.3793830 0.1768105 0.3603242
0.4379965 0.1745604 0.3655913
0.4826895 0.1710967 0.3873935
0.5093285 0.1685417 0.3927200
0.5227040 0.1667180 0.3924597
0.5298343 0.1655990 0.3922088
0.0986443 0.3760577 0.5975661
0.2207450 0.2941526 0.5505858
0.3467765 0.2666829 0.4268853
0.3842543 0.2719183 0.3714311
0.4282111 0.2637875 0.3699641
0.4637265 0.2599827 0.3818169
0.4869094 0.2561383 0.3821046
0.5023437 0.2532920 0.3816185
0.5105994 0.2516447 0.3811542
0.0672898 0.4547314 0.5706224
0.1592163 0.4371148 0.5908359
0.3834981 0.4169403 0.5279741
0.3955865 0.3513441 0.3903606
0.4154446 0.3270914 0.3611840
0.4374882 0.3257415 0.3646836
0.4624955 0.3246838 0.3662784
0.4801092 0.3239832 0.3662291
0.4894581 0.3234300 0.3658294
0.0525745 0.4959144 0.5446406
0.1817678 0.4896282 0.5504147
0.3745772 0.5113483 0.5586270
0.4569310 0.4719849 0.5013473
0.4124041 0.3530498 0.3483733
0.4484347 0.3587710 0.3569655
0.4775268 0.3639578 0.3613281
0.4970167 0.3666266 0.3619581
0.5097483 0.3688024 0.3624258
0.0485396 0.5754289 0.5551183
0.2091208 0.5668734 0.5540778
0.3769608 0.5598012 0.5409807
0.5229068 0.6048966 0.5768115
0.5991183 0.5855620 0.5261799
0.5957410 0.5413353 0.4717488
0.6140504 0.5296740 0.4500205
0.6279370 0.5256326 0.4406340
0.6358198 0.5241982 0.4364891
0.0611332 0.6403348 0.5941708
0.2229360 0.6216757 0.5866890
0.4012391 0.6075504 0.5694163
0.5752233 0.6669115 0.6200993
0.6562934 0.6832019 0.5949262
0.6685101 0.6344561 0.5221721
0.6872409 0.6138198 0.4899690
0.6938108 0.6024323 0.4722149
0.6986157 0.5975554 0.4636901
0.0734929 0.6843545 0.6142679
0.2384181 0.6658034 0.6105406
0.4327232 0.6578432 0.6004914
0.6059077 0.7145536 0.6515671
0.6651349 0.7302960 0.6235556
0.6860019 0.7004675 0.5621443
0.7146246 0.6818661 0.5232528
0.7265420 0.6699691 0.5036699
0.7319351 0.6636542 0.4936042
0.0795597 0.7037036 0.6225041
0.2470330 0.6878950 0.6222568
0.4454824 0.6842373 0.6178092
0.6168002 0.7319768 0.6607716
0.6667399 0.7495782 0.6340266
0.6812853 0.7203181 0.5750785
0.7074614 0.6995351 0.5319419
0.7289035 0.6952132 0.5136823
0.7367775 0.6905104 0.5041483
0.0854694 0.7224776 0.6308899
0.2558515 0.7090957 0.6335660
0.4576368 0.7086648 0.6343347
0.6250340 0.7503456 0.6737321
0.6658744 0.7641189 0.6405556
0.6786126 0.7408692 0.5842680
0.7021068 0.7191841 0.5397586
0.7201423 0.7100964 0.5203993
0.7294634 0.7058777 0.5132715
0.1297122 0.2502405 0.6116338
0.1591820 0.1006797 0.5294980
0.3237957 0.1568737 0.4445464
0.3810021 0.1771184 0.4074890
0.4200752 0.1803024 0.3855057
0.4533249 0.1793249 0.3947914
0.4892557 0.1781774 0.4127077
0.5118936 0.1772511 0.4241331
0.5240359 0.1766431 0.4303624
0.1100770 0.4017640 0.6536786
0.2148727 0.3045086 0.6050993
0.3392661 0.2623591 0.4858020
0.3922898 0.2752396 0.4258524
0.4177512 0.2733923 0.3906091
0.4463290 0.2699908 0.3986256
0.4828331 0.2674999 0.4178275
0.5000354 0.2661238 0.4224873
0.5070270 0.2653315 0.4228500
0.0786260 0.4833936 0.6327180
0.1625801 0.4560327 0.6471165
0.3749762 0.4237645 0.5818095
0.4166306 0.3764078 0.4736281
0.4156301 0.3453342 0.3919524
0.4353178 0.3403674 0.3957061
0.4581322 0.3397207 0.4040215
0.4723500 0.3397305 0.4063051
0.4802002 0.3396560 0.4074132
0.0636931 0.5211363 0.6098998
0.1563050 0.5070181 0.6254745
0.3654268 0.5268052 0.6220662
0.4661042 0.4969245 0.5742989
0.4223358 0.3825892 0.3995313
0.4339431 0.3689840 0.3901990
0.4558193 0.3710763 0.3953557
0.4717138 0.3736246 0.3994101
0.4801112 0.3747113 0.4010099
0.0480824 0.5675581 0.5878677
0.1825714 0.5589115 0.5951547
0.3623110 0.5615139 0.5819173
0.4977913 0.6216568 0.6353102
0.5228518 0.5337791 0.5277309
0.4496367 0.4147252 0.3982270
0.5023101 0.4402188 0.4213109
0.5276951 0.4483674 0.4261747
0.5398356 0.4508926 0.4264974
0.0468631 0.6060061 0.5974783
0.1995278 0.5971945 0.6034409
0.3708425 0.5952773 0.5907851
0.5004696 0.6305494 0.6173059
0.6582905 0.6926887 0.6637613
0.6325196 0.6213321 0.5765727
0.6194661 0.5782523 0.5251669
0.6265613 0.5676740 0.5104399
0.6317940 0.5639696 0.5045431
0.0605521 0.6696311 0.6347219
0.2087843 0.6676959 0.6604513
0.3929743 0.6504982 0.6245241
0.5329688 0.6733573 0.6401689
0.7003788 0.7591542 0.7184519
0.7084687 0.7422522 0.6751498
0.7173550 0.6995745 0.6133702
0.7182334 0.6827783 0.5908724
0.7199068 0.6752414 0.5807385
0.0676562 0.7011298 0.6540385
0.2194176 0.6886390 0.6681307
0.4047660 0.6750989 0.6394357
0.5557812 0.6973264 0.6544091
0.7094903 0.7781185 0.7321841
0.7130445 0.7633116 0.6895186
0.7241093 0.7322022 0.6370078
0.7362780 0.7183183 0.6137298
0.7408959 0.7112200 0.6036573
0.0748273 0.7257328 0.6671063
0.2298187 0.7084199 0.6749354
0.4170721 0.6983466 0.6556493
0.5746908 0.7211901 0.6685219
0.7145637 0.7928232 0.7406840
0.7139340 0.7788593 0.6985965
0.7304212 0.7643951 0.6603898
0.7413404 0.7482660 0.6347689
0.7460346 0.7391376 0.6233430
0.1428184 0.2746482 0.6524072
0.1544964 0.1077200 0.5645127
0.3198308 0.1534937 0.4817547
0.3815900 0.1761621 0.4424709
0.4216936 0.1837313 0.4179351
0.4407200 0.1831845 0.4086321
0.4693308 0.1829980 0.4181423
0.4901662 0.1828406 0.4287783
0.5015343 0.1827462 0.4345838
0.1181486 0.4188564 0.6906274
0.2127894 0.3133330 0.6429722
0.3327921 0.2597875 0.5271024
0.3954830 0.2753216 0.4666823
0.4247906 0.2782169 0.4269312
0.4379377 0.2756397 0.4139028
0.4640210 0.2739563 0.4229394
0.4858394 0.2733893 0.4340825
0.4983290 0.2729644 0.4402559
0.0892035 0.5058467 0.6762836
0.1690599 0.4714695 0.6855789
0.3702880 0.4292839 0.6208445
0.4193948 0.3836268 0.5240533
0.4359970 0.3646182 0.4434683
0.4354765 0.3512884 0.4163522
0.4558808 0.3489934 0.4218317
0.4789639 0.3512866 0.4345067
0.4856703 0.3514656 0.4358314
0.0744352 0.5417877 0.6541050
0.1626469 0.5251281 0.6683516
0.3618904 0.5364993 0.6656840
0.4660151 0.5060361 0.6159725
0.4530264 0.4196604 0.4691373
0.4407028 0.3897023 0.4198924
0.4581273 0.3840160 0.4204652
0.4709199 0.3851507 0.4245996
0.4775054 0.3858084 0.4261633
0.0577106 0.5831083 0.6313722
0.1723507 0.5718759 0.6449352
0.3593924 0.5862414 0.6385895
0.4930652 0.6363933 0.6827638
0.5874502 0.6214221 0.6496297
0.4520253 0.4340593 0.4332372
0.4543089 0.4119161 0.4116275
0.4761238 0.4202453 0.4216819
0.4883691 0.4253741 0.4275111
0.0516966 0.6051185 0.6245791
0.1836971 0.5954718 0.6375995
0.3647678 0.6001547 0.6222116
0.4828109 0.6363117 0.6525446
0.6756054 0.7359185 0.7359265
0.5205457 0.5277440 0.5169242
0.4723298 0.4462710 0.4303939
0.5152859 0.4715490 0.4549898
0.5330413 0.4793827 0.4605738
0.0509961 0.6455409 0.6369729
0.1923713 0.6404614 0.6613620
0.3763097 0.6395070 0.6372088
0.4876979 0.6605010 0.6527738
0.6405807 0.7151883 0.6896967
0.7210459 0.7530714 0.7293462
0.6974658 0.6930161 0.6498169
0.6755222 0.6508064 0.5998222
0.6726608 0.6352947 0.5818343
0.0573482 0.6761914 0.6551061
0.1988720 0.6748574 0.6879342
0.3874925 0.6763417 0.6630381
0.5058742 0.6783818 0.6595072
0.6613585 0.7412033 0.7084186
0.7456297 0.7915746 0.7634794
0.7310963 0.7489991 0.6985167
0.7278221 0.7191572 0.6593233
0.7263474 0.7030129 0.6400118
0.0651847 0.7064137 0.6728379
0.2115622 0.7070826 0.7053251
0.3968661 0.6984033 0.6758003
0.5272935 0.6992515 0.6680949
0.6821614 0.7706513 0.7329964
0.7537236 0.8110308 0.7767049
0.7456345 0.7852147 0.7278697
0.7444019 0.7569028 0.6876594
0.7472576 0.7482075 0.6768466
0.1549116 0.2944756 0.6813907
0.1518270 0.1138236 0.5897682
0.3165167 0.1511432 0.5084891
0.3817408 0.1752021 0.4678779
0.4230572 0.1851251 0.4416987
0.4418345 0.1862408 0.4315016
0.4577078 0.1852620 0.4244970
0.4765168 0.1856224 0.4328338
0.4872428 0.1857719 0.4383469
0.1231782 0.4302531 0.7159507
0.2121685 0.3199689 0.6691102
0.3281507 0.2584823 0.5561984
0.3963657 0.2748297 0.4954703
0.4304052 0.2807170 0.4542136
0.4438558 0.2800266 0.4395503
0.4552716 0.2774655 0.4302038
0.4734944 0.2773694 0.4384316
0.4848027 0.2773712 0.4440813
0.0990327 0.5227139 0.7063999
0.1715486 0.4810435 0.7129696
0.3676609 0.4336513 0.6489157
0.4182457 0.3848708 0.5552532
0.4455323 0.3731862 0.4788269
0.4494395 0.3641494 0.4494118
0.4525808 0.3558291 0.4322079
0.4687236 0.3562168 0.4387120
0.4793649 0.3567045 0.4447135
0.0837930 0.5573305 0.6849605
0.1671295 0.5382814 0.6984328
0.3598574 0.5429047 0.6960900
0.4650775 0.5104405 0.6433834
0.4697791 0.4404148 0.5162423
0.4594705 0.4110208 0.4616651
0.4565959 0.3952726 0.4337594
0.4704856 0.3949864 0.4386108
0.4798157 0.3951873 0.4444585
0.0656216 0.5952680 0.6624762
0.1698934 0.5811296 0.6778901
0.3603273 0.6031349 0.6772701
0.4884833 0.6396175 0.7077878
0.5954323 0.6386566 0.6883850
0.4999704 0.4966007 0.5205134
0.4574704 0.4266320 0.4332965
0.4676025 0.4220351 0.4336325
0.4743165 0.4231361 0.4356076
0.0587013 0.6155443 0.6550067
0.1749326 0.6044527 0.6741813
0.3639221 0.6183867 0.6616988
0.4789620 0.6515815 0.6899200
0.6835040 0.7541614 0.7777875
0.6168474 0.6429086 0.6573448
0.4586478 0.4441794 0.4366915
0.4652477 0.4343591 0.4299013
0.4782380 0.4415169 0.4381695
0.0527286 0.6379949 0.6492101
0.1834044 0.6316164 0.6742131
0.3698620 0.6353473 0.6514029
0.4735393 0.6583050 0.6697824
0.6378950 0.7216370 0.7126856
0.7100532 0.7550374 0.7467318
0.4967671 0.5034810 0.4842682
0.5163846 0.5032784 0.4826915
0.5471108 0.5244085 0.5012231
0.0515425 0.6594926 0.6570382
0.1889229 0.6560385 0.6888289
0.3776809 0.6582445 0.6613986
0.4858544 0.6720249 0.6699577
0.6336995 0.7248171 0.7049084
0.6890077 0.7453132 0.7234438
0.7717440 0.7959296 0.7824338
0.7014532 0.7008016 0.6661124
0.6833209 0.6723586 0.6324147
0.0582224 0.6890623 0.6738805
0.1989940 0.6879291 0.7085651
0.3868341 0.6933586 0.6862395
0.5003489 0.6974273 0.6824317
0.6475573 0.7447006 0.7168451
0.7148332 0.7781284 0.7519060
0.7811645 0.8127314 0.7940771
0.7591678 0.7803372 0.7428418
0.7414187 0.7452325 0.7014484
0.1620531 0.3066931 0.7003756
0.1503601 0.1185154 0.6069369
0.3143446 0.1498363 0.5265927
0.3816925 0.1744870 0.4852371
0.4241396 0.1858206 0.4580793
0.4428583 0.1877802 0.4473015
0.4584050 0.1877332 0.4398476
0.4678968 0.1868862 0.4359661
0.4783642 0.1872918 0.4412369
0.1260992 0.4375711 0.7327359
0.2117920 0.3243469 0.6865028
0.3250182 0.2577917 0.5758486
0.3965450 0.2744812 0.5148764
0.4334246 0.2820835 0.4728181
0.4476498 0.2824905 0.4572972
0.4594075 0.2810691 0.4471704
0.4666690 0.2793916 0.4421955
0.4768476 0.2796202 0.4473536
0.1058201 0.5338895 0.7264537
0.1724931 0.4868704 0.7308722
0.3662108 0.4367404 0.6682726
0.4175709 0.3860560 0.5765032
0.4518636 0.3789922 0.5032650
0.4567422 0.3702376 0.4718592
0.4607924 0.3634498 0.4526792
0.4643518 0.3596149 0.4441795
0.4733729 0.3596677 0.4487422
0.0910329 0.5681985 0.7056681
0.1697378 0.5468199 0.7183309
0.3588878 0.5476445 0.7170036
0.4645573 0.5128459 0.6613631
0.4766043 0.4503791 0.5450018
0.4721808 0.4251070 0.4918792
0.4667002 0.4065180 0.4582459
0.4672544 0.3995160 0.4455602
0.4747049 0.3991807 0.4491311
0.0728306 0.6048902 0.6831265
0.1691647 0.5859132 0.6982949
0.3597173 0.6143818 0.7041519
0.4849474 0.6374023 0.7189660
0.5967485 0.6424419 0.7069704
0.5270787 0.5298805 0.5706082
0.4796448 0.4571567 0.4770172
0.4671234 0.4310019 0.4448395
0.4733256 0.4290637 0.4461713
0.0651005 0.6237949 0.6751949
0.1743518 0.6087018 0.6944229
0.3642225 0.6318986 0.6892434
0.4773899 0.6580914 0.7099810
0.6751210 0.7509448 0.7883804
0.6324372 0.6664270 0.6965220
0.5030964 0.5003832 0.5085425
0.4666556 0.4461547 0.4454990
0.4719072 0.4413844 0.4443401
0.0584725 0.6450495 0.6690288
0.1823321 0.6367322 0.6948122
0.3702489 0.6488970 0.6771895
0.4760674 0.6673659 0.6906445
0.6520543 0.7464359 0.7522740
0.7458476 0.7992022 0.8102403
0.6602074 0.6793373 0.6762783
0.4663467 0.4615094 0.4465221
0.4701106 0.4558533 0.4426004
0.0556193 0.6563637 0.6666745
0.1861336 0.6509375 0.6965728
0.3744195 0.6583894 0.6734682
0.4799276 0.6720404 0.6818540
0.6352780 0.7303140 0.7216711
0.6987439 0.7592987 0.7507234
0.7739220 0.8028628 0.8010430
0.4667945 0.4694835 0.4476568
0.5073227 0.5026034 0.4822730
0.0547833 0.6778779 0.6751570
0.1925629 0.6753541 0.7098130
0.3813112 0.6818421 0.6854150
0.4890464 0.6893811 0.6862605
0.6350575 0.7384171 0.7196571
0.6905172 0.7612114 0.7415680
0.7369087 0.7755300 0.7571217
0.7990408 0.8169035 0.8087349
0.7466037 0.7556682 0.7302776
