presets/series/late-summer/series-late-summer-cross/look.cube
# Approximate v0 colour conversion; calibrate before claiming visual parity.
LUT_3D_SIZE 33
DOMAIN_MIN 0 0 0
DOMAIN_MAX 1 1 1
0.0170933 0.0163150 0.0171554
0.0210003 0.0160145 0.0169054
0.0284182 0.0161484 0.0166880
0.0357912 0.0163494 0.0164991
0.0431413 0.0165751 0.0163247
0.0504776 0.0168107 0.0161585
0.0578057 0.0170507 0.0159975
0.0651289 0.0172927 0.0158398
0.0733206 0.0175644 0.0156662
0.0978880 0.0183286 0.0152689
0.1223096 0.0193731 0.0148665
0.1477811 0.0206810 0.0145410
0.1739077 0.0219154 0.0142984
0.2007593 0.0231430 0.0140733
0.2297078 0.0245710 0.0137914
0.2588183 0.0260700 0.0134733
0.2884157 0.0276429 0.0131823
0.3112885 0.0289063 0.0129340
0.3342782 0.0302192 0.0126599
0.3568525 0.0316073 0.0124608
0.3795053 0.0330480 0.0122302
0.4022391 0.0345408 0.0119681
0.4239671 0.0362105 0.0117678
0.4454830 0.0379786 0.0115504
0.4663214 0.0397545 0.0113023
0.4829668 0.0414177 0.0113102
0.4989816 0.0432983 0.0115787
0.5150045 0.0452485 0.0118654
0.5310361 0.0472676 0.0121714
0.5465070 0.0497315 0.0129897
0.5614093 0.0526274 0.0143297
0.5763127 0.0555733 0.0157014
0.5879231 0.0579028 0.0167924
0.0163741 0.0215692 0.0165779
0.0223344 0.0219907 0.0166106
0.0273513 0.0195946 0.0164895
0.0347835 0.0194846 0.0161599
0.0421671 0.0196688 0.0158692
0.0495228 0.0199894 0.0156057
0.0568552 0.0203762 0.0153615
0.0641667 0.0207955 0.0151313
0.0723198 0.0212816 0.0148867
0.0965985 0.0225578 0.0143570
0.1207582 0.0237145 0.0138836
0.1460760 0.0248379 0.0135494
0.1721730 0.0259471 0.0133193
0.1989875 0.0271052 0.0130790
0.2282035 0.0286404 0.0127134
0.2575744 0.0302486 0.0123170
0.2874525 0.0319494 0.0119403
0.3105748 0.0333148 0.0116299
0.3338119 0.0347304 0.0112964
0.3565812 0.0362265 0.0110274
0.3794050 0.0377757 0.0107325
0.4023094 0.0393766 0.0104077
0.4241934 0.0411792 0.0101324
0.4457943 0.0430938 0.0098425
0.4667156 0.0450098 0.0095250
0.4834691 0.0468032 0.0095008
0.4995035 0.0488655 0.0098264
0.5155472 0.0509956 0.0101739
0.5316008 0.0531929 0.0105446
0.5471393 0.0557780 0.0113873
0.5620416 0.0588095 0.0128075
0.5769470 0.0618916 0.0142618
0.5885603 0.0643277 0.0154188
0.0149217 0.0284193 0.0160615
0.0189301 0.0288424 0.0159239
0.0293441 0.0293841 0.0158398
0.0340093 0.0265855 0.0158619
0.0413720 0.0260396 0.0154752
0.0486685 0.0258977 0.0151320
0.0559368 0.0259727 0.0148224
0.0631864 0.0261694 0.0145378
0.0712737 0.0264708 0.0142417
0.0952989 0.0272988 0.0136193
0.1192536 0.0281259 0.0130804
0.1444094 0.0290358 0.0127151
0.1704773 0.0300103 0.0124759
0.1972406 0.0310827 0.0122069
0.2267207 0.0327217 0.0117505
0.2563481 0.0344371 0.0112697
0.2865010 0.0362630 0.0108051
0.3098708 0.0377300 0.0104309
0.3333533 0.0392479 0.0100368
0.3563219 0.0408500 0.0096981
0.3793159 0.0425064 0.0093384
0.4023902 0.0442140 0.0089507
0.4244354 0.0461444 0.0086013
0.4461217 0.0482030 0.0082388
0.4671263 0.0502569 0.0078516
0.4839919 0.0521721 0.0077879
0.5000472 0.0544132 0.0081772
0.5161132 0.0567204 0.0085922
0.5321903 0.0590932 0.0090342
0.5477994 0.0618035 0.0099063
0.5627043 0.0649730 0.0114083
0.5776145 0.0681937 0.0129470
0.5892329 0.0707383 0.0141714
0.0135810 0.0353073 0.0157098
0.0175242 0.0357737 0.0154653
0.0258381 0.0362604 0.0152561
0.0361318 0.0366651 0.0151257
0.0435605 0.0356625 0.0150741
0.0478271 0.0327379 0.0148724
0.0550577 0.0322675 0.0144860
0.0622519 0.0320770 0.0141363
0.0702736 0.0320626 0.0137788
0.0940392 0.0322432 0.0130444
0.1177826 0.0326520 0.0124271
0.1427696 0.0333012 0.0120149
0.1688099 0.0341213 0.0117510
0.1955099 0.0350866 0.0114431
0.2252532 0.0368228 0.0108905
0.2551346 0.0386413 0.0103209
0.2855574 0.0405885 0.0097670
0.3091735 0.0421555 0.0093280
0.3329000 0.0437748 0.0088724
0.3560722 0.0454808 0.0084645
0.3792359 0.0472426 0.0080399
0.4024795 0.0490554 0.0075894
0.4246911 0.0511086 0.0071670
0.4464631 0.0533089 0.0067321
0.4675515 0.0554983 0.0062756
0.4845332 0.0575272 0.0061642
0.5006106 0.0599444 0.0066235
0.5167001 0.0624261 0.0071123
0.5328019 0.0649717 0.0076318
0.5485250 0.0678101 0.0085702
0.5636686 0.0710635 0.0103035
0.5788686 0.0742764 0.0120542
0.5907492 0.0767502 0.0134299
0.0123585 0.0422152 0.0154522
0.0161543 0.0426982 0.0151392
0.0218011 0.0431526 0.0147923
0.0325676 0.0435432 0.0146090
0.0427308 0.0438209 0.0144498
0.0519892 0.0439999 0.0143446
0.0541287 0.0395010 0.0143267
0.0613110 0.0387145 0.0139042
0.0692877 0.0382158 0.0134765
0.0928055 0.0374799 0.0126119
0.1163339 0.0373450 0.0119039
0.1411466 0.0376668 0.0114324
0.1671621 0.0383009 0.0111318
0.1937885 0.0391313 0.0107767
0.2237960 0.0409545 0.0101235
0.2539305 0.0428693 0.0094616
0.2846192 0.0449320 0.0088172
0.3084812 0.0465966 0.0083128
0.3324507 0.0483155 0.0077953
0.3558306 0.0501228 0.0073190
0.3791637 0.0519879 0.0068297
0.4025762 0.0539039 0.0063168
0.4249591 0.0560750 0.0058228
0.4468172 0.0584145 0.0053160
0.4680791 0.0608737 0.0048498
0.4853621 0.0632034 0.0048284
0.5016533 0.0658754 0.0055211
0.5179680 0.0684998 0.0062654
0.5343075 0.0710758 0.0070632
0.5503220 0.0738105 0.0081898
0.5656051 0.0769618 0.0099552
0.5809511 0.0800688 0.0117392
0.5929501 0.0824576 0.0131418
0.0112112 0.0491259 0.0152611
0.0148707 0.0496226 0.0148955
0.0187626 0.0500984 0.0144217
0.0285773 0.0504426 0.0141835
0.0391232 0.0506877 0.0139814
0.0491574 0.0508426 0.0138031
0.0584528 0.0509213 0.0136712
0.0629912 0.0480175 0.0136211
0.0682582 0.0450884 0.0133201
0.0915771 0.0431001 0.0123091
0.1148952 0.0422610 0.0114987
0.1395315 0.0421686 0.0109566
0.1655264 0.0425732 0.0106095
0.1920707 0.0432336 0.0101997
0.2223454 0.0451292 0.0094417
0.2527335 0.0471307 0.0086842
0.2836849 0.0493012 0.0079486
0.3077926 0.0510598 0.0073782
0.3320047 0.0528753 0.0067986
0.3555964 0.0547808 0.0062548
0.3792215 0.0571757 0.0057342
0.4030069 0.0596881 0.0052025
0.4257887 0.0623373 0.0047462
0.4479615 0.0650276 0.0043807
0.4694558 0.0675583 0.0040736
0.4868887 0.0697399 0.0041087
0.5032300 0.0722922 0.0049344
0.5195989 0.0747949 0.0058178
0.5359967 0.0772469 0.0067607
0.5521461 0.0798306 0.0079660
0.5675875 0.0829116 0.0098217
0.5831845 0.0863451 0.0123027
0.5953758 0.0889905 0.0142452
0.0101085 0.0560307 0.0151240
0.0136582 0.0565424 0.0147122
0.0174427 0.0570382 0.0141882
0.0246449 0.0573964 0.0137985
0.0351626 0.0575819 0.0135858
0.0455132 0.0576897 0.0133717
0.0554488 0.0579651 0.0132366
0.0647638 0.0581367 0.0131347
0.0721665 0.0558968 0.0129538
0.0903225 0.0491960 0.0121276
0.1134507 0.0474571 0.0112035
0.1379142 0.0468447 0.0105806
0.1638954 0.0469642 0.0101783
0.1903510 0.0474124 0.0097069
0.2208981 0.0493615 0.0088394
0.2515418 0.0514367 0.0079831
0.2827424 0.0545403 0.0072557
0.3072164 0.0570305 0.0066619
0.3319062 0.0595492 0.0060283
0.3559467 0.0620378 0.0054457
0.3798694 0.0644802 0.0048684
0.4039155 0.0668842 0.0042728
0.4269343 0.0693839 0.0038446
0.4492252 0.0719134 0.0035856
0.4708381 0.0742895 0.0033913
0.4884278 0.0763201 0.0034907
0.5048237 0.0787478 0.0044581
0.5212514 0.0811238 0.0054894
0.5377701 0.0836884 0.0069566
0.5541490 0.0865570 0.0089438
0.5698229 0.0899365 0.0114431
0.5855573 0.0932742 0.0139569
0.5978558 0.0958451 0.0159251
0.0091024 0.0648991 0.0151967
0.0126136 0.0657478 0.0148577
0.0163615 0.0665558 0.0144374
0.0211836 0.0672721 0.0140143
0.0315114 0.0676444 0.0138833
0.0419038 0.0679133 0.0137280
0.0521165 0.0680739 0.0135683
0.0619392 0.0681324 0.0134226
0.0723257 0.0680140 0.0133312
0.0889678 0.0564301 0.0121912
0.1119473 0.0531335 0.0110432
0.1361905 0.0520204 0.0103494
0.1620033 0.0522822 0.0099277
0.1881196 0.0532099 0.0094251
0.2189351 0.0559966 0.0085594
0.2499655 0.0590212 0.0077782
0.2817565 0.0621560 0.0069086
0.3067391 0.0646221 0.0061628
0.3319260 0.0671289 0.0053840
0.3563235 0.0695257 0.0047089
0.3805072 0.0718493 0.0040653
0.4048142 0.0741392 0.0034082
0.4280804 0.0764888 0.0030052
0.4504924 0.0788528 0.0028648
0.4722270 0.0810707 0.0027952
0.4899794 0.0829472 0.0029661
0.5065136 0.0855537 0.0045492
0.5231094 0.0882474 0.0064249
0.5397292 0.0908894 0.0083868
0.5562164 0.0936108 0.0105133
0.5720259 0.0968957 0.0130450
0.5878962 0.1001391 0.0155913
0.6003008 0.1026364 0.0175848
0.0088980 0.0757929 0.0166043
0.0116523 0.0765195 0.0151425
0.0153716 0.0772212 0.0148094
0.0192948 0.0778796 0.0144153
0.0280543 0.0781678 0.0142318
0.0382823 0.0782821 0.0140826
0.0485210 0.0783022 0.0139137
0.0585775 0.0782302 0.0137420
0.0694056 0.0780526 0.0135661
0.0910045 0.0708274 0.0131666
0.1096924 0.0623154 0.0116380
0.1335321 0.0603010 0.0106929
0.1592912 0.0602608 0.0100442
0.1852559 0.0609943 0.0093593
0.2167411 0.0637343 0.0084369
0.2483657 0.0667792 0.0076364
0.2807497 0.0698787 0.0066270
0.3062422 0.0723070 0.0057268
0.3319253 0.0747918 0.0048012
0.3566937 0.0770951 0.0040299
0.3811385 0.0792911 0.0033218
0.4057063 0.0814602 0.0026051
0.4292295 0.0836575 0.0022230
0.4517648 0.0858508 0.0022125
0.4736889 0.0881465 0.0026379
0.4917332 0.0903176 0.0035838
0.5083544 0.0929403 0.0055653
0.5250001 0.0955128 0.0076331
0.5416699 0.0980342 0.0097875
0.5582566 0.1006071 0.0120658
0.5742001 0.1037982 0.0146296
0.5902048 0.1069479 0.0172080
0.6027143 0.1093724 0.0192266
0.0090171 0.0974447 0.0203854
0.0097039 0.0981215 0.0155305
0.0134019 0.0986363 0.0153544
0.0172935 0.0991075 0.0151181
0.0218201 0.0994877 0.0148498
0.0315222 0.0992865 0.0147334
0.0414294 0.0990049 0.0145776
0.0514195 0.0986444 0.0143941
0.0625260 0.0981543 0.0141722
0.0900199 0.0958236 0.0141159
0.1069360 0.0848684 0.0133309
0.1279509 0.0781385 0.0117212
0.1537382 0.0771157 0.0105366
0.1793858 0.0771953 0.0094205
0.2122899 0.0796704 0.0083675
0.2451307 0.0826350 0.0075278
0.2786938 0.0855959 0.0062619
0.3052088 0.0878974 0.0050448
0.3318795 0.0902977 0.0038211
0.3574236 0.0924021 0.0028453
0.3823867 0.0943128 0.0020123
0.4074716 0.0962158 0.0011818
0.4316517 0.0985334 0.0014896
0.4546016 0.1009598 0.0026967
0.4768677 0.1032405 0.0039731
0.4952590 0.1050985 0.0051576
0.5119741 0.1074752 0.0075149
0.5287148 0.1098045 0.0099588
0.5454808 0.1120849 0.0124897
0.5622392 0.1143575 0.0151056
0.5785246 0.1174564 0.0177060
0.5947908 0.1207403 0.0202412
0.6073185 0.1233646 0.0221814
0.0090983 0.1190894 0.0243296
0.0090093 0.1198470 0.0180520
0.0113734 0.1203337 0.0156668
0.0152639 0.1206378 0.0155731
0.0194302 0.1209440 0.0154081
0.0257479 0.1209262 0.0152361
0.0352651 0.1203866 0.0150942
0.0449621 0.1197657 0.0149140
0.0559148 0.1189803 0.0146776
0.0837084 0.1155768 0.0146837
0.1070591 0.1109351 0.0155634
0.1231341 0.0996323 0.0133414
0.1477729 0.0956238 0.0114639
0.1732880 0.0946705 0.0098024
0.2076443 0.0965755 0.0085656
0.2417939 0.0992638 0.0076668
0.2765637 0.1019655 0.0061624
0.3041282 0.1040514 0.0046081
0.3318003 0.1062971 0.0030720
0.3581727 0.1081707 0.0018699
0.3836981 0.1099204 0.0012167
0.4094818 0.1121256 0.0013078
0.4345574 0.1143160 0.0023312
0.4581472 0.1164217 0.0042385
0.4811011 0.1184232 0.0059913
0.5001864 0.1200464 0.0073703
0.5173812 0.1223181 0.0099679
0.5345162 0.1246221 0.0126132
0.5516674 0.1269302 0.0152563
0.5688340 0.1292407 0.0178967
0.5844503 0.1327847 0.0202709
0.5998187 0.1364625 0.0225887
0.6116476 0.1393950 0.0243598
0.0102031 0.1416314 0.0280903
0.0101558 0.1424208 0.0217846
0.0103656 0.1431561 0.0155493
0.0148261 0.1434095 0.0154833
0.0195113 0.1436240 0.0153602
0.0244169 0.1438026 0.0151830
0.0322068 0.1432120 0.0150690
0.0413007 0.1422437 0.0149562
0.0516595 0.1410678 0.0147819
0.0790649 0.1362024 0.0150892
0.1008574 0.1281914 0.0177940
0.1272443 0.1271848 0.0204761
0.1412292 0.1141938 0.0159600
0.1660937 0.1119794 0.0137357
0.2019464 0.1138346 0.0125038
0.2376453 0.1167130 0.0120360
0.2740642 0.1193900 0.0105497
0.3032595 0.1213100 0.0085813
0.3326009 0.1235088 0.0066639
0.3604067 0.1253651 0.0056146
0.3869670 0.1270502 0.0058106
0.4137543 0.1287554 0.0059110
0.4397193 0.1304699 0.0064350
0.4637691 0.1322197 0.0079355
0.4871719 0.1338980 0.0093035
0.5066315 0.1352668 0.0103691
0.5240412 0.1373998 0.0128059
0.5411972 0.1396459 0.0154250
0.5583729 0.1419022 0.0180430
0.5755669 0.1441661 0.0206596
0.5905027 0.1479456 0.0228559
0.6049747 0.1520037 0.0249562
0.6161073 0.1552344 0.0265585
0.0114061 0.1643589 0.0319111
0.0113408 0.1651291 0.0255761
0.0112239 0.1658782 0.0188762
0.0136291 0.1663268 0.0153313
0.0188149 0.1664511 0.0152472
0.0242261 0.1665378 0.0151109
0.0299337 0.1665522 0.0149300
0.0384397 0.1652525 0.0148858
0.0481624 0.1637011 0.0147818
0.0755540 0.1584328 0.0146039
0.0948526 0.1470505 0.0192859
0.1181563 0.1424286 0.0239631
0.1445331 0.1447796 0.0283402
0.1574187 0.1291061 0.0216370
0.1948401 0.1313776 0.0210453
0.2324686 0.1350621 0.0212511
0.2710623 0.1379741 0.0193037
0.3024001 0.1396679 0.0160751
0.3337620 0.1417503 0.0129753
0.3633285 0.1437017 0.0118387
0.3906307 0.1446517 0.0113404
0.4181530 0.1456903 0.0107812
0.4449493 0.1468341 0.0106335
0.4694410 0.1481775 0.0117116
0.4932757 0.1494923 0.0126833
0.5130958 0.1505781 0.0134281
0.5307552 0.1525228 0.0156599
0.5479197 0.1546897 0.0182482
0.5651084 0.1568752 0.0208374
0.5823196 0.1590756 0.0234266
0.5967075 0.1630129 0.0254721
0.6102791 0.1674359 0.0273530
0.6207137 0.1709537 0.0287855
0.0125242 0.1871212 0.0358534
0.0124526 0.1878880 0.0294663
0.0123677 0.1886904 0.0227350
0.0122293 0.1894723 0.0156736
0.0175675 0.1896498 0.0150465
0.0236397 0.1897522 0.0149372
0.0299857 0.1898326 0.0147786
0.0371584 0.1893821 0.0146478
0.0466038 0.1877898 0.0146002
0.0743216 0.1831483 0.0141525
0.0951326 0.1726363 0.0193349
0.1173741 0.1653817 0.0255077
0.1460101 0.1686550 0.0306844
0.1872342 0.1760360 0.0363403
0.1869975 0.1502749 0.0304897
0.2268595 0.1546196 0.0313517
0.2677410 0.1576848 0.0290257
0.3013673 0.1590057 0.0244093
0.3349602 0.1610449 0.0204657
0.3663600 0.1626660 0.0183233
0.3944034 0.1627657 0.0170794
0.4226540 0.1630436 0.0158212
0.4502947 0.1635220 0.0149546
0.4752109 0.1643978 0.0155897
0.4994606 0.1652992 0.0161494
0.5196274 0.1660670 0.0165632
0.5368860 0.1677282 0.0185342
0.5529650 0.1697680 0.0209502
0.5690495 0.1718915 0.0232228
0.5851403 0.1740953 0.0253465
0.5983638 0.1780212 0.0270052
0.6106286 0.1825504 0.0285344
0.6202151 0.1860936 0.0297246
0.0146279 0.2115588 0.0394390
0.0145703 0.2123319 0.0330520
0.0144527 0.2130767 0.0263653
0.0142767 0.2137977 0.0193762
0.0165158 0.2143209 0.0146334
0.0235747 0.2144877 0.0145512
0.0309214 0.2146339 0.0144222
0.0385541 0.2147615 0.0142470
0.0478014 0.2138454 0.0141813
0.0754973 0.2099168 0.0138802
0.0990563 0.2018521 0.0182933
0.1200408 0.1919429 0.0260149
0.1496873 0.1949050 0.0318786
0.1894615 0.2005637 0.0383194
0.2353226 0.2048683 0.0435896
0.2312297 0.1791334 0.0389144
0.2709077 0.1805281 0.0375674
0.3039924 0.1805958 0.0328106
0.3377011 0.1817827 0.0287737
0.3693499 0.1825774 0.0261534
0.3966412 0.1813438 0.0241585
0.4237856 0.1803305 0.0222429
0.4502037 0.1796116 0.0206660
0.4740912 0.1799772 0.0206168
0.4971014 0.1804597 0.0204637
0.5160572 0.1809348 0.0202371
0.5331056 0.1825046 0.0213301
0.5492355 0.1846777 0.0230034
0.5653685 0.1869454 0.0245448
0.5815058 0.1893027 0.0259467
0.5951710 0.1930789 0.0273944
0.6076540 0.1975531 0.0289110
0.6174088 0.2010592 0.0300917
0.0167296 0.2361605 0.0434986
0.0165292 0.2368197 0.0366754
0.0163837 0.2375107 0.0300163
0.0161757 0.2381758 0.0230779
0.0159072 0.2388186 0.0158587
0.0220722 0.2391365 0.0141353
0.0303965 0.2393456 0.0140323
0.0390192 0.2395374 0.0138851
0.0489406 0.2395909 0.0136990
0.0765976 0.2363426 0.0135427
0.1024966 0.2305399 0.0166272
0.1240224 0.2208855 0.0256556
0.1524931 0.2211389 0.0326708
0.1881217 0.2247658 0.0396131
0.2491316 0.2352598 0.0474433
0.2847165 0.2316180 0.0511376
0.2819969 0.2070663 0.0444429
0.3120091 0.2050998 0.0408403
0.3429419 0.2044250 0.0378562
0.3724873 0.2036931 0.0356445
0.3975679 0.2005798 0.0326412
0.4226312 0.1978734 0.0298102
0.4473947 0.1956735 0.0272623
0.4708836 0.1956614 0.0261800
0.4935159 0.1958293 0.0250769
0.5121639 0.1960754 0.0240940
0.5293126 0.1975142 0.0242832
0.5454994 0.1997914 0.0251957
0.5616858 0.2021761 0.0259916
0.5778740 0.2046622 0.0266606
0.5919522 0.2083010 0.0277935
0.6046580 0.2126971 0.0292967
0.6145841 0.2161496 0.0304672
0.0194983 0.2609867 0.0483232
0.0190298 0.2614435 0.0402559
0.0190907 0.2621190 0.0335992
0.0190662 0.2627663 0.0266944
0.0189587 0.2633888 0.0195402
0.0206276 0.2639377 0.0136208
0.0298459 0.2642633 0.0135242
0.0392938 0.2645785 0.0133844
0.0501271 0.2649209 0.0131772
0.0790321 0.2633170 0.0128853
0.1080582 0.2604162 0.0136093
0.1332158 0.2539625 0.0210250
0.1636138 0.2534220 0.0280616
0.1964388 0.2562290 0.0353371
0.2513558 0.2625173 0.0422511
0.3007983 0.2663881 0.0477409
0.3239190 0.2531880 0.0499268
0.3209201 0.2314123 0.0494506
0.3487812 0.2284810 0.0473030
0.3760651 0.2260321 0.0457004
0.3988189 0.2208149 0.0415787
0.4217139 0.2162375 0.0377460
0.4446035 0.2123097 0.0341854
0.4676939 0.2118397 0.0320083
0.4899489 0.2116269 0.0299078
0.5082897 0.2115963 0.0281367
0.5254904 0.2128303 0.0274057
0.5417418 0.2151793 0.0275350
0.5579885 0.2176516 0.0275670
0.5742330 0.2202392 0.0274883
0.5886982 0.2237490 0.0282044
0.6010597 0.2282650 0.0300081
0.6105349 0.2318221 0.0314643
0.0290372 0.2899236 0.0528038
0.0281285 0.2901720 0.0441444
0.0277471 0.2906882 0.0370220
0.0274855 0.2912781 0.0302765
0.0271336 0.2918411 0.0233047
0.0266928 0.2923798 0.0161060
0.0316710 0.2928670 0.0127555
0.0412620 0.2933198 0.0126236
0.0522493 0.2938190 0.0124289
0.0826630 0.2939292 0.0119537
0.1136332 0.2931604 0.0112488
0.1430029 0.2905588 0.0158607
0.1752848 0.2901266 0.0217143
0.2116631 0.2934888 0.0301977
0.2556228 0.2950297 0.0366083
0.2992414 0.2952151 0.0421165
0.3388980 0.2913861 0.0454271
0.3598942 0.2832925 0.0475250
0.3609732 0.2629067 0.0489328
0.3761773 0.2520926 0.0496091
0.3981243 0.2460478 0.0467117
0.4200009 0.2406751 0.0436177
0.4418283 0.2359591 0.0404946
0.4636830 0.2349350 0.0379612
0.4847049 0.2343962 0.0356171
0.5019558 0.2342268 0.0337633
0.5182810 0.2352029 0.0327670
0.5335698 0.2374009 0.0327051
0.5487014 0.2397164 0.0326737
0.5636646 0.2421225 0.0326665
0.5771803 0.2452745 0.0334621
0.5890781 0.2492672 0.0351911
0.5982733 0.2523960 0.0365431
0.0387435 0.3189389 0.0571508
0.0376852 0.3191002 0.0486698
0.0366555 0.3192955 0.0403575
0.0361550 0.3198310 0.0337534
0.0355584 0.3203376 0.0269426
0.0348659 0.3208180 0.0199243
0.0340778 0.3212744 0.0126984
0.0428383 0.3218468 0.0118877
0.0540009 0.3224975 0.0117027
0.0857803 0.3238645 0.0110977
0.1175872 0.3243760 0.0103814
0.1502060 0.3246021 0.0120542
0.1837095 0.3247502 0.0151254
0.2215314 0.3274682 0.0242418
0.2603312 0.3273892 0.0314361
0.2997436 0.3252864 0.0372841
0.3378231 0.3216278 0.0428359
0.3656059 0.3188203 0.0480449
0.3907821 0.3179787 0.0513602
0.3904539 0.2913138 0.0483434
0.3956030 0.2735177 0.0478467
0.4175244 0.2684681 0.0467747
0.4393666 0.2641196 0.0455148
0.4594348 0.2620842 0.0434459
0.4787406 0.2607786 0.0415066
0.4946259 0.2600600 0.0399836
0.5098707 0.2602728 0.0389953
0.5241844 0.2616994 0.0387586
0.5383583 0.2633011 0.0385662
0.5523779 0.2650432 0.0384098
0.5653889 0.2674495 0.0389353
0.5769452 0.2708092 0.0405099
0.5858717 0.2734685 0.0417474
0.0490499 0.3477864 0.0613294
0.0477737 0.3478366 0.0530266
0.0463657 0.3478327 0.0444776
0.0453802 0.3481104 0.0371312
0.0446338 0.3485582 0.0304650
0.0437984 0.3489802 0.0236081
0.0428745 0.3493788 0.0165602
0.0446837 0.3498302 0.0111750
0.0558796 0.3505607 0.0110032
0.0883205 0.3524772 0.0103380
0.1203865 0.3534635 0.0096639
0.1537183 0.3542887 0.0098357
0.1877743 0.3548133 0.0112376
0.2248919 0.3564994 0.0181726
0.2627680 0.3572671 0.0259818
0.3015019 0.3556212 0.0331257
0.3384364 0.3538027 0.0414518
0.3656477 0.3523799 0.0487967
0.3897593 0.3519278 0.0548324
0.4107224 0.3523629 0.0595641
0.4182040 0.3326418 0.0573072
0.4201030 0.3048912 0.0520060
0.4365837 0.2942998 0.0508658
0.4551754 0.2907688 0.0492322
0.4727588 0.2883759 0.0475967
0.4872430 0.2869915 0.0463991
0.5013381 0.2863827 0.0454777
0.5146674 0.2869341 0.0450409
0.5278776 0.2877303 0.0446651
0.5409806 0.2888555 0.0444610
0.5535072 0.2906740 0.0449198
0.5649445 0.2935476 0.0465158
0.5738553 0.2958440 0.0477568
0.0601129 0.3764873 0.0653130
0.0585076 0.3764413 0.0571945
0.0567669 0.3763403 0.0488517
0.0549579 0.3762239 0.0404169
0.0540836 0.3766398 0.0338826
0.0531205 0.3770293 0.0271723
0.0520688 0.3773944 0.0202854
0.0509289 0.3777369 0.0132220
0.0577711 0.3783959 0.0103183
0.0903210 0.3806633 0.0096594
0.1229399 0.3822772 0.0089693
0.1568115 0.3837210 0.0082454
0.1916425 0.3848231 0.0085014
0.2282531 0.3859637 0.0125342
0.2656960 0.3869076 0.0198752
0.3032729 0.3857556 0.0283093
0.3389170 0.3849046 0.0388447
0.3651175 0.3846506 0.0481247
0.3890064 0.3846114 0.0566346
0.4081041 0.3853201 0.0633913
0.4263136 0.3859448 0.0699612
0.4360217 0.3765920 0.0715475
0.4404257 0.3481686 0.0643875
0.4486664 0.3279976 0.0594325
0.4649261 0.3246213 0.0590355
0.4783600 0.3225131 0.0587743
0.4917109 0.3210446 0.0584487
0.5048691 0.3203599 0.0578027
0.5179180 0.3200951 0.0573140
0.5308630 0.3201773 0.0569624
0.5435484 0.3207567 0.0569295
0.5556881 0.3221868 0.0575696
0.5651241 0.3234106 0.0580942
0.0715581 0.4052890 0.0691323
0.0696263 0.4051483 0.0611908
0.0675261 0.4049253 0.0530596
0.0652493 0.4046217 0.0447344
0.0635165 0.4046199 0.0372735
0.0623653 0.4049335 0.0307074
0.0611287 0.4052267 0.0239673
0.0598069 0.4055013 0.0170527
0.0591680 0.4058291 0.0096926
0.0913668 0.4081426 0.0091026
0.1241857 0.4100480 0.0084012
0.1578730 0.4116661 0.0074567
0.1924455 0.4128266 0.0071880
0.2280708 0.4137705 0.0089033
0.2646421 0.4144511 0.0160346
0.3011547 0.4140072 0.0244937
0.3368429 0.4134235 0.0354999
0.3627190 0.4135109 0.0455792
0.3876093 0.4135570 0.0553972
0.4072530 0.4144538 0.0637935
0.4259000 0.4152964 0.0719420
0.4429765 0.4164551 0.0788365
0.4568946 0.4149224 0.0835648
0.4562671 0.3906408 0.0785591
0.4582065 0.3662525 0.0723361
0.4691803 0.3600017 0.0717541
0.4816636 0.3576817 0.0722494
0.4947098 0.3555261 0.0712925
0.5076319 0.3539180 0.0705294
0.5204374 0.3527670 0.0699355
0.5331859 0.3520558 0.0694799
0.5460794 0.3519206 0.0691019
0.5560758 0.3519869 0.0688671
0.0816567 0.4323606 0.0738607
0.0793409 0.4321720 0.0660548
0.0768865 0.4319411 0.0580517
0.0742922 0.4316699 0.0498481
0.0715569 0.4313600 0.0414409
0.0702182 0.4316584 0.0347537
0.0688889 0.4319768 0.0280191
0.0674754 0.4322772 0.0211183
0.0657953 0.4325936 0.0132049
0.0912216 0.4346940 0.0086622
0.1241610 0.4368285 0.0079398
0.1576705 0.4385913 0.0070440
0.1921048 0.4399943 0.0063902
0.2273226 0.4411429 0.0058788
0.2633456 0.4418583 0.0126050
0.2993230 0.4420327 0.0205703
0.3348890 0.4418001 0.0320047
0.3603798 0.4421317 0.0424777
0.3848734 0.4425223 0.0530949
0.4058590 0.4434095 0.0632039
0.4248021 0.4444759 0.0729798
0.4423040 0.4457106 0.0820527
0.4577284 0.4473459 0.0900195
0.4724508 0.4488760 0.0978099
0.4751894 0.4298011 0.0940686
0.4754209 0.4107464 0.0889064
0.4761511 0.3927846 0.0839512
0.4880459 0.3897587 0.0836616
0.5000577 0.3872400 0.0833687
0.5121314 0.3851673 0.0831211
0.5243386 0.3834764 0.0828568
0.5374469 0.3820446 0.0819142
0.5476211 0.3811466 0.0812801
0.0920410 0.4593028 0.0785652
0.0894109 0.4591383 0.0708495
0.0866402 0.4589343 0.0629497
0.0837277 0.4586923 0.0548627
0.0806721 0.4584136 0.0465861
0.0781923 0.4583601 0.0388465
0.0767694 0.4587024 0.0321110
0.0752631 0.4590273 0.0252169
0.0734801 0.4593717 0.0173196
0.0910911 0.4612211 0.0081959
0.1241153 0.4635615 0.0074570
0.1574248 0.4654431 0.0066075
0.1914023 0.4669400 0.0057240
0.2259959 0.4680867 0.0048895
0.2610633 0.4687918 0.0097551
0.2964864 0.4692055 0.0172485
0.3312941 0.4691366 0.0287804
0.3566987 0.4693088 0.0386407
0.3808616 0.4696642 0.0493970
0.4031351 0.4702131 0.0599817
0.4227362 0.4711226 0.0705038
0.4415147 0.4719932 0.0806431
0.4575966 0.4733829 0.0896410
0.4730969 0.4746491 0.0983881
0.4869966 0.4750977 0.1050076
0.4932509 0.4687625 0.1072390
0.4918216 0.4522052 0.1056968
0.4928862 0.4336942 0.0999119
0.4968331 0.4190907 0.0952446
0.5076621 0.4163735 0.0962150
0.5186199 0.4141115 0.0971542
0.5309744 0.4119348 0.0965194
0.5405763 0.4105055 0.0961286
0.1006034 0.4854312 0.0838991
0.0976120 0.4852623 0.0762808
0.0945178 0.4850686 0.0684757
