presets/series/late-summer/series-late-summer-cross/look.cube
# Approximate v0 colour conversion; calibrate before claiming visual parity.
LUT_3D_SIZE 5
DOMAIN_MIN 0 0 0
DOMAIN_MAX 1 1 1
0.0170933 0.0163150 0.0171554
0.0733206 0.0175644 0.0156662
0.2884157 0.0276429 0.0131823
0.4663214 0.0397545 0.0113023
0.5879231 0.0579028 0.0167924
0.0088980 0.0757929 0.0166043
0.0694056 0.0780526 0.0135661
0.2807497 0.0698787 0.0066270
0.4736889 0.0881465 0.0026379
0.6027143 0.1093724 0.0192266
0.0194983 0.2609867 0.0483232
0.0501271 0.2649209 0.0131772
0.3239190 0.2531880 0.0499268
0.4899489 0.2116269 0.0299078
0.6105349 0.2318221 0.0314643
0.1006034 0.4854312 0.0838991
0.0791852 0.4852691 0.0218350
0.3265121 0.4956057 0.0257742
0.4876904 0.5007387 0.1061403
0.5333842 0.4410412 0.1114780
0.1134344 0.5855635 0.1131422
0.0914666 0.5882433 0.0449234
0.3009140 0.6010534 0.0170884
0.4822382 0.6026362 0.0878190
0.5880403 0.5971119 0.1371160
0.0425954 0.0566954 0.2108720
0.1020235 0.0407391 0.2130206
0.3057452 0.0443628 0.1711161
0.4759284 0.0416083 0.1499822
0.5916547 0.0474958 0.1391638
0.0189484 0.0881822 0.1564468
0.0870237 0.1198770 0.1818625
0.2848930 0.0941978 0.1476369
0.4796607 0.0977444 0.1339690
0.5948845 0.1281170 0.1460637
0.0342219 0.2390756 0.1857347
0.0897628 0.2474748 0.1906398
0.2865262 0.2584696 0.1514737
0.5026890 0.2725888 0.1561325
0.6004392 0.3072795 0.1684092
0.1501973 0.4885869 0.2365095
0.1945538 0.5023077 0.2314730
0.3304919 0.5043625 0.1547011
0.4738824 0.5089756 0.2139846
0.5356569 0.4693530 0.2196631
0.1783022 0.5709111 0.2649386
0.2199898 0.5795315 0.2633472
0.2966746 0.5959231 0.1604768
0.4586200 0.6028038 0.2037339
0.5710525 0.6018657 0.2404675
0.0682381 0.1219278 0.4505891
0.0902472 0.0620502 0.4585956
0.3482116 0.0949401 0.4407701
0.5012545 0.1337202 0.4324622
0.6120271 0.1544577 0.4275127
0.0567208 0.2069075 0.4269914
0.1172093 0.2006397 0.4298075
0.3344671 0.1823625 0.4259911
0.4989291 0.2227432 0.4284360
0.6063585 0.2350850 0.4207810
0.0363001 0.2590815 0.3391751
0.0952013 0.2752269 0.3487557
0.3530767 0.3982046 0.4334775
0.4975289 0.3932381 0.4227339
0.5916971 0.3868006 0.4014363
0.1324809 0.4549677 0.4198641
0.1792713 0.4636087 0.4149207
0.3197593 0.4826429 0.3909083
0.4326471 0.5005239 0.3686076
0.5406756 0.5099289 0.3938879
0.1722262 0.5459601 0.4482595
0.2152915 0.5530684 0.4383960
0.3406938 0.5733991 0.4277231
0.4168955 0.5861514 0.3638776
0.5446952 0.6010361 0.3947305
0.0821266 0.1481504 0.5483073
0.0895267 0.0759276 0.5616560
0.3556879 0.1094182 0.5554071
0.5229750 0.1458832 0.5491972
0.6284598 0.1746973 0.5389587
0.0652738 0.2316638 0.5231032
0.1286882 0.2186194 0.5169380
0.3462197 0.2025413 0.5464322
0.5234985 0.2419251 0.5488567
0.6245451 0.2646858 0.5368463
0.0430744 0.3164788 0.4573427
0.0727745 0.3241251 0.4716332
0.3809529 0.4456542 0.5442019
0.5364634 0.4454367 0.5615744
0.6138028 0.4380216 0.5282167
0.1388550 0.4606321 0.4769648
0.1824443 0.4665861 0.4725564
0.2924047 0.4697501 0.4440438
0.4066115 0.4663042 0.4238480
0.5613052 0.5468845 0.4871306
0.1762240 0.5406340 0.5058387
0.2103584 0.5445345 0.4949143
0.3311765 0.5624285 0.4854525
0.4324374 0.5781644 0.4795491
0.5345896 0.6055024 0.4651856
0.1192647 0.2137370 0.7533528
0.1197963 0.1383414 0.7682358
0.3569906 0.1339133 0.7759636
0.5442582 0.1670201 0.7701377
0.6691965 0.1892056 0.7596268
0.1187541 0.3022193 0.7162594
0.1869700 0.3067834 0.7386405
0.3513954 0.2335717 0.7710217
0.5424734 0.2649489 0.7688279
0.6689761 0.2846644 0.7595865
0.0743638 0.4158477 0.6623552
0.1714097 0.4581736 0.6825187
0.4131402 0.5136616 0.7537578
0.5460875 0.4752735 0.7757464
0.6766718 0.4825470 0.7681716
0.0594819 0.4746457 0.5808004
0.1187741 0.4849945 0.5837872
0.3186837 0.5401210 0.6076948
0.4880588 0.6124353 0.6749737
0.6821952 0.6846181 0.7792271
0.1346195 0.5190760 0.5618784
0.1694422 0.5237902 0.5603429
0.2967499 0.5399856 0.5562875
0.3916978 0.5364223 0.5382974
0.4581036 0.5273883 0.5176106
