presets/series/late-summer/series-late-summer-cross/look.cube
# Approximate v0 colour conversion; calibrate before claiming visual parity.
LUT_3D_SIZE 9
DOMAIN_MIN 0 0 0
DOMAIN_MAX 1 1 1
0.0170933 0.0163150 0.0171554
0.0431413 0.0165751 0.0163247
0.0733206 0.0175644 0.0156662
0.1739077 0.0219154 0.0142984
0.2884157 0.0276429 0.0131823
0.3795053 0.0330480 0.0122302
0.4663214 0.0397545 0.0113023
0.5310361 0.0472676 0.0121714
0.5879231 0.0579028 0.0167924
0.0123585 0.0422152 0.0154522
0.0427308 0.0438209 0.0144498
0.0692877 0.0382158 0.0134765
0.1671621 0.0383009 0.0111318
0.2846192 0.0449320 0.0088172
0.3791637 0.0519879 0.0068297
0.4680791 0.0608737 0.0048498
0.5343075 0.0710758 0.0070632
0.5929501 0.0824576 0.0131418
0.0088980 0.0757929 0.0166043
0.0280543 0.0781678 0.0142318
0.0694056 0.0780526 0.0135661
0.1592912 0.0602608 0.0100442
0.2807497 0.0698787 0.0066270
0.3811385 0.0792911 0.0033218
0.4736889 0.0881465 0.0026379
0.5416699 0.0980342 0.0097875
0.6027143 0.1093724 0.0192266
0.0114061 0.1643589 0.0319111
0.0188149 0.1664511 0.0152472
0.0481624 0.1637011 0.0147818
0.1445331 0.1447796 0.0283402
0.2710623 0.1379741 0.0193037
0.3906307 0.1446517 0.0113404
0.4932757 0.1494923 0.0126833
0.5651084 0.1568752 0.0208374
0.6207137 0.1709537 0.0287855
0.0194983 0.2609867 0.0483232
0.0189587 0.2633888 0.0195402
0.0501271 0.2649209 0.0131772
0.1636138 0.2534220 0.0280616
0.3239190 0.2531880 0.0499268
0.3988189 0.2208149 0.0415787
0.4899489 0.2116269 0.0299078
0.5579885 0.2176516 0.0275670
0.6105349 0.2318221 0.0314643
0.0601129 0.3764873 0.0653130
0.0540836 0.3766398 0.0338826
0.0577711 0.3783959 0.0103183
0.1916425 0.3848231 0.0085014
0.3389170 0.3849046 0.0388447
0.4263136 0.3859448 0.0699612
0.4649261 0.3246213 0.0590355
0.5179180 0.3200951 0.0573140
0.5651241 0.3234106 0.0580942
0.1006034 0.4854312 0.0838991
0.0880168 0.4846114 0.0522947
0.0791852 0.4852691 0.0218350
0.1878696 0.4926164 0.0052779
0.3265121 0.4956057 0.0257742
0.4198940 0.4971896 0.0668767
0.4876904 0.5007387 0.1061403
0.5097266 0.4715149 0.1141358
0.5333842 0.4410412 0.1114780
0.1107759 0.5362994 0.0975551
0.0989698 0.5367254 0.0655362
0.0882890 0.5376106 0.0323001
0.1790885 0.5450065 0.0043099
0.3149323 0.5490620 0.0205710
0.4109739 0.5499198 0.0573544
0.4871608 0.5519792 0.0999044
0.5371160 0.5513564 0.1251605
0.5510923 0.5169860 0.1328479
0.1134344 0.5855635 0.1131422
0.1019272 0.5867959 0.0807896
0.0914666 0.5882433 0.0449234
0.1665602 0.5961038 0.0034692
0.3009140 0.6010534 0.0170884
0.3985739 0.6019876 0.0482589
0.4822382 0.6026362 0.0878190
0.5391249 0.6014431 0.1164446
0.5880403 0.5971119 0.1371160
0.0297672 0.0359580 0.1134564
0.0618737 0.0304744 0.1160572
0.0910902 0.0302580 0.1058492
0.1802586 0.0244771 0.0798051
0.2953596 0.0205013 0.0623776
0.3837118 0.0183747 0.0523950
0.4674371 0.0175074 0.0461543
0.5306098 0.0201657 0.0493084
0.5866380 0.0300625 0.0534563
0.0135601 0.0397521 0.0738768
0.0411185 0.0501662 0.0889096
0.0866251 0.0576650 0.1029237
0.1686781 0.0441124 0.0748902
0.2880004 0.0503910 0.0758296
0.3839007 0.0588901 0.0769105
0.4732431 0.0711571 0.0800903
0.5373038 0.0841521 0.0852237
0.5916342 0.0990186 0.0913771
0.0114469 0.0625596 0.0762294
0.0248452 0.0651870 0.0772488
0.0570804 0.0734843 0.0808874
0.1472571 0.0766469 0.0755523
0.2795358 0.0877794 0.0802198
0.3866034 0.0969747 0.0804489
0.4801128 0.1083272 0.0832794
0.5443132 0.1220891 0.0895494
0.5979635 0.1384564 0.0969184
0.0199967 0.1534069 0.1100186
0.0398258 0.1561814 0.1090578
0.0626008 0.1570051 0.1012173
0.1320645 0.1508245 0.0804961
0.2592873 0.1452384 0.0776449
0.3969996 0.1513940 0.0726504
0.5098713 0.1581010 0.0699573
0.5741419 0.1708311 0.0742175
0.6187411 0.1909200 0.0818893
0.0413204 0.2538212 0.1365412
0.0692636 0.2573624 0.1335792
0.0930420 0.2598343 0.1260607
0.1573769 0.2668525 0.0891276
0.3193506 0.2664973 0.1026526
0.4123665 0.2491839 0.1030641
0.5096251 0.2400914 0.0851981
0.5691859 0.2399515 0.0758633
0.6136354 0.2567402 0.0808981
0.0934236 0.3779471 0.1493098
0.1227951 0.3844316 0.1416840
0.1455188 0.3911886 0.1283184
0.1860174 0.3905579 0.0731581
0.3337678 0.3911233 0.1004954
0.4202745 0.3962727 0.1309447
0.4762304 0.3658032 0.1333200
0.5309745 0.3650463 0.1316957
0.5782839 0.3643690 0.1270874
0.1529442 0.4971350 0.1702172
0.1759016 0.5007306 0.1647315
0.2001732 0.5032047 0.1545408
0.1907089 0.4929872 0.0727413
0.3224698 0.4977379 0.0937394
0.4113595 0.5003215 0.1249603
0.4809630 0.5043589 0.1565933
0.5139720 0.4857123 0.1662697
0.5386461 0.4561350 0.1629378
0.1661967 0.5401539 0.1847062
0.1880184 0.5421240 0.1789902
0.2118693 0.5437965 0.1689280
0.1821929 0.5428562 0.0747302
0.3090131 0.5488790 0.0908610
0.3998835 0.5512413 0.1174240
0.4766915 0.5540310 0.1495746
0.5301628 0.5544770 0.1715781
0.5541193 0.5270930 0.1793157
0.1675936 0.5828703 0.2000334
0.1880062 0.5853119 0.1953387
0.2082675 0.5878183 0.1868203
0.1730476 0.5922420 0.0812641
0.2916387 0.5988281 0.0898943
0.3840241 0.6015872 0.1103885
0.4674321 0.6033941 0.1389054
0.5275808 0.6032620 0.1618313
0.5807798 0.6001337 0.1802598
0.0425954 0.0566954 0.2108720
0.0588658 0.0379664 0.2152095
0.1020235 0.0407391 0.2130206
0.1983711 0.0438376 0.1878015
0.3057452 0.0443628 0.1711161
0.3938487 0.0426137 0.1592233
0.4759284 0.0416083 0.1499822
0.5371536 0.0424589 0.1441249
0.5916547 0.0474958 0.1391638
0.0315032 0.0867898 0.1906520
0.0721943 0.0966274 0.2032249
0.0976216 0.0828107 0.2122013
0.1845152 0.0755401 0.1789191
0.2974240 0.0681049 0.1605863
0.3913115 0.0661872 0.1492652
0.4760431 0.0688652 0.1418691
0.5376467 0.0732728 0.1378203
0.5913957 0.0792555 0.1346963
0.0189484 0.0881822 0.1564468
0.0454224 0.0996380 0.1656759
0.0870237 0.1198770 0.1818625
0.1629270 0.1092984 0.1634950
0.2848930 0.0941978 0.1476369
0.3901554 0.0938169 0.1389490
0.4796607 0.0977444 0.1339690
0.5421492 0.1113547 0.1386814
0.5948845 0.1281170 0.1460637
0.0154749 0.1415747 0.1509384
0.0315937 0.1408534 0.1493329
0.0534343 0.1403248 0.1472794
0.1294959 0.1630873 0.1377083
0.2351150 0.1503003 0.1360666
0.3984175 0.1721257 0.1422947
0.5061903 0.1967118 0.1486480
0.5611638 0.2210220 0.1607336
0.6050175 0.2423528 0.1733580
0.0342219 0.2390756 0.1857347
0.0630639 0.2424527 0.1869919
0.0897628 0.2474748 0.1906398
0.1604734 0.2758148 0.1576489
0.2865262 0.2584696 0.1514737
0.3948004 0.2507097 0.1532588
0.5026890 0.2725888 0.1561325
0.5582690 0.2901192 0.1603063
0.6004392 0.3072795 0.1684092
0.0840584 0.3640321 0.2123184
0.1126585 0.3714028 0.2099652
0.1366414 0.3803392 0.2038392
0.2076107 0.4027676 0.1571960
0.3270526 0.4004060 0.1526653
0.4119942 0.4018056 0.1866677
0.4620917 0.3745741 0.1873096
0.5185256 0.3791474 0.1875990
0.5714795 0.3883317 0.1881378
0.1501973 0.4885869 0.2365095
0.1718373 0.4953462 0.2347758
0.1945538 0.5023077 0.2314730
0.2622870 0.5140931 0.1985386
0.3304919 0.5043625 0.1547011
0.4090608 0.5043446 0.1841631
0.4738824 0.5089756 0.2139846
0.5122191 0.4992236 0.2255913
0.5356569 0.4693530 0.2196631
0.1707437 0.5319667 0.2509355
0.1912935 0.5360078 0.2504469
0.2134766 0.5405261 0.2483741
0.2770796 0.5530123 0.2157218
0.3182307 0.5493941 0.1568116
0.3980361 0.5527624 0.1811546
0.4690909 0.5560376 0.2098985
0.5218341 0.5572709 0.2302114
0.5530402 0.5388327 0.2379533
0.1783022 0.5709111 0.2649386
0.1982091 0.5754357 0.2654283
0.2199898 0.5795315 0.2633472
0.2789048 0.5901103 0.2298230
0.2966746 0.5959231 0.1604768
0.3814697 0.6003529 0.1788552
0.4586200 0.6028038 0.2037339
0.5177474 0.6039517 0.2242461
0.5710525 0.6018657 0.2404675
0.0575224 0.0899776 0.3317203
0.0598565 0.0549236 0.3361354
0.0972252 0.0512637 0.3362694
0.2223294 0.0590406 0.3195854
0.3280221 0.0731687 0.3034929
0.4092780 0.0897374 0.3000298
0.4873314 0.0982497 0.2951580
0.5463089 0.1023782 0.2894243
0.5997205 0.1054968 0.2831895
0.0532070 0.1353545 0.3194198
0.0895358 0.1360968 0.3259846
0.1079577 0.1139515 0.3303622
0.2130723 0.1003194 0.3123175
0.3229494 0.1140598 0.2965412
0.4084122 0.1282805 0.2939698
0.4881683 0.1341075 0.2881990
0.5465913 0.1369027 0.2820928
0.5985967 0.1395507 0.2763105
0.0466671 0.1607739 0.2982495
0.0835749 0.1725205 0.3094426
0.1170350 0.1771137 0.3146046
0.1961009 0.1399461 0.2973787
0.3156500 0.1538370 0.2877766
0.4094434 0.1658512 0.2872887
0.4913835 0.1685909 0.2800431
0.5479576 0.1699999 0.2735170
0.5977574 0.1728041 0.2688383
0.0254036 0.1695137 0.2413430
0.0536119 0.1765721 0.2459721
0.0839163 0.1899900 0.2544493
0.1868594 0.2343903 0.2840499
0.3005510 0.2313983 0.2770758
0.4131054 0.2339229 0.2703349
0.5039800 0.2335557 0.2612450
0.5555198 0.2362825 0.2560642
0.5980656 0.2418809 0.2560595
0.0286776 0.2324561 0.2458968
0.0554732 0.2320214 0.2438656
0.0796936 0.2329570 0.2430991
0.1356145 0.2326807 0.2333556
0.2539518 0.2631278 0.2418114
0.4032921 0.3071399 0.2696322
0.4949414 0.3353310 0.2788329
0.5503316 0.3524795 0.2834964
0.5948891 0.3669119 0.2902622
0.0654763 0.3410556 0.2836212
0.0910521 0.3443951 0.2850693
0.1152659 0.3495181 0.2884737
0.1878376 0.3794880 0.2957891
0.2946188 0.3969601 0.2595610
0.3966764 0.4047469 0.2676906
0.4584545 0.4003900 0.2776804
0.5082569 0.4071845 0.2791772
0.5590964 0.4175988 0.2815764
0.1394701 0.4652491 0.3225774
0.1628855 0.4702739 0.3212593
0.1865144 0.4766324 0.3199223
0.2589301 0.4971253 0.3149569
0.3308593 0.5062366 0.2851754
0.3901214 0.5058305 0.2592303
0.4559085 0.5054753 0.2864431
0.5035526 0.5051942 0.2997748
0.5269363 0.4780498 0.2936433
0.1661698 0.5159750 0.3417151
0.1875052 0.5197046 0.3398753
0.2095982 0.5240828 0.3383635
0.2779698 0.5360143 0.3291051
0.3431476 0.5441077 0.2984544
0.3862652 0.5502226 0.2571163
0.4509618 0.5523943 0.2844189
0.5049712 0.5530666 0.3017565
0.5467104 0.5443963 0.3103341
0.1742636 0.5559634 0.3537597
0.1956088 0.5603702 0.3533926
0.2177067 0.5647354 0.3524346
0.2850474 0.5743399 0.3416698
0.3456689 0.5838066 0.3139595
0.3728732 0.5931433 0.2596757
0.4411854 0.5976142 0.2813336
0.5003045 0.5998088 0.2995534
0.5560606 0.5989512 0.3133138
0.0682381 0.1219278 0.4505891
0.0720111 0.0857876 0.4557470
0.0902472 0.0620502 0.4585956
0.2235521 0.0728571 0.4495214
0.3482116 0.0949401 0.4407701
0.4298066 0.1122506 0.4372048
0.5012545 0.1337202 0.4324622
0.5590440 0.1469206 0.4310352
0.6120271 0.1544577 0.4275127
0.0620643 0.1695135 0.4408591
0.0960572 0.1646810 0.4433035
0.1162809 0.1429522 0.4468210
0.2140364 0.1167250 0.4428464
0.3435003 0.1394295 0.4357375
0.4281735 0.1577718 0.4344464
0.5001512 0.1781623 0.4305545
0.5572830 0.1895218 0.4287554
0.6092964 0.1950525 0.4244271
0.0567208 0.2069075 0.4269914
0.0876291 0.2067861 0.4311172
0.1172093 0.2006397 0.4298075
0.2000157 0.1580833 0.4313205
0.3344671 0.1823625 0.4259911
0.4262224 0.2039198 0.4312788
0.4989291 0.2227432 0.4284360
0.5553450 0.2317135 0.4260051
0.6063585 0.2350850 0.4207810
0.0473814 0.2453697 0.3860074
0.0784225 0.2554980 0.3940116
0.1056589 0.2616628 0.3983422
0.1975987 0.2788525 0.4019034
0.3106870 0.2682503 0.4034688
0.4272456 0.3014490 0.4313465
0.4986859 0.3131365 0.4271021
0.5519643 0.3150180 0.4206924
0.6002553 0.3129321 0.4121220
0.0363001 0.2590815 0.3391751
0.0664204 0.2663650 0.3438796
0.0952013 0.2752269 0.3487557
0.1678665 0.3015678 0.3627471
0.3530767 0.3982046 0.4334775
0.4581892 0.4195011 0.4621476
0.4975289 0.3932381 0.4227339
0.5464370 0.3909281 0.4120045
0.5916971 0.3868006 0.4014363
0.0617977 0.3434747 0.3618668
0.0865707 0.3473723 0.3629222
0.1116658 0.3511877 0.3639329
0.1734318 0.3594881 0.3613122
0.2369100 0.3421114 0.3256058
0.3360021 0.3635809 0.3352727
0.4664806 0.4339476 0.3865694
0.5257417 0.4632362 0.4099672
0.5727394 0.4743723 0.4152825
0.1324809 0.4549677 0.4198641
0.1553199 0.4590805 0.4174120
0.1792713 0.4636087 0.4149207
0.2482832 0.4819778 0.4127493
0.3197593 0.4826429 0.3909083
0.3816760 0.4908933 0.3909283
0.4326471 0.5005239 0.3686076
0.5002422 0.5164460 0.3885068
0.5406756 0.5099289 0.3938879
0.1623304 0.5051161 0.4368962
0.1847895 0.5085217 0.4317368
0.2076296 0.5120320 0.4262329
0.2727139 0.5255571 0.4214225
0.3361310 0.5306706 0.4113274
0.3885702 0.5373691 0.4063984
0.4252346 0.5449234 0.3677237
0.4898987 0.5543677 0.3842535
0.5477404 0.5575918 0.3950057
0.1722262 0.5459601 0.4482595
0.1932356 0.5492968 0.4432411
0.2152915 0.5530684 0.4383960
0.2785290 0.5634108 0.4324737
0.3406938 0.5733991 0.4277231
0.3911195 0.5801371 0.4189465
0.4168955 0.5861514 0.3638776
0.4807435 0.5968769 0.3813935
0.5446952 0.6010361 0.3947305
0.0742078 0.1351473 0.5006210
0.0784101 0.0998406 0.5067270
0.0883564 0.0675626 0.5110181
0.2233987 0.0796121 0.5054272
0.3525367 0.1024264 0.4990544
0.4390403 0.1221682 0.4965694
0.5099030 0.1385502 0.4893148
0.5671045 0.1562445 0.4876921
0.6198341 0.1672309 0.4851231
0.0669976 0.1819903 0.4902670
0.1009864 0.1761780 0.4918231
0.1218498 0.1552433 0.4961881
0.2145503 0.1240355 0.4989561
0.3480023 0.1478490 0.4947860
0.4380253 0.1689177 0.4948415
0.5095697 0.1850101 0.4885529
0.5657624 0.2013013 0.4866154
0.6173717 0.2103927 0.4833935
0.0587645 0.2208890 0.4786180
0.0901553 0.2180415 0.4806901
0.1215346 0.2104550 0.4772061
0.2014248 0.1651847 0.4873797
0.3404733 0.1924753 0.4868456
0.4370381 0.2165214 0.4929962
0.5094016 0.2321033 0.4879247
0.5643297 0.2464816 0.4854570
0.6146092 0.2532085 0.4812804
0.0474501 0.2695122 0.4445501
0.0711128 0.2728815 0.4490120
0.0883041 0.2726933 0.4545990
0.2091804 0.2878711 0.4443397
0.3182690 0.2805715 0.4619540
0.4401844 0.3180793 0.4954671
0.5126078 0.3300950 0.4907077
0.5621716 0.3372864 0.4839560
0.6083797 0.3376258 0.4761891
0.0426315 0.2892619 0.3987103
0.0737250 0.2997168 0.4065499
0.1020652 0.3090443 0.4119838
0.1564832 0.3270644 0.4334621
0.3687966 0.4263650 0.4936545
0.4577700 0.4305027 0.5181810
0.5166526 0.4263403 0.4964700
0.5574469 0.4208061 0.4808103
0.5996588 0.4149045 0.4681161
0.0537086 0.3265541 0.3735739
0.0806450 0.3336303 0.3776685
0.1082001 0.3413558 0.3820487
0.1779301 0.3599113 0.3875188
0.2457519 0.3541087 0.3651008
0.3163811 0.3525491 0.3522246
0.4800466 0.4662583 0.4529515
0.5346250 0.4790380 0.4596766
0.5862944 0.4929294 0.4690121
0.1350636 0.4562983 0.4479631
0.1564415 0.4594541 0.4454014
0.1787294 0.4628630 0.4428115
0.2445867 0.4784483 0.4415024
0.3034164 0.4739813 0.4167691
0.3626641 0.4763016 0.4126497
0.4229351 0.4934799 0.4046896
0.5012160 0.5243433 0.4289358
0.5546162 0.5325313 0.4451677
0.1645490 0.5026702 0.4686747
0.1842619 0.5054436 0.4637451
0.2066096 0.5087112 0.4588861
0.2722077 0.5233827 0.4570365
0.3289304 0.5264367 0.4445018
0.3780879 0.5302764 0.4386123
0.4284338 0.5417659 0.4229397
0.4818796 0.5543572 0.4193179
0.5524470 0.5683529 0.4366121
0.1753596 0.5431605 0.4841772
0.1928594 0.5458289 0.4784511
0.2140323 0.5491144 0.4725431
0.2755104 0.5596513 0.4667754
0.3361545 0.5683761 0.4605309
0.3850595 0.5755650 0.4558975
0.4315819 0.5847350 0.4355794
0.4718325 0.5948616 0.4173702
0.5412695 0.6044181 0.4312482
0.0821266 0.1481504 0.5483073
0.0859604 0.1136324 0.5556012
0.0895267 0.0759276 0.5616560
0.2234790 0.0865682 0.5594192
0.3556879 0.1094182 0.5554071
0.4458600 0.1295714 0.5533936
0.5229750 0.1458832 0.5491972
0.5758268 0.1601840 0.5415752
0.6284598 0.1746973 0.5389587
0.0751240 0.1934446 0.5353393
0.1091056 0.1873980 0.5364444
0.1295064 0.1674464 0.5425875
0.2158117 0.1317786 0.5531872
0.3517383 0.1559446 0.5520820
0.4451980 0.1771337 0.5523828
0.5230274 0.1934365 0.5488615
0.5752042 0.2067448 0.5411703
0.6265690 0.2196500 0.5379673
0.0652738 0.2316638 0.5231032
0.0973425 0.2262386 0.5213357
0.1286882 0.2186194 0.5169380
0.2044066 0.1734551 0.5413013
0.3462197 0.2025413 0.5464322
0.4446506 0.2256481 0.5513281
0.5234985 0.2419251 0.5488567
0.5747249 0.2538570 0.5408888
0.6245451 0.2646858 0.5368463
0.0435581 0.2886499 0.4997385
0.0680602 0.2925341 0.5077129
0.0989550 0.2965166 0.5136158
0.2307367 0.3113115 0.5007483
0.3335998 0.2979534 0.5291209
0.4475060 0.3282893 0.5533013
0.5289031 0.3435753 0.5531778
0.5763010 0.3498544 0.5421069
0.6208512 0.3542735 0.5343688
0.0430744 0.3164788 0.4573427
0.0621238 0.3237559 0.4664699
0.0727745 0.3241251 0.4716332
0.1939580 0.3777476 0.5029604
0.3809529 0.4456542 0.5442019
0.4555989 0.4371586 0.5664772
0.5364634 0.4454367 0.5615744
0.5749843 0.4426686 0.5420053
0.6138028 0.4380216 0.5282167
0.0586245 0.3501916 0.4244198
0.0842905 0.3592093 0.4300724
0.1104468 0.3682940 0.4353457
0.1351929 0.3470683 0.4158928
0.2757015 0.4053984 0.4409027
0.3983962 0.4639716 0.4831958
0.5451594 0.5495025 0.5796375
0.5540517 0.5094201 0.5253595
0.6002993 0.5072596 0.5177743
0.1388550 0.4606321 0.4769648
0.1605990 0.4636590 0.4750192
0.1824443 0.4665861 0.4725564
0.2465123 0.4799864 0.4705973
0.2924047 0.4697501 0.4440438
0.3418224 0.4608826 0.4254995
0.4066115 0.4663042 0.4238480
0.4858583 0.5137322 0.4527164
0.5613052 0.5468845 0.4871306
0.1634261 0.5016450 0.4930567
0.1809577 0.5035920 0.4892156
0.2023302 0.5061228 0.4851009
0.2676373 0.5200536 0.4848982
0.3224058 0.5217817 0.4708959
0.3649446 0.5187182 0.4562800
0.4228602 0.5284218 0.4574738
0.4683690 0.5480352 0.4483611
0.5523575 0.5750280 0.4738589
0.1762240 0.5406340 0.5058387
0.1905729 0.5422560 0.5005716
0.2103584 0.5445345 0.4949143
0.2719365 0.5549913 0.4907568
0.3311765 0.5624285 0.4854525
0.3782095 0.5686888 0.4821754
0.4324374 0.5781644 0.4795491
0.4633680 0.5905011 0.4509983
0.5345896 0.6055024 0.4651856
0.1022848 0.1779733 0.6451206
0.1037447 0.1442237 0.6548218
0.1055189 0.1062420 0.6618509
0.2238531 0.1012986 0.6661764
0.3587799 0.1224157 0.6651510
0.4533356 0.1409524 0.6630863
0.5377033 0.1585153 0.6590997
0.5982170 0.1699039 0.6538444
0.6464421 0.1775890 0.6433220
0.0986009 0.2199933 0.6251080
0.1312601 0.2170729 0.6307831
0.1509479 0.2001668 0.6422687
0.2190825 0.1489560 0.6612175
0.3560013 0.1709269 0.6632940
0.4525537 0.1895327 0.6626252
0.5378836 0.2068602 0.6591044
0.5981088 0.2176894 0.6536139
0.6457487 0.2244053 0.6429523
0.0911050 0.2479420 0.5968641
0.1209227 0.2486246 0.6014997
0.1554707 0.2520576 0.6108855
0.2137070 0.1951591 0.6523880
0.3530014 0.2201733 0.6603434
0.4518635 0.2390591 0.6619619
0.5383597 0.2561101 0.6592560
0.5982404 0.2662210 0.6535269
0.6450501 0.2716735 0.6425471
0.0680381 0.3008794 0.5695218
0.1007428 0.3064472 0.5701340
0.1387103 0.3207948 0.5803097
0.2821884 0.3716480 0.6280967
0.3504849 0.3225864 0.6520779
0.4525987 0.3415770 0.6611939
0.5428201 0.3586942 0.6630050
0.6018811 0.3665456 0.6565159
0.6450777 0.3675955 0.6429636
0.0366909 0.3574493 0.5612649
0.0693940 0.3657992 0.5664380
0.1163183 0.3955725 0.5791749
0.2697640 0.4530070 0.6161174
0.4101864 0.4870991 0.6504079
0.4579620 0.4513972 0.6659831
0.5481091 0.4637727 0.6694865
0.6072138 0.4673674 0.6621227
0.6471182 0.4628241 0.6455131
0.0479345 0.3905183 0.5197948
0.0646006 0.3955666 0.5264956
0.0886202 0.4035543 0.5318204
0.1761980 0.4673227 0.5715508
0.3523528 0.5026765 0.5810552
0.4529209 0.5487706 0.6236758
0.5415971 0.5671901 0.6712258
0.6061591 0.5665102 0.6650886
0.6412602 0.5532666 0.6401051
0.1002085 0.4407004 0.5016442
0.1208832 0.4458223 0.5032914
0.1428689 0.4515271 0.5050193
0.1969464 0.4668877 0.5095908
0.2705207 0.4760123 0.5068591
0.3422101 0.4732588 0.4905191
0.4113415 0.4911296 0.4965793
0.5205717 0.5634909 0.5689883
0.6197069 0.6118053 0.6164616
0.1432305 0.4893271 0.5205347
0.1593558 0.4916809 0.5192128
0.1791261 0.4943350 0.5173553
0.2444761 0.5097484 0.5203742
0.3026067 0.5167859 0.5157079
0.3430622 0.5041318 0.4926511
0.3863895 0.4945585 0.4738000
0.4209276 0.4835799 0.4566812
0.5020786 0.5387311 0.5027055
0.1681053 0.5405154 0.5470763
0.1803571 0.5408046 0.5433747
0.1990054 0.5413913 0.5384697
0.2620138 0.5488457 0.5342788
0.3192858 0.5541258 0.5295716
0.3595812 0.5509534 0.5172067
0.4040810 0.5505158 0.5070075
0.4478209 0.5556232 0.5050431
0.5114035 0.5844236 0.5213259
0.1192647 0.2137370 0.7533528
0.1192652 0.1774421 0.7615432
0.1197963 0.1383414 0.7682358
0.2213220 0.1154593 0.7760963
0.3569906 0.1339133 0.7759636
0.4541678 0.1502819 0.7737074
0.5442582 0.1670201 0.7701377
0.6110034 0.1794368 0.7655005
0.6691965 0.1892056 0.7596268
0.1199608 0.2623874 0.7366796
0.1531118 0.2597112 0.7452780
0.1705678 0.2390826 0.7545321
0.2181788 0.1650217 0.7721353
0.3542201 0.1834312 0.7741528
0.4523014 0.1993016 0.7725492
0.5433502 0.2155872 0.7695464
0.6103798 0.2274682 0.7649745
0.6684635 0.2365418 0.7589868
0.1187541 0.3022193 0.7162594
0.1512233 0.3056731 0.7280525
0.1869700 0.3067834 0.7386405
0.2249357 0.2243481 0.7648257
0.3513954 0.2335717 0.7710217
0.4500448 0.2489434 0.7703156
0.5424734 0.2649489 0.7688279
0.6104649 0.2763597 0.7651515
0.6689761 0.2846644 0.7595865
0.1042808 0.3574504 0.6758408
0.1427533 0.3788432 0.6939711
0.1808800 0.3917875 0.7078387
0.3004537 0.4084965 0.7401684
0.3466460 0.3342537 0.7595769
0.4467508 0.3506242 0.7660125
0.5430949 0.3670409 0.7704265
0.6134685 0.3772260 0.7687304
0.6721447 0.3826866 0.7630253
0.0743638 0.4158477 0.6623552
0.1221227 0.4389315 0.6737279
0.1714097 0.4581736 0.6825187
0.2938299 0.4899971 0.7126016
0.4131402 0.5136616 0.7537578
0.4482627 0.4589150 0.7687370
0.5460875 0.4752735 0.7757464
0.6180555 0.4824034 0.7748420
0.6766718 0.4825470 0.7681716
0.0487972 0.4556129 0.6244255
0.0878223 0.4584976 0.6233716
0.1321506 0.4845176 0.6364503
0.2591663 0.5287985 0.6629382
0.3957032 0.5758188 0.7054809
0.4720346 0.5975549 0.7386235
0.5447396 0.5911148 0.7679061
0.6127414 0.5900347 0.7753528
0.6778211 0.5873881 0.7715200
0.0594819 0.4746457 0.5808004
0.0871816 0.4786804 0.5819714
0.1187741 0.4849945 0.5837872
0.2055975 0.5206183 0.5960007
0.3186837 0.5401210 0.6076948
0.3977123 0.5614569 0.6217280
0.4880588 0.6124353 0.6749737
0.6017052 0.6736151 0.7407134
0.6821952 0.6846181 0.7792271
0.0973055 0.4930092 0.5662400
0.1158111 0.4960345 0.5670737
0.1404811 0.5011168 0.5683352
0.2167549 0.5151298 0.5639536
0.2943593 0.5323683 0.5739163
0.3579827 0.5345865 0.5702315
0.4178187 0.5503302 0.5778041
0.4963272 0.5932022 0.6196215
0.6201089 0.6654677 0.6997496
0.1346195 0.5190760 0.5618784
0.1485425 0.5209697 0.5613308
0.1694422 0.5237902 0.5603429
0.2355118 0.5305080 0.5550576
0.2967499 0.5399856 0.5562875
0.3440156 0.5363329 0.5459719
0.3916978 0.5364223 0.5382974
0.4266917 0.5332271 0.5289110
0.4581036 0.5273883 0.5176106
