catalog/styles/film/film-grain/look.cube
# film-grain iteration 5
LUT_3D_SIZE 33
DOMAIN_MIN 0 0 0
DOMAIN_MAX 1 1 1
0.1947406 0.1756297 0.1854130
0.2015156 0.1690923 0.1771934
0.2089634 0.1628860 0.1690022
0.2170376 0.1566974 0.1607116
0.2253679 0.1499253 0.1521869
0.2334765 0.1418620 0.1432153
0.2411020 0.1320259 0.1337882
0.2479000 0.1198734 0.1235898
0.2539855 0.1053568 0.1124079
0.2599770 0.0888545 0.1001701
0.2669127 0.0711601 0.0868998
0.2758689 0.0530407 0.0724163
0.2880550 0.0355043 0.0568440
0.3046203 0.0196437 0.0407012
0.3261969 0.0062041 0.0245609
0.3530266 0.0000000 0.0090206
0.3850151 0.0000000 0.0000000
0.4216922 0.0000000 0.0000000
0.4620777 0.0000000 0.0000000
0.5047557 0.0000000 0.0000000
0.5481834 0.0000000 0.0000000
0.5911466 0.0000000 0.0000000
0.6327655 0.0000000 0.0000000
0.6724810 0.0000000 0.0000000
0.7101667 0.0000000 0.0000000
0.7459106 0.0000000 0.0000000
0.7796193 0.0000000 0.0000000
0.8112404 0.0000000 0.0000000
0.8408924 0.0000000 0.0000000
0.8685986 0.0000000 0.0000000
0.8945232 0.0000000 0.0000000
0.9193521 0.0000000 0.0000000
0.9439644 0.0000000 0.0000000
0.1710050 0.1605903 0.1660159
0.1770009 0.1542589 0.1592988
0.1834217 0.1480953 0.1525406
0.1904362 0.1419857 0.1455730
0.1979758 0.1355791 0.1381645
0.2058462 0.1283952 0.1300666
0.2138034 0.1199321 0.1210461
0.2216120 0.1097481 0.1108890
0.2292411 0.0976104 0.0994225
0.2370146 0.0836514 0.0866335
0.2457000 0.0684268 0.0726697
0.2563730 0.0528058 0.0578144
0.2702181 0.0378538 0.0425350
0.2882938 0.0245931 0.0274174
0.3112946 0.0138447 0.0130858
0.3394746 0.0061102 0.0001401
0.3725317 0.0014551 0.0000000
0.4095707 0.0000000 0.0000000
0.4492202 0.0000000 0.0000000
0.4899743 0.0000500 0.0000000
0.5304859 0.0007790 0.0000000
0.5698031 0.0008094 0.0000000
0.6074817 0.0000000 0.0000000
0.6435886 0.0000000 0.0000000
0.6785832 0.0000000 0.0000000
0.7130923 0.0000000 0.0000000
0.7474349 0.0000000 0.0000000
0.7814817 0.0000000 0.0000000
0.8150803 0.0000000 0.0000000
0.8483272 0.0000000 0.0000000
0.8811017 0.0000000 0.0000000
0.9133443 0.0000000 0.0000000
0.9453678 0.0000000 0.0000000
0.1483064 0.1464886 0.1467189
0.1531596 0.1400309 0.1414678
0.1583334 0.1336923 0.1361401
0.1641485 0.1275262 0.1305340
0.1707833 0.1214024 0.1243230
0.1783161 0.1150542 0.1171800
0.1866456 0.1080526 0.1087569
0.1955623 0.0999385 0.0987858
0.2048167 0.0902585 0.0870531
0.2144910 0.0789355 0.0736583
0.2250789 0.0663157 0.0589464
0.2375640 0.0532585 0.0436161
0.2531090 0.0408623 0.0284707
0.2727700 0.0302092 0.0142918
0.2972646 0.0221619 0.0017692
0.3267956 0.0172403 0.0000000
0.3608583 0.0154220 0.0000000
0.3981546 0.0160876 0.0000000
0.4370066 0.0182671 0.0000000
0.4758230 0.0209669 0.0000000
0.5134360 0.0233447 0.0000000
0.5491985 0.0248319 0.0000000
0.5830902 0.0251493 0.0000000
0.6157159 0.0242531 0.0000000
0.6481823 0.0222781 0.0000000
0.6817901 0.0194227 0.0000000
0.7171696 0.0157843 0.0000000
0.7538882 0.0114056 0.0000000
0.7916381 0.0062289 0.0000000
0.8300691 0.0000089 0.0000000
0.8688785 0.0000000 0.0000000
0.9076220 0.0000000 0.0000000
0.9463273 0.0000000 0.0000000
0.1276506 0.1343009 0.1276579
0.1308402 0.1271934 0.1237870
0.1343661 0.1202731 0.1198501
0.1386407 0.1137204 0.1156190
0.1440929 0.1076505 0.1107438
0.1510436 0.1019772 0.1047640
0.1596115 0.0964048 0.0972050
0.1696553 0.0904510 0.0876592
0.1807091 0.0833884 0.0757103
0.1925995 0.0749459 0.0616258
0.2055159 0.0652447 0.0460477
0.2202048 0.0550305 0.0300659
0.2377824 0.0454039 0.0148906
0.2593228 0.0375161 0.0015905
0.2855715 0.0322999 0.0000000
0.3166019 0.0302146 0.0000000
0.3515748 0.0310353 0.0000000
0.3888503 0.0339756 0.0000000
0.4265843 0.0379930 0.0000000
0.4632865 0.0421526 0.0000000
0.4980351 0.0457695 0.0000000
0.5305287 0.0484286 0.0000000
0.5611362 0.0499590 0.0000000
0.5909306 0.0503865 0.0000000
0.6215874 0.0498266 0.0000000
0.6549206 0.0483645 0.0000000
0.6915124 0.0458979 0.0000000
0.7307637 0.0422047 0.0000000
0.7719808 0.0370498 0.0000000
0.8145754 0.0301670 0.0000000
0.8581769 0.0215133 0.0000000
0.9021610 0.0111099 0.0000000
0.9463423 0.0000000 0.0000000
0.1097203 0.1248242 0.1090069
0.1108705 0.1165880 0.1063905
0.1123642 0.1086216 0.1037396
0.1147149 0.1012728 0.1008734
0.1185497 0.0948487 0.0974370
0.1244838 0.0895094 0.0928822
0.1329009 0.0851116 0.0864843
0.1438515 0.0812162 0.0775899
0.1568922 0.0769870 0.0656265
0.1715147 0.0718233 0.0508440
0.1874528 0.0655586 0.0342429
0.2051442 0.0587698 0.0174776
0.2255449 0.0524897 0.0022317
0.2496695 0.0478693 0.0000000
0.2781948 0.0458018 0.0000000
0.3108943 0.0465421 0.0000000
0.3464631 0.0495780 0.0000000
0.3830768 0.0539969 0.0000000
0.4190629 0.0589087 0.0000000
0.4532900 0.0636513 0.0000000
0.4852342 0.0678223 0.0000000
0.5149738 0.0711861 0.0000000
0.5432479 0.0737019 0.0000000
0.5714578 0.0753829 0.0000000
0.6014421 0.0762829 0.0000000
0.6348254 0.0761917 0.0000000
0.6720713 0.0748330 0.0000000
0.7128801 0.0719640 0.0000000
0.7565528 0.0673433 0.0000000
0.8021257 0.0605569 0.0000000
0.8491333 0.0514452 0.0000000
0.8968255 0.0399433 0.0000000
0.9448155 0.0267494 0.0000000
0.0950698 0.1187412 0.0910142
0.0940323 0.1090659 0.0895050
0.0933437 0.0997521 0.0880161
0.0935080 0.0912186 0.0864294
0.0952636 0.0839297 0.0844142
0.0995172 0.0783120 0.0813746
0.1071045 0.0745332 0.0763909
0.1185315 0.0723931 0.0685175
0.1334401 0.0709845 0.0567992
0.1511442 0.0694303 0.0413758
0.1710750 0.0673495 0.0238008
0.1931638 0.0650277 0.0063843
0.2178424 0.0631650 0.0000000
0.2458275 0.0627477 0.0000000
0.2773261 0.0643529 0.0000000
0.3115093 0.0677453 0.0000000
0.3467829 0.0721140 0.0000000
0.3816409 0.0767185 0.0000000
0.4149863 0.0811467 0.0000000
0.4463256 0.0852838 0.0000000
0.4756599 0.0891256 0.0000000
0.5033492 0.0926420 0.0000000
0.5304410 0.0958755 0.0000000
0.5583744 0.0987549 0.0000000
0.5888059 0.1012096 0.0000000
0.6226806 0.1025656 0.0000000
0.6600860 0.1022698 0.0000000
0.7011691 0.1002996 0.0000000
0.7460806 0.0967607 0.0000000
0.7931909 0.0909023 0.0000000
0.8419345 0.0823791 0.0000000
0.8915406 0.0711956 0.0000000
0.9415035 0.0582061 0.0000000
0.0839484 0.1165079 0.0739506
0.0809873 0.1054357 0.0734297
0.0782983 0.0947223 0.0729628
0.0762831 0.0847727 0.0724653
0.0756550 0.0761363 0.0716454
0.0775515 0.0694950 0.0699681
0.0833983 0.0654899 0.0665033
0.0943188 0.0642897 0.0599016
0.1103057 0.0651029 0.0486687
0.1310664 0.0671611 0.0328846
0.1561640 0.0702317 0.0149591
0.1848601 0.0740744 0.0000000
0.2162409 0.0784886 0.0000000
0.2498142 0.0836603 0.0000000
0.2845891 0.0893067 0.0000000
0.3192363 0.0946621 0.0000000
0.3525764 0.0989465 0.0000000
0.3841455 0.1020434 0.0000000
0.4138421 0.1043319 0.0000000
0.4420351 0.1065595 0.0000000
0.4691858 0.1092012 0.0000000
0.4956514 0.1122675 0.0031820
0.5227001 0.1159082 0.0051113
0.5516046 0.1199530 0.0056403
0.5835500 0.1240582 0.0052007
0.6188129 0.1272983 0.0042788
0.6564642 0.1285012 0.0033384
0.6970056 0.1277352 0.0026752
0.7410758 0.1253841 0.0023599
0.7877755 0.1210419 0.0024771
0.8363665 0.1142243 0.0029101
0.8860275 0.1049382 0.0034149
0.9361696 0.0938757 0.0038618
0.0765517 0.1184375 0.0581227
0.0722685 0.1063812 0.0585335
0.0681085 0.0945594 0.0589691
0.0643036 0.0832817 0.0593256
0.0614447 0.0730798 0.0593550
0.0607004 0.0647952 0.0586257
0.0638415 0.0594859 0.0563106
0.0726243 0.0577860 0.0508313
0.0880283 0.0595112 0.0405642
0.1111810 0.0647443 0.0256599
0.1425993 0.0738284 0.0086008
0.1808345 0.0861045 0.0000000
0.2221935 0.0994840 0.0000000
0.2629294 0.1117884 0.0000000
0.3001122 0.1211776 0.0000000
0.3329624 0.1269371 0.0000000
0.3620262 0.1291977 0.0000000
0.3885657 0.1289015 0.0000000
0.4137239 0.1274920 0.0000000
0.4386589 0.1266209 0.0034473
0.4642884 0.1273416 0.0085924
0.4906384 0.1295185 0.0115696
0.5189141 0.1334090 0.0126875
0.5498383 0.1386475 0.0124926
0.5837343 0.1444398 0.0114610
0.6202841 0.1496579 0.0101073
0.6583658 0.1529191 0.0088591
0.6982159 0.1540605 0.0080941
0.7405369 0.1534956 0.0080720
0.7853895 0.1513412 0.0090123
0.8321854 0.1472581 0.0107267
0.8801458 0.1411265 0.0127763
0.9286896 0.1334399 0.0147958
0.0730210 0.1248178 0.0438597
0.0682569 0.1124362 0.0452202
0.0634240 0.1000900 0.0464864
0.0586095 0.0879430 0.0475025
0.0542284 0.0764279 0.0480513
0.0512573 0.0663816 0.0477762
0.0512577 0.0589339 0.0460081
0.0563348 0.0551985 0.0415938
0.0690210 0.0559634 0.0331510
0.0927489 0.0627899 0.0204242
0.1303979 0.0777505 0.0057039
0.1804302 0.1004233 0.0000000
0.2349317 0.1257260 0.0000000
0.2836837 0.1464276 0.0000000
0.3213442 0.1585465 0.0000000
0.3494792 0.1626371 0.0000000
0.3718393 0.1609125 0.0000000
0.3917672 0.1557441 0.0000000
0.4115892 0.1495072 0.0078629
0.4329327 0.1445227 0.0139966
0.4574083 0.1425211 0.0177646
0.4852889 0.1437589 0.0192069
0.5168646 0.1482440 0.0190900
0.5515093 0.1551339 0.0182708
0.5876741 0.1626225 0.0169597
0.6248710 0.1695044 0.0154748
0.6632249 0.1750740 0.0142170
0.7028852 0.1789568 0.0136572
0.7437137 0.1810695 0.0142452
0.7860589 0.1818725 0.0164207
0.8296781 0.1814149 0.0200252
0.8742140 0.1793199 0.0244080
0.9192637 0.1757059 0.0287656
0.0735169 0.1359099 0.0315567
0.0691810 0.1239278 0.0339398
0.0645914 0.1117944 0.0360099
0.0597695 0.0995576 0.0375680
0.0550519 0.0875482 0.0384466
0.0511978 0.0764422 0.0384379
0.0493160 0.0672276 0.0371278
0.0512055 0.0612228 0.0339250
0.0594810 0.0592560 0.0277482
0.0797285 0.0642354 0.0177973
0.1190772 0.0815469 0.0058106
0.1788905 0.1135064 0.0000000
0.2480030 0.1526200 0.0000000
0.3058669 0.1832755 0.0000000
0.3430049 0.1978527 0.0000000
0.3645737 0.1987087 0.0000000
0.3788591 0.1917081 0.0065531
0.3916148 0.1814640 0.0155129
0.4054612 0.1703388 0.0224304
0.4221985 0.1606214 0.0260672
0.4455365 0.1553385 0.0268509
0.4767169 0.1558187 0.0257129
0.5135152 0.1610818 0.0239443
0.5550060 0.1704975 0.0225270
0.5953891 0.1803072 0.0212188
0.6337324 0.1889660 0.0200697
0.6723547 0.1968443 0.0194447
0.7116209 0.2034579 0.0197821
0.7508624 0.2084144 0.0215480
0.7902473 0.2124703 0.0254274
0.8296059 0.2158103 0.0313992
0.8687698 0.2177890 0.0384523
0.9079445 0.2182437 0.0456009
0.0783664 0.1519408 0.0218191
0.0751663 0.1409496 0.0251650
0.0715664 0.1297013 0.0279652
0.0677568 0.1183227 0.0300604
0.0641837 0.1071581 0.0313554
0.0615184 0.0967396 0.0317339
0.0604494 0.0877266 0.0309299
0.0619911 0.0811245 0.0287607
0.0670744 0.0769037 0.0245198
0.0802862 0.0769782 0.0171008
0.1125462 0.0895418 0.0071356
0.1711739 0.1220874 0.0000000
0.2468814 0.1691226 0.0000000
0.3147346 0.2110529 0.0000000
0.3566583 0.2321856 0.0063211
0.3745820 0.2315610 0.0163339
0.3820732 0.2200192 0.0267244
0.3898028 0.2066309 0.0354447
0.3998617 0.1931057 0.0403004
0.4125553 0.1800049 0.0403517
0.4324773 0.1707705 0.0369961
0.4638254 0.1686688 0.0321970
0.5060914 0.1741072 0.0278997
0.5555229 0.1855968 0.0252925
0.6031635 0.1982779 0.0239286
0.6458348 0.2096545 0.0234408
0.6865627 0.2204956 0.0241865
0.7264100 0.2305554 0.0267104
0.7640345 0.2385028 0.0308870
0.7994659 0.2446818 0.0370557
0.8328430 0.2496879 0.0452654
0.8643946 0.2532681 0.0542345
0.8952981 0.2562673 0.0634837
0.0876809 0.1728433 0.0151351
0.0858452 0.1631338 0.0190316
0.0837007 0.1532376 0.0223773
0.0816774 0.1435315 0.0250780
0.0805544 0.1346332 0.0270894
0.0812418 0.1272474 0.0283038
0.0844915 0.1219938 0.0284799
0.0905395 0.1190884 0.0273233
0.0981868 0.1170301 0.0242623
0.1069224 0.1139174 0.0182494
0.1256959 0.1161616 0.0092111
0.1671252 0.1355814 0.0004812
0.2298976 0.1736572 0.0000000
0.2970952 0.2172262 0.0051098
0.3477768 0.2472648 0.0190554
0.3722264 0.2534349 0.0344376
0.3814057 0.2446009 0.0480423
0.3893167 0.2324991 0.0573342
0.3991617 0.2197599 0.0601696
0.4106103 0.2063566 0.0569278
0.4267438 0.1947648 0.0498513
0.4528805 0.1886647 0.0413239
0.4925642 0.1907090 0.0336006
0.5448798 0.2010317 0.0282635
0.6021280 0.2157340 0.0253177
0.6547362 0.2307223 0.0247607
0.7014113 0.2455719 0.0269700
0.7456295 0.2615706 0.0332846
0.7842444 0.2745121 0.0426276
0.8147409 0.2810311 0.0522513
0.8392829 0.2829796 0.0613536
0.8612349 0.2834527 0.0700780
0.8828704 0.2848873 0.0793746
0.1003639 0.1975824 0.0109726
0.1000452 0.1893728 0.0150436
0.0995815 0.1811081 0.0187260
0.0997716 0.1735452 0.0220816
0.1017287 0.1676476 0.0251302
0.1066578 0.1643869 0.0277381
0.1157403 0.1647147 0.0295920
0.1297614 0.1692067 0.0302183
0.1473710 0.1762261 0.0288594
0.1626275 0.1794533 0.0240989
0.1729206 0.1754659 0.0153295
0.1898506 0.1749429 0.0057871
0.2244084 0.1897102 0.0020502
0.2722699 0.2172684 0.0090067
0.3186926 0.2442204 0.0257553
0.3529348 0.2598740 0.0468919
0.3754743 0.2635688 0.0659503
0.3918014 0.2595187 0.0778434
0.4045129 0.2499596 0.0795139
0.4180360 0.2389310 0.0738990
0.4351475 0.2291768 0.0654809
0.4573876 0.2216617 0.0556394
0.4886650 0.2187639 0.0452720
0.5344341 0.2240496 0.0367261
0.5920437 0.2358214 0.0296870
0.6527462 0.2511294 0.0255537
0.7072579 0.2680436 0.0260522
0.7610820 0.2922103 0.0365582
0.8075714 0.3153675 0.0560361
0.8337359 0.3216055 0.0709069
0.8465039 0.3143507 0.0775305
0.8587474 0.3072801 0.0833212
0.8729667 0.3034727 0.0906334
0.1139475 0.2239180 0.0077830
0.1155653 0.2176104 0.0120042
0.1171082 0.2113154 0.0160153
0.1197412 0.2061470 0.0201197
0.1247697 0.2032717 0.0244425
0.1333340 0.2036159 0.0287903
0.1464251 0.2079037 0.0326808
0.1651710 0.2168876 0.0353730
0.1894888 0.2300577 0.0359320
0.2149531 0.2429884 0.0334910
0.2321629 0.2468013 0.0275996
0.2388550 0.2392121 0.0197759
0.2467690 0.2316856 0.0148601
0.2668355 0.2350593 0.0191289
0.2972933 0.2479088 0.0340764
0.3304980 0.2627640 0.0555048
0.3622794 0.2749757 0.0770798
0.3897883 0.2811631 0.0923423
0.4103528 0.2786970 0.0962995
0.4286478 0.2717581 0.0892990
0.4514067 0.2670248 0.0801643
0.4766335 0.2633487 0.0724920
0.5043857 0.2599148 0.0631956
0.5432836 0.2615522 0.0541132
0.5913700 0.2665347 0.0428856
0.6420112 0.2733131 0.0324584
0.6926394 0.2835437 0.0269525
0.7524463 0.3088714 0.0338432
0.8164790 0.3471734 0.0653590
0.8450884 0.3571000 0.0877529
0.8488626 0.3391328 0.0888616
0.8563333 0.3259009 0.0920879
0.8685468 0.3186704 0.0988059
0.1251719 0.2488654 0.0035005
0.1294771 0.2451460 0.0083389
0.1337369 0.2414517 0.0130735
0.1390662 0.2388685 0.0181439
0.1468083 0.2386272 0.0238296
0.1577636 0.2413485 0.0299665
0.1721941 0.2470389 0.0359045
0.1905169 0.2557357 0.0406258
0.2132244 0.2674705 0.0428781
0.2393856 0.2812444 0.0421302
0.2628866 0.2915710 0.0390981
0.2766020 0.2923496 0.0360973
0.2799129 0.2827801 0.0343845
0.2825825 0.2714364 0.0371135
0.2946833 0.2678278 0.0475457
0.3173408 0.2729376 0.0642074
0.3469918 0.2831509 0.0824788
0.3787110 0.2933474 0.0973173
0.4079556 0.2987950 0.1040629
0.4354440 0.2997155 0.1008880
0.4667891 0.3018705 0.0932244
0.5008376 0.3054224 0.0871608
0.5335398 0.3069440 0.0811426
0.5690070 0.3082422 0.0747095
0.6071016 0.3082435 0.0644921
0.6425791 0.3056788 0.0510216
0.6798448 0.3059357 0.0409014
0.7269913 0.3166484 0.0396241
0.7921892 0.3493954 0.0617834
0.8327742 0.3682488 0.0870323
0.8441663 0.3559706 0.0922650
0.8556276 0.3447497 0.0983130
0.8711992 0.3388258 0.1075244
0.1326157 0.2710969 0.0000000
0.1399292 0.2702100 0.0030581
0.1472671 0.2693854 0.0089241
0.1554183 0.2694126 0.0151926
0.1654362 0.2712781 0.0222215
0.1776689 0.2752110 0.0299094
0.1917251 0.2806204 0.0376069
0.2069606 0.2865984 0.0442355
0.2235029 0.2929368 0.0485617
0.2425287 0.3005700 0.0500745
0.2634325 0.3089841 0.0492868
0.2822115 0.3150958 0.0484504
0.2937700 0.3141859 0.0497375
0.2979174 0.3052793 0.0536350
0.3028357 0.2955953 0.0611333
0.3159853 0.2920520 0.0720917
0.3387944 0.2959569 0.0842211
0.3684187 0.3044216 0.0945501
0.4011904 0.3135311 0.1008372
0.4365508 0.3220620 0.1020714
0.4762953 0.3316246 0.0993989
0.5193219 0.3418451 0.0954205
0.5621877 0.3508123 0.0924023
0.6018039 0.3564061 0.0906606
0.6366930 0.3566208 0.0859186
0.6640619 0.3505750 0.0747211
0.6924840 0.3460082 0.0639304
0.7300571 0.3487540 0.0585185
0.7791315 0.3607995 0.0590580
0.8190672 0.3746197 0.0773724
0.8400535 0.3743124 0.0945052
0.8583057 0.3703947 0.1067337
0.8794817 0.3689435 0.1187391
0.1364590 0.2907469 0.0000000
0.1465862 0.2924000 0.0000000
0.1568104 0.2941597 0.0032099
0.1675871 0.2965046 0.0107617
0.1793931 0.2999005 0.0189985
0.1922099 0.3042624 0.0278656
0.2052926 0.3087328 0.0368118
0.2175557 0.3120861 0.0449373
0.2287197 0.3138619 0.0513486
0.2401690 0.3150488 0.0553469
0.2544156 0.3177918 0.0566944
0.2716576 0.3224252 0.0566880
0.2885306 0.3261998 0.0575782
0.3012595 0.3254056 0.0608518
0.3104710 0.3201644 0.0667716
0.3217904 0.3154772 0.0740599
0.3402178 0.3157073 0.0813193
0.3658320 0.3209452 0.0871226
0.3976544 0.3299420 0.0911449
0.4352556 0.3418201 0.0937871
0.4786624 0.3560078 0.0950646
0.5268185 0.3711938 0.0945252
0.5770018 0.3857595 0.0942611
0.6241904 0.3968958 0.0962335
0.6636392 0.4012058 0.0976273
0.6930384 0.3980499 0.0935036
0.7181462 0.3925537 0.0850138
0.7483162 0.3919648 0.0801995
0.7851362 0.3966199 0.0800780
0.8208622 0.4034671 0.0901038
0.8434491 0.4034129 0.1041181
0.8647785 0.4028365 0.1146995
0.8884786 0.4044898 0.1251183
0.1376039 0.3085895 0.0000000
0.1501126 0.3122310 0.0000000
0.1626899 0.3159642 0.0000000
0.1754827 0.3199539 0.0048696
0.1885370 0.3242597 0.0140427
0.2015234 0.3285363 0.0236515
0.2137872 0.3320645 0.0333449
0.2245365 0.3339919 0.0425016
0.2335892 0.3339897 0.0504904
0.2420297 0.3327513 0.0564365
0.2523616 0.3321590 0.0595141
0.2669808 0.3342753 0.0599172
0.2845586 0.3381039 0.0592612
0.3020027 0.3412329 0.0598487
0.3172326 0.3417289 0.0629492
0.3318110 0.3406825 0.0676547
0.3491265 0.3406493 0.0723292
0.3710089 0.3433482 0.0759884
0.3991964 0.3502005 0.0790709
0.4341370 0.3613784 0.0820130
0.4764759 0.3769894 0.0853149
0.5256650 0.3956637 0.0885299
0.5789098 0.4144951 0.0915705
0.6306446 0.4291071 0.0946980
0.6760184 0.4369292 0.0981608
0.7129112 0.4384532 0.0999836
0.7419732 0.4360883 0.0976441
0.7687433 0.4344152 0.0953276
0.7975894 0.4369390 0.1025599
0.8276088 0.4410282 0.1134603
0.8520517 0.4403245 0.1151049
0.8744281 0.4406626 0.1184342
0.8973204 0.4431963 0.1255531
0.1370813 0.3254239 0.0000000
0.1513164 0.3303413 0.0000000
0.1655388 0.3352842 0.0000000
0.1796656 0.3401900 0.0000000
0.1934830 0.3448638 0.0076027
0.2066142 0.3489417 0.0176110
0.2186476 0.3519643 0.0276387
0.2293310 0.3536099 0.0373114
0.2389614 0.3539756 0.0461625
0.2488262 0.3539400 0.0535335
0.2609361 0.3549473 0.0583723
0.2764344 0.3578377 0.0595680
0.2932971 0.3608596 0.0573870
0.3095992 0.3627555 0.0544892
0.3259526 0.3642881 0.0537661
0.3430163 0.3658634 0.0557449
0.3607746 0.3670307 0.0591352
0.3802564 0.3686261 0.0626169
0.4043503 0.3732160 0.0662316
0.4351472 0.3824961 0.0706287
0.4739015 0.3974303 0.0758650
0.5205779 0.4169840 0.0813715
0.5729740 0.4380751 0.0868440
0.6258080 0.4553976 0.0910098
0.6752149 0.4661850 0.0942490
0.7191845 0.4714142 0.0976247
0.7560079 0.4733098 0.0997363
0.7861527 0.4735607 0.0986355
0.8139746 0.4746290 0.0988069
0.8405731 0.4773973 0.1045884
0.8640465 0.4793137 0.1075347
0.8858887 0.4823623 0.1146275
0.9075990 0.4870407 0.1264632
0.1354220 0.3416151 0.0000000
0.1507517 0.3471530 0.0000000
0.1659876 0.3526354 0.0000000
0.1809212 0.3578937 0.0000000
0.1952643 0.3626549 0.0001081
0.2087323 0.3666399 0.0102612
0.2211745 0.3696563 0.0203295
0.2327684 0.3717607 0.0300504
0.2441511 0.3733595 0.0390264
0.2568108 0.3755535 0.0468364
0.2727372 0.3798446 0.0529690
0.2923244 0.3864357 0.0563021
0.3108380 0.3911183 0.0548766
0.3245287 0.3909450 0.0494033
0.3375966 0.3896528 0.0449498
0.3536373 0.3906149 0.0441173
0.3709513 0.3920206 0.0461223
0.3894435 0.3936716 0.0497996
0.4111168 0.3972857 0.0543778
0.4387404 0.4053126 0.0602588
0.4739430 0.4190985 0.0673220
0.5172345 0.4381340 0.0744368
0.5673394 0.4600278 0.0808715
0.6193941 0.4795831 0.0861652
0.6700944 0.4933245 0.0897078
0.7184050 0.5018805 0.0929393
0.7617346 0.5074588 0.0957105
0.7982062 0.5110558 0.0927640
0.8294892 0.5134437 0.0827981
0.8566759 0.5160058 0.0752889
0.8777337 0.5205853 0.0839014
0.8979462 0.5268729 0.1041091
0.9184647 0.5338491 0.1265918
0.1328044 0.3572431 0.0000000
0.1487585 0.3629042 0.0000000
0.1645761 0.3684786 0.0000000
0.1800209 0.3737681 0.0000000
0.1948481 0.3785327 0.0000000
0.2089024 0.3826044 0.0020263
0.2222326 0.3859814 0.0119115
0.2352174 0.3889021 0.0213537
0.2486157 0.3918991 0.0300192
0.2635142 0.3957718 0.0374872
0.2808806 0.4012257 0.0432118
0.3004635 0.4079951 0.0463381
0.3191067 0.4132068 0.0456010
0.3338386 0.4142673 0.0413561
0.3464387 0.4128239 0.0365411
0.3610924 0.4128232 0.0343720
0.3781521 0.4145962 0.0355812
0.3969548 0.4173641 0.0392577
0.4185218 0.4218396 0.0446277
0.4448788 0.4298648 0.0512645
0.4780924 0.4431250 0.0589808
0.5189637 0.4616318 0.0668715
0.5664086 0.4833867 0.0739368
0.6173173 0.5045903 0.0798967
0.6686609 0.5218940 0.0849040
0.7188261 0.5345508 0.0888804
0.7657424 0.5437893 0.0900282
0.8066312 0.5503506 0.0834889
0.8409861 0.5552463 0.0679337
0.8687086 0.5595739 0.0535553
0.8895025 0.5654916 0.0633910
0.9097057 0.5739638 0.0937072
0.9308982 0.5829680 0.1247745
0.1292363 0.3722299 0.0000000
0.1455582 0.3777574 0.0000000
0.1617527 0.3832042 0.0000000
0.1776178 0.3884076 0.0000000
0.1929931 0.3932080 0.0000000
0.2078311 0.3975282 0.0000000
0.2222885 0.4014565 0.0027459
0.2367600 0.4052603 0.0117258
0.2518119 0.4093398 0.0198255
0.2679589 0.4140438 0.0266054
0.2853036 0.4193763 0.0314941
0.3031905 0.4247224 0.0338549
0.3202782 0.4288238 0.0333213
0.3354920 0.4306548 0.0304583
0.3496164 0.4309617 0.0270397
0.3647157 0.4317425 0.0252428
0.3822683 0.4344672 0.0264467
0.4025509 0.4392956 0.0306050
0.4257213 0.4461244 0.0368050
0.4529491 0.4558713 0.0443155
0.4858389 0.4697239 0.0526476
0.5253173 0.4880594 0.0611867
0.5707430 0.5096174 0.0692003
0.6203013 0.5319526 0.0762396
0.6717639 0.5526248 0.0822490
0.7227684 0.5697840 0.0858598
0.7707689 0.5827107 0.0837570
0.8136272 0.5923323 0.0747059
0.8495749 0.5999310 0.0592879
0.8776537 0.6068005 0.0499255
0.8999844 0.6145535 0.0620886
0.9220474 0.6241545 0.0910252
0.9460684 0.6348160 0.1234242
0.1246944 0.3865261 0.0000000
0.1413262 0.3918508 0.0000000
0.1578681 0.3971334 0.0000000
0.1741913 0.4022738 0.0000000
0.1902066 0.4071781 0.0000000
0.2059339 0.4118345 0.0000000
0.2215342 0.4163374 0.0000000
0.2372902 0.4208700 0.0015258
0.2534782 0.4256148 0.0089674
0.2702026 0.4305911 0.0150504
0.2872530 0.4355645 0.0193534
0.3041657 0.4400863 0.0215718
0.3205602 0.4437545 0.0217723
0.3363725 0.4464470 0.0205605
0.3520454 0.4485726 0.0190027
0.3684802 0.4510256 0.0184131
0.3871336 0.4552209 0.0201121
0.4088608 0.4619383 0.0245962
0.4339289 0.4712074 0.0313165
0.4627996 0.4831972 0.0395569
0.4964429 0.4985514 0.0487656
0.5353768 0.5173913 0.0582514
0.5793763 0.5390705 0.0673906
0.6274275 0.5621966 0.0755570
0.6778881 0.5850827 0.0818942
0.7284110 0.6057214 0.0843483
0.7763614 0.6224098 0.0794559
0.8199407 0.6357570 0.0686410
0.8568356 0.6465516 0.0574074
0.8869053 0.6566267 0.0591079
0.9125009 0.6668805 0.0770640
0.9375886 0.6778123 0.0997063
0.9642340 0.6896765 0.1269205
0.1191977 0.4000954 0.0000000
0.1362074 0.4052890 0.0000000
0.1531771 0.4104989 0.0000000
0.1700483 0.4156680 0.0000000
0.1867826 0.4207597 0.0000000
0.2034129 0.4257741 0.0000000
0.2200504 0.4307710 0.0000000
0.2368191 0.4358293 0.0000000
0.2537877 0.4409606 0.0000000
0.2708873 0.4460622 0.0034898
0.2879349 0.4509373 0.0075963
0.3047760 0.4554097 0.0101870
0.3214541 0.4594662 0.0114876
0.3382064 0.4632850 0.0119934
0.3554547 0.4672435 0.0123908
0.3737786 0.4718861 0.0135117
0.3941498 0.4781523 0.0162900
0.4174341 0.4867909 0.0212484
0.4440774 0.4980665 0.0282533
0.4744007 0.5120610 0.0369251
0.5088822 0.5289907 0.0467604
0.5477393 0.5488025 0.0570892
0.5908343 0.5711053 0.0671854
0.6374253 0.5950032 0.0760784
0.6861974 0.6192320 0.0823683
0.7352860 0.6422265 0.0840758
0.7825701 0.6625459 0.0791493
0.8261950 0.6798490 0.0693534
0.8639607 0.6943613 0.0640645
0.8967476 0.7078652 0.0749804
0.9266218 0.7209456 0.0954862
0.9554898 0.7338830 0.1156591
0.9844443 0.7469822 0.1368958
0.1128075 0.4129458 0.0000000
0.1303280 0.4181664 0.0000000
0.1478493 0.4234410 0.0000000
0.1653655 0.4287620 0.0000000
0.1828681 0.4341118 0.0000000
