catalog/styles/film/film-grain/look.cube
# film-grain iteration 5
LUT_3D_SIZE 9
DOMAIN_MIN 0 0 0
DOMAIN_MAX 1 1 1
0.1947406 0.1756297 0.1854130
0.2253679 0.1499253 0.1521869
0.2539855 0.1053568 0.1124079
0.2880550 0.0355043 0.0568440
0.3850151 0.0000000 0.0000000
0.5481834 0.0000000 0.0000000
0.7101667 0.0000000 0.0000000
0.8408924 0.0000000 0.0000000
0.9439644 0.0000000 0.0000000
0.1097203 0.1248242 0.1090069
0.1185497 0.0948487 0.0974370
0.1568922 0.0769870 0.0656265
0.2255449 0.0524897 0.0022317
0.3464631 0.0495780 0.0000000
0.4852342 0.0678223 0.0000000
0.6014421 0.0762829 0.0000000
0.7565528 0.0673433 0.0000000
0.9448155 0.0267494 0.0000000
0.0730210 0.1248178 0.0438597
0.0542284 0.0764279 0.0480513
0.0690210 0.0559634 0.0331510
0.2349317 0.1257260 0.0000000
0.3718393 0.1609125 0.0000000
0.4574083 0.1425211 0.0177646
0.5876741 0.1626225 0.0169597
0.7437137 0.1810695 0.0142452
0.9192637 0.1757059 0.0287656
0.1003639 0.1975824 0.0109726
0.1017287 0.1676476 0.0251302
0.1473710 0.1762261 0.0288594
0.2244084 0.1897102 0.0020502
0.3754743 0.2635688 0.0659503
0.4351475 0.2291768 0.0654809
0.5920437 0.2358214 0.0296870
0.8075714 0.3153675 0.0560361
0.8729667 0.3034727 0.0906334
0.1364590 0.2907469 0.0000000
0.1793931 0.2999005 0.0189985
0.2287197 0.3138619 0.0513486
0.2885306 0.3261998 0.0575782
0.3402178 0.3157073 0.0813193
0.4786624 0.3560078 0.0950646
0.6636392 0.4012058 0.0976273
0.7851362 0.3966199 0.0800780
0.8884786 0.4044898 0.1251183
0.1328044 0.3572431 0.0000000
0.1948481 0.3785327 0.0000000
0.2486157 0.3918991 0.0300192
0.3191067 0.4132068 0.0456010
0.3781521 0.4145962 0.0355812
0.4780924 0.4431250 0.0589808
0.6686609 0.5218940 0.0849040
0.8409861 0.5552463 0.0679337
0.9308982 0.5829680 0.1247745
0.1128075 0.4129458 0.0000000
0.1828681 0.4341118 0.0000000
0.2531653 0.4557961 0.0000000
0.3232130 0.4762336 0.0023077
0.4028548 0.5027783 0.0136304
0.5225891 0.5607597 0.0461171
0.6961145 0.6551181 0.0838068
0.8723863 0.7434073 0.0832902
1.0000000 0.8055608 0.1514127
0.0804180 0.4593451 0.0000000
0.1638019 0.4867317 0.0000000
0.2485872 0.5161771 0.0000000
0.3386664 0.5532654 0.0000000
0.4455483 0.6096623 0.0041089
0.5799581 0.6939252 0.0479849
0.7417371 0.8065874 0.1042906
0.9129858 0.9293693 0.1697129
1.0000000 1.0000000 0.2261634
0.0428209 0.5036338 0.0000000
0.1423446 0.5390834 0.0000000
0.2459189 0.5805380 0.0000000
0.3614180 0.6389228 0.0000000
0.4923469 0.7218489 0.0000000
0.6353284 0.8296266 0.0533564
0.7878842 0.9577901 0.1294333
0.9536775 1.0000000 0.2161425
1.0000000 1.0000000 0.3048611
0.1390481 0.1266579 0.1833255
0.1538282 0.1126495 0.1477030
0.1681591 0.0809088 0.1059131
0.2146938 0.0383793 0.0589116
0.3429654 0.0086614 0.0226558
0.5656573 0.0035570 0.0174419
0.7591286 0.0000000 0.0136234
0.8756659 0.0000000 0.0142647
0.9207750 0.0140587 0.0597609
0.0888769 0.1187040 0.1163041
0.1068084 0.0973649 0.0985350
0.1423979 0.0884087 0.0740841
0.1827495 0.0538398 0.0370729
0.3193694 0.0580785 0.0383525
0.4841551 0.0789478 0.0533377
0.6465573 0.0976195 0.0644324
0.7971931 0.1205479 0.0874767
0.9375200 0.1483733 0.1231271
0.0530408 0.1321287 0.0554146
0.0600502 0.0876780 0.0475784
0.0951559 0.0831838 0.0343109
0.2062723 0.1122728 0.0108256
0.2948202 0.1149945 0.0379020
0.3921210 0.1191260 0.0677900
0.5571518 0.1610442 0.0828527
0.7422298 0.2081848 0.1195013
0.9211813 0.2453093 0.1655952
0.0414728 0.1779615 0.0215348
0.0923215 0.1734968 0.0342020
0.1902910 0.2207761 0.0477765
0.2764237 0.2481680 0.0433948
0.4401706 0.3134700 0.0361117
0.4070433 0.2171719 0.0758261
0.5132577 0.2216725 0.1090400
0.7075970 0.2771526 0.1531930
0.8912416 0.3282805 0.2047986
0.0670818 0.2653355 0.0184598
0.1491688 0.2911600 0.0433347
0.2424928 0.3287444 0.0675468
0.3103858 0.3451233 0.0906071
0.3609742 0.3312916 0.0993998
0.4758822 0.3614843 0.1470088
0.5943013 0.3775332 0.1895004
0.7382112 0.3981249 0.2134426
0.8761342 0.4251258 0.2367129
0.0966408 0.3613745 0.0204896
0.1793238 0.3870512 0.0505067
0.2553273 0.4070022 0.0791929
0.3196008 0.4157077 0.1065032
0.3857357 0.4234855 0.1368496
0.4899689 0.4552101 0.1679364
0.6432978 0.5099512 0.2187206
0.7964670 0.5575636 0.2657964
0.9202921 0.5878428 0.2793429
0.1076033 0.4433148 0.0208672
0.1886453 0.4655842 0.0499995
0.2663378 0.4850418 0.0775539
0.3419999 0.5032589 0.1017888
0.4266847 0.5299084 0.1267156
0.5394982 0.5783021 0.1639930
0.6858538 0.6494738 0.2192277
0.8435850 0.7281686 0.2852066
0.9908295 0.7971879 0.3282529
0.1026487 0.5121691 0.0188406
0.1899597 0.5378619 0.0443657
0.2784967 0.5656974 0.0701996
0.3719294 0.6006562 0.0979171
0.4768361 0.6498665 0.1322878
0.6001311 0.7195641 0.1801378
0.7431747 0.8103599 0.2438913
0.8971865 0.9118696 0.3150059
1.0000000 1.0000000 0.3832413
0.0913141 0.5753327 0.0146461
0.1889326 0.6082534 0.0365898
0.2910815 0.6472127 0.0621829
0.4041140 0.7009238 0.0970086
0.5296838 0.7745541 0.1451434
0.6641030 0.8676479 0.2070510
0.8048516 0.9769936 0.2799686
0.9531802 1.0000000 0.3605772
1.0000000 1.0000000 0.4457953
0.0889798 0.0915692 0.1973378
0.0833717 0.0739069 0.1484007
0.0915741 0.0556302 0.0985147
0.1412155 0.0362021 0.0603453
0.2699395 0.0179910 0.0494224
0.4963888 0.0180378 0.0747347
0.7128064 0.0266911 0.1094828
0.8604139 0.0648513 0.1585070
0.9488769 0.1553254 0.2438181
0.0611446 0.1076083 0.1280798
0.0793660 0.0928329 0.1142949
0.1018273 0.0808448 0.1008178
0.1398148 0.0545104 0.0735283
0.2867580 0.0627663 0.0835720
0.4819503 0.0896848 0.1166426
0.6625377 0.1206504 0.1519919
0.8079829 0.1619852 0.1966251
0.9399976 0.2209843 0.2567618
0.0337566 0.1384207 0.0730860
0.0675933 0.1156591 0.0780698
0.0878215 0.0865323 0.0784620
0.1533051 0.0889315 0.0937497
0.2613229 0.0947223 0.0893866
0.4396938 0.1408364 0.1149661
0.6067020 0.1915631 0.1666422
0.7593038 0.2370313 0.2203344
0.9196634 0.2880324 0.2830301
0.0187838 0.1933171 0.0588980
0.0864763 0.1887482 0.0750039
0.1688807 0.2080614 0.1002334
0.2112674 0.1900912 0.1037553
0.2847267 0.1885454 0.1114679
0.3854836 0.1830794 0.0651511
0.5670551 0.2522591 0.1543381
0.7369982 0.3117109 0.2418772
0.8953490 0.3522088 0.3060928
0.0404331 0.2770982 0.0758081
0.1286470 0.2943558 0.0948061
0.2183361 0.3171722 0.1187413
0.2910102 0.3277658 0.1423630
0.3454812 0.3153523 0.1498608
0.4685902 0.3546796 0.1988274
0.5993525 0.3805281 0.2279167
0.7571162 0.4198085 0.2840692
0.8865934 0.4446064 0.3324772
0.0779258 0.3817505 0.1051912
0.1686822 0.4029232 0.1252427
0.2550427 0.4210338 0.1478375
0.3291117 0.4295743 0.1720195
0.4003348 0.4363692 0.1958834
0.5061959 0.4703723 0.2376800
0.6446806 0.5156597 0.2866103
0.7962522 0.5579135 0.3352309
0.9119894 0.5906649 0.3840772
0.1100554 0.4824377 0.1320673
0.1971035 0.5016102 0.1513122
0.2819252 0.5191024 0.1726380
0.3653295 0.5368053 0.1986526
0.4519549 0.5599283 0.2291478
0.5550470 0.5974904 0.2695602
0.6867969 0.6541641 0.3268613
0.8315291 0.7192623 0.3922914
0.9719538 0.7825966 0.4521359
0.1288758 0.5676900 0.1479451
0.2175046 0.5900214 0.1674227
0.3081184 0.6149496 0.1901595
0.4041773 0.6473763 0.2202464
0.5083930 0.6912081 0.2605133
0.6234990 0.7492926 0.3131881
0.7518671 0.8229286 0.3802241
0.8900843 0.9065807 0.4538203
1.0000000 0.9903084 0.5221779
0.1399281 0.6435241 0.1563826
0.2354258 0.6738643 0.1783269
0.3353085 0.7098564 0.2044542
0.4446830 0.7582491 0.2406872
0.5644624 0.8229803 0.2916091
0.6908571 0.9033527 0.3575003
0.8201803 0.9963473 0.4330424
0.9521072 1.0000000 0.5134939
1.0000000 1.0000000 0.5972065
0.0269791 0.0691075 0.2425229
0.0159812 0.0399506 0.1743071
0.0284999 0.0278391 0.1121488
0.0862151 0.0316627 0.0779475
0.2066140 0.0304951 0.0857991
0.4058240 0.0325187 0.1337439
0.6182372 0.0570972 0.2006684
0.8058450 0.1154131 0.2823455
0.9687292 0.1978376 0.3770837
0.0154016 0.0885884 0.1583353
0.0374972 0.0821076 0.1546513
0.0694692 0.0765645 0.1479616
0.1267089 0.0662587 0.1248128
0.2510595 0.0636878 0.1237961
0.4401511 0.0869755 0.1647215
0.6371243 0.1338649 0.2329453
0.7976076 0.1916082 0.3047982
0.9435287 0.2593026 0.3810237
0.0111085 0.1281397 0.1066065
0.0653452 0.1434911 0.1513613
0.1296636 0.1494397 0.1859693
0.1924774 0.1358762 0.1834993
0.2675535 0.1046409 0.1430577
0.4470324 0.1391085 0.1719673
0.6463511 0.2135027 0.2549656
0.7851126 0.2667310 0.3208618
0.9223023 0.3231121 0.3915880
0.0211309 0.2148936 0.1289414
0.0981662 0.2269699 0.1715462
0.1598501 0.2258343 0.1890615
0.2241393 0.2096399 0.1903593
0.3058832 0.2089100 0.1961433
0.4325962 0.2193589 0.1847005
0.6205674 0.2830710 0.2325369
0.7774466 0.3455644 0.3251249
0.9103626 0.3853034 0.4031240
0.0438637 0.3125197 0.1682445
0.1251382 0.3191094 0.1896059
0.2040575 0.3271221 0.2089683
0.2613113 0.3090096 0.2064164
0.3391764 0.3155551 0.2238060
0.4752251 0.3615961 0.2745831
0.6245949 0.3855593 0.2442816
0.7959980 0.4543860 0.3522122
0.9102166 0.4730910 0.4206797
0.0887725 0.4304348 0.2240352
0.1711556 0.4388027 0.2336283
0.2540846 0.4463957 0.2434125
0.3346122 0.4499208 0.2563559
0.4173690 0.4568869 0.2772805
0.5307968 0.4962024 0.3296042
0.6417970 0.5189800 0.3625691
0.8104453 0.5707117 0.4089123
0.9325108 0.6086534 0.4596858
0.1325788 0.5392801 0.2663093
0.2127072 0.5476489 0.2699280
0.2948263 0.5574809 0.2774173
0.3836489 0.5727910 0.2971652
0.4837246 0.6004115 0.3376618
0.5903682 0.6380259 0.3900154
0.7079432 0.6797891 0.4380770
0.8361455 0.7218662 0.4733325
0.9703552 0.7812202 0.5370364
0.1655583 0.6280597 0.2860246
0.2490181 0.6432534 0.2945043
0.3365685 0.6625702 0.3091046
0.4326976 0.6914187 0.3378055
0.5387217 0.7326556 0.3847154
0.6528189 0.7857044 0.4459089
0.7729998 0.8488851 0.5134758
0.8946384 0.9152514 0.5787747
1.0000000 0.9784133 0.6382275
0.1914856 0.7058236 0.2944143
0.2839236 0.7334962 0.3141466
0.3795070 0.7652445 0.3389148
0.4820840 0.8069145 0.3751632
0.5929199 0.8620454 0.4267318
0.7102380 0.9313957 0.4950656
0.8305059 1.0000000 0.5772519
0.9502996 1.0000000 0.6642830
1.0000000 1.0000000 0.7493050
0.0000000 0.0609771 0.3196963
0.0000000 0.0335106 0.2548012
0.0015094 0.0234100 0.1901137
0.0730312 0.0356752 0.1379587
0.1853323 0.0430943 0.1379633
0.3543480 0.0481274 0.1988170
0.5459031 0.0688489 0.2771543
0.7427373 0.1144629 0.3663061
0.9411596 0.1746316 0.4625415
0.0000000 0.0873785 0.2325107
0.0064372 0.0896590 0.2383952
0.0533604 0.0866178 0.2262258
0.1194622 0.0765537 0.1926218
0.2265961 0.0676560 0.1826170
0.3880519 0.0814874 0.2208380
0.5831874 0.1323783 0.3024495
0.7654809 0.1964989 0.3908703
0.9334301 0.2609680 0.4754162
0.0000000 0.1320495 0.1819359
0.0530121 0.1643005 0.2438034
0.1219364 0.1760033 0.2782129
0.1729048 0.1394712 0.2468706
0.2461885 0.0990154 0.2058701
0.4129274 0.1292088 0.2459387
0.6183986 0.2103314 0.3338393
0.7837624 0.2806787 0.4121877
0.9266470 0.3431781 0.4839051
0.0271614 0.2306829 0.2278621
0.1018059 0.2664171 0.2888444
0.1635883 0.2610682 0.3005045
0.2244491 0.2289940 0.2840922
0.3004595 0.1992248 0.2694831
0.4544605 0.2365160 0.3086679
0.6430182 0.3120672 0.3705153
0.7938817 0.3684121 0.4235951
0.9253437 0.4165993 0.4858570
0.0639347 0.3639119 0.3050212
0.1471880 0.3844497 0.3400960
0.2052067 0.3733067 0.3420477
0.2943019 0.3781361 0.3585890
0.3747100 0.3601464 0.3564650
0.4985692 0.3807218 0.3870560
0.6550474 0.4262249 0.4134320
0.8105865 0.4749097 0.4369437
0.9344798 0.5066112 0.5000865
0.1318581 0.5098235 0.3842790
0.1900084 0.4982620 0.3774580
0.2475644 0.4845475 0.3649196
0.3243867 0.4766389 0.3611177
0.4239565 0.4800476 0.3850768
0.5797422 0.5495109 0.4780623
0.6530462 0.5305495 0.4573350
0.8369381 0.6028129 0.4964523
0.9611822 0.6420786 0.5442520
0.1807880 0.6113710 0.4199407
0.2374600 0.6007478 0.4047150
0.3049215 0.5979911 0.3959261
0.3906536 0.6081139 0.4040579
0.5023218 0.6363417 0.4478956
0.6421942 0.6944216 0.5363136
0.7497568 0.7248544 0.5794142
0.8560022 0.7496747 0.5917020
0.9852459 0.8029779 0.6268920
0.2184843 0.6912589 0.4313255
0.2888545 0.6968449 0.4284167
0.3651247 0.7074878 0.4319615
0.4542571 0.7295667 0.4527021
0.5610102 0.7677783 0.5010024
0.6797174 0.8190336 0.5714130
0.7974787 0.8776461 0.6424619
0.9044409 0.9311311 0.6959929
1.0000000 0.9804165 0.7431424
0.2549272 0.7671594 0.4375282
0.3401748 0.7903080 0.4508003
0.4265900 0.8156387 0.4694191
0.5174018 0.8482683 0.5008771
0.6155551 0.8928666 0.5491648
0.7233676 0.9535379 0.6167560
0.8385201 1.0000000 0.7027883
0.9497215 1.0000000 0.7928976
1.0000000 1.0000000 0.8753615
0.0000000 0.0843890 0.4253146
0.0000000 0.0761196 0.3939237
0.0124337 0.0600226 0.3410359
0.0862464 0.0510687 0.2548209
0.1934935 0.0510620 0.2315969
0.3349420 0.0535798 0.2774584
0.5004759 0.0653927 0.3462022
0.6832464 0.0909057 0.4269674
0.8757145 0.1258520 0.5154785
0.0000000 0.1333847 0.3667332
0.0000000 0.1343833 0.3723569
0.0551279 0.1222973 0.3507356
0.1244065 0.0977915 0.2994539
0.2229545 0.0815889 0.2770028
0.3641501 0.0916162 0.3080082
0.5394225 0.1322703 0.3788293
0.7208095 0.1833725 0.4600114
0.8973584 0.2335832 0.5390984
0.0000000 0.1884575 0.3273711
0.0414961 0.2028443 0.3645666
0.1010332 0.1946860 0.3723898
0.1611886 0.1567987 0.3391508
0.2448145 0.1203385 0.3072491
0.3980578 0.1486135 0.3496755
0.5856138 0.2159513 0.4260634
0.7563141 0.2785045 0.4933510
0.9126969 0.3330665 0.5532661
0.0209597 0.2771302 0.3537192
0.1007404 0.3091895 0.4058360
0.1565624 0.3030169 0.4220107
0.2098361 0.2552868 0.3922835
0.3012451 0.2249383 0.3771307
0.4529010 0.2563947 0.4215233
0.6301728 0.3225710 0.4844170
0.7825584 0.3769881 0.5235581
0.9238275 0.4248233 0.5587013
0.0922024 0.4529603 0.4796699
0.1713264 0.4481557 0.4831038
0.2028488 0.4323087 0.4883899
0.2720285 0.4140864 0.4858217
0.4377688 0.4469031 0.5387002
0.5214601 0.4077310 0.5086114
0.6544245 0.4359645 0.5327655
0.7978047 0.4799897 0.5504811
0.9412901 0.5290639 0.5770013
0.1933532 0.5990752 0.5575863
0.2141251 0.5548778 0.5197998
0.2452011 0.5298549 0.5034045
0.3345316 0.5382569 0.5202109
0.4855421 0.5728383 0.5738150
0.5827458 0.5641650 0.5825889
0.6713471 0.5532117 0.5739318
0.8248389 0.6055728 0.5968774
0.9626785 0.6645973 0.6301403
0.2451119 0.6795071 0.5716180
0.2726675 0.6528906 0.5451012
0.3165160 0.6385337 0.5284178
0.3956430 0.6437070 0.5301652
0.5149729 0.6728444 0.5704276
0.6611533 0.7205469 0.6534356
0.7427774 0.7181896 0.6653985
0.8673737 0.7700880 0.6974774
0.9778148 0.8181963 0.7146669
0.2935016 0.7552255 0.5827196
0.3412655 0.7514564 0.5712015
0.3981948 0.7522211 0.5641781
0.4722580 0.7639013 0.5729574
0.5696321 0.7918742 0.6107857
0.6923625 0.8398393 0.6823579
0.8140314 0.8960968 0.7558624
0.9109022 0.9412523 0.7998606
1.0000000 0.9799583 0.8294812
0.3455863 0.8390336 0.6009269
0.4127387 0.8534586 0.6019687
0.4800987 0.8690408 0.6081714
0.5525609 0.8903638 0.6282599
0.6382863 0.9251445 0.6695017
0.7408399 0.9792022 0.7341149
0.8525489 1.0000000 0.8163459
0.9538607 1.0000000 0.8945728
1.0000000 1.0000000 0.9594430
0.0000000 0.1569644 0.5618207
0.0000000 0.1735590 0.5679059
0.0551574 0.1465173 0.5180549
0.1195476 0.0947230 0.4216085
0.2116614 0.0646434 0.3718832
0.3283988 0.0516323 0.3775573
0.4680327 0.0506008 0.4173448
0.6278897 0.0579506 0.4768338
0.7951063 0.0688363 0.5427875
0.0000000 0.2240298 0.5385041
0.0204194 0.2188883 0.5340138
0.0822296 0.1896449 0.4980457
0.1496819 0.1466705 0.4412564
0.2409058 0.1178041 0.4087789
0.3642768 0.1170300 0.4226269
0.5132027 0.1371784 0.4677410
0.6739639 0.1634823 0.5239128
0.8365405 0.1898828 0.5810346
0.0000000 0.3112234 0.5433679
0.0554473 0.2823949 0.5178815
0.1201088 0.2559045 0.5008687
0.1868303 0.2160235 0.4696739
0.2783807 0.1890433 0.4541489
0.4103588 0.2009823 0.4812067
0.5645287 0.2353995 0.5275929
0.7196369 0.2712528 0.5721662
0.8707301 0.3039499 0.6120557
0.0289769 0.3578937 0.4929318
0.1064351 0.3710726 0.5300191
0.1853176 0.3641191 0.5389645
0.2587744 0.3457719 0.5433621
0.3494873 0.3234266 0.5454248
0.4764175 0.3240926 0.5639300
0.6201466 0.3498920 0.5949721
0.7585919 0.3807217 0.6177245
0.8953147 0.4113618 0.6353366
0.0652760 0.4381604 0.4950669
0.1795704 0.4858875 0.5812397
0.2231497 0.4501231 0.5515724
0.3588703 0.5441562 0.6771557
0.4632124 0.5266855 0.6837280
0.5628380 0.4862551 0.6631369
0.6701896 0.4760077 0.6580072
0.7863492 0.4919456 0.6587471
0.9150854 0.5235755 0.6638019
0.1901818 0.6358254 0.6643264
0.2415853 0.5849287 0.6229452
0.2616285 0.5919689 0.6601528
0.3017612 0.5480923 0.6181654
0.5595231 0.6924319 0.7686785
0.6588877 0.6672459 0.7625853
0.7065748 0.6033122 0.7110358
0.8161267 0.6181875 0.7098811
0.9295997 0.6525583 0.7103354
0.3161615 0.7233615 0.7003534
0.3141575 0.6959087 0.6748976
0.3396347 0.6814022 0.6644179
0.4109978 0.6833346 0.6685146
0.5344832 0.7120522 0.7053097
0.6522040 0.7361295 0.7493743
0.7872867 0.7720573 0.8009109
0.8640892 0.7758592 0.7945535
0.9382714 0.7946020 0.7770277
0.3938131 0.8234760 0.7446862
0.4081368 0.8115685 0.7253434
0.4386602 0.8038825 0.7101880
0.4968392 0.8086439 0.7129054
0.5828148 0.8260877 0.7373853
0.7038743 0.8659566 0.7935279
0.8341029 0.9181834 0.8654024
0.9190034 0.9463972 0.8936929
0.9722216 0.9499205 0.8757989
0.4774096 0.9286205 0.7929610
0.5085002 0.9302057 0.7784529
0.5431567 0.9332806 0.7689755
0.5913481 0.9423123 0.7727069
0.6659261 0.9666719 0.8003112
0.7649246 1.0000000 0.8515957
0.8677056 1.0000000 0.9096159
0.9583282 1.0000000 0.9596247
1.0000000 1.0000000 0.9999010
0.0637241 0.3204825 0.7514362
0.0942976 0.3052747 0.7438139
0.1171034 0.2408399 0.6868028
0.1582673 0.1557083 0.5990718
0.2281788 0.0889073 0.5283981
0.3236798 0.0490070 0.4943483
0.4414091 0.0293174 0.4976539
0.5736478 0.0191103 0.5224378
0.7101724 0.0111593 0.5531500
0.0221892 0.3507792 0.7204293
0.0854873 0.3326530 0.7033580
0.1345744 0.2819332 0.6590715
0.1937645 0.2221347 0.6045976
0.2741853 0.1762666 0.5656915
0.3766837 0.1523829 0.5548221
0.4969830 0.1438978 0.5662160
0.6277245 0.1414560 0.5878651
0.7622657 0.1404023 0.6124892
0.0221854 0.4398031 0.7395997
0.0947186 0.3890018 0.6855677
0.1627248 0.3411613 0.6447818
0.2391596 0.3040483 0.6221206
0.3285363 0.2783583 0.6147286
0.4350415 0.2664944 0.6225702
0.5551344 0.2640978 0.6377043
0.6817497 0.2650945 0.6532217
0.8100828 0.2662446 0.6675270
0.0410121 0.5504908 0.7759608
0.1214903 0.4541526 0.6713905
0.2059838 0.4187172 0.6452261
0.2988979 0.4146325 0.6628210
0.3964057 0.4117486 0.6883763
0.5031927 0.4012347 0.7025406
0.6168118 0.3936838 0.7113231
0.7320394 0.3895448 0.7144475
0.8483511 0.3871621 0.7144760
0.0254335 0.5113974 0.6394900
0.1741690 0.5325701 0.6843321
0.2652303 0.5169474 0.6776633
0.3416409 0.5325905 0.7139964
0.4650181 0.5618381 0.7683702
0.5814071 0.5559940 0.7889406
0.6788384 0.5311200 0.7816467
0.7749522 0.5142021 0.7676654
0.8752677 0.5057474 0.7542543
0.1217090 0.5605934 0.6474955
0.2517651 0.6146784 0.7169003
0.3178246 0.6375131 0.7621002
0.3819733 0.6405185 0.7646647
0.4850885 0.6530618 0.7836063
0.6446163 0.7001924 0.8549815
0.7322964 0.6666563 0.8392396
0.8138983 0.6430445 0.8167728
0.8922097 0.6272654 0.7915955
0.3675037 0.7580126 0.8178555
0.3555403 0.7431128 0.8018519
0.3750514 0.7392713 0.8015148
0.4359943 0.7458320 0.8133345
0.5379725 0.7581772 0.8287613
0.6660300 0.7910149 0.8668617
0.7882443 0.8039665 0.8947596
0.8562965 0.7833477 0.8721295
0.9078201 0.7556183 0.8347160
0.5223270 0.9016252 0.9207805
0.4907194 0.8830339 0.8930426
0.4885463 0.8721535 0.8751279
0.5315029 0.8739245 0.8747453
0.6141428 0.8861725 0.8872192
0.7295822 0.9119596 0.9149429
0.8505198 0.9405137 0.9513910
0.9129343 0.9307937 0.9379295
0.9508155 0.9034082 0.9031814
0.6462073 1.0000000 1.0000000
0.6245007 1.0000000 0.9754276
0.6148420 1.0000000 0.9515404
0.6366675 1.0000000 0.9402332
0.6993580 1.0000000 0.9473112
0.7898193 1.0000000 0.9665344
0.8822121 1.0000000 0.9837819
0.9635795 1.0000000 0.9963813
1.0000000 1.0000000 0.9993032
0.3580179 0.5665267 0.9461759
0.2238210 0.4328577 0.9050949
0.1799865 0.3243531 0.8485539
0.1960837 0.2200239 0.7733527
0.2451732 0.1219031 0.6893434
0.3211406 0.0498932 0.6216255
0.4156437 0.0060216 0.5829393
0.5182766 0.0000000 0.5660095
0.6227360 0.0000000 0.5570377
0.1765125 0.5363199 0.9179101
0.1745527 0.4594304 0.8745205
0.1956821 0.3811390 0.8239033
0.2445174 0.3071365 0.7740209
0.3131335 0.2438611 0.7304597
0.3937321 0.1923288 0.6943844
0.4839595 0.1517987 0.6686209
0.5818873 0.1191313 0.6523924
0.6838220 0.0899825 0.6409641
0.1155651 0.5949659 0.9342215
0.1476426 0.5042784 0.8554094
0.2075644 0.4326574 0.7948628
0.2897160 0.3914222 0.7729644
0.3780227 0.3646911 0.7707543
0.4636219 0.3333941 0.7650825
0.5510170 0.2970020 0.7521541
0.6447092 0.2610128 0.7368852
0.7430919 0.2268016 0.7224024
0.1177606 0.6972131 0.9738993
0.1448432 0.5608687 0.8417502
0.2244718 0.4853307 0.7724192
0.3244136 0.4679933 0.7704219
0.4253369 0.4722584 0.7997050
0.5226389 0.4674075 0.8264626
0.6152536 0.4413577 0.8298984
0.7057739 0.4028241 0.8151778
0.7955104 0.3604704 0.7941534
0.0688429 0.7129141 0.9166718
0.1591577 0.6082073 0.8237017
0.2661032 0.5607150 0.7823284
0.3539041 0.5480365 0.7787105
0.4481421 0.5642832 0.8178387
0.5667225 0.5899795 0.8737528
0.6772673 0.5837055 0.8964199
0.7627951 0.5425704 0.8796158
0.8348527 0.4872018 0.8460162
0.0000000 0.6567443 0.8035144
0.2525432 0.6919686 0.8599562
0.3305768 0.6752864 0.8423724
0.3943692 0.6657654 0.8384484
0.4863494 0.6815430 0.8717552
0.6197456 0.7152824 0.9215402
0.7403756 0.7206881 0.9452665
0.8109400 0.6721943 0.9184163
0.8634966 0.6056794 0.8752118
0.4596604 0.8378489 0.9780904
0.4090974 0.8237675 0.9581776
0.4242616 0.8228706 0.9527450
0.4758648 0.8178356 0.9493236
0.5637305 0.8255982 0.9603840
0.6962529 0.8509265 0.9829985
0.7998153 0.8413943 0.9723014
0.8557050 0.7884076 0.9324481
0.8966187 0.7262914 0.8973371
0.6726633 0.9833250 1.0000000
0.5835765 0.9618198 1.0000000
0.5467993 0.9519082 1.0000000
0.5745766 0.9509924 1.0000000
0.6527444 0.9571316 1.0000000
0.7580469 0.9643164 1.0000000
0.8503082 0.9483827 1.0000000
0.9122140 0.9091910 0.9624283
0.9481530 0.8615660 0.9307547
0.8287977 1.0000000 1.0000000
0.7489604 1.0000000 1.0000000
0.6897006 1.0000000 1.0000000
0.6847882 1.0000000 1.0000000
0.7356475 1.0000000 1.0000000
0.8146269 1.0000000 1.0000000
0.8985897 1.0000000 1.0000000
0.9665905 1.0000000 1.0000000
1.0000000 1.0000000 0.9775396
