catalog/styles/film/film-grain/look.cube
# film-grain iteration 5
LUT_3D_SIZE 5
DOMAIN_MIN 0 0 0
DOMAIN_MAX 1 1 1
0.1947406 0.1756297 0.1854130
0.2539855 0.1053568 0.1124079
0.3850151 0.0000000 0.0000000
0.7101667 0.0000000 0.0000000
0.9439644 0.0000000 0.0000000
0.0730210 0.1248178 0.0438597
0.0690210 0.0559634 0.0331510
0.3718393 0.1609125 0.0000000
0.5876741 0.1626225 0.0169597
0.9192637 0.1757059 0.0287656
0.1364590 0.2907469 0.0000000
0.2287197 0.3138619 0.0513486
0.3402178 0.3157073 0.0813193
0.6636392 0.4012058 0.0976273
0.8884786 0.4044898 0.1251183
0.1128075 0.4129458 0.0000000
0.2531653 0.4557961 0.0000000
0.4028548 0.5027783 0.0136304
0.6961145 0.6551181 0.0838068
1.0000000 0.8055608 0.1514127
0.0428209 0.5036338 0.0000000
0.2459189 0.5805380 0.0000000
0.4923469 0.7218489 0.0000000
0.7878842 0.9577901 0.1294333
1.0000000 1.0000000 0.3048611
0.0889798 0.0915692 0.1973378
0.0915741 0.0556302 0.0985147
0.2699395 0.0179910 0.0494224
0.7128064 0.0266911 0.1094828
0.9488769 0.1553254 0.2438181
0.0337566 0.1384207 0.0730860
0.0878215 0.0865323 0.0784620
0.2613229 0.0947223 0.0893866
0.6067020 0.1915631 0.1666422
0.9196634 0.2880324 0.2830301
0.0404331 0.2770982 0.0758081
0.2183361 0.3171722 0.1187413
0.3454812 0.3153523 0.1498608
0.5993525 0.3805281 0.2279167
0.8865934 0.4446064 0.3324772
0.1100554 0.4824377 0.1320673
0.2819252 0.5191024 0.1726380
0.4519549 0.5599283 0.2291478
0.6867969 0.6541641 0.3268613
0.9719538 0.7825966 0.4521359
0.1399281 0.6435241 0.1563826
0.3353085 0.7098564 0.2044542
0.5644624 0.8229803 0.2916091
0.8201803 0.9963473 0.4330424
1.0000000 1.0000000 0.5972065
0.0000000 0.0609771 0.3196963
0.0015094 0.0234100 0.1901137
0.1853323 0.0430943 0.1379633
0.5459031 0.0688489 0.2771543
0.9411596 0.1746316 0.4625415
0.0000000 0.1320495 0.1819359
0.1219364 0.1760033 0.2782129
0.2461885 0.0990154 0.2058701
0.6183986 0.2103314 0.3338393
0.9266470 0.3431781 0.4839051
0.0639347 0.3639119 0.3050212
0.2052067 0.3733067 0.3420477
0.3747100 0.3601464 0.3564650
0.6550474 0.4262249 0.4134320
0.9344798 0.5066112 0.5000865
0.1807880 0.6113710 0.4199407
0.3049215 0.5979911 0.3959261
0.5023218 0.6363417 0.4478956
0.7497568 0.7248544 0.5794142
0.9852459 0.8029779 0.6268920
0.2549272 0.7671594 0.4375282
0.4265900 0.8156387 0.4694191
0.6155551 0.8928666 0.5491648
0.8385201 1.0000000 0.7027883
1.0000000 1.0000000 0.8753615
0.0000000 0.1569644 0.5618207
0.0551574 0.1465173 0.5180549
0.2116614 0.0646434 0.3718832
0.4680327 0.0506008 0.4173448
0.7951063 0.0688363 0.5427875
0.0000000 0.3112234 0.5433679
0.1201088 0.2559045 0.5008687
0.2783807 0.1890433 0.4541489
0.5645287 0.2353995 0.5275929
0.8707301 0.3039499 0.6120557
0.0652760 0.4381604 0.4950669
0.2231497 0.4501231 0.5515724
0.4632124 0.5266855 0.6837280
0.6701896 0.4760077 0.6580072
0.9150854 0.5235755 0.6638019
0.3161615 0.7233615 0.7003534
0.3396347 0.6814022 0.6644179
0.5344832 0.7120522 0.7053097
0.7872867 0.7720573 0.8009109
0.9382714 0.7946020 0.7770277
0.4774096 0.9286205 0.7929610
0.5431567 0.9332806 0.7689755
0.6659261 0.9666719 0.8003112
0.8677056 1.0000000 0.9096159
1.0000000 1.0000000 0.9999010
0.3580179 0.5665267 0.9461759
0.1799865 0.3243531 0.8485539
0.2451732 0.1219031 0.6893434
0.4156437 0.0060216 0.5829393
0.6227360 0.0000000 0.5570377
0.1155651 0.5949659 0.9342215
0.2075644 0.4326574 0.7948628
0.3780227 0.3646911 0.7707543
0.5510170 0.2970020 0.7521541
0.7430919 0.2268016 0.7224024
0.0688429 0.7129141 0.9166718
0.2661032 0.5607150 0.7823284
0.4481421 0.5642832 0.8178387
0.6772673 0.5837055 0.8964199
0.8348527 0.4872018 0.8460162
0.4596604 0.8378489 0.9780904
0.4242616 0.8228706 0.9527450
0.5637305 0.8255982 0.9603840
0.7998153 0.8413943 0.9723014
0.8966187 0.7262914 0.8973371
0.8287977 1.0000000 1.0000000
0.6897006 1.0000000 1.0000000
0.7356475 1.0000000 1.0000000
0.8985897 1.0000000 1.0000000
1.0000000 1.0000000 0.9775396
