catalog/styles/series/late-summer/series-late-summer-neutral/look.cube
# series-late-summer-neutral tuned
LUT_3D_SIZE 9
DOMAIN_MIN 0 0 0
DOMAIN_MAX 1 1 1
0.1024956 0.1057458 0.1068884
0.2048257 0.1720260 0.1478427
0.4433891 0.1280376 0.0017238
0.8075622 0.1678235 0.0884801
0.8675452 0.1197667 0.0262693
0.8284804 0.1200028 0.0164267
0.8233183 0.1173617 0.0231338
0.8431767 0.1388136 0.0287211
0.9847498 0.0969023 0.0240550
0.1565918 0.1621838 0.1056981
0.3338399 0.3025242 0.1852125
0.3126448 0.1890212 0.1473510
0.5748468 0.1940611 0.0915565
0.5939793 0.2282547 0.1088952
0.6865914 0.2392011 0.0629978
0.7502087 0.2372505 0.0653284
0.8044537 0.2530251 0.0842501
0.9284093 0.2082625 0.0467938
0.2038566 0.2281625 0.1390393
0.5432530 0.3714517 0.1891217
0.4817781 0.2879687 0.1511003
0.6378909 0.2136812 0.0361082
0.6078865 0.1769086 0.0650611
0.6609454 0.1829143 0.0805924
0.7332359 0.2098955 0.0693627
0.8020740 0.2954467 0.1089499
0.9316302 0.3119170 0.0859372
0.3305695 0.3998089 0.2010693
0.3409180 0.3489321 0.1584173
0.6159105 0.4279295 0.1109096
0.7164720 0.4754296 0.1583930
0.5480841 0.3048644 0.0901946
0.6644434 0.2961006 0.0845202
0.8212207 0.3354084 0.0480491
0.8707770 0.3994932 0.0953033
0.9379887 0.5005911 0.1686739
0.3610646 0.4619120 0.1802341
0.3508592 0.4776301 0.1611362
0.3135913 0.4093495 0.1541626
0.4075103 0.4267374 0.1488168
0.4703600 0.3999453 0.1332177
0.6189551 0.4321420 0.1242965
0.7162375 0.4129702 0.0576598
0.8185158 0.4475664 0.1228351
0.8922239 0.4576430 0.0861984
0.2331154 0.4946894 0.1759560
0.2255371 0.5127880 0.1128121
0.2613256 0.4888035 0.1240182
0.3405680 0.4416932 0.1268470
0.4457063 0.4418796 0.1164422
0.5380331 0.4597736 0.1341179
0.6831851 0.5230419 0.1533896
0.7795202 0.5322652 0.1342579
0.8976022 0.5371863 0.1376745
0.1727648 0.6158830 0.1948093
0.1649162 0.6390546 0.1194521
0.2101181 0.6081490 0.1073814
0.3461727 0.5542197 0.1106941
0.4601982 0.5208596 0.1130256
0.5453545 0.5415183 0.1217748
0.6106766 0.5439037 0.1519688
0.7781524 0.6426923 0.2391010
0.9185233 0.6689413 0.2722273
0.1697882 0.8267990 0.2458410
0.1656587 0.8316821 0.1627158
0.2209817 0.8198665 0.1386768
0.3984651 0.7850731 0.1394906
0.5556882 0.7479940 0.1361843
0.6387531 0.7335093 0.1328835
0.7352917 0.7455239 0.1470349
0.7926180 0.7323116 0.2363271
0.9565852 0.8141820 0.3966508
0.1843675 0.9577337 0.2807642
0.1830385 0.9601726 0.1988900
0.2329609 0.9562626 0.1641619
0.4263231 0.9364739 0.1686414
0.6092878 0.9100785 0.1700545
0.7075508 0.8954118 0.1670382
0.8043070 0.8923418 0.1753367
0.9059463 0.9076472 0.2497346
0.9938456 0.9121461 0.5014131
0.1407212 0.1375674 0.1802453
0.1601286 0.1823485 0.2296898
0.1509701 0.0856631 0.0981840
0.4026294 0.1509627 0.1383592
0.5296412 0.1696968 0.1424004
0.6099560 0.1482658 0.1148828
0.6967753 0.1438674 0.0972528
0.7799495 0.0891027 0.0271268
0.8527717 0.0401611 0.0017618
0.1445483 0.1534596 0.1738342
0.1611998 0.2365037 0.2882395
0.1856020 0.1783838 0.1937318
0.2046037 0.1721458 0.1600695
0.4079831 0.1669907 0.1306091
0.4818581 0.1485342 0.0843212
0.5648683 0.1392104 0.0558362
0.6821746 0.1350145 0.0304770
0.8237451 0.1316309 0.0036919
0.1662097 0.2437189 0.2550358
0.1820420 0.1839761 0.1532265
0.2073332 0.2136067 0.1918063
0.4265683 0.2102958 0.1558682
0.4994015 0.2056438 0.1292400
0.5386112 0.2002004 0.1180450
0.5831942 0.2013294 0.1038687
0.6518674 0.2107598 0.0841517
0.7904046 0.2298531 0.0492490
0.2518070 0.3389253 0.2161668
0.2496303 0.2919470 0.1805460
0.5328067 0.3943682 0.1790054
0.5670153 0.3955052 0.1950312
0.5161487 0.2945928 0.1733488
0.5451581 0.2903301 0.1804932
0.6238108 0.2379881 0.0908600
0.6837402 0.2406917 0.0748529
0.8529043 0.3210922 0.0725031
0.2223820 0.3619868 0.1681382
0.3365626 0.3852893 0.1887984
0.3261375 0.3807813 0.1926075
0.3908245 0.3829976 0.2144365
0.4444789 0.3649785 0.2076354
0.5171698 0.3627211 0.1724179
0.6447008 0.3847993 0.1647663
0.7452739 0.3866774 0.1505868
0.8786367 0.4146198 0.1301219
0.2397693 0.4357957 0.2432782
0.3128556 0.4743553 0.2406515
0.2786888 0.4612860 0.1926995
0.3443673 0.4124363 0.2419363
0.4239718 0.4331952 0.2393288
0.4990236 0.4430021 0.2406204
0.6019755 0.4751347 0.2229240
0.7278561 0.5161125 0.2646895
0.9446052 0.5630855 0.2788207
0.1717593 0.5911625 0.2687491
0.2356814 0.6301528 0.2650341
0.2113320 0.6100464 0.1889799
0.3358651 0.5663364 0.1828102
0.4126511 0.4967449 0.1661789
0.5008580 0.5177784 0.1856672
0.5973041 0.5443233 0.2300201
0.7329459 0.6151571 0.3346938
0.9396775 0.6977302 0.4977055
0.1730563 0.8209399 0.3338755
0.2319228 0.8267688 0.3137340
0.2327403 0.8201145 0.2393824
0.3790168 0.7905347 0.2107169
0.5348650 0.7467234 0.2023246
0.6158217 0.7262171 0.1941318
0.7229408 0.7442447 0.2138861
0.7865125 0.7336012 0.3142740
0.9989263 0.8522401 0.6198333
0.1880237 0.9519010 0.3714859
0.2496640 0.9546674 0.3518172
0.2587767 0.9547387 0.2805055
0.4060465 0.9391594 0.2423992
0.5901512 0.9097254 0.2419979
0.6891673 0.8914474 0.2375568
0.7893139 0.8880223 0.2472574
0.9052360 0.9154309 0.3329957
0.9932697 0.9301501 0.6350215
0.1478970 0.1509532 0.2702197
0.1319501 0.1793247 0.2004994
0.1113273 0.1172423 0.1327140
0.2257678 0.1106535 0.1408641
0.4155102 0.1251172 0.1686178
0.5078375 0.1288648 0.1707820
0.5806228 0.1317159 0.1744042
0.6664402 0.1329951 0.1670693
0.9956364 0.0557009 0.0012937
0.0875169 0.1114392 0.1410787
0.2377671 0.2774397 0.3188784
0.2263824 0.1996227 0.2256644
0.3895422 0.1808094 0.1950705
0.4727499 0.1968715 0.2038742
0.5193815 0.1706471 0.1686870
0.5781549 0.1697772 0.1637762
0.6345367 0.1520094 0.1286419
0.8037678 0.1000199 0.0388954
0.1485485 0.2292965 0.2421435
0.1430561 0.2086104 0.2279763
0.1388690 0.2031856 0.2286731
0.2509911 0.2129846 0.2070284
0.3685836 0.1936900 0.1917408
0.5323604 0.1995465 0.1905676
0.5144250 0.1818898 0.1621484
0.5919712 0.1809986 0.1238067
0.8330629 0.1694733 0.0317700
0.1967418 0.2640870 0.2416275
0.2312086 0.2506823 0.2227634
0.2243288 0.2503291 0.2394947
0.2894968 0.2625186 0.2456509
0.3373861 0.2417319 0.2076031
0.4268343 0.2535572 0.1988891
0.5312554 0.2490260 0.1725116
0.7348696 0.2488326 0.0802473
0.8280989 0.2758738 0.1060669
0.2114555 0.3525302 0.2391492
0.2406788 0.3387999 0.2160575
0.2282951 0.3226480 0.2464349
0.3089049 0.3401199 0.2315588
0.3940598 0.3388706 0.2103824
0.5622869 0.3816553 0.1959841
0.6373538 0.3768130 0.1896941
0.7185763 0.3821317 0.1779243
0.7866860 0.3605276 0.1444724
0.1457481 0.3789413 0.1983874
0.1940455 0.4081565 0.2020413
0.2260808 0.4105711 0.2060182
0.2899982 0.4068735 0.1818580
0.3827544 0.4036274 0.1804402
0.4701763 0.4189250 0.2042485
0.5724643 0.4458599 0.2028704
0.7364034 0.4969200 0.2263890
0.8593030 0.5130086 0.2306105
0.1521603 0.5735889 0.3029732
0.2074616 0.5836234 0.2987311
0.2196550 0.5330547 0.2565633
0.2693662 0.5130478 0.1928244
0.3702863 0.4782254 0.1772747
0.4536512 0.4908723 0.1842355
0.5544960 0.5085264 0.2261629
0.7102231 0.5870839 0.3248386
0.8818211 0.6516364 0.3844746
0.1813477 0.8133925 0.4125796
0.2332848 0.8163796 0.3961342
0.2793794 0.8027429 0.3696190
0.3445632 0.7752146 0.2680205
0.4849611 0.7151479 0.2447236
0.5479582 0.6746182 0.2213880
0.6588051 0.6917442 0.2397572
0.7546171 0.7097545 0.3499773
0.9709006 0.8326033 0.6644209
0.1959092 0.9425287 0.4543821
0.2537899 0.9464959 0.4407001
0.3118185 0.9454504 0.4211659
0.3856304 0.9380384 0.3169320
0.5644073 0.9037417 0.3115102
0.6580711 0.8758625 0.3012499
0.7592924 0.8693686 0.3100729
0.8866442 0.9052864 0.4055567
0.9906039 0.9668287 0.8023112
0.1740997 0.1483354 0.2829052
0.1483829 0.1719688 0.1949066
0.1304682 0.1568219 0.1604709
0.1402767 0.1194387 0.1349853
0.3138459 0.0852298 0.1840834
0.5090528 0.0800167 0.2407838
0.6381412 0.0936420 0.2667812
0.7440506 0.1113309 0.2814850
0.8617421 0.1735927 0.3152587
0.1441819 0.2332258 0.2686070
0.2093264 0.2294987 0.2623324
0.1647808 0.1818980 0.2012505
0.1991840 0.1448700 0.1664643
0.3903095 0.1341105 0.2092585
0.5703169 0.1628931 0.2586781
0.6763919 0.1753084 0.2671356
0.7598068 0.1893096 0.2846529
0.8706433 0.2336680 0.3084689
0.1794154 0.1922445 0.1994498
0.2638077 0.2280144 0.2572813
0.1990584 0.1701376 0.1776519
0.2214243 0.1642200 0.1760316
0.4029716 0.1683738 0.2038293
0.5808118 0.2064347 0.2482377
0.6794035 0.2189738 0.2601453
0.7324712 0.2431482 0.2854525
0.9109036 0.3023990 0.3098739
0.2078628 0.2965167 0.3035050
0.2095639 0.2698855 0.2880194
0.2333319 0.2690227 0.2888646
0.2370409 0.2393679 0.2577219
0.3881550 0.2736469 0.2656495
0.4667915 0.2650228 0.2520241
0.6172464 0.2965687 0.2639836
0.6803911 0.3250895 0.2902152
0.9937461 0.1469619 0.1000263
0.1624964 0.2925253 0.2832525
0.2387914 0.3044191 0.2689784
0.2584638 0.3141329 0.2686983
0.3556163 0.3685787 0.2886847
0.4073219 0.3405831 0.2667595
0.4504664 0.3574462 0.3038817
0.5449435 0.3511206 0.2587768
0.6758812 0.3978734 0.2721810
0.8710319 0.3846550 0.2215161
0.2927329 0.4092606 0.3748472
0.2965915 0.4551522 0.3637204
0.3467387 0.4618198 0.3863718
0.4128116 0.4632024 0.3808198
0.4269250 0.4138783 0.3164584
0.4752198 0.4255036 0.2892052
0.6100196 0.4793692 0.3257132
0.7183960 0.5151857 0.3604798
0.8485042 0.4900526 0.3157414
0.2409541 0.6096364 0.4422768
0.2623537 0.6172285 0.4265768
0.2882995 0.5919516 0.4065543
0.3594000 0.5675371 0.3619458
0.4035484 0.4923026 0.3019667
0.4240403 0.4509733 0.2774772
0.5411368 0.5038358 0.3395593
0.6692750 0.5574232 0.3984288
0.9384272 0.6206421 0.3644558
0.2111997 0.8011917 0.5076096
0.2556291 0.8044446 0.4967848
0.3004064 0.7963727 0.4818821
0.3958792 0.7816983 0.4262965
0.4814586 0.7220927 0.3530998
0.4974731 0.6297093 0.2965104
0.5651626 0.6073675 0.2807626
0.7026059 0.6669994 0.3829549
0.9144129 0.7645241 0.2756681
0.2141337 0.9251811 0.5462566
0.2670192 0.9301258 0.5391667
0.3214810 0.9320144 0.5290296
0.4345341 0.9333714 0.4799862
0.5472197 0.9076286 0.4146381
0.6348582 0.8690871 0.4000415
0.7272329 0.8495857 0.3999933
0.8598068 0.8891493 0.4805847
0.9752661 0.9607083 0.8346170
0.1523488 0.1359566 0.2227899
0.1547329 0.1586997 0.2283499
0.1284721 0.1564238 0.1578814
0.1336039 0.1163943 0.1327362
0.2492644 0.0883380 0.2033008
0.4680121 0.0678105 0.3040502
0.6349641 0.0756194 0.3584238
0.7598353 0.0956352 0.3895126
0.8473223 0.1139448 0.4010245
0.1351239 0.1802703 0.2123512
0.1880397 0.1988746 0.2520296
0.1622711 0.1726748 0.2304436
0.1838046 0.1370670 0.1942921
0.3283338 0.1151148 0.2485571
0.5284133 0.1383329 0.3378435
0.6797635 0.1602948 0.3816171
0.7811897 0.1809865 0.4040703
0.8575281 0.2041105 0.4198787
0.1096698 0.1870801 0.2423262
0.1818061 0.1579938 0.1898221
0.1864787 0.1679646 0.1816668
0.2164901 0.1627262 0.2105316
0.3271450 0.1416507 0.2539547
0.5172625 0.1628596 0.3131811
0.6890859 0.2252571 0.3806383
0.7909210 0.2706764 0.4210364
0.8667059 0.3343679 0.4709094
0.1707415 0.3488500 0.4103809
0.1846219 0.2215009 0.2674936
0.2789233 0.1991549 0.2557986
0.3272701 0.2192598 0.2788490
0.3700840 0.2161046 0.2763375
0.5244278 0.2563900 0.3188217
0.6870091 0.3434108 0.3929618
0.7521073 0.3800628 0.4266264
0.8492733 0.4547383 0.4934822
0.3445328 0.4484889 0.4456053
0.3464747 0.3924724 0.3940236
0.3646086 0.4101665 0.4064326
0.5888751 0.4997338 0.4951566
0.4480401 0.3869974 0.3717255
0.5328865 0.3992953 0.3808396
0.6607039 0.4276465 0.4048039
0.7559519 0.4605673 0.4151063
0.9182266 0.4554245 0.4376467
0.2375884 0.4364682 0.4253947
0.3342494 0.4391681 0.4091417
0.3058027 0.3976091 0.3679419
0.4239388 0.4497298 0.4326875
0.6117623 0.5787643 0.5377138
0.5582953 0.4944449 0.4283963
0.6040251 0.5038554 0.4305245
0.7544799 0.5338049 0.3931183
0.8851415 0.5257890 0.4365212
0.3458708 0.5549613 0.5198002
0.3415925 0.5943271 0.5082644
0.3550096 0.5664957 0.4814828
0.4530965 0.5571096 0.4909298
0.5380754 0.5847011 0.5071347
0.6454628 0.6544224 0.6104222
0.7254435 0.7020215 0.6443524
0.7009585 0.5955486 0.4864296
0.8807526 0.6499446 0.5015283
0.2638838 0.7763310 0.5879387
0.2973634 0.7812279 0.5806064
0.3426483 0.7752430 0.5738818
0.4604592 0.7712616 0.5676826
0.5376279 0.7583810 0.5081720
0.5835962 0.6967647 0.4907422
0.6057512 0.6399686 0.4524286
0.7143143 0.6850019 0.5181130
0.9522511 0.8145421 0.6838988
0.2420117 0.9022497 0.6243209
0.2884259 0.9061869 0.6205725
0.3406658 0.9085906 0.6177630
0.4663905 0.9180047 0.6104054
0.5522808 0.9169583 0.5342225
0.6426266 0.8841388 0.5285704
0.7289634 0.8557810 0.5268395
0.8572804 0.8909415 0.5926295
0.9762642 0.9702728 0.8300561
0.1257681 0.1497494 0.2126506
0.1601405 0.1591696 0.3020671
0.1218636 0.1430859 0.1740473
0.1325553 0.0987216 0.1480705
0.2503231 0.0688032 0.2483280
0.4171124 0.0548258 0.3499035
0.6143830 0.0769596 0.4469648
0.7519784 0.0970040 0.4932487
0.8289647 0.1048893 0.4962598
0.1127987 0.1594863 0.2412945
0.1733998 0.2014884 0.3194009
0.1326975 0.1472116 0.2950844
0.1953903 0.1239795 0.2638021
0.3476577 0.1119694 0.3434946
0.4978602 0.1307672 0.4177368
0.6627137 0.1642927 0.4865896
0.7764095 0.1766847 0.5118070
0.8546445 0.1860961 0.5176821
0.2054021 0.2521049 0.3153448
0.1689551 0.1755022 0.2635357
0.1716311 0.1679877 0.2484889
0.2123895 0.1492485 0.2754249
0.3219514 0.1289546 0.3294761
0.4859475 0.1660792 0.4107246
0.6772876 0.2390699 0.5037429
0.7804773 0.2529852 0.5213646
0.8589092 0.2713878 0.5343613
0.1269060 0.3066333 0.3637720
0.2258686 0.2143717 0.3035800
0.2196905 0.2285599 0.3187423
0.2653582 0.2170792 0.3245362
0.3035004 0.1985983 0.3339517
0.4645137 0.2458576 0.4023706
0.6574797 0.3292102 0.4848469
0.7593457 0.3762448 0.5191674
0.8399866 0.4147814 0.5500886
0.1944117 0.4803348 0.5206498
0.4224246 0.4309901 0.4820984
0.4626283 0.4703275 0.5243551
0.2220243 0.3289069 0.4099188
0.4800501 0.4021177 0.4744802
0.5305761 0.3872286 0.4453522
0.6747456 0.4338960 0.4970949
0.7601248 0.4844361 0.5324404
0.8410588 0.5287614 0.5680145
0.5199836 0.6521557 0.6745977
0.7374604 0.7561623 0.7926318
0.6671294 0.7100953 0.7448732
0.5075579 0.5566667 0.5604806
0.5774733 0.5494820 0.5470826
0.6001687 0.5516090 0.5430040
0.6602261 0.5460426 0.5486498
0.7659231 0.5909566 0.6070780
0.8921824 0.5576630 0.5733388
0.3081973 0.5488204 0.5449730
0.4151743 0.6277268 0.6021921
0.4444342 0.5987319 0.5761432
0.4957321 0.5457770 0.5385487
0.5664335 0.5822293 0.5833862
0.7472760 0.7518997 0.7375501
0.9406656 0.9088377 0.9130135
0.7412215 0.6377133 0.5936896
0.8787020 0.6535727 0.6053628
0.3187285 0.7546429 0.6595102
0.3398370 0.7626715 0.6557851
0.3961420 0.7517478 0.6542748
0.5168632 0.7278960 0.6557594
0.6297795 0.7210801 0.6749499
0.6356736 0.7069786 0.6430774
0.6827046 0.6952910 0.6431414
0.7576424 0.7316153 0.6572890
0.9004181 0.7943177 0.7083140
0.2708873 0.8786184 0.6924225
0.3104406 0.8793849 0.6893289
0.3624614 0.8786408 0.6904119
0.4862037 0.8829725 0.6984371
0.6212703 0.8991349 0.7106812
0.6614270 0.8911469 0.6666757
0.7517847 0.8700236 0.6759076
0.8741197 0.8996405 0.7271303
0.9918169 0.9788087 0.9510198
0.1280681 0.1544916 0.1630193
0.1780656 0.1807309 0.4018505
0.1220849 0.1211632 0.2308192
0.1680838 0.0907226 0.2446158
0.2805289 0.0731083 0.3208621
0.4232787 0.0640831 0.4339021
0.5745906 0.0882515 0.5132082
0.7466961 0.1154515 0.5934365
0.8214614 0.1203198 0.5996533
0.1859887 0.1769015 0.4328554
0.1871506 0.2300821 0.4397331
0.1412379 0.1598128 0.4243114
0.2413582 0.1423423 0.4044785
0.3848699 0.1369151 0.4558124
0.5317040 0.1545517 0.5455780
0.6454536 0.1735786 0.5774107
0.7686441 0.1887347 0.6130540
0.8530468 0.1917702 0.6210848
0.1888978 0.2426851 0.3495109
0.1455518 0.2038346 0.3790449
0.1497842 0.1798369 0.3585668
0.2200702 0.1485504 0.3925054
0.3612562 0.1564767 0.4441734
0.5158560 0.1935238 0.5387012
0.6549708 0.2418271 0.5921952
0.7747341 0.2612878 0.6228740
0.8524216 0.2644231 0.6268643
0.2043902 0.3041712 0.4371731
0.1762879 0.2894741 0.4221138
0.1780600 0.2598280 0.3988473
0.2526025 0.2487362 0.4194011
0.3388572 0.2424639 0.4480841
0.4914121 0.2989407 0.5303893
0.6720862 0.3781532 0.6172220
0.7779979 0.3911679 0.6356992
0.8499394 0.4022547 0.6392564
0.5255891 0.7081171 0.8217101
0.4952598 0.5226037 0.6238084
0.3892088 0.4273291 0.5071357
0.4238403 0.4296092 0.5381640
0.4383731 0.4112703 0.5364668
0.5545774 0.4653761 0.5872233
0.6991729 0.4950356 0.6439177
0.7744421 0.5055553 0.6445445
0.8376871 0.5229147 0.6450413
0.3886730 0.6771411 0.7277821
0.6670791 0.7794356 0.8369591
0.6944725 0.7888562 0.8498096
0.5333439 0.6493644 0.7237488
0.6881802 0.6625320 0.7560921
0.7067515 0.6335212 0.7271562
0.7673002 0.6291895 0.7223375
0.8092215 0.6005041 0.6995514
0.8395957 0.5850423 0.6640805
0.3663042 0.6815460 0.6834299
0.3659430 0.6568153 0.6649816
0.4082417 0.6452365 0.6523652
0.5344615 0.6479219 0.6597089
0.6632831 0.7089759 0.7254332
0.8609600 0.8643328 0.8906282
0.7579028 0.7246197 0.7775162
0.8136793 0.6949148 0.7312302
0.8622374 0.6649111 0.7184992
0.3174166 0.7703751 0.7256182
0.3309758 0.7616666 0.7122830
0.3859652 0.7519736 0.7118968
0.5168281 0.7301644 0.7162891
0.6282541 0.7101642 0.7335016
0.6912135 0.7275585 0.7756963
0.7210579 0.7433478 0.7645190
0.8645151 0.8514391 0.8499911
0.9960187 0.8839116 0.8559523
0.2903194 0.8663793 0.7511111
0.3254180 0.8621831 0.7471891
0.3748603 0.8587746 0.7488828
0.4958257 0.8538451 0.7583808
0.6296954 0.8610857 0.7871036
0.7244288 0.8672962 0.8182429
0.7831748 0.8778266 0.8107392
0.9192684 0.9190816 0.8492647
0.9981424 0.9769961 0.9561948
0.1760425 0.1864123 0.2698909
0.1846998 0.1818779 0.5353323
0.1747640 0.1507708 0.4653568
0.2366046 0.1150635 0.4150144
0.3490570 0.1031604 0.4503939
0.4623885 0.1047313 0.5269904
0.6297660 0.1226020 0.6304254
0.7312945 0.1351025 0.6533812
0.8505188 0.1372138 0.6928945
0.2295046 0.2201110 0.5214327
0.2291932 0.2854060 0.6041349
0.1976531 0.2229209 0.5993797
0.3072795 0.1961281 0.5757145
0.4482031 0.1873361 0.5925802
0.5693600 0.1983389 0.6498672
0.6944878 0.2027725 0.6990917
0.7643013 0.2036044 0.6872515
0.8563108 0.2047954 0.7015749
0.1279998 0.2767052 0.5350677
0.2087166 0.3211363 0.6008501
0.2303380 0.2995600 0.5836303
0.2960475 0.2298887 0.5859420
0.4471881 0.2356335 0.6037489
0.5735888 0.2593644 0.6615910
0.7003350 0.2724886 0.7103734
0.7694717 0.2738187 0.6983298
0.8582425 0.2756030 0.7093871
0.0544172 0.3822295 0.5855401
0.2586778 0.4583238 0.6544159
0.2921619 0.4501805 0.6486154
0.3870952 0.4125341 0.6443770
0.4718192 0.3733044 0.6415634
0.5747638 0.3899080 0.6717244
0.6933114 0.4054731 0.7139020
0.7697566 0.4076052 0.7107436
0.8554711 0.4110410 0.7197692
0.1345465 0.6336909 0.7111669
0.3915626 0.5702361 0.7032731
0.3899453 0.5559884 0.6756022
0.5061132 0.5803930 0.7266709
0.5710773 0.5607186 0.7283348
0.6294861 0.5571902 0.7304015
0.7097121 0.5461007 0.7401903
0.7811710 0.5356068 0.7368336
0.8615311 0.5433938 0.7409658
0.3650209 0.6400517 0.7702266
0.3732016 0.6702845 0.8268152
0.5735677 0.7225213 0.8637725
0.6337747 0.7238751 0.8334706
0.6810831 0.7258863 0.8401353
0.7372947 0.7163390 0.8385887
0.7811431 0.6810330 0.8228573
0.8314377 0.6341237 0.7992362
0.8851919 0.6318335 0.7742193
0.5178457 0.8420738 0.8499304
0.4170363 0.7097577 0.7771255
0.4570627 0.6953706 0.7702238
0.6066495 0.7604107 0.8382298
0.6716414 0.8323639 0.9189147
0.8192001 0.8907033 0.9461539
0.8392558 0.8087567 0.9160763
0.9329684 0.7582189 0.9204995
0.9371745 0.7251311 0.8266165
0.3341216 0.7830001 0.7752442
0.3519206 0.7694861 0.7671151
0.3876452 0.7599834 0.7630381
0.4882523 0.7440390 0.7593515
0.5649264 0.7192742 0.7480428
0.6280396 0.7214171 0.7607602
0.7446806 0.8018015 0.8306648
1.0000000 0.9997951 0.9942360
0.9985280 0.8982413 0.9203994
0.3269206 0.8679049 0.8045139
0.3609885 0.8630154 0.8024986
0.4023376 0.8613693 0.8063161
0.5062757 0.8553029 0.8126828
0.6177698 0.8560739 0.8314013
0.7266524 0.8549791 0.8645558
0.8410471 0.8866686 0.9079582
0.9984849 0.9709924 0.9600528
1.0000000 0.9957715 0.9848099
0.2341472 0.2935620 0.7034437
0.2242446 0.2390668 0.7546726
0.2488519 0.2151214 0.7479494
0.3740053 0.1976538 0.7114449
0.4988546 0.1758022 0.7009415
0.5935293 0.1703874 0.7249446
0.7045279 0.1671912 0.7600040
0.8025327 0.1596582 0.7818521
0.8564158 0.1481346 0.7605398
0.2947248 0.3854644 0.7840226
0.2876015 0.3632790 0.7795845
0.2652412 0.2976688 0.7785453
0.3802779 0.2601033 0.7501306
0.5200174 0.2460155 0.7399885
0.6150516 0.2408758 0.7572535
0.7192706 0.2346040 0.7817526
0.8108638 0.2242693 0.7950138
0.8574948 0.2166322 0.7669422
0.3444763 0.4646058 0.8311839
0.2929593 0.4332663 0.7959893
0.3227488 0.4158650 0.7874282
0.3808570 0.3211372 0.7713649
0.5273887 0.3138031 0.7560077
0.6195612 0.3096595 0.7669145
0.7204385 0.3051994 0.7883639
0.8132869 0.2944757 0.8039996
0.8586928 0.2877376 0.7742430
0.2464328 0.4886885 0.7226427
0.2992177 0.5387474 0.7828434
0.3523073 0.5525626 0.8058740
0.4537299 0.5063698 0.7977768
0.5326143 0.4418041 0.7758645
0.6223930 0.4426150 0.7780358
0.7128148 0.4371478 0.7903432
0.8063226 0.4291660 0.8092665
0.8567224 0.4242654 0.7849034
0.1095630 0.3971315 0.4674779
0.3267955 0.5868836 0.7481735
0.3909921 0.6174081 0.7815533
0.4931061 0.6282598 0.8069312
0.5873905 0.6003912 0.8162129
0.6417787 0.5793467 0.8085883
0.7200276 0.5737492 0.8066244
0.8033640 0.5610404 0.8178525
0.8625848 0.5572846 0.8036950
0.0505598 0.5515643 0.5983962
0.3872240 0.5832484 0.7367681
0.4111228 0.6051774 0.7474328
0.4657472 0.6164468 0.7543879
0.6099426 0.6624750 0.8130070
0.6844899 0.6794584 0.8511293
0.7409134 0.6638860 0.8404197
0.8196917 0.6507531 0.8413830
0.8888027 0.6505564 0.8352793
0.1297908 0.7053529 0.8189832
0.4221349 0.6852947 0.8229943
0.4292206 0.6931222 0.8230374
0.4908058 0.6932519 0.8292640
0.5610007 0.6978453 0.8420882
0.6467105 0.7166841 0.8503837
0.7369320 0.7364776 0.8829187
0.8576739 0.7478095 0.8918761
0.9841487 0.7747675 0.9127877
0.5078779 0.8539723 0.9181027
0.5372776 0.8740856 0.9560841
0.5293429 0.8776435 0.9624030
0.5188990 0.8791918 0.9575144
0.5741233 0.8766559 0.9437844
0.6577857 0.8836393 0.9490834
0.7642413 0.8887747 0.9461537
0.9023347 0.8961723 0.9722249
1.0000000 0.9725657 0.9803388
0.4131768 0.8871660 0.8775266
0.4298260 0.8811388 0.8731642
0.4672128 0.8876817 0.8885086
0.5487600 0.8906477 0.9021213
0.6240684 0.8991678 0.9152530
0.6971932 0.9004490 0.9165172
0.8300107 0.9358060 0.9614289
0.9990415 0.9939895 0.9901454
1.0000000 0.9963106 0.9966676
