catalog/styles/series/late-summer/series-late-summer-neutral/look.cube
# series-late-summer-neutral tuned
LUT_3D_SIZE 33
DOMAIN_MIN 0 0 0
DOMAIN_MAX 1 1 1
0.1024956 0.1057458 0.1068884
0.3185286 0.2808777 0.2253431
0.1415332 0.1500918 0.1243478
0.1713927 0.1521435 0.1268211
0.2048257 0.1720260 0.1478427
0.3162506 0.1924774 0.1084033
0.3786662 0.1390922 0.0202043
0.4569453 0.1190124 0.0044304
0.4433891 0.1280376 0.0017238
0.4664556 0.1466353 0.0125343
0.5715413 0.1675070 0.0534536
0.6838569 0.1782027 0.0805447
0.8075622 0.1678235 0.0884801
0.8574956 0.1445122 0.0552709
0.8637976 0.1315001 0.0287401
0.8650485 0.1175381 0.0164518
0.8675452 0.1197667 0.0262693
0.8654364 0.1125899 0.0177588
0.8591297 0.1163450 0.0238440
0.8419058 0.1212531 0.0259968
0.8284804 0.1200028 0.0164267
0.8259704 0.1186718 0.0123024
0.8332913 0.1082787 0.0030399
0.8265979 0.1134793 0.0118089
0.8233183 0.1173617 0.0231338
0.8318383 0.1218843 0.0287685
0.8438737 0.1251463 0.0324167
0.8430137 0.1313211 0.0324199
0.8431767 0.1388136 0.0287211
0.8617061 0.1499511 0.0331780
0.8839336 0.1450469 0.0350579
0.9148823 0.1258396 0.0305360
0.9847498 0.0969023 0.0240550
0.2409643 0.2524449 0.2204046
0.2418272 0.3298214 0.3427051
0.2011610 0.2493146 0.2405539
0.2191208 0.1499243 0.0696062
0.1946830 0.1423888 0.0699914
0.1479757 0.1315502 0.1053186
0.2110300 0.1658133 0.0986652
0.3182785 0.1724873 0.0777119
0.3043660 0.1626334 0.0684772
0.3231491 0.1825819 0.0949688
0.3642555 0.1965800 0.1071605
0.4035483 0.2136350 0.1207623
0.4883008 0.2261166 0.1402323
0.5505680 0.2099631 0.1223783
0.6108444 0.2025675 0.1045738
0.6676384 0.1998758 0.0875190
0.7043396 0.1974093 0.0760934
0.7050756 0.1812989 0.0623481
0.7184258 0.1759396 0.0557881
0.7196466 0.1752924 0.0502639
0.7246541 0.1712802 0.0432930
0.7457779 0.1665856 0.0381072
0.7729028 0.1624350 0.0359396
0.7850475 0.1616235 0.0382534
0.7945073 0.1633766 0.0448543
0.8103169 0.1649508 0.0486798
0.8252925 0.1653575 0.0498799
0.8302896 0.1657403 0.0478509
0.8429121 0.1696063 0.0458894
0.8697404 0.1757015 0.0479428
0.9113661 0.1709924 0.0455375
0.9306693 0.1542589 0.0378553
0.9544322 0.1366058 0.0271057
0.0978201 0.1236441 0.1012986
0.2082521 0.2510220 0.2149347
0.2149137 0.2431690 0.2058103
0.1377913 0.1848087 0.1783494
0.2581048 0.2105879 0.1271770
0.2850326 0.2139121 0.0835418
0.1727313 0.0922073 0.0435207
0.2676027 0.1232719 0.0454124
0.2836933 0.1255964 0.0389076
0.3469730 0.1459629 0.0691100
0.3374253 0.1725303 0.1010778
0.3696844 0.1917929 0.0983790
0.4339954 0.2200991 0.1279503
0.4682537 0.2246650 0.1345099
0.4981454 0.2210948 0.1255061
0.5558685 0.2236612 0.1145075
0.6083841 0.2294683 0.1029154
0.6247144 0.2195782 0.0877412
0.6455883 0.2125335 0.0745380
0.6654485 0.2082978 0.0644652
0.6802676 0.2048920 0.0568024
0.7074174 0.2030877 0.0528013
0.7297763 0.1985943 0.0510532
0.7437848 0.1912768 0.0489092
0.7602519 0.1912320 0.0535505
0.7763319 0.1930954 0.0581026
0.7927044 0.1970625 0.0617673
0.8069719 0.1980241 0.0608184
0.8273519 0.2010582 0.0604244
0.8544292 0.2032876 0.0603737
0.8890869 0.1962527 0.0551519
0.9329418 0.1827457 0.0472479
0.9409626 0.1620354 0.0344182
0.1189558 0.1190590 0.0938725
0.1553110 0.1791094 0.1542076
0.2735731 0.2247285 0.1492369
0.2696357 0.2523641 0.1788102
0.2259358 0.2420590 0.1808104
0.4150095 0.2781178 0.0957987
0.3418976 0.2137524 0.0781009
0.2125285 0.1315991 0.0900041
0.3067240 0.1624500 0.0743595
0.2860828 0.1600822 0.0837987
0.3331024 0.1726020 0.1051875
0.4226063 0.1841674 0.0970860
0.5068252 0.1982281 0.0922816
0.5184020 0.2074565 0.1063297
0.5153751 0.2195414 0.1219267
0.5448022 0.2271637 0.1183670
0.5681748 0.2291670 0.1077995
0.5895312 0.2302415 0.0943754
0.6207138 0.2300514 0.0822842
0.6536359 0.2281108 0.0702947
0.6864865 0.2344819 0.0655323
0.7072100 0.2341194 0.0632916
0.7222031 0.2288918 0.0619470
0.7276348 0.2162858 0.0562158
0.7432063 0.2125945 0.0581407
0.7570168 0.2147970 0.0633068
0.7745902 0.2204946 0.0688059
0.7932380 0.2260750 0.0723354
0.8168676 0.2305043 0.0744084
0.8388531 0.2283875 0.0705567
0.8677097 0.2211895 0.0639626
0.9096404 0.2095756 0.0564340
0.9336706 0.1842944 0.0398494
0.1565918 0.1621838 0.1056981
0.1669532 0.2027638 0.1519898
0.2349957 0.1986169 0.1352902
0.3309872 0.2494988 0.1397086
0.3338399 0.3025242 0.1852125
0.3192663 0.2599046 0.1524624
0.4763765 0.2212301 0.0248803
0.3964946 0.1986788 0.0696860
0.3126448 0.1890212 0.1473510
0.3623177 0.2051151 0.1356718
0.3368920 0.1868229 0.1198052
0.4621255 0.1839667 0.1030745
0.5748468 0.1940611 0.0915565
0.6644266 0.2011073 0.0674888
0.6409257 0.2098813 0.0836115
0.6099589 0.2205449 0.0997378
0.5939793 0.2282547 0.1088952
0.6004922 0.2322070 0.0986487
0.6212899 0.2322096 0.0804802
0.6522016 0.2340991 0.0690050
0.6865914 0.2392011 0.0629978
0.7092032 0.2434190 0.0621314
0.7258311 0.2463311 0.0646083
0.7362754 0.2388070 0.0628655
0.7502087 0.2372505 0.0653284
0.7575595 0.2388888 0.0702723
0.7657900 0.2419375 0.0759607
0.7788670 0.2450949 0.0799480
0.8044537 0.2530251 0.0842501
0.8222357 0.2504367 0.0794498
0.8495525 0.2478117 0.0742936
0.8930956 0.2360784 0.0649333
0.9284093 0.2082625 0.0467938
0.1781134 0.1810388 0.1171237
0.1774939 0.2184327 0.1500156
0.2134253 0.2163700 0.1502690
0.3516801 0.2595875 0.1309111
0.4431067 0.3261995 0.1424227
0.3054768 0.2686833 0.1685698
0.3333873 0.1853830 0.0958842
0.5722569 0.2277420 0.0256319
0.5183606 0.2259932 0.0819826
0.4043852 0.2233850 0.1792425
0.3983629 0.2229286 0.1584613
0.4204666 0.1909085 0.1156823
0.5069764 0.1855257 0.1107874
0.5991468 0.1991189 0.0989685
0.6818774 0.2059388 0.0798003
0.7196128 0.2117334 0.0675403
0.6633227 0.2166329 0.0962054
0.6326828 0.2199275 0.0986445
0.6327956 0.2225538 0.0786943
0.6611849 0.2327515 0.0644916
0.6883449 0.2393498 0.0613401
0.7138779 0.2484719 0.0659332
0.7338859 0.2542053 0.0689968
0.7466116 0.2554356 0.0701580
0.7589268 0.2546918 0.0683380
0.7630276 0.2580285 0.0722788
0.7668802 0.2625174 0.0831617
0.7743910 0.2646904 0.0877083
0.7897816 0.2678608 0.0897528
0.8073575 0.2630922 0.0826573
0.8361259 0.2651587 0.0795216
0.8815580 0.2549759 0.0706144
0.9233027 0.2290953 0.0523524
0.1729075 0.1696187 0.1063859
0.1969581 0.2383322 0.1547104
0.1566906 0.1952797 0.1342131
0.3628785 0.2866089 0.1439293
0.4375880 0.3082531 0.1147539
0.4578816 0.3182577 0.1702903
0.4035183 0.2664269 0.1986004
0.4561986 0.2297088 0.1372844
0.6888683 0.2572590 0.0351222
0.5620622 0.2220669 0.0913272
0.5572682 0.2131017 0.0944642
0.5015853 0.2061614 0.0986169
0.4120859 0.1451046 0.0823899
0.5057275 0.1672771 0.0981930
0.6104070 0.1901004 0.0948862
0.6807046 0.1967325 0.0800587
0.7055820 0.2032312 0.0765692
0.6820059 0.2046590 0.0752156
0.6318786 0.2012323 0.0798078
0.6405613 0.2108118 0.0652401
0.6702020 0.2225555 0.0590694
0.6997669 0.2449037 0.0754469
0.7198121 0.2498806 0.0767295
0.7280675 0.2467062 0.0713510
0.7408355 0.2504398 0.0662226
0.7505436 0.2535523 0.0639408
0.7610057 0.2679458 0.0830421
0.7757887 0.2751584 0.0905224
0.7825491 0.2721324 0.0887037
0.7959891 0.2660080 0.0815255
0.8254988 0.2668596 0.0762857
0.8748462 0.2640908 0.0695714
0.9199359 0.2448137 0.0524550
0.1885591 0.1882089 0.1159084
0.2297517 0.2654228 0.1540924
0.1945999 0.2265820 0.1428294
0.3316597 0.2997963 0.1927794
0.4892677 0.3265662 0.1374962
0.5574332 0.3495768 0.1264609
0.5270577 0.3254090 0.2018177
0.4714048 0.2926692 0.1962197
0.4683027 0.2382549 0.1178813
0.5702415 0.2384892 0.0893339
0.5828710 0.1945662 0.0475110
0.6107653 0.1931616 0.0408129
0.5450685 0.1957534 0.0828734
0.4220650 0.1252070 0.0641192
0.5227116 0.1581340 0.0913658
0.6326203 0.1867944 0.0856284
0.6770079 0.1833317 0.0553081
0.7110724 0.1895427 0.0450628
0.6941552 0.1907486 0.0618623
0.6388972 0.1826571 0.0703920
0.6322199 0.1868410 0.0518067
0.6745983 0.2155894 0.0659762
0.6980375 0.2233975 0.0718942
0.7145663 0.2283553 0.0746070
0.7303300 0.2357128 0.0679487
0.7475589 0.2412216 0.0608178
0.7523789 0.2526264 0.0729661
0.7677630 0.2682834 0.0868817
0.7842074 0.2825632 0.0963170
0.8023582 0.2849213 0.0936562
0.8323160 0.2836916 0.0850734
0.8837919 0.2865495 0.0790406
0.9225355 0.2701944 0.0606698
0.2038566 0.2281625 0.1390393
0.2533050 0.2849512 0.1523699
0.2415599 0.2583729 0.1476157
0.3384100 0.3194377 0.2086384
0.5432530 0.3714517 0.1891217
0.6125256 0.3683319 0.1144294
0.6278426 0.3798853 0.1405452
0.6052659 0.3499450 0.1619167
0.4817781 0.2879687 0.1511003
0.4517040 0.2462168 0.1187359
0.5612478 0.2599832 0.0956838
0.6033044 0.2232769 0.0426985
0.6378909 0.2136812 0.0361082
0.6075490 0.2166788 0.0623875
0.4894023 0.1405197 0.0385591
0.5334886 0.1554743 0.0675265
0.6078865 0.1769086 0.0650611
0.6644619 0.1870357 0.0599161
0.6984159 0.1884991 0.0580214
0.6996714 0.1894460 0.0657639
0.6609454 0.1829143 0.0805924
0.6495889 0.1795580 0.0628361
0.6821907 0.1894806 0.0616418
0.7101433 0.1984336 0.0694308
0.7332359 0.2098955 0.0693627
0.7559377 0.2206941 0.0660733
0.7713818 0.2419414 0.0770475
0.7841444 0.2654657 0.0902395
0.8020740 0.2954467 0.1089499
0.8245934 0.3183792 0.1186723
0.8573864 0.3329442 0.1158256
0.9005273 0.3310214 0.1049347
0.9316302 0.3119170 0.0859372
0.2478096 0.3151136 0.1856978
0.2806157 0.3273254 0.1697464
0.2786969 0.3030540 0.1574790
0.3334675 0.3208724 0.1751312
0.5046887 0.3814326 0.1994325
0.6407759 0.4040081 0.1664608
0.6904537 0.4140426 0.1268785
0.7170273 0.4173681 0.1159739
0.6955967 0.4172433 0.1450377
0.5753127 0.3419927 0.1349926
0.4750971 0.2609720 0.0815932
0.5899965 0.2935640 0.0893824
0.6899843 0.3048185 0.0647236
0.7292273 0.3014674 0.0550050
0.7245761 0.3073306 0.0696233
0.6194225 0.2270540 0.0578842
0.5758048 0.1831731 0.0424865
0.6123794 0.1949462 0.0500223
0.6639690 0.1973671 0.0391111
0.6893089 0.1943614 0.0237963
0.7155712 0.2040231 0.0363306
0.7051358 0.2011959 0.0583176
0.7018476 0.1936091 0.0502369
0.7243503 0.1928379 0.0347188
0.7490571 0.2044588 0.0337272
0.7783933 0.2167997 0.0362444
0.8004417 0.2366482 0.0424620
0.8264529 0.2679787 0.0562123
0.8498969 0.3043539 0.0836612
0.8717792 0.3457290 0.1110758
0.8993772 0.3882846 0.1297039
0.9279779 0.3993028 0.1342959
0.9472707 0.3876642 0.1282793
0.2741404 0.3671381 0.2082559
0.3027786 0.3638429 0.1920479
0.2892634 0.3295205 0.1654397
0.3069509 0.3128124 0.1536714
0.4066112 0.3395682 0.1551167
0.5782005 0.4072247 0.1803966
0.6931961 0.4453072 0.1756129
0.7323023 0.4420599 0.1316844
0.7668019 0.4520291 0.0968817
0.7710759 0.4586488 0.1196933
0.6755791 0.4034153 0.1280629
0.5689135 0.3192618 0.0745924
0.6337214 0.3437108 0.0802729
0.8025367 0.4254874 0.1158801
0.8684896 0.4640504 0.1374617
0.8038706 0.4225139 0.1612197
0.6195631 0.2515364 0.0633346
0.6078999 0.2352034 0.0601888
0.6332356 0.2359462 0.0614852
0.6493519 0.2279519 0.0453651
0.6990275 0.2295073 0.0188701
0.7444513 0.2391100 0.0087759
0.7734671 0.2566886 0.0259104
0.7785106 0.2598714 0.0467820
0.7673303 0.2337869 0.0123268
0.7892826 0.2425761 0.0090860
0.8151355 0.2527880 0.0055836
0.8388753 0.2719352 0.0132973
0.8665864 0.3004155 0.0304865
0.9037953 0.3475495 0.0592000
0.9330182 0.4095820 0.1015593
0.9446484 0.4446644 0.1419620
0.9641050 0.4665303 0.1724695
0.3072402 0.3937598 0.2063153
0.3366973 0.3998753 0.2063018
0.3138261 0.3628085 0.1768120
0.3100908 0.3322621 0.1576598
0.3366912 0.3176472 0.1428002
0.4113321 0.3292219 0.1338408
0.5426323 0.3783570 0.1406261
0.6692712 0.4337979 0.1465745
0.7549778 0.4684308 0.1040257
0.8298620 0.4915228 0.0826507
0.8587707 0.5141292 0.1130433
0.7825514 0.4784375 0.1378237
0.6656712 0.4072493 0.1126200
0.6216467 0.3602094 0.0855493
0.6321602 0.3553562 0.0902418
0.6181180 0.3304632 0.0997732
0.6079969 0.2928480 0.0946490
0.6282839 0.2929041 0.1059296
0.6344831 0.2886337 0.1101743
0.6453747 0.2749003 0.0933749
0.6626121 0.2493178 0.0522896
0.7179354 0.2475603 0.0125546
0.7750425 0.2699441 0.0001235
0.8075993 0.2966215 0.0305644
0.8262915 0.3247908 0.0531269
0.8257658 0.3299486 0.0517421
0.8347961 0.3268353 0.0485832
0.8418208 0.3221485 0.0388611
0.8670071 0.3371955 0.0347867
0.8999417 0.3737546 0.0515730
0.9348406 0.4240491 0.0865048
0.9476476 0.4659183 0.1367835
0.9622631 0.5155547 0.1931569
0.3305695 0.3998089 0.2010693
0.3704717 0.4319613 0.2110395
0.3439614 0.4019191 0.1851115
0.3347922 0.3725767 0.1698243
0.3409180 0.3489321 0.1584173
0.3540584 0.3232252 0.1358345
0.3999717 0.3195214 0.1140759
0.5006141 0.3648650 0.1230010
0.6159105 0.4279295 0.1109096
0.7414837 0.4899155 0.0942606
0.8351449 0.5282051 0.0954944
0.8615301 0.5515921 0.1336379
0.7164720 0.4754296 0.1583930
0.5820142 0.3831020 0.1239994
0.5127922 0.3217618 0.0854311
0.5070722 0.3014727 0.0818428
0.5480841 0.3048644 0.0901946
0.6076682 0.3259048 0.1109241
0.6408134 0.3330524 0.1242424
0.6537512 0.3176480 0.1100226
0.6644434 0.2961006 0.0845202
0.6879105 0.2804753 0.0432174
0.7406353 0.2906943 0.0144279
0.7783351 0.3075068 0.0271785
0.8212207 0.3354084 0.0480491
0.8350571 0.3563985 0.0558915
0.8699291 0.4399672 0.1265092
0.8810222 0.4659786 0.1760868
0.8707770 0.3994932 0.0953033
0.8903273 0.4070566 0.0773950
0.9156411 0.4402653 0.0977149
0.9317259 0.4704467 0.1311692
0.9379887 0.5005911 0.1686739
0.3405126 0.4065871 0.1975432
0.3891552 0.4490654 0.2114991
0.3734313 0.4349587 0.1936088
0.3618038 0.4118346 0.1810628
0.3647684 0.3903915 0.1747441
0.3582987 0.3602507 0.1611497
0.3626580 0.3345784 0.1410418
0.4014171 0.3433723 0.1281149
0.4798682 0.3855242 0.1218211
0.5808360 0.4402482 0.1129116
0.6600342 0.4754073 0.0969447
0.6880299 0.4852349 0.1072708
0.6548278 0.4658479 0.1271606
0.5526979 0.3997681 0.1372929
0.4911019 0.3537689 0.1200653
0.4726916 0.3229742 0.0950735
0.5136111 0.3237603 0.0860601
0.5732057 0.3449939 0.1052582
0.6416175 0.3756491 0.1346028
0.6551600 0.3597362 0.1210346
0.6631466 0.3390158 0.1013247
0.6788602 0.3289031 0.0764691
0.7022844 0.3218380 0.0385665
0.7421120 0.3319920 0.0201716
0.7912927 0.3589807 0.0436461
0.8249241 0.3741311 0.0532619
0.8326954 0.3933515 0.0742218
0.8687939 0.4630499 0.1440215
0.8704508 0.4351325 0.1179736
0.8755617 0.4330273 0.1058295
0.8901768 0.4468346 0.1104604
0.9083408 0.4630488 0.1226067
0.9174278 0.4740378 0.1355182
0.3358983 0.4181918 0.1882091
0.3898641 0.4614876 0.2049780
0.3873154 0.4587732 0.1932024
0.3810328 0.4470413 0.1820726
0.3777911 0.4276558 0.1784733
0.3672534 0.3984112 0.1689499
0.3570959 0.3701872 0.1567687
0.3586814 0.3510932 0.1417323
0.3910335 0.3645855 0.1371235
0.4533951 0.3960270 0.1305310
0.5296421 0.4415106 0.1285907
0.5910254 0.4697767 0.1367370
0.6016592 0.4650989 0.1403586
0.5505661 0.4372966 0.1423397
0.4841135 0.3870880 0.1413923
0.4738098 0.3622647 0.1227540
0.5032075 0.3557535 0.1006655
0.5559333 0.3758318 0.1112693
0.6393492 0.4236171 0.1660984
0.6743279 0.4266016 0.1733065
0.6626736 0.3805143 0.1222637
0.6801009 0.3655791 0.0955813
0.7010500 0.3552087 0.0535610
0.7167697 0.3527921 0.0284614
0.7443123 0.3660391 0.0365317
0.7797987 0.3987325 0.0809568
0.8064481 0.4229477 0.1134038
0.8377791 0.4352771 0.1264573
0.8491352 0.4337413 0.1160391
0.8562883 0.4446957 0.1162627
0.8690947 0.4500236 0.1119518
0.8887016 0.4558169 0.1105444
0.9027528 0.4568001 0.1090873
0.3429766 0.4325903 0.1749548
0.3769562 0.4691007 0.1903684
0.3798644 0.4746700 0.1838478
0.3720942 0.4685765 0.1706473
0.3696425 0.4529804 0.1706370
0.3656004 0.4344916 0.1685976
0.3585327 0.4157523 0.1653606
0.3440548 0.3898389 0.1555385
0.3383651 0.3779722 0.1529855
0.3698383 0.3864349 0.1553978
0.4152769 0.4088200 0.1476829
0.4722185 0.4392233 0.1489879
0.5175704 0.4545300 0.1508888
0.5308300 0.4643660 0.1585184
0.4993956 0.4358028 0.1522404
0.4693053 0.3902651 0.1371435
0.4865069 0.3787866 0.1171541
0.5337138 0.3970539 0.1177999
0.5924380 0.4243915 0.1428191
0.6460494 0.4456987 0.1745551
0.6540138 0.4163113 0.1368768
0.6702324 0.3972186 0.1087801
0.6964017 0.3910566 0.0766752
0.7149765 0.3912983 0.0571132
0.7197818 0.3860275 0.0471604
0.7393915 0.3940997 0.0571006
0.7746454 0.4169825 0.0963304
0.8108820 0.4318698 0.1318789
0.8324577 0.4310950 0.1362490
0.8386411 0.4378725 0.1142760
0.8552001 0.4472840 0.1034890
0.8761102 0.4501354 0.0951979
0.8942358 0.4473445 0.0884682
0.3610646 0.4619120 0.1802341
0.3683597 0.4858848 0.1855478
0.3631784 0.4899942 0.1764752
0.3520071 0.4879061 0.1608775
0.3508592 0.4776301 0.1611362
0.3499378 0.4649364 0.1608267
0.3441337 0.4495509 0.1597805
0.3330973 0.4301243 0.1572776
0.3135913 0.4093495 0.1541626
0.3214255 0.3969313 0.1610405
0.3437525 0.4078122 0.1652317
0.3730449 0.4193268 0.1541901
0.4075103 0.4267374 0.1488168
0.4469270 0.4456463 0.1605505
0.4659900 0.4470623 0.1555142
0.4608157 0.4209316 0.1455824
0.4703600 0.3999453 0.1332177
0.5067443 0.4101180 0.1256805
0.5466242 0.4225440 0.1260126
0.5886882 0.4351025 0.1310329
0.6189551 0.4321420 0.1242965
0.6513489 0.4270560 0.1154502
0.6800678 0.4190049 0.0965123
0.7071752 0.4213212 0.0805875
0.7162375 0.4129702 0.0576598
0.7212622 0.4070945 0.0491496
0.7486833 0.4172856 0.0640340
0.7877350 0.4342883 0.0948220
0.8185158 0.4475664 0.1228351
0.8299006 0.4449996 0.1083884
0.8452265 0.4540787 0.0949592
0.8695889 0.4596298 0.0899092
0.8922239 0.4576430 0.0861984
0.3408570 0.4721916 0.1822413
0.3386732 0.4873889 0.1766203
0.3334995 0.4933392 0.1643980
0.3232503 0.4927967 0.1476980
0.3234576 0.4868710 0.1462554
0.3273460 0.4785900 0.1485895
0.3235458 0.4656526 0.1490537
0.3188927 0.4531589 0.1499925
0.3050121 0.4366951 0.1509454
0.3057135 0.4152331 0.1518684
0.3048395 0.4018396 0.1530594
0.3165262 0.4041761 0.1487704
0.3421495 0.4129604 0.1471774
0.3852448 0.4260426 0.1566211
0.4171259 0.4279048 0.1490296
0.4398675 0.4250825 0.1328423
0.4443884 0.3966748 0.1255752
0.4767850 0.4052336 0.1227191
0.5130759 0.4172872 0.1223832
0.5573341 0.4357307 0.1258576
0.5971199 0.4480470 0.1268384
0.6336954 0.4533761 0.1226373
0.6630529 0.4494000 0.1137488
0.6962000 0.4508128 0.1058279
0.7154207 0.4444949 0.0863807
0.7233601 0.4358395 0.0634350
0.7419790 0.4380706 0.0619964
0.7660240 0.4418498 0.0697696
0.7978307 0.4545914 0.0815401
0.8221992 0.4602018 0.0891207
0.8401941 0.4631719 0.0877083
0.8680801 0.4690587 0.0895650
0.8966258 0.4690615 0.0909493
0.2999415 0.4785226 0.1803892
0.2997110 0.4895284 0.1680219
0.2964264 0.4956484 0.1538239
0.2865013 0.4953371 0.1359414
0.2864663 0.4918415 0.1305527
0.2936636 0.4855763 0.1335138
0.2953967 0.4760940 0.1354770
0.2976096 0.4679148 0.1388609
0.2928281 0.4566257 0.1422807
0.3036806 0.4396763 0.1442975
0.3071126 0.4213550 0.1427985
0.3057694 0.4066136 0.1362135
0.3160851 0.4052900 0.1337552
0.3416739 0.4069391 0.1327088
0.3795087 0.4154785 0.1303554
0.4108901 0.4161380 0.1207830
0.4339920 0.4066823 0.1167227
0.4533260 0.4025541 0.1189195
0.4908482 0.4173443 0.1217002
0.5341594 0.4375767 0.1255058
0.5773698 0.4569270 0.1295157
0.6133375 0.4680729 0.1282255
0.6458987 0.4734707 0.1288278
0.6817557 0.4781507 0.1291501
0.7080966 0.4761278 0.1176616
0.7261284 0.4698645 0.0919465
0.7497647 0.4718142 0.0759796
0.7655369 0.4702266 0.0781938
0.7833395 0.4726498 0.0858537
0.8122664 0.4790454 0.0868852
0.8402670 0.4840554 0.0907036
0.8692911 0.4872557 0.0967613
0.8973919 0.4883691 0.1017604
0.2601987 0.4841226 0.1776846
0.2637006 0.4943214 0.1630439
0.2621808 0.5011733 0.1475729
0.2545332 0.5024155 0.1299441
0.2527340 0.4996956 0.1195601
0.2624880 0.4945801 0.1220382
0.2692190 0.4873847 0.1243484
0.2752301 0.4805554 0.1280099
0.2766616 0.4721686 0.1316651
0.2979360 0.4599736 0.1355517
0.3124070 0.4457281 0.1363380
0.3185115 0.4302290 0.1330266
0.3241762 0.4178090 0.1279045
0.3391529 0.4104840 0.1224364
0.3714296 0.4167436 0.1212939
0.4028836 0.4196507 0.1163966
0.4413998 0.4282197 0.1144575
0.4613261 0.4266048 0.1204254
0.4809456 0.4242303 0.1231131
0.5165462 0.4394854 0.1278105
0.5575623 0.4594131 0.1309612
0.5955504 0.4764828 0.1321381
0.6301453 0.4893618 0.1372629
0.6636709 0.4976030 0.1414531
0.6966625 0.5049556 0.1427656
0.7225877 0.5033236 0.1271618
0.7500820 0.5047193 0.1007357
0.7692143 0.5025707 0.0958952
0.7795205 0.4985918 0.1037313
0.8023510 0.4988974 0.1086360
0.8346144 0.5043502 0.1099883
0.8696280 0.5098264 0.1110552
0.8985774 0.5081182 0.1120369
0.2331154 0.4946894 0.1759560
0.2376795 0.5052169 0.1620754
0.2362314 0.5125779 0.1458131
0.2296927 0.5149847 0.1273737
0.2255371 0.5127880 0.1128121
0.2364443 0.5080187 0.1141368
0.2461428 0.5016038 0.1164342
0.2553548 0.4955316 0.1199632
0.2613256 0.4888035 0.1240182
0.2876638 0.4781383 0.1278273
0.3120863 0.4677227 0.1307856
0.3284435 0.4551298 0.1305736
0.3405680 0.4416932 0.1268470
0.3546674 0.4321211 0.1224888
0.3786343 0.4310522 0.1200679
0.4076563 0.4327454 0.1169665
0.4457063 0.4418796 0.1164422
0.4752107 0.4534152 0.1216589
0.4886543 0.4485231 0.1264861
0.5024337 0.4431809 0.1290829
0.5380331 0.4597736 0.1341179
0.5752087 0.4787886 0.1375797
0.6106316 0.4952243 0.1409265
0.6472721 0.5111343 0.1482426
0.6831851 0.5230419 0.1533896
0.7147896 0.5297987 0.1532104
0.7432735 0.5340846 0.1426113
0.7650522 0.5349035 0.1319094
0.7795202 0.5322652 0.1342579
0.7998457 0.5296288 0.1368626
0.8302063 0.5329629 0.1439166
0.8655425 0.5390976 0.1469938
0.8976022 0.5371863 0.1376745
0.2143784 0.5112991 0.1785140
0.2171952 0.5219362 0.1629384
0.2162882 0.5309546 0.1467684
0.2103798 0.5343010 0.1278607
0.2035243 0.5325586 0.1092382
0.2150044 0.5275232 0.1095624
0.2262140 0.5213286 0.1111535
0.2372171 0.5149260 0.1141724
0.2464657 0.5083567 0.1179524
0.2766098 0.4980181 0.1214350
0.3058319 0.4879223 0.1247546
0.3306873 0.4777179 0.1270685
0.3526099 0.4686766 0.1279178
0.3708383 0.4597155 0.1260522
0.3905151 0.4531772 0.1225255
0.4183787 0.4532465 0.1212337
0.4526923 0.4591623 0.1211972
0.4788407 0.4694840 0.1240025
0.5000431 0.4750717 0.1279254
0.5114020 0.4692065 0.1318092
0.5236818 0.4641651 0.1350549
0.5545298 0.4783728 0.1409618
0.5895456 0.4960387 0.1452659
0.6269321 0.5153806 0.1512210
0.6656757 0.5335639 0.1587456
0.7012931 0.5475655 0.1679869
0.7330833 0.5582708 0.1732778
0.7567181 0.5636669 0.1742360
0.7762839 0.5632247 0.1709651
0.7994279 0.5614721 0.1719367
0.8282179 0.5645761 0.1816671
0.8610987 0.5724608 0.1943661
0.8905799 0.5715155 0.1808473
0.1990748 0.5357742 0.1828621
0.2006986 0.5469011 0.1661581
0.1999045 0.5570736 0.1498027
0.1947242 0.5613555 0.1306584
0.1864979 0.5602833 0.1094000
0.1974881 0.5553949 0.1078496
0.2093688 0.5485288 0.1082677
0.2208705 0.5407571 0.1097070
0.2310460 0.5327040 0.1118658
0.2645190 0.5222853 0.1148980
0.2969685 0.5112963 0.1181284
0.3261769 0.5006335 0.1210713
0.3527046 0.4915078 0.1236433
0.3760974 0.4832686 0.1246096
0.3977450 0.4756649 0.1230944
0.4248098 0.4737370 0.1226536
0.4559878 0.4757972 0.1229305
0.4785679 0.4828829 0.1252073
0.5025719 0.4926320 0.1279458
0.5190626 0.4938861 0.1299503
0.5271540 0.4859771 0.1333063
0.5366029 0.4796393 0.1370908
0.5678302 0.4948793 0.1435740
0.6060756 0.5161511 0.1530389
0.6454161 0.5371362 0.1622769
0.6829344 0.5565660 0.1743186
0.7191895 0.5726554 0.1847677
0.7514972 0.5873696 0.1969896
0.7781030 0.5955369 0.2019563
0.8038117 0.5966557 0.2099227
0.8281713 0.5969599 0.2186876
0.8604264 0.5991167 0.2199083
0.8946974 0.6018555 0.2037831
0.1836287 0.5697964 0.1860993
0.1857509 0.5815210 0.1705557
0.1853846 0.5917873 0.1541408
0.1811753 0.5964775 0.1348802
0.1742386 0.5959058 0.1134419
0.1827953 0.5912128 0.1079442
0.1953054 0.5837704 0.1072892
0.2072491 0.5747313 0.1072201
0.2181450 0.5652399 0.1078251
0.2531242 0.5536044 0.1094875
0.2876654 0.5413148 0.1118127
0.3192895 0.5290065 0.1143189
0.3483344 0.5179353 0.1169445
0.3751210 0.5085796 0.1190041
0.4006737 0.5006376 0.1194613
0.4278931 0.4958714 0.1196437
0.4576346 0.4949966 0.1203343
0.4785957 0.4995683 0.1229210
0.4997879 0.5059987 0.1252835
0.5222502 0.5139757 0.1262105
0.5358162 0.5128861 0.1286070
0.5417015 0.5042513 0.1317539
0.5515739 0.4987851 0.1367870
0.5851512 0.5158897 0.1459167
0.6242735 0.5374116 0.1576658
0.6628817 0.5597122 0.1724350
0.7026011 0.5813149 0.1873488
0.7436635 0.6032556 0.2055704
0.7819014 0.6224772 0.2221906
0.8114248 0.6309539 0.2411954
0.8349062 0.6327109 0.2566077
0.8670772 0.6329715 0.2526151
0.9064004 0.6351790 0.2327344
0.1727648 0.6158830 0.1948093
0.1740696 0.6260542 0.1779183
0.1737190 0.6350367 0.1606585
0.1704521 0.6393870 0.1410533
0.1649162 0.6390546 0.1194521
