catalog/styles/series/late-summer/series-late-summer-neutral/look.cube
# series-late-summer-neutral tuned
LUT_3D_SIZE 5
DOMAIN_MIN 0 0 0
DOMAIN_MAX 1 1 1
0.1024956 0.1057458 0.1068884
0.4433891 0.1280376 0.0017238
0.8675452 0.1197667 0.0262693
0.8233183 0.1173617 0.0231338
0.9847498 0.0969023 0.0240550
0.2038566 0.2281625 0.1390393
0.4817781 0.2879687 0.1511003
0.6078865 0.1769086 0.0650611
0.7332359 0.2098955 0.0693627
0.9316302 0.3119170 0.0859372
0.3610646 0.4619120 0.1802341
0.3135913 0.4093495 0.1541626
0.4703600 0.3999453 0.1332177
0.7162375 0.4129702 0.0576598
0.8922239 0.4576430 0.0861984
0.1727648 0.6158830 0.1948093
0.2101181 0.6081490 0.1073814
0.4601982 0.5208596 0.1130256
0.6106766 0.5439037 0.1519688
0.9185233 0.6689413 0.2722273
0.1843675 0.9577337 0.2807642
0.2329609 0.9562626 0.1641619
0.6092878 0.9100785 0.1700545
0.8043070 0.8923418 0.1753367
0.9938456 0.9121461 0.5014131
0.1478970 0.1509532 0.2702197
0.1113273 0.1172423 0.1327140
0.4155102 0.1251172 0.1686178
0.5806228 0.1317159 0.1744042
0.9956364 0.0557009 0.0012937
0.1485485 0.2292965 0.2421435
0.1388690 0.2031856 0.2286731
0.3685836 0.1936900 0.1917408
0.5144250 0.1818898 0.1621484
0.8330629 0.1694733 0.0317700
0.2114555 0.3525302 0.2391492
0.2282951 0.3226480 0.2464349
0.3940598 0.3388706 0.2103824
0.6373538 0.3768130 0.1896941
0.7866860 0.3605276 0.1444724
0.1521603 0.5735889 0.3029732
0.2196550 0.5330547 0.2565633
0.3702863 0.4782254 0.1772747
0.5544960 0.5085264 0.2261629
0.8818211 0.6516364 0.3844746
0.1959092 0.9425287 0.4543821
0.3118185 0.9454504 0.4211659
0.5644073 0.9037417 0.3115102
0.7592924 0.8693686 0.3100729
0.9906039 0.9668287 0.8023112
0.1523488 0.1359566 0.2227899
0.1284721 0.1564238 0.1578814
0.2492644 0.0883380 0.2033008
0.6349641 0.0756194 0.3584238
0.8473223 0.1139448 0.4010245
0.1096698 0.1870801 0.2423262
0.1864787 0.1679646 0.1816668
0.3271450 0.1416507 0.2539547
0.6890859 0.2252571 0.3806383
0.8667059 0.3343679 0.4709094
0.3445328 0.4484889 0.4456053
0.3646086 0.4101665 0.4064326
0.4480401 0.3869974 0.3717255
0.6607039 0.4276465 0.4048039
0.9182266 0.4554245 0.4376467
0.3458708 0.5549613 0.5198002
0.3550096 0.5664957 0.4814828
0.5380754 0.5847011 0.5071347
0.7254435 0.7020215 0.6443524
0.8807526 0.6499446 0.5015283
0.2420117 0.9022497 0.6243209
0.3406658 0.9085906 0.6177630
0.5522808 0.9169583 0.5342225
0.7289634 0.8557810 0.5268395
0.9762642 0.9702728 0.8300561
0.1280681 0.1544916 0.1630193
0.1220849 0.1211632 0.2308192
0.2805289 0.0731083 0.3208621
0.5745906 0.0882515 0.5132082
0.8214614 0.1203198 0.5996533
0.1888978 0.2426851 0.3495109
0.1497842 0.1798369 0.3585668
0.3612562 0.1564767 0.4441734
0.6549708 0.2418271 0.5921952
0.8524216 0.2644231 0.6268643
0.5255891 0.7081171 0.8217101
0.3892088 0.4273291 0.5071357
0.4383731 0.4112703 0.5364668
0.6991729 0.4950356 0.6439177
0.8376871 0.5229147 0.6450413
0.3663042 0.6815460 0.6834299
0.4082417 0.6452365 0.6523652
0.6632831 0.7089759 0.7254332
0.7579028 0.7246197 0.7775162
0.8622374 0.6649111 0.7184992
0.2903194 0.8663793 0.7511111
0.3748603 0.8587746 0.7488828
0.6296954 0.8610857 0.7871036
0.7831748 0.8778266 0.8107392
0.9981424 0.9769961 0.9561948
0.2341472 0.2935620 0.7034437
0.2488519 0.2151214 0.7479494
0.4988546 0.1758022 0.7009415
0.7045279 0.1671912 0.7600040
0.8564158 0.1481346 0.7605398
0.3444763 0.4646058 0.8311839
0.3227488 0.4158650 0.7874282
0.5273887 0.3138031 0.7560077
0.7204385 0.3051994 0.7883639
0.8586928 0.2877376 0.7742430
0.1095630 0.3971315 0.4674779
0.3909921 0.6174081 0.7815533
0.5873905 0.6003912 0.8162129
0.7200276 0.5737492 0.8066244
0.8625848 0.5572846 0.8036950
0.1297908 0.7053529 0.8189832
0.4292206 0.6931222 0.8230374
0.5610007 0.6978453 0.8420882
0.7369320 0.7364776 0.8829187
0.9841487 0.7747675 0.9127877
0.4131768 0.8871660 0.8775266
0.4672128 0.8876817 0.8885086
0.6240684 0.8991678 0.9152530
0.8300107 0.9358060 0.9614289
1.0000000 0.9963106 0.9966676
