presets/experimental/experimental-flower/look.cube
# Approximate v0 colour conversion; calibrate before claiming visual parity.
LUT_3D_SIZE 33
DOMAIN_MIN 0 0 0
DOMAIN_MAX 1 1 1
0.0176060 0.0178797 0.0169600
0.0339187 0.0198644 0.0191449
0.0502313 0.0218490 0.0213297
0.0665439 0.0238337 0.0235145
0.0860287 0.0301086 0.0294097
0.1089513 0.0410332 0.0393262
0.1318739 0.0519578 0.0492427
0.1547966 0.0628824 0.0591591
0.1766459 0.0687835 0.0638517
0.2161565 0.0790954 0.0719583
0.2588699 0.0885801 0.0812502
0.3035993 0.0974360 0.0913224
0.3463997 0.1035601 0.0969781
0.3882161 0.1082907 0.1003808
0.4223210 0.1089990 0.1002975
0.4536345 0.1082513 0.0989524
0.4805211 0.1060558 0.0957060
0.5236465 0.1014167 0.0889058
0.5656958 0.0953366 0.0804232
0.6071394 0.0861682 0.0695076
0.6501913 0.0735403 0.0556848
0.6966705 0.0607423 0.0417870
0.7457484 0.0499609 0.0304053
0.7968478 0.0413591 0.0215327
0.8494559 0.0348581 0.0149235
0.8577539 0.0339819 0.0140375
0.8636917 0.0333548 0.0134035
0.8696294 0.0327278 0.0127695
0.8755671 0.0321008 0.0121355
0.8816198 0.0316911 0.0117226
0.8876796 0.0312948 0.0113232
0.8937394 0.0308985 0.0109238
0.8997992 0.0305021 0.0105244
0.0199552 0.0350388 0.0196912
0.0350914 0.0362688 0.0209161
0.0502277 0.0374987 0.0221409
0.0653640 0.0387286 0.0233658
0.0833517 0.0434385 0.0280081
0.1044299 0.0519200 0.0363543
0.1255081 0.0604015 0.0447004
0.1465862 0.0688829 0.0530465
0.1675274 0.0738657 0.0576520
0.2054634 0.0826291 0.0657134
0.2473266 0.0927308 0.0755829
0.2917170 0.1037157 0.0866654
0.3353662 0.1113261 0.0931438
0.3786373 0.1172151 0.0972736
0.4146571 0.1190774 0.0977439
0.4480522 0.1194821 0.0968895
0.4765686 0.1182891 0.0941614
0.5217588 0.1149932 0.0880453
0.5647406 0.1096857 0.0798189
0.6065962 0.1012905 0.0690585
0.6498604 0.0894881 0.0554166
0.6964972 0.0772021 0.0414502
0.7456869 0.0667633 0.0300395
0.7968466 0.0584084 0.0211914
0.8494820 0.0520820 0.0146229
0.8577826 0.0512283 0.0137433
0.8637222 0.0506175 0.0131139
0.8696618 0.0500066 0.0124844
0.8756014 0.0493958 0.0118550
0.8816547 0.0489960 0.0114452
0.8877150 0.0486092 0.0110489
0.8937753 0.0482223 0.0106525
0.8998356 0.0478355 0.0102562
0.0223043 0.0521979 0.0224224
0.0362642 0.0526731 0.0226873
0.0502241 0.0531483 0.0229522
0.0641840 0.0536235 0.0232170
0.0806748 0.0567684 0.0266065
0.0999085 0.0628068 0.0333823
0.1191422 0.0688451 0.0401581
0.1383759 0.0748835 0.0469340
0.1584089 0.0789478 0.0514524
0.1947703 0.0861628 0.0594686
0.2357833 0.0968816 0.0699156
0.2798348 0.1099954 0.0820084
0.3243328 0.1190921 0.0893095
0.3690584 0.1261394 0.0941663
0.4069933 0.1291558 0.0951902
0.4424699 0.1307130 0.0948266
0.4726160 0.1305224 0.0926167
0.5198711 0.1285698 0.0871849
0.5637853 0.1240348 0.0792147
0.6060529 0.1164128 0.0686094
0.6495296 0.1054360 0.0551484
0.6963238 0.0936619 0.0411134
0.7456254 0.0835656 0.0296737
0.7968453 0.0754578 0.0208500
0.8495080 0.0693058 0.0143223
0.8578113 0.0684747 0.0134491
0.8637527 0.0678801 0.0128242
0.8696941 0.0672855 0.0121994
0.8756356 0.0666908 0.0115745
0.8816895 0.0663009 0.0111678
0.8877504 0.0659235 0.0107745
0.8938112 0.0655461 0.0103812
0.8998720 0.0651688 0.0099879
0.0246535 0.0693570 0.0251536
0.0374370 0.0690775 0.0244585
0.0502205 0.0687979 0.0237634
0.0630041 0.0685184 0.0230683
0.0779979 0.0700983 0.0252049
0.0953871 0.0736936 0.0304104
0.1127763 0.0772888 0.0356159
0.1301656 0.0808840 0.0408214
0.1492903 0.0840300 0.0452527
0.1840771 0.0896965 0.0532238
0.2242400 0.1010323 0.0642484
0.2679526 0.1162752 0.0773514
0.3132993 0.1268580 0.0854752
0.3594796 0.1350638 0.0910591
0.3993294 0.1392342 0.0926365
0.4368876 0.1419439 0.0927637
0.4686635 0.1427557 0.0910721
0.5179834 0.1421463 0.0863245
0.5628300 0.1383838 0.0786105
0.6055097 0.1315351 0.0681603
0.6491988 0.1213838 0.0548802
0.6961505 0.1101218 0.0407766
0.7455639 0.1003680 0.0293079
0.7968441 0.0925071 0.0205087
0.8495341 0.0865296 0.0140218
0.8578399 0.0857212 0.0131549
0.8637832 0.0851427 0.0125346
0.8697265 0.0845643 0.0119143
0.8756698 0.0839858 0.0112940
0.8817244 0.0836058 0.0108904
0.8877857 0.0832379 0.0105002
0.8938471 0.0828700 0.0101099
0.8999084 0.0825021 0.0097196
0.0247225 0.0846513 0.0257595
0.0369511 0.0836405 0.0248978
0.0491796 0.0826297 0.0240360
0.0614081 0.0816189 0.0231743
0.0755671 0.0821513 0.0246965
0.0918184 0.0843561 0.0288021
0.1080697 0.0865610 0.0329078
0.1243209 0.0887658 0.0370135
0.1428275 0.0915038 0.0413517
0.1765334 0.0965055 0.0492303
0.2166499 0.1081150 0.0605173
0.2610403 0.1242867 0.0741295
0.3067496 0.1355157 0.0828925
0.3531317 0.1442233 0.0891817
0.3936092 0.1490757 0.0909749
0.4319493 0.1525326 0.0911406
0.4648729 0.1541794 0.0895886
0.5158995 0.1547513 0.0849545
0.5616209 0.1516634 0.0770879
0.6048529 0.1455649 0.0667219
0.6488915 0.1363587 0.0537986
0.6960525 0.1258715 0.0399421
0.7455739 0.1166834 0.0286493
0.7969006 0.1092185 0.0199763
0.8496060 0.1035069 0.0135770
0.8579129 0.1027321 0.0127214
0.8638569 0.1021778 0.0121091
0.8698009 0.1016234 0.0114969
0.8757449 0.1010690 0.0108847
0.8817994 0.1007034 0.0104861
0.8878606 0.1003493 0.0101005
0.8939218 0.0999953 0.0097150
0.8999830 0.0996412 0.0093295
0.0223683 0.0979638 0.0241065
0.0347022 0.0962466 0.0239214
0.0470361 0.0945294 0.0237363
0.0593700 0.0928122 0.0235512
0.0733981 0.0928469 0.0251374
0.0892623 0.0947803 0.0286432
0.1051265 0.0967137 0.0321491
0.1209906 0.0986471 0.0356549
0.1391870 0.1015195 0.0398935
0.1723368 0.1067957 0.0476297
0.2132613 0.1183139 0.0588440
0.2594100 0.1341388 0.0724329
0.3049652 0.1451210 0.0816398
0.3502176 0.1536328 0.0886113
0.3899548 0.1586655 0.0902612
0.4276955 0.1624389 0.0899848
0.4612543 0.1647427 0.0881700
0.5136071 0.1663238 0.0830431
0.5601420 0.1638063 0.0745894
0.6040755 0.1584336 0.0642319
0.6486092 0.1502995 0.0518526
0.6960346 0.1408664 0.0385787
0.7456600 0.1324812 0.0276794
0.7970183 0.1255707 0.0192408
0.8497268 0.1202222 0.0129789
0.8580329 0.1194928 0.0121398
0.8639764 0.1189709 0.0115394
0.8699199 0.1184490 0.0109389
0.8758634 0.1179271 0.0103385
0.8819170 0.1175807 0.0099467
0.8879774 0.1172451 0.0095677
0.8940378 0.1169095 0.0091887
0.9000982 0.1165738 0.0088097
0.0200141 0.1112762 0.0224535
0.0324534 0.1088527 0.0229450
0.0448927 0.1064291 0.0234366
0.0573319 0.1040056 0.0239281
0.0712291 0.1035426 0.0255783
0.0867062 0.1052045 0.0284844
0.1021832 0.1068665 0.0313904
0.1176603 0.1085284 0.0342964
0.1355466 0.1115352 0.0384354
0.1681402 0.1170859 0.0460290
0.2098727 0.1285128 0.0571708
0.2577796 0.1439908 0.0707363
0.3031807 0.1547263 0.0803871
0.3473035 0.1630423 0.0880409
0.3863004 0.1682554 0.0895475
0.4234418 0.1723451 0.0888290
0.4576357 0.1753061 0.0867514
0.5113146 0.1778963 0.0811317
0.5586630 0.1759492 0.0720909
0.6032981 0.1713023 0.0617419
0.6483269 0.1642403 0.0499065
0.6960168 0.1558613 0.0372153
0.7457460 0.1482789 0.0267095
0.7971361 0.1419229 0.0185053
0.8498475 0.1369374 0.0123808
0.8581529 0.1362535 0.0115582
0.8640959 0.1357640 0.0109696
0.8700389 0.1352746 0.0103809
0.8759819 0.1347852 0.0097923
0.8820347 0.1344581 0.0094074
0.8880943 0.1341409 0.0090349
0.8941538 0.1338237 0.0086624
0.9002134 0.1335065 0.0082900
0.0176599 0.1245887 0.0208005
0.0302045 0.1214587 0.0219687
0.0427492 0.1183288 0.0231368
0.0552938 0.1151989 0.0243050
0.0690600 0.1142383 0.0260193
0.0841500 0.1156287 0.0283255
0.0992400 0.1170192 0.0306317
0.1143300 0.1184096 0.0329379
0.1319061 0.1215510 0.0369773
0.1639436 0.1273761 0.0444284
0.2064841 0.1387116 0.0554975
0.2561493 0.1538429 0.0690397
0.3013963 0.1643315 0.0791344
0.3443894 0.1724518 0.0874705
0.3826460 0.1778452 0.0888339
0.4191880 0.1822513 0.0876733
0.4540171 0.1858694 0.0853328
0.5090221 0.1894687 0.0792202
0.5571841 0.1880921 0.0695923
0.6025207 0.1841710 0.0592520
0.6480446 0.1781811 0.0479605
0.6959989 0.1708563 0.0358519
0.7458320 0.1640767 0.0257396
0.7972539 0.1582751 0.0177698
0.8499683 0.1536527 0.0117827
0.8582730 0.1530141 0.0109766
0.8642155 0.1525572 0.0103998
0.8701580 0.1521002 0.0098229
0.8761004 0.1516433 0.0092461
0.8821524 0.1513354 0.0088680
0.8882111 0.1510366 0.0085021
0.8942698 0.1507379 0.0081362
0.9003285 0.1504391 0.0077703
0.0151146 0.1396289 0.0179744
0.0284240 0.1370303 0.0190802
0.0417334 0.1344317 0.0201860
0.0550427 0.1318330 0.0212917
0.0691921 0.1308909 0.0229729
0.0842518 0.1317442 0.0252777
0.0993115 0.1325974 0.0275825
0.1143712 0.1334506 0.0298872
0.1314537 0.1359382 0.0337794
0.1625616 0.1405700 0.0409527
0.2027664 0.1500957 0.0518293
0.2491242 0.1629956 0.0652398
0.2928673 0.1727746 0.0754284
0.3352766 0.1809617 0.0839734
0.3755150 0.1872704 0.0866970
0.4149675 0.1928991 0.0873132
0.4514572 0.1970893 0.0849909
0.5079540 0.2012524 0.0780282
0.5561557 0.2002483 0.0674023
0.6020327 0.1970184 0.0567929
0.6479908 0.1919323 0.0457776
0.6962019 0.1855233 0.0342124
0.7461194 0.1794983 0.0245004
0.7975430 0.1742690 0.0167928
0.8502292 0.1700553 0.0109719
0.8585285 0.1694701 0.0101863
0.8644671 0.1690513 0.0096242
0.8704057 0.1686326 0.0090621
0.8763443 0.1682139 0.0085000
0.8823931 0.1679296 0.0081306
0.8884486 0.1676536 0.0077730
0.8945041 0.1673776 0.0074155
0.9005595 0.1671016 0.0070579
0.0104681 0.1671194 0.0127603
0.0252080 0.1655592 0.0137102
0.0399478 0.1639989 0.0146601
0.0546876 0.1624386 0.0156100
0.0695642 0.1615598 0.0172253
0.0845892 0.1614194 0.0195617
0.0996141 0.1612791 0.0218981
0.1146390 0.1611387 0.0242346
0.1308122 0.1623907 0.0278559
0.1602058 0.1647650 0.0345155
0.1959768 0.1708965 0.0450347
0.2360214 0.1796245 0.0581989
0.2769484 0.1880848 0.0685385
0.3183254 0.1964084 0.0774371
0.3623289 0.2044263 0.0827238
0.4072831 0.2123336 0.0867030
0.4468556 0.2175608 0.0844297
0.5060786 0.2227252 0.0758985
0.5543085 0.2223880 0.0634316
0.6011606 0.2204152 0.0523163
0.6479058 0.2169656 0.0417886
0.6965841 0.2122166 0.0312108
0.7466543 0.2075629 0.0222280
0.7980794 0.2033769 0.0149997
0.8507125 0.1999101 0.0094830
0.8590016 0.1994226 0.0087351
0.8649330 0.1990737 0.0082000
0.8708643 0.1987249 0.0076649
0.8767957 0.1983761 0.0071297
0.8828384 0.1981352 0.0067763
0.8888879 0.1979008 0.0064340
0.8949374 0.1976665 0.0060917
0.9009869 0.1974322 0.0057495
0.0070398 0.1960056 0.0084313
0.0226753 0.1950401 0.0092034
0.0383108 0.1940747 0.0099755
0.0539463 0.1931093 0.0107475
0.0693945 0.1923473 0.0121115
0.0846397 0.1918059 0.0141171
0.0998849 0.1912645 0.0161226
0.1151300 0.1907231 0.0181282
0.1310844 0.1912699 0.0212626
0.1600484 0.1923433 0.0270278
0.1934505 0.1961550 0.0361909
0.2297818 0.2018624 0.0476830
0.2688147 0.2088480 0.0582168
0.3092257 0.2164856 0.0682617
0.3532252 0.2241933 0.0751527
0.3985237 0.2319265 0.0809020
0.4396830 0.2376974 0.0794126
0.5019437 0.2441560 0.0716001
0.5526040 0.2452396 0.0593524
0.6006657 0.2445349 0.0481566
0.6481877 0.2424208 0.0379545
0.6972014 0.2391321 0.0281950
0.7473834 0.2357084 0.0198541
0.7987917 0.2324786 0.0130669
0.8513545 0.2297172 0.0078430
0.8596308 0.2293238 0.0071324
0.8655529 0.2290423 0.0066239
0.8714751 0.2287608 0.0061154
0.8773972 0.2284793 0.0056069
0.8834320 0.2282812 0.0052697
0.8894737 0.2280883 0.0049430
0.8955153 0.2278954 0.0046163
0.9015570 0.2277025 0.0042896
0.0044205 0.2257643 0.0046933
0.0205975 0.2251002 0.0052733
0.0367746 0.2244362 0.0058534
0.0529517 0.2237721 0.0064334
0.0688678 0.2231623 0.0074243
0.0845010 0.2226112 0.0088604
0.1001342 0.2220602 0.0102966
0.1157674 0.2215091 0.0117327
0.1319589 0.2217017 0.0142383
0.1613410 0.2221072 0.0188598
0.1937398 0.2243113 0.0260104
0.2280784 0.2277623 0.0348930
0.2658284 0.2331729 0.0456492
0.3053187 0.2395831 0.0573611
0.3468288 0.2456495 0.0652214
0.3890700 0.2515914 0.0716874
0.4308269 0.2575799 0.0714653
0.4963254 0.2655237 0.0658787
0.5509966 0.2685228 0.0552086
0.6004203 0.2690914 0.0442128
0.6487109 0.2681121 0.0342289
0.6979725 0.2661496 0.0251747
0.7482394 0.2638608 0.0174170
0.7996188 0.2615281 0.0110452
0.8521003 0.2594436 0.0061060
0.8603619 0.2591418 0.0054323
0.8662735 0.2589258 0.0049502
0.8721851 0.2587098 0.0044681
0.8780967 0.2584938 0.0039860
0.8841223 0.2583383 0.0036651
0.8901550 0.2581864 0.0033541
0.8961877 0.2580346 0.0030432
0.9022203 0.2578828 0.0027322
0.0025622 0.2563119 0.0022607
0.0191111 0.2558322 0.0025964
0.0356601 0.2553526 0.0029322
0.0522090 0.2548729 0.0032679
0.0685019 0.2543871 0.0039214
0.0845175 0.2538947 0.0049194
0.1005331 0.2534022 0.0059173
0.1165487 0.2529098 0.0069152
0.1329941 0.2529343 0.0089082
0.1628268 0.2530180 0.0125950
0.1948574 0.2543464 0.0181608
0.2282571 0.2565386 0.0250119
0.2648093 0.2605620 0.0342010
0.3029695 0.2655196 0.0445829
0.3429362 0.2704656 0.0523851
0.3835567 0.2754075 0.0592533
0.4247396 0.2808047 0.0607392
0.4910527 0.2886015 0.0584629
0.5488573 0.2927815 0.0504174
0.5999640 0.2944159 0.0402349
0.6491804 0.2944762 0.0306567
0.6987902 0.2936011 0.0221904
0.7491838 0.2922659 0.0149318
0.8005599 0.2907182 0.0089429
0.8529726 0.2892370 0.0042760
0.8612204 0.2890168 0.0036377
0.8671222 0.2888593 0.0031809
0.8730240 0.2887018 0.0027241
0.8789257 0.2885443 0.0022673
0.8849421 0.2884271 0.0020528
0.8909656 0.2883123 0.0018532
0.8969890 0.2881976 0.0016535
0.9030125 0.2880828 0.0014539
0.0010656 0.2872343 0.0004484
0.0179057 0.2868835 0.0005150
0.0347459 0.2865326 0.0005815
0.0515860 0.2861818 0.0006481
0.0682126 0.2858067 0.0009813
0.0846078 0.2854053 0.0016033
0.1010031 0.2850039 0.0022254
0.1173983 0.2846025 0.0028475
0.1341058 0.2845474 0.0043829
0.1644043 0.2844739 0.0072346
0.1963687 0.2852741 0.0114186
0.2293301 0.2866816 0.0165129
0.2647247 0.2894071 0.0232849
0.3013606 0.2928050 0.0309127
0.3402333 0.2968782 0.0381684
0.3799157 0.3011959 0.0452895
0.4199680 0.3056175 0.0486928
0.4859443 0.3124917 0.0502421
0.5464655 0.3175037 0.0453186
0.5994074 0.3201054 0.0362407
0.6496244 0.3211599 0.0271573
0.6996300 0.3212586 0.0192232
0.7501703 0.3207911 0.0124238
0.8015552 0.3199751 0.0068021
0.8539051 0.3190621 0.0024018
0.8621396 0.3189190 0.0017981
0.8680318 0.3188167 0.0013661
0.8739241 0.3187143 0.0009341
0.8798163 0.3186119 0.0005021
0.8858234 0.3185310 0.0004368
0.8918376 0.3184514 0.0003939
0.8978517 0.3183718 0.0003511
0.9038659 0.3182922 0.0003082
0.0004235 0.3186864 0.0000000
0.0173735 0.3184206 0.0000000
0.0343234 0.3181547 0.0000000
0.0512734 0.3178889 0.0000000
0.0681002 0.3175967 0.0001546
0.0847937 0.3172760 0.0004769
0.1014872 0.3169553 0.0007992
0.1181807 0.3166346 0.0011214
0.1351225 0.3165626 0.0019877
0.1658408 0.3164512 0.0035988
0.1979035 0.3169875 0.0065511
0.2307378 0.3179742 0.0104262
0.2655113 0.3199586 0.0156049
0.3012739 0.3224519 0.0214486
0.3391443 0.3257597 0.0276147
0.3777776 0.3293622 0.0338975
0.4168512 0.3330116 0.0378234
0.4822165 0.3389836 0.0414704
0.5442166 0.3440663 0.0396521
0.5988512 0.3472279 0.0324176
0.6499846 0.3489323 0.0239217
0.7004413 0.3497142 0.0164248
0.7511735 0.3498775 0.0099867
0.8025955 0.3496116 0.0046638
0.8549026 0.3491388 0.0012473
0.8631266 0.3490564 0.0008638
0.8690114 0.3489975 0.0005895
0.8748961 0.3489386 0.0003151
0.8807809 0.3488796 0.0000407
0.8867800 0.3488278 0.0000225
0.8927862 0.3487765 0.0000200
0.8987923 0.3487251 0.0000176
0.9047985 0.3486738 0.0000151
0.0000624 0.3503126 0.0000000
0.0170625 0.3501174 0.0000000
0.0340626 0.3499221 0.0000000
0.0510627 0.3497269 0.0000000
0.0680460 0.3495085 0.0000228
0.0850110 0.3492651 0.0000702
0.1019760 0.3490216 0.0001177
0.1189411 0.3487781 0.0001652
0.1361081 0.3487101 0.0002927
0.1672309 0.3486000 0.0005300
0.1994460 0.3489591 0.0022998
0.2322556 0.3496447 0.0051326
0.2665842 0.3510709 0.0089889
0.3016875 0.3528750 0.0133672
0.3385857 0.3554526 0.0182651
0.3761337 0.3583103 0.0233510
0.4142784 0.3612543 0.0273411
0.4789426 0.3663306 0.0325175
0.5420147 0.3712338 0.0337991
0.5982952 0.3748216 0.0286509
0.6503171 0.3770626 0.0207728
0.7012432 0.3784320 0.0136819
0.7521822 0.3791485 0.0075728
0.8036506 0.3793728 0.0025263
0.8559215 0.3792983 0.0003293
0.8641360 0.3792712 0.0002272
0.8700139 0.3792518 0.0001541
0.8758918 0.3792324 0.0000810
0.8817698 0.3792130 0.0000079
0.8877614 0.3791880 0.0000033
0.8937599 0.3791627 0.0000030
0.8997585 0.3791373 0.0000026
0.9057571 0.3791120 0.0000022
0.0000000 0.3823048 0.0000000
0.0170066 0.3821572 0.0000000
0.0340132 0.3820097 0.0000000
0.0510198 0.3818621 0.0000000
0.0681002 0.3816968 0.0000000
0.0852605 0.3815124 0.0000000
0.1024208 0.3813279 0.0000000
0.1195810 0.3811434 0.0000000
0.1369186 0.3810947 0.0000000
0.1683485 0.3810166 0.0000000
0.2007123 0.3813025 0.0008929
0.2335590 0.3818415 0.0024057
0.2676355 0.3829599 0.0048691
0.3023393 0.3843738 0.0078174
0.3385214 0.3864329 0.0116147
0.3752388 0.3887254 0.0157192
0.4126375 0.3912095 0.0192794
0.4763084 0.3956190 0.0243963
0.5393454 0.4001543 0.0269762
0.5973394 0.4039930 0.0246957
0.6504692 0.4066042 0.0180900
0.7018487 0.4081830 0.0111964
0.7530313 0.4091683 0.0052847
0.8046005 0.4096720 0.0014278
0.8568864 0.4098445 0.0000974
0.8650988 0.4098529 0.0000669
0.8709752 0.4098589 0.0000450
0.8768516 0.4098649 0.0000231
0.8827280 0.4098709 0.0000013
0.8887158 0.4098638 0.0000000
0.8947105 0.4098559 0.0000000
0.9007051 0.4098479 0.0000000
0.9066998 0.4098400 0.0000000
0.0000000 0.4374755 0.0000000
0.0170169 0.4373919 0.0000000
0.0340339 0.4373082 0.0000000
0.0510508 0.4372246 0.0000000
0.0682646 0.4371329 0.0000000
0.0856918 0.4370327 0.0000000
0.1031190 0.4369324 0.0000000
0.1205462 0.4368321 0.0000000
0.1381216 0.4368230 0.0000000
0.1699803 0.4368135 0.0000000
0.2025696 0.4370409 0.0000000
0.2354984 0.4374328 0.0000000
0.2692714 0.4382036 0.0006237
0.3034751 0.4391676 0.0015656
0.3386935 0.4405707 0.0033508
0.3742793 0.4421327 0.0054413
0.4105792 0.4440193 0.0079176
0.4725672 0.4475191 0.0121004
0.5349945 0.4514590 0.0156171
0.5951433 0.4555562 0.0172702
0.6504836 0.4587119 0.0139794
0.7025431 0.4602653 0.0071483
0.7541763 0.4614366 0.0021422
0.8059952 0.4622171 0.0003124
0.8583840 0.4626666 0.0000000
0.8666040 0.4627164 0.0000000
0.8724860 0.4627521 0.0000000
0.8783679 0.4627877 0.0000000
0.8842498 0.4628234 0.0000000
0.8902368 0.4628380 0.0000000
0.8962303 0.4628514 0.0000000
0.9022237 0.4628648 0.0000000
0.9082172 0.4628782 0.0000000
0.0000000 0.4932812 0.0000000
0.0170573 0.4932405 0.0000000
0.0341147 0.4931999 0.0000000
0.0511720 0.4931593 0.0000000
0.0684918 0.4931195 0.0000000
0.0860961 0.4930804 0.0000000
0.1037004 0.4930414 0.0000000
0.1213046 0.4930023 0.0000000
0.1390394 0.4930336 0.0000000
0.1711854 0.4930956 0.0000000
0.2039327 0.4933248 0.0000000
0.2369281 0.4936698 0.0000000
0.2705180 0.4942807 0.0000000
0.3044111 0.4950272 0.0000000
0.3390238 0.4961000 0.0000000
0.3738970 0.4972909 0.0000000
0.4093574 0.4988016 0.0011135
0.4699528 0.5017021 0.0035559
0.5314460 0.5051945 0.0062192
0.5919913 0.5091860 0.0086956
0.6496402 0.5127438 0.0095237
0.7024339 0.5140361 0.0034016
0.7546313 0.5150912 0.0005843
0.8068569 0.5158916 0.0000000
0.8595011 0.5164233 0.0000000
0.8677512 0.5164883 0.0000000
0.8736546 0.5165347 0.0000000
0.8795580 0.5165812 0.0000000
0.8854614 0.5166276 0.0000000
0.8914587 0.5166517 0.0000000
0.8974619 0.5166743 0.0000000
0.9034650 0.5166970 0.0000000
0.9094681 0.5167197 0.0000000
0.0000000 0.5493278 0.0000000
0.0171085 0.5493168 0.0000000
0.0342171 0.5493058 0.0000000
0.0513256 0.5492949 0.0000000
0.0687265 0.5492919 0.0000000
0.0864442 0.5492976 0.0000000
0.1041619 0.5493032 0.0000000
0.1218796 0.5493089 0.0000000
0.1397142 0.5493755 0.0000000
0.1720403 0.5495009 0.0000000
0.2048810 0.5497549 0.0000000
0.2379086 0.5500974 0.0000000
0.2713648 0.5506401 0.0000000
0.3050396 0.5512850 0.0000000
0.3392313 0.5521849 0.0000000
0.3736102 0.5531771 0.0000000
0.4084371 0.5544468 0.0000000
0.4679048 0.5569011 0.0000000
0.5283305 0.5598562 0.0001249
0.5882267 0.5632116 0.0008348
0.6469109 0.5667775 0.0027723
0.7011340 0.5684665 0.0003538
0.7541911 0.5694729 0.0000000
0.8070253 0.5702137 0.0000000
0.8600954 0.5707344 0.0000000
0.8683998 0.5708000 0.0000000
0.8743420 0.5708470 0.0000000
0.8802843 0.5708940 0.0000000
0.8862265 0.5709410 0.0000000
0.8922463 0.5709669 0.0000000
0.8982709 0.5709915 0.0000000
0.9042955 0.5710161 0.0000000
0.9103201 0.5710407 0.0000000
0.0000000 0.6055196 0.0000000
0.0171597 0.6055293 0.0000000
0.0343195 0.6055390 0.0000000
0.0514792 0.6055488 0.0000000
0.0689402 0.6055720 0.0000000
0.0867277 0.6056098 0.0000000
0.1045152 0.6056476 0.0000000
0.1223027 0.6056854 0.0000000
0.1401952 0.6057807 0.0000000
0.1726251 0.6059577 0.0000000
0.2055090 0.6062413 0.0000000
0.2385373 0.6065981 0.0000000
0.2718802 0.6071141 0.0000000
0.3053835 0.6077113 0.0000000
0.3392601 0.6085136 0.0000000
0.3732718 0.6093900 0.0000000
0.4076118 0.6104973 0.0000000
0.4661782 0.6126230 0.0000000
0.5256669 0.6151456 0.0000000
0.5847362 0.6179264 0.0000000
0.6427263 0.6207194 0.0000000
0.6984889 0.6227770 0.0000000
0.7527820 0.6240479 0.0000000
0.8064743 0.6248752 0.0000000
0.8601264 0.6254079 0.0000000
0.8685060 0.6254736 0.0000000
0.8745021 0.6255206 0.0000000
0.8804982 0.6255676 0.0000000
0.8864943 0.6256146 0.0000000
0.8925472 0.6256405 0.0000000
0.8986035 0.6256651 0.0000000
0.9046599 0.6256897 0.0000000
0.9107162 0.6257143 0.0000000
0.0000000 0.6617877 0.0000000
0.0172042 0.6618115 0.0000000
0.0344085 0.6618353 0.0000000
0.0516127 0.6618591 0.0000000
0.0691154 0.6619002 0.0000000
0.0869416 0.6619600 0.0000000
0.1047678 0.6620199 0.0000000
0.1225940 0.6620797 0.0000000
0.1405142 0.6621960 0.0000000
0.1729934 0.6624110 0.0000000
0.2058842 0.6627198 0.0000000
0.2388897 0.6630928 0.0000000
0.2721313 0.6635983 0.0000000
0.3054933 0.6641715 0.0000000
0.3391296 0.6649135 0.0000000
0.3728651 0.6657165 0.0000000
0.4068385 0.6667084 0.0000000
0.4647195 0.6685906 0.0000000
0.5234824 0.6707867 0.0000000
0.5819293 0.6731655 0.0000000
0.6395842 0.6755295 0.0000000
0.6958297 0.6774621 0.0000000
0.7509294 0.6788185 0.0000000
0.8053852 0.6797281 0.0000000
0.8596448 0.6803069 0.0000000
0.8681075 0.6803775 0.0000000
0.8741630 0.6804281 0.0000000
0.8802185 0.6804787 0.0000000
0.8862741 0.6805293 0.0000000
0.8923659 0.6805569 0.0000000
0.8984600 0.6805832 0.0000000
0.9045541 0.6806095 0.0000000
0.9106481 0.6806358 0.0000000
0.0000000 0.7180687 0.0000000
0.0172409 0.7181021 0.0000000
0.0344818 0.7181356 0.0000000
0.0517227 0.7181690 0.0000000
0.0692548 0.7182227 0.0000000
0.0871026 0.7182984 0.0000000
0.1049504 0.7183742 0.0000000
0.1227982 0.7184499 0.0000000
0.1407298 0.7185813 0.0000000
0.1732292 0.7188234 0.0000000
0.2061080 0.7191504 0.0000000
0.2390789 0.7195350 0.0000000
0.2722300 0.7200329 0.0000000
0.3054729 0.7205887 0.0000000
0.3389179 0.7212850 0.0000000
0.3724361 0.7220322 0.0000000
0.4061260 0.7229339 0.0000000
0.4634776 0.7246233 0.0000000
0.5216786 0.7265600 0.0000000
0.5796436 0.7286283 0.0000000
0.6370401 0.7306745 0.0000000
0.6934888 0.7324324 0.0000000
0.7490915 0.7337720 0.0000000
0.8041235 0.7347180 0.0000000
0.8589042 0.7353403 0.0000000
0.8674421 0.7354174 0.0000000
0.8735515 0.7354727 0.0000000
0.8796609 0.7355279 0.0000000
0.8857702 0.7355831 0.0000000
0.8918996 0.7356141 0.0000000
0.8980302 0.7356436 0.0000000
0.9041608 0.7356731 0.0000000
0.9102913 0.7357026 0.0000000
0.0000000 0.7743290 0.0000000
0.0172695 0.7743692 0.0000000
0.0345391 0.7744094 0.0000000
0.0518086 0.7744495 0.0000000
0.0693608 0.7745119 0.0000000
0.0872192 0.7745985 0.0000000
0.1050776 0.7746850 0.0000000
0.1229360 0.7747715 0.0000000
0.1408697 0.7749130 0.0000000
0.1733723 0.7751735 0.0000000
0.2062301 0.7755120 0.0000000
0.2391633 0.7759033 0.0000000
0.2722362 0.7763938 0.0000000
0.3053804 0.7769348 0.0000000
0.3386752 0.7775945 0.0000000
0.3720246 0.7782972 0.0000000
0.4054980 0.7791264 0.0000000
0.4624478 0.7806612 0.0000000
0.5202235 0.7823922 0.0000000
0.5778214 0.7842195 0.0000000
0.6350094 0.7860220 0.0000000
0.6915359 0.7876142 0.0000000
0.7474439 0.7888941 0.0000000
0.8028842 0.7898442 0.0000000
0.8580727 0.7904982 0.0000000
0.8666719 0.7905814 0.0000000
0.8728252 0.7906409 0.0000000
0.8789784 0.7907005 0.0000000
0.8851317 0.7907600 0.0000000
0.8912935 0.7907947 0.0000000
0.8974559 0.7908279 0.0000000
0.9036183 0.7908611 0.0000000
0.9097806 0.7908944 0.0000000
0.0000000 0.8305449 0.0000000
0.0172906 0.8305895 0.0000000
0.0345812 0.8306340 0.0000000
