presets/experimental/experimental-flower/look.cube
# Approximate v0 colour conversion; calibrate before claiming visual parity.
LUT_3D_SIZE 9
DOMAIN_MIN 0 0 0
DOMAIN_MAX 1 1 1
0.0176060 0.0178797 0.0169600
0.0860287 0.0301086 0.0294097
0.1766459 0.0687835 0.0638517
0.3463997 0.1035601 0.0969781
0.4805211 0.1060558 0.0957060
0.6501913 0.0735403 0.0556848
0.8494559 0.0348581 0.0149235
0.8755671 0.0321008 0.0121355
0.8997992 0.0305021 0.0105244
0.0247225 0.0846513 0.0257595
0.0755671 0.0821513 0.0246965
0.1428275 0.0915038 0.0413517
0.3067496 0.1355157 0.0828925
0.4648729 0.1541794 0.0895886
0.6488915 0.1363587 0.0537986
0.8496060 0.1035069 0.0135770
0.8757449 0.1010690 0.0108847
0.8999830 0.0996412 0.0093295
0.0151146 0.1396289 0.0179744
0.0691921 0.1308909 0.0229729
0.1314537 0.1359382 0.0337794
0.2928673 0.1727746 0.0754284
0.4514572 0.1970893 0.0849909
0.6479908 0.1919323 0.0457776
0.8502292 0.1700553 0.0109719
0.8763443 0.1682139 0.0085000
0.9005595 0.1671016 0.0070579
0.0025622 0.2563119 0.0022607
0.0685019 0.2543871 0.0039214
0.1329941 0.2529343 0.0089082
0.2648093 0.2605620 0.0342010
0.4247396 0.2808047 0.0607392
0.6491804 0.2944762 0.0306567
0.8529726 0.2892370 0.0042760
0.8789257 0.2885443 0.0022673
0.9030125 0.2880828 0.0014539
0.0000000 0.3823048 0.0000000
0.0681002 0.3816968 0.0000000
0.1369186 0.3810947 0.0000000
0.2676355 0.3829599 0.0048691
0.4126375 0.3912095 0.0192794
0.6504692 0.4066042 0.0180900
0.8568864 0.4098445 0.0000974
0.8827280 0.4098709 0.0000013
0.9066998 0.4098400 0.0000000
0.0000000 0.6055196 0.0000000
0.0689402 0.6055720 0.0000000
0.1401952 0.6057807 0.0000000
0.2718802 0.6071141 0.0000000
0.4076118 0.6104973 0.0000000
0.6427263 0.6207194 0.0000000
0.8601264 0.6254079 0.0000000
0.8864943 0.6256146 0.0000000
0.9107162 0.6257143 0.0000000
0.0000000 0.8305449 0.0000000
0.0694371 0.8307466 0.0000000
0.1409566 0.8311754 0.0000000
0.2721953 0.8326692 0.0000000
0.4049768 0.8352658 0.0000000
0.6334479 0.8415153 0.0000000
0.8572823 0.8457903 0.0000000
0.8844860 0.8460663 0.0000000
0.9092360 0.8462142 0.0000000
0.0000000 0.8564719 0.0000000
0.0694671 0.8566805 0.0000000
0.1409883 0.8571198 0.0000000
0.2721702 0.8586169 0.0000000
0.4047568 0.8611563 0.0000000
0.6328102 0.8671421 0.0000000
0.8569320 0.8713252 0.0000000
0.8841936 0.8716068 0.0000000
0.9089849 0.8717606 0.0000000
0.0000000 0.8815336 0.0000000
0.0694849 0.8817462 0.0000000
0.1410040 0.8821907 0.0000000
0.2721453 0.8836873 0.0000000
0.4046102 0.8861882 0.0000000
0.6324072 0.8920063 0.0000000
0.8566817 0.8961219 0.0000000
0.8839778 0.8964063 0.0000000
0.9087947 0.8965639 0.0000000
0.0316816 0.0319141 0.1021048
0.1049659 0.0428946 0.1082700
0.1779467 0.0548063 0.1201576
0.3425020 0.0871286 0.1462919
0.4776720 0.1030329 0.1515774
0.6467252 0.0777925 0.1234820
0.8475397 0.0341702 0.0844500
0.8738816 0.0312846 0.0818048
0.8982421 0.0296522 0.0802838
0.0183433 0.0776621 0.0722851
0.0783981 0.0816931 0.0876257
0.1460837 0.0705017 0.0781366
0.3244614 0.1134119 0.1142709
0.4737990 0.1274832 0.1188324
0.6482812 0.1006333 0.0830029
0.8488029 0.0605893 0.0409124
0.8750146 0.0577597 0.0380739
0.8992993 0.0560964 0.0364044
0.0218921 0.1388037 0.0767687
0.0532241 0.1333711 0.0585938
0.1241907 0.1291762 0.0600083
0.2815716 0.1435718 0.0894431
0.4586595 0.1773224 0.1127476
0.6468827 0.1634340 0.0779438
0.8490496 0.1321495 0.0388046
0.8752771 0.1296650 0.0361218
0.8995628 0.1281391 0.0345377
0.0056756 0.2561027 0.0692626
0.0364967 0.2549794 0.0362567
0.1107748 0.2512957 0.0382799
0.2556498 0.2529159 0.0579103
0.4261598 0.2661660 0.0921808
0.6484362 0.2717329 0.0612347
0.8513673 0.2586623 0.0323939
0.8773881 0.2572526 0.0301986
0.9015355 0.2562475 0.0288779
0.0002243 0.3820869 0.0620800
0.0300135 0.3818862 0.0271484
0.1062649 0.3808768 0.0273356
0.2491680 0.3808537 0.0319259
0.4108857 0.3889548 0.0481205
0.6512529 0.3896524 0.0469292
0.8556936 0.3854238 0.0256047
0.8814722 0.3847077 0.0247041
0.9054218 0.3840478 0.0241996
0.0000000 0.6053723 0.0537927
0.0271926 0.6054728 0.0206027
0.1023563 0.6055497 0.0205292
0.2432705 0.6064504 0.0210595
0.3887862 0.6095572 0.0222854
0.6432149 0.6206457 0.0248628
0.8601818 0.6129487 0.0197501
0.8863923 0.6120299 0.0192192
0.9105204 0.6111711 0.0188890
0.0000000 0.8304445 0.0493548
0.0259798 0.8305760 0.0175818
0.1000706 0.8308661 0.0174084
0.2383967 0.8321191 0.0173690
0.3784610 0.8345649 0.0173143
0.6202620 0.8411464 0.0168294
0.8571426 0.8458324 0.0153077
0.8844487 0.8446940 0.0150823
0.9091937 0.8435372 0.0149214
0.0000000 0.8563750 0.0490295
0.0258763 0.8565068 0.0173604
0.0998624 0.8568061 0.0171811
0.2379402 0.8580711 0.0171104
0.3776076 0.8604694 0.0169931
0.6185409 0.8667575 0.0163797
0.8553547 0.8713448 0.0149436
0.8841153 0.8716348 0.0147770
0.9089210 0.8704601 0.0146281
0.0000000 0.8814392 0.0488194
0.0257779 0.8815708 0.0171978
0.0996607 0.8818745 0.0170147
0.2375128 0.8831429 0.0169256
0.3768664 0.8855074 0.0167723
0.6171552 0.8916043 0.0160909
0.8537919 0.8961214 0.0146995
0.8825496 0.8964153 0.0145420
0.9086967 0.8965807 0.0144367
0.0618824 0.0578994 0.2081532
0.1188018 0.0494219 0.1891485
0.1809297 0.0477117 0.1849057
0.3143188 0.0574681 0.1919678
0.4488150 0.0720072 0.1975558
0.6394205 0.0720923 0.1830483
0.8442892 0.0320992 0.1525509
0.8710147 0.0292308 0.1502549
0.8955821 0.0276373 0.1489277
0.0287293 0.0808582 0.1461284
0.0856635 0.0808160 0.1761505
0.1694856 0.0824182 0.1749209
0.3093063 0.0904118 0.1703425
0.4563064 0.1097142 0.1757433
0.6413699 0.1029245 0.1522700
0.8459930 0.0595418 0.1141251
0.8725804 0.0565432 0.1113784
0.8970645 0.0548456 0.1097369
0.0220598 0.1309855 0.1255570
0.0642225 0.1377595 0.1383687
0.1335410 0.1344359 0.1399333
0.2826201 0.1250488 0.1351941
0.4598882 0.1539390 0.1531758
0.6445181 0.1368212 0.1206271
0.8478409 0.0941864 0.0751843
0.8742167 0.0910362 0.0720655
0.8985838 0.0891017 0.0701367
0.0123940 0.2568824 0.1369412
0.0416524 0.2545485 0.1143396
0.0921600 0.2507624 0.0927125
0.2415234 0.2408359 0.0974235
0.4301526 0.2519888 0.1340904
0.6469872 0.2493983 0.1025588
0.8495741 0.2279428 0.0686358
0.8757262 0.2257663 0.0660147
0.8999697 0.2241910 0.0643573
0.0020758 0.3820048 0.1315154
0.0310560 0.3814606 0.1013241
0.0767464 0.3808288 0.0715732
0.2303347 0.3782155 0.0748621
0.4068557 0.3842771 0.0914785
0.6522816 0.3724957 0.0867923
0.8541598 0.3611186 0.0605060
0.8799197 0.3596180 0.0583898
0.9038793 0.3583076 0.0570395
0.0000000 0.6051398 0.1245285
0.0271123 0.6052394 0.0878638
0.0650799 0.6053740 0.0512074
0.2147587 0.6058954 0.0515256
0.3697373 0.6085412 0.0540505
0.6440732 0.6205425 0.0601903
0.8602229 0.6003702 0.0463971
0.8862385 0.5983166 0.0450230
0.9102534 0.5964912 0.0441468
0.0000000 0.8302599 0.1205160
0.0258440 0.8304291 0.0807007
0.0597286 0.8306114 0.0408376
0.2045011 0.8316476 0.0401916
0.3518412 0.8339424 0.0400694
0.6069737 0.8407599 0.0390377
0.8569918 0.8458882 0.0354021
0.8843966 0.8433248 0.0348009
0.9091329 0.8408534 0.0343552
0.0000000 0.8561958 0.1202180
0.0257405 0.8563661 0.0801454
0.0592952 0.8565483 0.0400710
0.2035995 0.8575996 0.0394859
0.3503455 0.8598588 0.0392282
0.6041602 0.8663567 0.0378925
0.8537557 0.8713760 0.0344638
0.8840172 0.8716714 0.0340594
0.9088352 0.8691590 0.0336465
0.0000000 0.8812632 0.1200248
0.0256430 0.8814339 0.0797227
0.0588901 0.8816151 0.0395737
0.2027609 0.8826705 0.0389542
0.3490018 0.8848991 0.0386202
0.6017850 0.8911861 0.0371278
0.8508717 0.8961308 0.0338120
0.8810937 0.8964316 0.0334315
0.9085739 0.8966026 0.0331725
0.0867030 0.0685099 0.3333823
0.1306496 0.0457773 0.3103379
0.1842795 0.0358011 0.2995883
0.2983487 0.0312495 0.2947997
0.4232153 0.0347175 0.2953977
0.6295562 0.0363122 0.2880462
0.8394367 0.0231376 0.2734277
0.8663036 0.0214964 0.2720634
0.8910022 0.0204703 0.2712313
0.0860398 0.1281585 0.3235417
0.1062770 0.0865830 0.3165381
0.1625600 0.0691886 0.2983591
0.2950315 0.0634431 0.2924890
0.4236733 0.0666360 0.2815828
0.6302069 0.0687799 0.2643026
0.8393907 0.0523703 0.2426139
0.8665349 0.0501487 0.2405851
0.8913773 0.0488251 0.2392611
0.0745743 0.1700562 0.3032568
0.0929426 0.1430053 0.2971906
0.1345184 0.1174482 0.2901902
0.2870231 0.1158791 0.2863317
0.4235006 0.1135869 0.2669447
0.6300380 0.1128218 0.2408582
0.8396829 0.0894383 0.2117939
0.8672051 0.0862455 0.2090429
0.8921532 0.0844282 0.2072100
0.0346506 0.2638306 0.2688826
0.0574031 0.2551188 0.2617032
0.1014799 0.2457267 0.2529733
0.2301301 0.2320160 0.2349925
0.4101817 0.2179243 0.2261223
0.6364456 0.2055332 0.1953357
0.8426728 0.1717140 0.1529738
0.8698974 0.1678619 0.1492618
0.8947465 0.1652109 0.1466627
0.0098157 0.3833256 0.2588582
0.0377218 0.3819672 0.2428842
0.0812923 0.3799024 0.2263621
0.1973544 0.3728387 0.1939743
0.3845347 0.3682372 0.1947400
0.6546056 0.3394313 0.1822000
0.8475438 0.3156220 0.1441113
0.8736286 0.3127446 0.1408153
0.8978820 0.3103151 0.1384799
0.0000000 0.6048060 0.2524636
0.0269234 0.6047233 0.2256838
0.0645713 0.6046695 0.1989163
0.1635809 0.6046279 0.1501947
0.3334254 0.6057143 0.1497994
0.6491811 0.6202992 0.1564189
0.8600717 0.5771491 0.1295472
0.8851582 0.5728963 0.1267973
0.9087128 0.5692449 0.1247810
0.0000000 0.8298084 0.2491532
0.0253695 0.8299649 0.2168270
0.0587300 0.8301461 0.1844722
0.1438080 0.8307882 0.1253677
0.3029399 0.8325804 0.1239232
0.5824535 0.8399399 0.1223410
0.8565103 0.8462387 0.1179353
0.8840094 0.8410277 0.1159456
0.9086653 0.8361139 0.1142450
0.0000000 0.8557473 0.2489109
0.0252635 0.8559132 0.2161197
0.0583001 0.8561022 0.1832971
0.1421202 0.8567556 0.1233251
0.3003436 0.8585578 0.1218078
0.5776145 0.8655062 0.1199496
0.8505941 0.8716235 0.1156753
0.8834815 0.8718727 0.1151999
0.9082811 0.8668926 0.1135378
0.0000000 0.8808189 0.2487545
0.0251678 0.8809900 0.2155407
0.0579070 0.8811827 0.1822946
0.1405597 0.8818371 0.1215411
0.2979529 0.8836311 0.1199777
0.5734295 0.8902984 0.1179916
0.8452843 0.8962963 0.1138053
0.8780864 0.8965666 0.1133530
0.9079194 0.8967042 0.1130517
0.0654700 0.0351404 0.4216991
0.1217897 0.0260286 0.4158924
0.1785939 0.0194235 0.4114609
0.2909629 0.0149657 0.4084394
0.4125336 0.0155218 0.4079422
0.6245507 0.0169181 0.4039724
0.8379761 0.0128131 0.3962929
0.8646687 0.0122168 0.3955280
0.8892173 0.0118015 0.3950436
0.0789598 0.1095987 0.4206571
0.0941342 0.0630885 0.4185718
0.1526422 0.0513181 0.4115351
0.2747689 0.0443724 0.4072281
0.4111651 0.0455452 0.4071195
0.6249104 0.0462211 0.3880976
0.8376208 0.0408714 0.3720037
0.8643069 0.0400881 0.3704754
0.8888848 0.0395289 0.3693610
0.0785184 0.1592490 0.4034122
0.0956239 0.1315788 0.4083987
0.1281606 0.0984904 0.4097085
0.2574130 0.0891758 0.4047838
0.4089257 0.0914019 0.4055217
0.6252375 0.0861930 0.3720045
0.8370774 0.0771687 0.3477180
0.8638361 0.0758966 0.3454267
0.8885086 0.0749524 0.3436920
0.0671714 0.2640547 0.3871412
0.0916417 0.2483421 0.3888934
0.1162701 0.2290043 0.3899556
0.2096586 0.1967180 0.3907290
0.3980337 0.2110637 0.3974419
0.6268162 0.1834332 0.3403491
0.8322829 0.1621423 0.3004904
0.8596405 0.1595049 0.2970587
0.8850887 0.1574338 0.2944890
0.0208835 0.3865253 0.3886685
0.0501126 0.3857981 0.3893112
0.0943619 0.3843986 0.3902556
0.1943390 0.3690108 0.3859136
0.3582810 0.3620981 0.3656754
0.6385327 0.3065335 0.3028429
0.8322585 0.2679213 0.2511564
0.8596474 0.2640733 0.2467421
0.8852165 0.2607796 0.2433533
0.0000000 0.6048984 0.3817741
0.0268090 0.6046589 0.3649176
0.0641864 0.6043341 0.3479746
0.1607669 0.6030483 0.3162339
0.2947375 0.6020735 0.2831540
0.6518360 0.6198261 0.2793278
0.8564365 0.5520826 0.2364849
0.8797770 0.5454462 0.2321830
0.9026777 0.5399660 0.2287408
0.0000000 0.8293767 0.3787629
0.0247077 0.8294522 0.3538180
0.0571858 0.8295554 0.3288610
0.1418183 0.8299600 0.2831298
0.2544329 0.8310791 0.2370808
0.5561707 0.8386568 0.2324463
0.8554716 0.8471695 0.2256997
0.8828947 0.8391139 0.2218377
0.9073526 0.8315872 0.2185030
0.0000000 0.8552995 0.3785627
0.0245932 0.8553928 0.3529456
0.0567467 0.8555149 0.3273167
0.1401970 0.8559770 0.2803803
0.2508082 0.8571258 0.2331255
0.5494182 0.8642291 0.2284023
0.8467828 0.8722575 0.2218619
0.8820916 0.8722931 0.2213330
0.9068142 0.8647395 0.2180083
0.0000000 0.8803637 0.3784370
0.0244970 0.8804678 0.3522053
0.0563617 0.8806010 0.3259622
0.1386887 0.8810918 0.2779182
0.2474340 0.8822412 0.2295580
0.5434859 0.8890028 0.2248135
0.8390056 0.8967399 0.2185252
0.8742380 0.8968569 0.2179998
0.9062952 0.8968392 0.2177063
0.0280566 0.0034535 0.6172049
0.0958079 0.0025226 0.6170517
0.1618774 0.0014386 0.6168943
0.2821814 0.0004794 0.6168453
0.4051460 0.0009134 0.6167571
0.6201853 0.0021864 0.6148178
0.8379346 0.0020012 0.6116633
0.8648416 0.0019234 0.6113385
0.8894587 0.0018610 0.6111251
0.0288478 0.0732059 0.6156004
0.0551791 0.0308173 0.6165908
0.1270070 0.0295838 0.6164891
0.2560093 0.0281390 0.6165186
0.3879513 0.0285690 0.6166019
0.6195850 0.0301248 0.6146108
0.8377400 0.0289528 0.5993383
0.8646194 0.0287747 0.5978988
0.8892170 0.0286262 0.5967331
0.0297298 0.1413420 0.6126109
0.0558483 0.1052072 0.6143223
0.0924081 0.0685668 0.6157215
0.2299406 0.0665441 0.6159419
0.3706183 0.0669332 0.6162893
0.6189111 0.0688759 0.6142890
0.8374764 0.0639836 0.5869424
0.8643226 0.0634492 0.5843857
0.8888973 0.0629955 0.5822665
0.0295228 0.2642141 0.6071852
0.0563494 0.2375555 0.6076358
0.0926538 0.2112120 0.6090344
0.1816945 0.1624625 0.6129962
0.3369567 0.1630714 0.6147639
0.6170534 0.1667161 0.6126700
0.8360939 0.1477017 0.5629099
0.8628129 0.1458736 0.5583107
0.8873043 0.1443131 0.5544571
0.0166991 0.3882394 0.6060460
0.0462526 0.3712124 0.6061828
0.0852637 0.3539622 0.6063258
0.1738162 0.3209005 0.6083192
0.2977445 0.2907789 0.6121251
0.6150530 0.3002967 0.6102042
0.8331813 0.2564688 0.5361755
0.8594580 0.2524830 0.5294950
0.8836439 0.2490989 0.5239025
0.0000000 0.6057990 0.6024306
0.0263335 0.6052196 0.6022784
0.0630233 0.6045134 0.6020345
0.1578808 0.6017182 0.6003921
0.2819907 0.5942613 0.5942384
0.6224088 0.6313514 0.6297657
0.8310038 0.5028092 0.4813942
0.8535726 0.4912942 0.4701445
0.8749519 0.4818850 0.4607750
0.0000000 0.8291524 0.6001538
0.0236735 0.8291044 0.5877236
0.0546171 0.8290539 0.5752721
0.1380509 0.8288632 0.5521004
0.2481526 0.8287847 0.5281410
0.5044542 0.8336416 0.4854994
0.8471523 0.8479538 0.4587798
0.8739563 0.8360742 0.4487381
0.8974545 0.8230989 0.4424496
0.0000000 0.8550035 0.6000124
0.0235329 0.8549737 0.5865413
0.0541261 0.8549458 0.5730514
0.1364439 0.8548617 0.5480348
0.2448966 0.8549858 0.5223211
0.4959011 0.8595136 0.4764383
0.8347290 0.8720969 0.4533486
0.8732525 0.8718183 0.4522836
0.8972877 0.8594387 0.4450071
0.0000000 0.8800246 0.5999271
0.0234249 0.8800065 0.5855043
0.0537239 0.8799928 0.5710643
0.1349643 0.8799707 0.5443489
0.2417737 0.8802009 0.5169933
0.4879010 0.8845217 0.4681909
0.8230614 0.8959776 0.4478088
0.8617095 0.8957646 0.4468535
0.8967288 0.8946595 0.4476679
0.0112486 0.0000000 0.8310280
0.0813250 0.0000000 0.8310439
0.1506610 0.0000000 0.8310708
0.2760762 0.0000000 0.8310927
0.4017265 0.0000000 0.8309630
0.6188558 0.0000000 0.8299446
0.8385003 0.0000000 0.8283539
0.8655887 0.0000000 0.8281871
0.8903195 0.0000000 0.8280764
0.0108913 0.0652099 0.8305170
0.0375064 0.0243237 0.8308611
0.1111937 0.0242563 0.8308891
0.2440072 0.0243332 0.8309468
0.3767152 0.0246458 0.8308861
0.6061416 0.0253707 0.8299096
0.8382370 0.0256436 0.8282175
0.8655063 0.0255494 0.8267250
0.8902312 0.0254513 0.8253186
0.0101461 0.1351603 0.8295659
0.0369678 0.0955853 0.8301499
0.0716920 0.0559686 0.8306483
0.2118906 0.0559478 0.8307356
0.3517045 0.0565906 0.8307310
0.5933931 0.0583475 0.8298394
0.8379503 0.0590510 0.8280395
0.8653999 0.0586662 0.8252205
0.8901185 0.0582755 0.8225180
0.0076594 0.2618451 0.8271099
0.0347714 0.2297926 0.8278001
0.0697335 0.1976994 0.8284693
0.1527297 0.1390954 0.8296202
0.3052692 0.1394145 0.8297901
0.5696972 0.1419414 0.8292019
0.8371004 0.1428238 0.8271050
0.8648717 0.1412518 0.8218588
0.8895723 0.1397039 0.8167902
0.0035525 0.3882143 0.8243900
0.0308872 0.3633148 0.8248482
0.0659970 0.3384438 0.8253682
0.1490892 0.2931138 0.8264220
0.2577236 0.2481593 0.8276307
0.5452726 0.2519710 0.8277315
0.8357871 0.2530736 0.8252171
0.8638451 0.2495440 0.8175106
0.8885011 0.2460993 0.8100557
0.0000000 0.6072678 0.8207126
0.0247126 0.5945647 0.8207583
0.0572572 0.5818355 0.8207667
0.1402731 0.5582476 0.8201342
0.2483022 0.5341819 0.8185127
0.5025309 0.5042757 0.8217011
0.8328867 0.5048764 0.8197843
0.8609722 0.4957304 0.8073658
0.8852454 0.4869969 0.7954440
0.0000000 0.8296720 0.8188402
0.0232426 0.8295635 0.8187387
0.0535144 0.8294469 0.8186064
0.1367640 0.8291326 0.8179013
0.2464821 0.8287174 0.8164221
0.4964512 0.8283162 0.8117253
0.8215760 0.8246478 0.8151257
0.8430429 0.8049843 0.7926584
0.8677084 0.7900811 0.7740761
0.0000000 0.8554258 0.8187192
0.0230781 0.8554015 0.8172823
0.0529721 0.8553707 0.8158164
0.1350527 0.8552366 0.8127150
0.2429861 0.8550328 0.8089027
0.4882736 0.8550847 0.8005063
0.8036632 0.8461889 0.7952659
0.8440791 0.8447672 0.7938832
0.8685659 0.8302194 0.7744809
0.0000000 0.8803810 0.8186455
0.0229474 0.8803577 0.8159133
0.0525140 0.8803289 0.8131535
0.1334401 0.8802138 0.8077199
0.2396006 0.8800462 0.8016155
0.4802258 0.8801982 0.7893898
0.7910246 0.8739341 0.7795498
0.8315255 0.8719776 0.7766587
0.8713965 0.8724450 0.7743868
0.0102016 0.0000000 0.8557247
0.0803801 0.0000000 0.8557383
0.1498819 0.0000000 0.8557602
0.2756143 0.0000000 0.8557705
0.4014763 0.0000000 0.8556314
0.6187800 0.0000000 0.8546697
0.8385523 0.0000000 0.8531854
0.8656536 0.0000000 0.8530293
0.8903926 0.0000000 0.8529257
0.0098257 0.0647951 0.8552573
0.0363755 0.0240414 0.8555722
0.1100908 0.0239891 0.8555945
0.2430523 0.0240924 0.8556355
0.3758110 0.0244080 0.8555595
0.6050659 0.0251252 0.8546393
0.8369284 0.0254170 0.8530644
0.8655267 0.0254264 0.8528972
0.8903143 0.0253337 0.8515113
0.0090558 0.1348336 0.8543799
0.0358203 0.0949873 0.8549200
0.0702627 0.0551540 0.8553776
0.2104338 0.0552033 0.8554415
0.3501425 0.0558597 0.8554151
0.5913194 0.0575904 0.8545753
0.8352834 0.0583400 0.8529054
0.8653781 0.0583628 0.8527260
0.8902133 0.0579925 0.8500594
0.0065759 0.2617190 0.8520631
0.0336213 0.2291957 0.8527264
0.0683117 0.1966303 0.8533608
0.1503793 0.1371814 0.8544235
0.3025812 0.1375225 0.8545270
0.5658277 0.1399518 0.8539703
0.8319861 0.1409112 0.8520585
0.8648004 0.1409179 0.8518392
0.8897166 0.1394351 0.8468341
0.0027047 0.3882605 0.8494069
0.0298910 0.3627102 0.8498869
0.0646969 0.3371896 0.8504069
0.1469369 0.2907129 0.8514067
0.2540379 0.2445388 0.8525250
0.5396385 0.2479926 0.8525275
0.8282696 0.2492695 0.8503466
0.8637679 0.2492114 0.8500452
0.8887417 0.2459082 0.8426821
0.0000000 0.6074244 0.8456835
0.0245713 0.5937347 0.8457548
0.0567525 0.5800258 0.8457941
0.1387257 0.5547770 0.8453285
0.2454281 0.5293678 0.8441960
0.4933823 0.4942519 0.8462815
0.8213119 0.4961033 0.8453253
0.8608641 0.4953031 0.8444194
0.8856852 0.4869724 0.8327156
0.0000000 0.8297423 0.8438042
0.0231269 0.8282575 0.8437122
0.0530858 0.8267654 0.8435907
0.1351029 0.8239570 0.8429289
0.2428987 0.8210564 0.8415328
0.4875636 0.8161698 0.8366597
0.8065057 0.8089086 0.8389277
0.8440289 0.8057234 0.8357128
0.8692628 0.7912899 0.8171453
0.0000000 0.8554862 0.8436823
0.0230532 0.8554277 0.8435875
0.0529077 0.8553637 0.8434645
0.1349725 0.8551813 0.8428246
0.2429005 0.8549508 0.8415084
0.4879650 0.8547394 0.8372304
0.8045589 0.8459185 0.8360547
0.8469926 0.8477056 0.8406675
0.8709675 0.8320783 0.8192724
0.0000000 0.8804347 0.8436080
0.0229229 0.8804165 0.8422180
0.0524552 0.8803932 0.8408022
0.1333934 0.8802971 0.8378290
0.2395875 0.8801619 0.8342130
0.4801198 0.8801770 0.8261553
0.7912560 0.8730888 0.8193279
0.8327502 0.8733339 0.8201648
0.8731568 0.8741541 0.8188077
0.0095518 0.0000000 0.8798744
0.0797882 0.0000000 0.8798858
0.1493865 0.0000000 0.8799029
0.2753125 0.0000000 0.8799027
0.4013128 0.0000000 0.8797571
0.6187337 0.0000000 0.8788311
0.8385876 0.0000000 0.8774149
0.8656969 0.0000000 0.8772658
0.8904414 0.0000000 0.8771668
0.0091705 0.0645482 0.8794301
0.0356396 0.0238401 0.8797295
0.1093310 0.0237954 0.8797474
0.2423150 0.0239126 0.8797750
0.3750504 0.0242291 0.8796882
0.6041014 0.0249388 0.8788046
0.8357113 0.0252419 0.8773053
0.8642778 0.0252527 0.8771460
0.8903476 0.0252569 0.8770377
0.0083962 0.1346389 0.8785930
0.0350824 0.0945562 0.8791097
0.0692385 0.0545357 0.8795449
0.2092573 0.0546195 0.8795924
0.3487809 0.0552806 0.8795509
0.5894379 0.0569864 0.8787457
0.8328154 0.0577640 0.8771602
0.8628385 0.0577901 0.8769896
0.8902332 0.0578008 0.8768714
0.0059451 0.2616475 0.8763570
0.0329065 0.2287002 0.8770058
0.0673161 0.1957108 0.8776223
0.1484261 0.1354954 0.8786388
0.3001752 0.1358447 0.8787061
0.5622922 0.1382030 0.8781675
0.8272559 0.1392136 0.8763744
0.8599275 0.1392261 0.8761679
0.8897303 0.1392250 0.8760201
0.0022209 0.3883022 0.8737496
0.0292984 0.3621558 0.8742407
0.0638116 0.3360383 0.8747638
0.1451259 0.2884903 0.8757464
0.2506758 0.2412022 0.8768253
0.5344772 0.2444142 0.8767650
0.8213050 0.2458011 0.8747826
0.8565954 0.2457572 0.8745046
0.8887810 0.2457110 0.8742978
0.0000000 0.6075384 0.8700149
0.0244527 0.5929382 0.8701091
0.0563187 0.5783231 0.8701754
0.1372885 0.5514953 0.8698319
0.2425475 0.5246486 0.8689870
0.4851938 0.4855168 0.8706694
0.8105397 0.4879669 0.8700199
0.8498678 0.4873036 0.8692574
0.8857866 0.4867766 0.8686400
0.0000000 0.8297967 0.8681211
0.0230283 0.8270477 0.8680380
0.0527100 0.8242920 0.8679265
0.1335926 0.8191933 0.8673054
0.2396226 0.8140143 0.8659900
0.4797401 0.8054224 0.8614502
0.7949091 0.7971084 0.8640620
0.8327389 0.7935237 0.8600066
0.8719709 0.7927549 0.8580722
0.0000000 0.8555337 0.8679979
0.0229533 0.8541713 0.8679115
0.0525296 0.8528036 0.8677979
0.1334495 0.8502525 0.8671931
0.2395882 0.8476525 0.8659389
0.4799350 0.8434266 0.8617827
0.7922168 0.8339285 0.8600278
0.8327690 0.8331233 0.8610093
0.8730286 0.8336303 0.8599650
0.0000000 0.8804773 0.8679225
0.0229087 0.8804558 0.8678322
0.0524192 0.8804303 0.8677158
0.1333616 0.8803388 0.8671208
0.2395763 0.8802226 0.8659101
0.4800975 0.8802269 0.8620097
0.7918111 0.8742360 0.8585184
0.8339990 0.8746859 0.8602749
0.8744941 0.8753341 0.8596313
