presets/experimental/experimental-flower/look.cube
# Approximate v0 colour conversion; calibrate before claiming visual parity.
LUT_3D_SIZE 5
DOMAIN_MIN 0 0 0
DOMAIN_MAX 1 1 1
0.0176060 0.0178797 0.0169600
0.1766459 0.0687835 0.0638517
0.4805211 0.1060558 0.0957060
0.8494559 0.0348581 0.0149235
0.8997992 0.0305021 0.0105244
0.0151146 0.1396289 0.0179744
0.1314537 0.1359382 0.0337794
0.4514572 0.1970893 0.0849909
0.8502292 0.1700553 0.0109719
0.9005595 0.1671016 0.0070579
0.0000000 0.3823048 0.0000000
0.1369186 0.3810947 0.0000000
0.4126375 0.3912095 0.0192794
0.8568864 0.4098445 0.0000974
0.9066998 0.4098400 0.0000000
0.0000000 0.8305449 0.0000000
0.1409566 0.8311754 0.0000000
0.4049768 0.8352658 0.0000000
0.8572823 0.8457903 0.0000000
0.9092360 0.8462142 0.0000000
0.0000000 0.8815336 0.0000000
0.1410040 0.8821907 0.0000000
0.4046102 0.8861882 0.0000000
0.8566817 0.8961219 0.0000000
0.9087947 0.8965639 0.0000000
0.0618824 0.0578994 0.2081532
0.1809297 0.0477117 0.1849057
0.4488150 0.0720072 0.1975558
0.8442892 0.0320992 0.1525509
0.8955821 0.0276373 0.1489277
0.0220598 0.1309855 0.1255570
0.1335410 0.1344359 0.1399333
0.4598882 0.1539390 0.1531758
0.8478409 0.0941864 0.0751843
0.8985838 0.0891017 0.0701367
0.0020758 0.3820048 0.1315154
0.0767464 0.3808288 0.0715732
0.4068557 0.3842771 0.0914785
0.8541598 0.3611186 0.0605060
0.9038793 0.3583076 0.0570395
0.0000000 0.8302599 0.1205160
0.0597286 0.8306114 0.0408376
0.3518412 0.8339424 0.0400694
0.8569918 0.8458882 0.0354021
0.9091329 0.8408534 0.0343552
0.0000000 0.8812632 0.1200248
0.0588901 0.8816151 0.0395737
0.3490018 0.8848991 0.0386202
0.8508717 0.8961308 0.0338120
0.9085739 0.8966026 0.0331725
0.0654700 0.0351404 0.4216991
0.1785939 0.0194235 0.4114609
0.4125336 0.0155218 0.4079422
0.8379761 0.0128131 0.3962929
0.8892173 0.0118015 0.3950436
0.0785184 0.1592490 0.4034122
0.1281606 0.0984904 0.4097085
0.4089257 0.0914019 0.4055217
0.8370774 0.0771687 0.3477180
0.8885086 0.0749524 0.3436920
0.0208835 0.3865253 0.3886685
0.0943619 0.3843986 0.3902556
0.3582810 0.3620981 0.3656754
0.8322585 0.2679213 0.2511564
0.8852165 0.2607796 0.2433533
0.0000000 0.8293767 0.3787629
0.0571858 0.8295554 0.3288610
0.2544329 0.8310791 0.2370808
0.8554716 0.8471695 0.2256997
0.9073526 0.8315872 0.2185030
0.0000000 0.8803637 0.3784370
0.0563617 0.8806010 0.3259622
0.2474340 0.8822412 0.2295580
0.8390056 0.8967399 0.2185252
0.9062952 0.8968392 0.2177063
0.0112486 0.0000000 0.8310280
0.1506610 0.0000000 0.8310708
0.4017265 0.0000000 0.8309630
0.8385003 0.0000000 0.8283539
0.8903195 0.0000000 0.8280764
0.0101461 0.1351603 0.8295659
0.0716920 0.0559686 0.8306483
0.3517045 0.0565906 0.8307310
0.8379503 0.0590510 0.8280395
0.8901185 0.0582755 0.8225180
0.0035525 0.3882143 0.8243900
0.0659970 0.3384438 0.8253682
0.2577236 0.2481593 0.8276307
0.8357871 0.2530736 0.8252171
0.8885011 0.2460993 0.8100557
0.0000000 0.8296720 0.8188402
0.0535144 0.8294469 0.8186064
0.2464821 0.8287174 0.8164221
0.8215760 0.8246478 0.8151257
0.8677084 0.7900811 0.7740761
0.0000000 0.8803810 0.8186455
0.0525140 0.8803289 0.8131535
0.2396006 0.8800462 0.8016155
0.7910246 0.8739341 0.7795498
0.8713965 0.8724450 0.7743868
0.0095518 0.0000000 0.8798744
0.1493865 0.0000000 0.8799029
0.4013128 0.0000000 0.8797571
0.8385876 0.0000000 0.8774149
0.8904414 0.0000000 0.8771668
0.0083962 0.1346389 0.8785930
0.0692385 0.0545357 0.8795449
0.3487809 0.0552806 0.8795509
0.8328154 0.0577640 0.8771602
0.8902332 0.0578008 0.8768714
0.0022209 0.3883022 0.8737496
0.0638116 0.3360383 0.8747638
0.2506758 0.2412022 0.8768253
0.8213050 0.2458011 0.8747826
0.8887810 0.2457110 0.8742978
0.0000000 0.8297967 0.8681211
0.0527100 0.8242920 0.8679265
0.2396226 0.8140143 0.8659900
0.7949091 0.7971084 0.8640620
0.8719709 0.7927549 0.8580722
0.0000000 0.8804773 0.8679225
0.0524192 0.8804303 0.8677158
0.2395763 0.8802226 0.8659101
0.7918111 0.8742360 0.8585184
0.8744941 0.8753341 0.8596313
