catalog/styles/film/film-kodak/look.cube
# film-kodak iteration 3
LUT_3D_SIZE 5
DOMAIN_MIN 0 0 0
DOMAIN_MAX 1 1 1
0.1827943 0.1539171 0.1611896
0.1548608 0.1049060 0.1151975
0.1914896 0.0134676 0.0426786
0.4629561 0.0000000 0.0000000
0.8505398 0.0000000 0.0000000
0.0511044 0.0933043 0.0380220
0.0442318 0.0424653 0.0104694
0.2488248 0.1322462 0.0373371
0.3952482 0.1038939 0.0178806
0.7530051 0.0930596 0.0040688
0.1836933 0.3353211 0.1456236
0.2152443 0.3272988 0.1154013
0.3791331 0.3912418 0.1311604
0.5787908 0.4027398 0.1158816
0.7999585 0.3618616 0.0954916
0.2036389 0.4963606 0.1877997
0.2646109 0.5101028 0.1594204
0.3749045 0.5438823 0.1475941
0.6490145 0.6814492 0.2205544
0.9619198 0.7501095 0.0268109
0.1943748 0.6433350 0.2237134
0.2782663 0.6691908 0.1886299
0.4231237 0.7288997 0.1886476
0.6924679 0.8902834 0.2634290
1.0000000 1.0000000 0.4863168
0.0984412 0.0918250 0.1102398
0.0602828 0.0353104 0.0642969
0.2042000 0.0309771 0.1174783
0.5803027 0.0769610 0.1700095
0.9271437 0.1310029 0.1451984
0.0369742 0.0867185 0.0667451
0.0859806 0.0859313 0.0908859
0.1995624 0.1023671 0.1219658
0.4770420 0.1679576 0.1728273
0.8757947 0.2734001 0.2117086
0.0831351 0.2342208 0.1590890
0.2115314 0.3118441 0.1997301
0.3617605 0.3732219 0.2133965
0.5069225 0.3482254 0.2439299
0.8636130 0.3659689 0.2098162
0.1813788 0.4841511 0.3018559
0.3058722 0.5489461 0.3127616
0.4211433 0.5836846 0.3074578
0.6417667 0.6603634 0.3627775
0.9541258 0.6976512 0.3996225
0.2698016 0.7359948 0.4310072
0.3555482 0.7519862 0.3843665
0.4922110 0.8067994 0.3843345
0.7306474 0.9409855 0.4833366
1.0000000 1.0000000 0.7067543
0.0375178 0.0451031 0.1457350
0.0328780 0.0231420 0.1259781
0.1994311 0.0602907 0.2260846
0.5588790 0.1715296 0.3846377
0.9389068 0.3145239 0.4869287
0.0439653 0.0852089 0.1324672
0.1224543 0.1365348 0.2304256
0.2720906 0.1827671 0.3066806
0.5804338 0.2757340 0.3943321
0.9248032 0.4198661 0.4995267
0.1140695 0.2718831 0.2880573
0.2228833 0.3251144 0.3344892
0.3733197 0.3901051 0.3908821
0.6192389 0.4235157 0.3967523
0.8948657 0.4745845 0.4684943
0.2175182 0.5357463 0.4657823
0.3296119 0.5826537 0.4691109
0.4733734 0.6370743 0.4876647
0.6692214 0.6902251 0.5388288
0.9314509 0.6633516 0.4844475
0.3348742 0.7963241 0.6199167
0.4103552 0.8065786 0.5560253
0.5381063 0.8582187 0.5605169
0.7742616 0.9912205 0.6935993
1.0000000 1.0000000 0.9072281
0.0139907 0.0300153 0.3462180
0.0794602 0.0724237 0.3626157
0.2450038 0.1346071 0.4250496
0.5049702 0.2420142 0.5503016
0.8066419 0.3735397 0.6929724
0.0726348 0.1317889 0.3869301
0.1685867 0.1962204 0.4570285
0.3236172 0.2657625 0.5148281
0.6098131 0.4107805 0.6360850
0.9250680 0.5738130 0.7626020
0.0766625 0.2511472 0.3270542
0.2532368 0.3622032 0.5181256
0.4305364 0.4698726 0.6605941
0.7154017 0.6134495 0.7416086
0.9955457 0.7137737 0.7701083
0.3064976 0.6183473 0.6564977
0.3282600 0.5805242 0.6023634
0.4731647 0.6486490 0.6734241
0.7710497 0.8074801 0.8122643
1.0000000 0.8557642 0.8167083
0.3913576 0.8360214 0.8066372
0.4347326 0.8389815 0.7424408
0.5284932 0.8528721 0.7059249
0.7333679 0.9353187 0.8005491
1.0000000 1.0000000 1.0000000
0.3555546 0.4038075 0.9394345
0.2351609 0.2076172 0.7435229
0.3055507 0.2218465 0.6782182
0.4574579 0.3076052 0.7072340
0.6352868 0.4107895 0.8043950
0.2194050 0.3092149 0.8554823
0.2580112 0.2938281 0.7248953
0.4083452 0.3830659 0.7510934
0.6257498 0.5479526 0.8739039
0.8920829 0.7467566 1.0000000
0.2954226 0.5530228 0.9837104
0.2626437 0.3718580 0.6756056
0.4317967 0.4668901 0.7561110
0.7525525 0.7457440 0.9995223
1.0000000 1.0000000 1.0000000
0.2496830 0.5537469 0.7316719
0.3085663 0.5791316 0.7905907
0.4321642 0.6026609 0.8229424
0.7430285 0.8044492 0.9634145
1.0000000 1.0000000 1.0000000
0.4727964 0.9024047 1.0000000
0.4407690 0.8641614 0.9657291
0.4923781 0.8411670 0.9282377
0.6919771 0.8606582 0.8981138
1.0000000 1.0000000 1.0000000
