catalog/styles/film/film-kodak/look.cube
# film-kodak iteration 3
LUT_3D_SIZE 9
DOMAIN_MIN 0 0 0
DOMAIN_MAX 1 1 1
0.1827943 0.1539171 0.1611896
0.1609489 0.1281942 0.1328269
0.1548608 0.1049060 0.1151975
0.1476660 0.0523050 0.0773883
0.1914896 0.0134676 0.0426786
0.3082553 0.0065542 0.0199577
0.4629561 0.0000000 0.0000000
0.6382255 0.0000000 0.0000000
0.8505398 0.0000000 0.0000000
0.0797990 0.0818532 0.0774737
0.0792674 0.0682533 0.0611843
0.0984641 0.0674257 0.0512414
0.1249938 0.0485788 0.0363491
0.1880621 0.0423096 0.0329039
0.2827748 0.0449850 0.0193099
0.3871472 0.0369942 0.0000000
0.5297665 0.0171500 0.0000000
0.7607070 0.0000000 0.0000000
0.0511044 0.0933043 0.0380220
0.0230085 0.0417245 0.0160785
0.0442318 0.0424653 0.0104694
0.1497009 0.0988121 0.0236126
0.2488248 0.1322462 0.0373371
0.2984662 0.1060824 0.0328901
0.3952482 0.1038939 0.0178806
0.5229451 0.1065633 0.0029344
0.7530051 0.0930596 0.0040688
0.1244074 0.2177275 0.0878791
0.0877403 0.1598310 0.0551000
0.0759799 0.1248440 0.0229913
0.1621249 0.1592914 0.0063967
0.3859183 0.3054642 0.0858656
0.3788733 0.2301656 0.0816084
0.4657031 0.2054524 0.0482325
0.5940367 0.2220070 0.0215568
0.7650056 0.2520324 0.0303206
0.1836933 0.3353211 0.1456236
0.1858646 0.3202026 0.1239563
0.2152443 0.3272988 0.1154013
0.2849460 0.3560577 0.1169839
0.3791331 0.3912418 0.1311604
0.4760262 0.4045849 0.1283548
0.5787908 0.4027398 0.1158816
0.6377969 0.3677552 0.1067293
0.7999585 0.3618616 0.0954916
0.1986642 0.4181149 0.1695119
0.2273390 0.4270109 0.1574766
0.2525284 0.4302435 0.1431321
0.2863136 0.4337068 0.1294245
0.3775825 0.4736128 0.1426373
0.4921826 0.5146589 0.1467178
0.6411680 0.5758236 0.1676159
0.7535151 0.5645849 0.1569320
0.8786695 0.5210956 0.0568748
0.2036389 0.4963606 0.1877997
0.2354343 0.5055773 0.1739429
0.2646109 0.5101028 0.1594204
0.3037291 0.5179370 0.1483604
0.3749045 0.5438823 0.1475941
0.4917575 0.6000262 0.1741534
0.6490145 0.6814492 0.2205544
0.8098240 0.7357628 0.1980826
0.9619198 0.7501095 0.0268109
0.2011139 0.5710164 0.2057500
0.2350026 0.5800555 0.1890358
0.2717283 0.5889167 0.1738801
0.3206008 0.6031757 0.1638704
0.3966310 0.6350260 0.1692404
0.5131890 0.6965366 0.2009795
0.6681294 0.7835579 0.2448818
0.8448551 0.8804248 0.2618985
1.0000000 0.9669498 0.2467029
0.1943748 0.6433350 0.2237134
0.2333965 0.6554892 0.2048730
0.2782663 0.6691908 0.1886299
0.3382490 0.6903928 0.1810895
0.4231237 0.7288997 0.1886476
0.5401938 0.7928204 0.2137323
0.6924679 0.8902834 0.2634290
0.8741930 1.0000000 0.3567853
1.0000000 1.0000000 0.4863168
0.1238808 0.1088117 0.1220993
0.1079588 0.0860395 0.0979243
0.0956560 0.0585787 0.0782208
0.1149639 0.0327164 0.0687362
0.2057525 0.0266902 0.0780071
0.3593953 0.0326448 0.0828835
0.5438469 0.0279458 0.0652693
0.7210151 0.0102745 0.0355889
0.8761129 0.0000000 0.0031193
0.0662211 0.0776707 0.0737351
0.0685088 0.0680057 0.0670635
0.0821159 0.0552393 0.0445710
0.1180334 0.0438953 0.0462565
0.1922119 0.0492462 0.0714059
0.3173069 0.0680109 0.0841325
0.4733546 0.0836952 0.0810947
0.6488785 0.0941023 0.0720998
0.8319006 0.1024656 0.0677920
0.0384678 0.0854726 0.0487735
0.0401321 0.0659948 0.0409860
0.0784235 0.0764203 0.0430772
0.1378183 0.0886935 0.0487164
0.2122701 0.1082836 0.0684657
0.2870337 0.1081975 0.0870015
0.4263968 0.1339098 0.0935150
0.6083889 0.1631488 0.0909152
0.8032973 0.1902701 0.0984487
0.0629632 0.1576297 0.0785020
0.0795496 0.1504089 0.0747593
0.1126914 0.1594378 0.0678167
0.2005965 0.2047451 0.0788401
0.4149513 0.3345898 0.1159573
0.3765934 0.2402917 0.1281474
0.4227061 0.2073194 0.1295181
0.5889073 0.2358607 0.1270653
0.8231217 0.2819180 0.1208618
0.1120767 0.2646011 0.1371306
0.1531179 0.2833671 0.1409852
0.2162738 0.3190828 0.1518065
0.2984072 0.3622617 0.1635812
0.3935288 0.4028225 0.1733973
0.5197167 0.4455074 0.2094560
0.5242858 0.3685311 0.2093230
0.6367195 0.3610726 0.1963424
0.8665196 0.3669014 0.1388472
0.1564926 0.3776299 0.1936618
0.2096117 0.4072207 0.1986859
0.2661631 0.4358607 0.2041754
0.3249264 0.4591094 0.2121504
0.3945214 0.4851611 0.2244683
0.4895691 0.5125767 0.2409529
0.6155766 0.5423068 0.2773873
0.7441888 0.5368809 0.2716028
0.8923416 0.4978486 0.1968554
0.1897255 0.4871656 0.2426797
0.2396942 0.5108744 0.2401060
0.2867474 0.5297237 0.2360068
0.3359206 0.5451858 0.2335302
0.4016982 0.5670292 0.2372336
0.5030738 0.6093000 0.2578143
0.6455111 0.6677714 0.2990803
0.8037936 0.7078870 0.3231486
0.9626689 0.7177989 0.3075517
0.2133995 0.5908994 0.2865439
0.2577230 0.6065272 0.2743193
0.3026184 0.6208354 0.2627308
0.3541896 0.6366591 0.2542570
0.4256004 0.6640494 0.2569657
0.5317629 0.7150341 0.2822038
0.6750583 0.7887023 0.3291745
0.8429094 0.8710558 0.3867994
1.0000000 0.9513760 0.4470339
0.2326981 0.6913797 0.3282400
0.2730189 0.7008280 0.3067737
0.3180381 0.7122848 0.2883088
0.3766515 0.7321081 0.2789374
0.4577843 0.7680070 0.2853405
0.5676864 0.8261349 0.3131681
0.7096909 0.9138425 0.3718348
0.8798404 1.0000000 0.4684920
1.0000000 1.0000000 0.5887291
0.0984412 0.0918250 0.1102398
0.0713666 0.0603336 0.0811921
0.0602828 0.0353104 0.0642969
0.0932239 0.0224352 0.0753607
0.2042000 0.0309771 0.1174783
0.3816927 0.0547498 0.1559616
0.5803027 0.0769610 0.1700095
0.7690708 0.0980951 0.1648622
0.9271437 0.1310029 0.1451984
0.0586316 0.0760827 0.0761961
0.0522300 0.0586011 0.0722446
0.0630441 0.0460637 0.0670840
0.1114650 0.0485472 0.0824712
0.2100751 0.0683413 0.1238732
0.3572492 0.0979517 0.1608312
0.5326040 0.1280601 0.1763069
0.7197242 0.1652021 0.1835104
0.9068470 0.2096850 0.1909887
0.0369742 0.0867185 0.0667451
0.0417747 0.0700065 0.0654960
0.0859806 0.0859313 0.0908859
0.1534353 0.1113941 0.1186311
0.1995624 0.1023671 0.1219658
0.3160408 0.1283018 0.1499325
0.4770420 0.1679576 0.1728273
0.6684110 0.2161547 0.1927706
0.8757947 0.2734001 0.2117086
0.0468588 0.1414660 0.0999044
0.0812542 0.1478629 0.1078631
0.1311334 0.1744009 0.1254028
0.2050750 0.2116685 0.1529464
0.2776291 0.2196529 0.1695473
0.3051908 0.1752871 0.1210664
0.4414264 0.2163518 0.1727395
0.6322129 0.2636387 0.1993914
0.8556394 0.3164913 0.2191333
0.0831351 0.2342208 0.1590890
0.1415148 0.2674799 0.1771972
0.2115314 0.3118441 0.1997301
0.2878993 0.3529891 0.2131765
0.3617605 0.3732219 0.2133965
0.5080805 0.4325838 0.2562771
0.5069225 0.3482254 0.2439299
0.6509404 0.3534103 0.2288072
0.8636130 0.3659689 0.2098162
0.1308333 0.3536347 0.2295633
0.2003045 0.3974494 0.2492065
0.2699638 0.4381616 0.2649729
0.3314692 0.4640951 0.2641806
0.3967104 0.4844988 0.2648977
0.4926616 0.5132713 0.3008997
0.6088652 0.5299297 0.3255906
0.7363093 0.5192220 0.3062186
0.8921389 0.4813808 0.2511915
0.1813788 0.4841511 0.3018559
0.2451201 0.5190678 0.3091548
0.3058722 0.5489461 0.3127616
0.3619817 0.5693282 0.3104958
0.4211433 0.5836846 0.3074578
0.5111015 0.6139033 0.3246581
0.6417667 0.6603634 0.3627775
0.7923740 0.6918716 0.3941407
0.9541258 0.6976512 0.3996225
0.2274708 0.6119713 0.3685852
0.2796351 0.6324778 0.3591917
0.3318382 0.6515580 0.3502740
0.3874212 0.6701223 0.3441834
0.4549955 0.6936973 0.3456650
0.5490532 0.7331528 0.3656442
0.6798980 0.7940636 0.4144591
0.8394942 0.8656174 0.4865701
1.0000000 0.9372746 0.5664370
0.2698016 0.7359948 0.4310072
0.3106264 0.7426017 0.4053777
0.3555482 0.7519862 0.3843665
0.4131677 0.7710947 0.3750089
0.4922110 0.8067994 0.3843345
0.5974449 0.8621197 0.4179215
0.7306474 0.9409855 0.4833366
0.8890955 1.0000000 0.5846944
1.0000000 1.0000000 0.7067543
0.0776504 0.0776212 0.1197139
0.0437956 0.0417958 0.0881964
0.0394667 0.0231662 0.0772625
0.0842255 0.0225953 0.1036837
0.1981458 0.0402383 0.1670981
0.3799805 0.0799007 0.2357225
0.5782181 0.1267530 0.2817099
0.7732011 0.1827735 0.3096995
0.9610218 0.2494929 0.3340498
0.0451170 0.0645633 0.0852900
0.0498805 0.0606711 0.0987805
0.0709310 0.0633240 0.1201972
0.1275872 0.0768044 0.1555192
0.2333690 0.0982539 0.2003030
0.3833465 0.1288943 0.2451544
0.5590398 0.1726434 0.2818492
0.7468374 0.2320167 0.3149416
0.9383690 0.3024931 0.3499763
0.0395337 0.0853948 0.0905311
0.0584889 0.0871087 0.1113271
0.0922696 0.0984111 0.1436028
0.1954862 0.1645942 0.2277395
0.2575140 0.1581777 0.2261563
0.3722009 0.1696679 0.2375128
0.5374546 0.2146518 0.2734421
0.7184461 0.2760080 0.3147686
0.9104882 0.3501446 0.3597406
0.0609711 0.1512054 0.1440606
0.0977113 0.1606828 0.1611460
0.1392745 0.1781804 0.1806247
0.2047776 0.2099931 0.2151846
0.3057711 0.2510842 0.2612035
0.3527372 0.2149532 0.2156017
0.5105698 0.2539315 0.2415018
0.6978512 0.3159586 0.2997394
0.8795442 0.3722760 0.3486331
0.0881308 0.2394846 0.2092769
0.1481250 0.2711518 0.2328642
0.2115448 0.3121779 0.2622342
0.2702578 0.3411647 0.2747930
0.3471965 0.3595502 0.2810542
0.4519882 0.3795022 0.3164330
0.5170466 0.3339808 0.2471264
0.7030539 0.3769508 0.2919029
0.8670422 0.4003315 0.3269501
0.1305869 0.3577093 0.2869205
0.2031948 0.4036929 0.3137543
0.2749949 0.4472699 0.3361279
0.3428106 0.4803840 0.3452082
0.4051350 0.4917120 0.3342993
0.5110957 0.5167665 0.3531178
0.6161136 0.5262847 0.3787440
0.7333615 0.5086729 0.3533328
0.8855739 0.4861229 0.3256437
0.1883556 0.4980588 0.3740399
0.2550003 0.5347655 0.3846971
0.3205425 0.5676972 0.3911925
0.3838434 0.5929704 0.3915534
0.4481731 0.6098910 0.3894005
0.5269798 0.6267577 0.3983514
0.6414776 0.6588271 0.4306369
0.7803209 0.6801560 0.4446538
0.9375362 0.6733134 0.4229986
0.2474358 0.6375485 0.4547664
0.3008504 0.6577219 0.4438562
0.3554765 0.6776703 0.4343359
0.4147490 0.6987916 0.4299817
0.4841908 0.7242156 0.4362832
0.5716724 0.7584968 0.4590862
0.6897487 0.8079105 0.5053721
0.8370739 0.8654294 0.5641185
0.9987258 0.9203282 0.6170870
0.3039601 0.7718927 0.5286547
0.3436267 0.7759704 0.4976511
0.3872264 0.7839513 0.4730970
0.4433012 0.8028294 0.4642830
0.5210259 0.8393734 0.4792945
0.6258276 0.8959652 0.5227040
0.7562006 0.9716306 0.5958410
0.9052662 1.0000000 0.6985992
1.0000000 1.0000000 0.8190781
0.0375178 0.0451031 0.1457350
0.0223896 0.0273036 0.1284441
0.0328780 0.0231420 0.1259781
0.0838205 0.0313791 0.1520591
0.1994311 0.0602907 0.2260846
0.3740810 0.1127309 0.3173955
0.5588790 0.1715296 0.3846377
0.7468553 0.2393698 0.4368321
0.9389068 0.3145239 0.4869287
0.0303032 0.0513845 0.1221513
0.0490701 0.0634528 0.1514587
0.0749350 0.0747861 0.1804286
0.1351254 0.0953769 0.2219234
0.2445632 0.1245577 0.2762626
0.3932450 0.1631540 0.3325214
0.5665498 0.2210761 0.3890886
0.7493198 0.2931186 0.4436415
0.9344516 0.3709565 0.4967478
0.0439653 0.0852089 0.1324672
0.0776362 0.1081229 0.1788991
0.1224543 0.1365348 0.2304256
0.1891901 0.1708856 0.2847069
0.2720906 0.1827671 0.3066806
0.4107407 0.2158761 0.3444524
0.5804338 0.2757340 0.3943321
0.7532580 0.3458795 0.4472191
0.9248032 0.4198661 0.4995267
0.0834110 0.1675479 0.2029793
0.1245838 0.1915133 0.2395428
0.1546486 0.1951388 0.2496699
0.2243827 0.2352466 0.3015525
0.3130793 0.2673254 0.3428292
0.4417219 0.3003731 0.3720562
0.5971750 0.3400550 0.3934655
0.7560949 0.3925754 0.4336152
0.9092955 0.4528657 0.4886667
0.1140695 0.2718831 0.2880573
0.1698497 0.2996138 0.3128281
0.2228833 0.3251144 0.3344892
0.2949820 0.3652133 0.3704834
0.3733197 0.3901051 0.3908821
0.4881844 0.4271730 0.4304922
0.6192389 0.4235157 0.3967523
0.7649623 0.4336871 0.3885233
0.8948657 0.4745845 0.4684943
0.1567368 0.3957313 0.3740081
0.2197673 0.4284454 0.3933819
0.2811449 0.4596639 0.4116804
0.3530765 0.4930800 0.4317335
0.4249729 0.5132520 0.4377342
0.5459697 0.5498543 0.4694781
0.6258960 0.5437515 0.4700961
0.7745569 0.5205798 0.4059726
0.9002888 0.5292498 0.4465629
0.2175182 0.5357463 0.4657823
0.2722206 0.5585628 0.4665875
0.3296119 0.5826537 0.4691109
0.3948448 0.6086388 0.4750422
0.4733734 0.6370743 0.4876647
0.5724100 0.6732976 0.5163290
0.6692214 0.6902251 0.5388288
0.7692445 0.6735054 0.5193389
0.9314509 0.6633516 0.4844475
0.2770914 0.6688554 0.5462405
0.3224203 0.6813109 0.5284541
0.3712627 0.6961451 0.5144349
0.4297463 0.7169574 0.5105680
0.5056545 0.7488630 0.5256217
0.6042834 0.7941571 0.5649542
0.7213909 0.8430496 0.6172889
0.8478171 0.8786192 0.6539024
0.9832124 0.8991505 0.6630592
0.3348742 0.7963241 0.6199167
0.3704224 0.7997363 0.5852518
0.4103552 0.8065786 0.5560253
0.4631704 0.8236276 0.5437543
0.5381063 0.8582187 0.5605169
0.6417463 0.9140769 0.6114020
0.7742616 0.9912205 0.6935993
0.9219675 1.0000000 0.7975914
1.0000000 1.0000000 0.9072281
0.0077770 0.0201454 0.2156549
0.0149938 0.0244291 0.2146436
0.0382159 0.0348953 0.2184412
0.0998151 0.0539066 0.2413606
0.2165377 0.0932840 0.3116385
0.3695664 0.1482314 0.3988941
0.5332399 0.2094404 0.4729955
0.7037248 0.2768664 0.5388691
0.8803666 0.3503158 0.6051312
0.0256811 0.0511744 0.2143129
0.0556603 0.0742768 0.2480146
0.0903927 0.0940707 0.2767134
0.1522465 0.1186688 0.3105588
0.2565209 0.1536645 0.3609185
0.3989978 0.2042959 0.4245589
0.5636207 0.2716718 0.4921057
0.7356300 0.3481657 0.5586515
0.9085073 0.4267221 0.6233275
0.0509186 0.0960263 0.2219331
0.0942511 0.1305536 0.2809997
0.1402932 0.1612659 0.3319706
0.1953015 0.1847140 0.3652385
0.2847652 0.2112220 0.3969877
0.4312249 0.2676966 0.4542478
0.6015366 0.3436143 0.5182623
0.7683295 0.4196216 0.5768163
0.9300743 0.4934570 0.6315295
0.0850724 0.1732443 0.2627715
0.1348483 0.2102665 0.3235665
0.1800375 0.2324507 0.3697837
0.2422045 0.2634093 0.4185445
0.3282256 0.2964173 0.4470821
0.4751776 0.3583736 0.4997231
0.6471948 0.4309266 0.5510623
0.7984592 0.4875253 0.5850425
0.9400831 0.5427239 0.6216227
0.1453374 0.3230010 0.3870251
0.1868980 0.3263835 0.3934885
0.2245337 0.3295567 0.4084092
0.2694493 0.3360538 0.4363920
0.4106597 0.4333265 0.5259780
0.5371430 0.4859964 0.5651041
0.6830601 0.5262974 0.5840646
0.8168970 0.5471028 0.5748177
0.9405359 0.5747374 0.5959580
0.2079350 0.4689178 0.4972642
0.2414217 0.4560795 0.4723947
0.2835251 0.4659743 0.4815785
0.3358421 0.4836147 0.5055898
0.4561154 0.5496149 0.5671162
0.5860442 0.6079725 0.6107079
0.6682435 0.6085044 0.6079438
0.8191657 0.6077107 0.5645974
0.9396249 0.6168099 0.5803321
0.2637447 0.5880725 0.5716120
0.2946275 0.5817872 0.5463420
0.3316464 0.5875011 0.5402755
0.3886205 0.6098845 0.5544167
0.4826221 0.6523789 0.5847524
0.6240321 0.7298615 0.6527407
0.7691032 0.7965821 0.7239107
0.7926261 0.6970910 0.6184769
0.9634058 0.7277598 0.6282630
0.3159823 0.7004796 0.6384105
0.3440133 0.7006150 0.6120475
0.3783182 0.7051035 0.5914902
0.4303656 0.7215940 0.5862226
0.5100947 0.7573187 0.6058346
0.6304339 0.8216388 0.6663155
0.7743423 0.8953050 0.7508149
0.8708473 0.9038657 0.7648578
0.9899211 0.9084249 0.7578698
0.3636845 0.8144642 0.7100124
0.3914505 0.8182160 0.6757674
0.4254121 0.8233897 0.6424331
0.4727630 0.8351536 0.6211167
0.5404955 0.8608214 0.6295847
0.6351823 0.9055539 0.6752975
0.7651895 0.9774692 0.7580935
0.9229743 1.0000000 0.8697978
1.0000000 1.0000000 0.9687957
0.0139907 0.0300153 0.3462180
0.0436915 0.0535721 0.3576013
0.0794602 0.0724237 0.3626157
0.1456194 0.0973139 0.3812766
0.2450038 0.1346071 0.4250496
0.3674214 0.1837519 0.4847015
0.5049702 0.2420142 0.5503016
0.6533627 0.3064710 0.6202209
0.8066419 0.3735397 0.6929724
0.0445645 0.0760755 0.3673342
0.0845696 0.1075398 0.3933400
0.1260616 0.1311746 0.4108119
0.1882301 0.1577573 0.4314219
0.2832342 0.1966860 0.4683829
0.4097093 0.2530273 0.5242193
0.5562883 0.3231931 0.5909339
0.7113221 0.3998752 0.6612897
0.8677997 0.4775975 0.7314884
0.0726348 0.1317889 0.3869301
0.1177985 0.1641562 0.4195054
0.1685867 0.1962204 0.4570285
0.2313751 0.2256275 0.4842760
0.3236172 0.2657625 0.5148281
0.4549060 0.3300257 0.5690376
0.6098131 0.4107805 0.6360850
0.7685137 0.4933643 0.7008520
0.9250680 0.5738130 0.7626020
0.0647520 0.1649427 0.3299917
0.1452530 0.2338181 0.4369825
0.2111621 0.2739609 0.4980086
0.2828698 0.3112442 0.5452926
0.3754610 0.3564620 0.5774029
0.5075089 0.4261221 0.6301675
0.6657275 0.5094282 0.6891374
0.8206842 0.5845912 0.7354772
0.9695748 0.6535068 0.7755916
0.0766625 0.2511472 0.3270542
0.1861430 0.3334401 0.4702299
0.2532368 0.3622032 0.5181256
0.3255690 0.3988694 0.5731194
0.4305364 0.4698726 0.6605941
0.5695256 0.5448343 0.7061544
0.7154017 0.6134495 0.7416086
0.8569099 0.6681724 0.7617825
0.9955457 0.7137737 0.7701083
0.2209018 0.5002535 0.5796668
0.2465311 0.4557493 0.5274152
0.2943495 0.4657874 0.5436830
0.3126134 0.4746772 0.6009599
0.4222281 0.5372863 0.6800278
0.6260402 0.6619544 0.7635610
0.7450669 0.7075864 0.7748205
0.8676883 0.7397624 0.7765192
1.0000000 0.7711011 0.7710755
0.3064976 0.6183473 0.6564977
0.3100973 0.5872447 0.6104962
0.3282600 0.5805242 0.6023634
0.3634706 0.5922629 0.6290085
0.4731647 0.6486490 0.6734241
0.6651645 0.7772376 0.7858919
0.7710497 0.8074801 0.8122643
0.8524506 0.7997292 0.7856340
1.0000000 0.8557642 0.8167083
0.3582676 0.7257319 0.7269859
0.3611065 0.7126659 0.6945372
0.3765709 0.7064602 0.6703563
0.4222326 0.7172976 0.6618245
0.5048753 0.7522835 0.6813557
0.6332830 0.8216727 0.7472930
0.7897200 0.9052521 0.8401129
0.8730547 0.9087052 0.8480590
1.0000000 0.9681055 0.8970819
0.3913576 0.8360214 0.8066372
0.4095349 0.8375196 0.7761326
0.4347326 0.8389815 0.7424408
0.4736181 0.8430534 0.7139994
0.5284932 0.8528721 0.7059249
0.6076951 0.8756021 0.7291431
0.7333679 0.9353187 0.8005491
0.9052724 1.0000000 0.9152305
1.0000000 1.0000000 1.0000000
0.1127330 0.1414479 0.5895977
0.1342038 0.1419159 0.5671521
0.1545075 0.1368566 0.5463675
0.2007338 0.1479750 0.5385871
0.2745955 0.1772462 0.5492670
0.3695505 0.2208546 0.5793727
0.4794767 0.2740699 0.6271293
0.5995975 0.3328286 0.6884516
0.7237342 0.3935201 0.7550887
0.1207663 0.1599281 0.5854729
0.1501243 0.1772045 0.5805275
0.1823974 0.1875479 0.5696108
0.2379871 0.2099908 0.5707259
0.3205679 0.2501877 0.5911752
0.4263789 0.3069451 0.6322998
0.5493652 0.3759191 0.6902703
0.6821924 0.4509927 0.7573796
0.8180379 0.5275774 0.8270840
0.1258395 0.1991569 0.6035649
0.1643286 0.2218450 0.5909264
0.2103416 0.2428019 0.5900303
0.2771148 0.2755673 0.6043413
0.3676568 0.3257277 0.6348532
0.4817571 0.3945567 0.6863749
0.6166715 0.4784920 0.7538071
0.7622075 0.5683802 0.8246048
0.9106998 0.6593023 0.8954394
0.1125134 0.2519008 0.5890715
0.1768845 0.2802133 0.5899112
0.2402206 0.3070176 0.6056261
0.3144579 0.3439102 0.6316769
0.4109236 0.4031057 0.6790715
0.5335711 0.4852491 0.7461379
0.6794434 0.5818726 0.8177628
0.8356490 0.6824006 0.8865738
0.9947639 0.7826894 0.9534139
0.0587549 0.2715797 0.4523391
0.1987675 0.3562464 0.5868036
0.2736811 0.3815866 0.6107416
0.3351953 0.4053751 0.6357882
0.4286881 0.4736540 0.7235983
0.5736401 0.5736890 0.8046477
0.7356155 0.6822234 0.8744749
0.8982584 0.7890931 0.9394655
1.0000000 0.8883551 0.9931719
0.0494987 0.3291518 0.4306320
0.2459857 0.4497418 0.5996582
0.2961532 0.4626920 0.6161405
0.3373552 0.4709654 0.6466363
0.4175037 0.5383443 0.7719946
0.5917394 0.6448100 0.8311858
0.7892371 0.7855074 0.9259912
0.9428100 0.8819969 0.9757213
1.0000000 0.9672852 1.0000000
0.3243476 0.5931141 0.6887578
0.3015250 0.5716578 0.6681326
0.3179153 0.5703213 0.6720821
0.3586503 0.5851680 0.7025909
0.4545664 0.6269061 0.7484456
0.6180985 0.7229905 0.8300498
0.8291529 0.8793855 0.9552466
0.9509807 0.9428398 0.9800863
1.0000000 1.0000000 1.0000000
0.3805302 0.7366012 0.8084901
0.3660648 0.7170214 0.7783922
0.3716779 0.7092792 0.7640096
0.4125367 0.7166300 0.7598604
0.4888746 0.7399505 0.7700833
0.5859054 0.7707153 0.7973853
0.7209499 0.8304665 0.8500181
0.9099786 0.9571950 0.9533577
1.0000000 1.0000000 1.0000000
0.4263436 0.8660710 0.9105260
0.4291306 0.8592360 0.8829927
0.4393464 0.8528644 0.8535821
0.4660860 0.8491757 0.8286733
0.5111478 0.8464533 0.8111513
0.5870695 0.8557051 0.8107278
0.7113121 0.8987548 0.8509789
0.8803584 0.9739771 0.9323022
1.0000000 1.0000000 1.0000000
0.3555546 0.4038075 0.9394345
0.2645231 0.2700982 0.8198092
0.2351609 0.2076172 0.7435229
0.2550355 0.1995667 0.6996464
0.3055507 0.2218465 0.6782182
0.3755112 0.2604396 0.6805170
0.4574579 0.3076052 0.7072340
0.5452840 0.3585520 0.7519841
0.6352868 0.4107895 0.8043950
0.2899162 0.3411261 0.8666035
0.2395262 0.2702159 0.7896251
0.2463112 0.2508531 0.7376673
0.2914519 0.2663753 0.7141000
0.3608059 0.3066134 0.7178665
0.4458959 0.3630375 0.7450880
0.5437337 0.4296147 0.7916920
0.6515672 0.5024399 0.8515122
0.7640672 0.5776909 0.9167920
0.2194050 0.3092149 0.8554823
0.2273288 0.2949478 0.7777738
0.2580112 0.2938281 0.7248953
0.3210823 0.3239039 0.7178348
0.4083452 0.3830659 0.7510934
0.5100692 0.4595074 0.8062720
0.6257498 0.5479526 0.8739039
0.7552146 0.6452232 0.9499924
0.8920829 0.7467566 1.0000000
0.2362596 0.4109576 0.9229873
0.2286954 0.3467914 0.7718537
0.2622582 0.3292727 0.6959064
0.3339794 0.3640945 0.7051413
0.4335271 0.4380810 0.7674347
0.5562246 0.5386201 0.8537029
0.6973081 0.6557769 0.9468727
0.8531973 0.7841722 1.0000000
1.0000000 0.9177540 1.0000000
0.2954226 0.5530228 0.9837104
0.2282123 0.3973879 0.7335169
0.2626437 0.3718580 0.6756056
0.3328770 0.4001885 0.6939560
0.4317967 0.4668901 0.7561110
0.5742643 0.5882528 0.8697627
0.7525525 0.7457440 0.9995223
0.9401424 0.9114401 1.0000000
1.0000000 1.0000000 1.0000000
0.2110799 0.4886764 0.7269085
0.2361964 0.4574738 0.7077606
0.2755762 0.4544976 0.7097169
0.3347313 0.4675703 0.7217423
0.4175939 0.4951209 0.7378053
0.5568963 0.6043862 0.8455532
0.7763681 0.8022080 1.0000000
1.0000000 1.0000000 1.0000000
1.0000000 1.0000000 1.0000000
0.2496830 0.5537469 0.7316719
0.2768744 0.5655283 0.7569242
0.3085663 0.5791316 0.7905907
0.3653675 0.5918900 0.8280761
0.4321642 0.6026609 0.8229424
0.5320977 0.6415125 0.8523326
0.7430285 0.8044492 0.9634145
1.0000000 1.0000000 1.0000000
1.0000000 1.0000000 1.0000000
0.3758416 0.7286211 0.8778033
0.3594307 0.7163043 0.8626448
0.3682721 0.7169440 0.8747374
0.4084456 0.7282608 0.9027271
0.4709407 0.7395627 0.9144785
0.5512026 0.7439212 0.8974709
0.7186447 0.8305903 0.9321148
0.9644617 0.9966365 1.0000000
1.0000000 1.0000000 1.0000000
0.4727964 0.9024047 1.0000000
0.4519192 0.8812794 0.9898158
0.4407690 0.8641614 0.9657291
0.4523995 0.8522358 0.9479253
0.4923781 0.8411670 0.9282377
0.5695483 0.8398909 0.9058309
0.6919771 0.8606582 0.8981138
0.8705161 0.9214085 0.9379749
1.0000000 1.0000000 1.0000000
