catalog/styles/film/film-kodak/look.cube
# film-kodak iteration 3
LUT_3D_SIZE 33
DOMAIN_MIN 0 0 0
DOMAIN_MAX 1 1 1
0.1827943 0.1539171 0.1611896
0.1747553 0.1453512 0.1520690
0.1682902 0.1381698 0.1441114
0.1637954 0.1326223 0.1377518
0.1609489 0.1281942 0.1328269
0.1592366 0.1241107 0.1288675
0.1579656 0.1193594 0.1250687
0.1566281 0.1131386 0.1206898
0.1548608 0.1049060 0.1151975
0.1524957 0.0942814 0.1080483
0.1498370 0.0814018 0.0990250
0.1478172 0.0670567 0.0885771
0.1476660 0.0523050 0.0773883
0.1509529 0.0385674 0.0664890
0.1589830 0.0271291 0.0568673
0.1725464 0.0188008 0.0490363
0.1914896 0.0134676 0.0426786
0.2152335 0.0104487 0.0370922
0.2430762 0.0088833 0.0317159
0.2742821 0.0078698 0.0260834
0.3082553 0.0065542 0.0199577
0.3444009 0.0042344 0.0132468
0.3824009 0.0006705 0.0061918
0.4220206 0.0000000 0.0000000
0.4629561 0.0000000 0.0000000
0.5049492 0.0000000 0.0000000
0.5480271 0.0000000 0.0000000
0.5924087 0.0000000 0.0000000
0.6382255 0.0000000 0.0000000
0.6861557 0.0000000 0.0000000
0.7370300 0.0000000 0.0000000
0.7918156 0.0000000 0.0000000
0.8505398 0.0000000 0.0000000
0.1527885 0.1315154 0.1377463
0.1480031 0.1255581 0.1306562
0.1441342 0.1203770 0.1241963
0.1416805 0.1163080 0.1187711
0.1406025 0.1131217 0.1143719
0.1405225 0.1101937 0.1106611
0.1409144 0.1067437 0.1071314
0.1411936 0.1019271 0.1031442
0.1409377 0.0950702 0.0981089
0.1400481 0.0858613 0.0916326
0.1389749 0.0745784 0.0837509
0.1387183 0.0620940 0.0749724
0.1405953 0.0496616 0.0661305
0.1458714 0.0384806 0.0579367
0.1555340 0.0295068 0.0508844
0.1700254 0.0231986 0.0450504
0.1891739 0.0193927 0.0400753
0.2124435 0.0174885 0.0354123
0.2391629 0.0167437 0.0306207
0.2686471 0.0163764 0.0254285
0.3002859 0.0156728 0.0197367
0.3335537 0.0140202 0.0135359
0.3680897 0.0110504 0.0069302
0.4037487 0.0066965 0.0001555
0.4406496 0.0012332 0.0000000
0.4790959 0.0000000 0.0000000
0.5195269 0.0000000 0.0000000
0.5623471 0.0000000 0.0000000
0.6078223 0.0000000 0.0000000
0.6562407 0.0000000 0.0000000
0.7077998 0.0000000 0.0000000
0.7624196 0.0000000 0.0000000
0.8192167 0.0000000 0.0000000
0.1248740 0.1112094 0.1156318
0.1222872 0.1068079 0.1098805
0.1203647 0.1029650 0.1045279
0.1196189 0.1000568 0.0999036
0.1201816 0.0980197 0.0960795
0.1217788 0.0963811 0.0928285
0.1239025 0.0943928 0.0897422
0.1259178 0.0911358 0.0862610
0.1273252 0.0858302 0.0817804
0.1279679 0.0780689 0.0759258
0.1284785 0.0683202 0.0690064
0.1300490 0.0577513 0.0618553
0.1339536 0.0476080 0.0552449
0.1411947 0.0388884 0.0495834
0.1524396 0.0322484 0.0449405
0.1678471 0.0278769 0.0410498
0.1871837 0.0255332 0.0374389
0.2099862 0.0246960 0.0336715
0.2356192 0.0247230 0.0294581
0.2634208 0.0249657 0.0246848
0.2927953 0.0248221 0.0193935
0.3232448 0.0237385 0.0136341
0.3544250 0.0213117 0.0074797
0.3863148 0.0174291 0.0011082
0.4193368 0.0123397 0.0000000
0.4543041 0.0065304 0.0000000
0.4920893 0.0005339 0.0000000
0.5333644 0.0000000 0.0000000
0.5784047 0.0000000 0.0000000
0.6272252 0.0000000 0.0000000
0.6795875 0.0000000 0.0000000
0.7348790 0.0000000 0.0000000
0.7920195 0.0000000 0.0000000
0.1004044 0.0944359 0.0955244
0.0986185 0.0901842 0.0903172
0.0976012 0.0866277 0.0855424
0.0978687 0.0841787 0.0814681
0.0996729 0.0829557 0.0782215
0.1027476 0.0825242 0.0755820
0.1065556 0.0820800 0.0731314
0.1103713 0.0805527 0.0702727
0.1134563 0.0768494 0.0662498
0.1158069 0.0706669 0.0608946
0.1182495 0.0627597 0.0550046
0.1221139 0.0544769 0.0495580
0.1284225 0.0469077 0.0451468
0.1378294 0.0407562 0.0418590
0.1506958 0.0364166 0.0394600
0.1669735 0.0338439 0.0373479
0.1864090 0.0327583 0.0349455
0.2086324 0.0327504 0.0319591
0.2331375 0.0333574 0.0282746
0.2593359 0.0340787 0.0239520
0.2866410 0.0343895 0.0191095
0.3145489 0.0337972 0.0138394
0.3427312 0.0318980 0.0082051
0.3712491 0.0285515 0.0023305
0.4007862 0.0240073 0.0000000
0.4325212 0.0187357 0.0000000
0.4677273 0.0131838 0.0000000
0.5073358 0.0076048 0.0000000
0.5517588 0.0020321 0.0000000
0.6009586 0.0000000 0.0000000
0.6547071 0.0000000 0.0000000
0.7122719 0.0000000 0.0000000
0.7720194 0.0000000 0.0000000
0.0797990 0.0818532 0.0774737
0.0778455 0.0767221 0.0724383
0.0767232 0.0723782 0.0678573
0.0770617 0.0694396 0.0640450
0.0792674 0.0682533 0.0611843
0.0831865 0.0685335 0.0591035
0.0882951 0.0694017 0.0573116
0.0936971 0.0694981 0.0549831
0.0984641 0.0674257 0.0512414
0.1029802 0.0632557 0.0464827
0.1081971 0.0579390 0.0418609
0.1153917 0.0528267 0.0384183
0.1249938 0.0485788 0.0363491
0.1370796 0.0454528 0.0354132
0.1516831 0.0434561 0.0350022
0.1687077 0.0424521 0.0343381
0.1880621 0.0423096 0.0329039
0.2094758 0.0427408 0.0305226
0.2327112 0.0435707 0.0273397
0.2573462 0.0444655 0.0235588
0.2827748 0.0449850 0.0193099
0.3085430 0.0447433 0.0146873
0.3343234 0.0433872 0.0097072
0.3602579 0.0407469 0.0044296
0.3871472 0.0369942 0.0000000
0.4161939 0.0324787 0.0000000
0.4488403 0.0275499 0.0000000
0.4864035 0.0224298 0.0000000
0.5297665 0.0171500 0.0000000
0.5793548 0.0117039 0.0000000
0.6350726 0.0061240 0.0000000
0.6961112 0.0004238 0.0000000
0.7607070 0.0000000 0.0000000
0.0637794 0.0745291 0.0619520
0.0608804 0.0675916 0.0568264
0.0587712 0.0614965 0.0521728
0.0580930 0.0569602 0.0482894
0.0594667 0.0546059 0.0454168
0.0631320 0.0545681 0.0434977
0.0687399 0.0560767 0.0420416
0.0753216 0.0574846 0.0400505
0.0819579 0.0572408 0.0366293
0.0895022 0.0558856 0.0328720
0.0988978 0.0544250 0.0300898
0.1108558 0.0538175 0.0291017
0.1248789 0.0539123 0.0295612
0.1402762 0.0543162 0.0308230
0.1567496 0.0547019 0.0320049
0.1744516 0.0550876 0.0324104
0.1934806 0.0555348 0.0316532
0.2138319 0.0559909 0.0297587
0.2355054 0.0564822 0.0270814
0.2583312 0.0569276 0.0239225
0.2818737 0.0571209 0.0204022
0.3058222 0.0568849 0.0165507
0.3299664 0.0560129 0.0123142
0.3543866 0.0542802 0.0076504
0.3797203 0.0516514 0.0027948
0.4068872 0.0481820 0.0000000
0.4372550 0.0441145 0.0000000
0.4724809 0.0396177 0.0000000
0.5141903 0.0348103 0.0000000
0.5635984 0.0296978 0.0000000
0.6211377 0.0242428 0.0000000
0.6855587 0.0183300 0.0000000
0.7548753 0.0121698 0.0000000
0.0531556 0.0734234 0.0495860
0.0487903 0.0641516 0.0442958
0.0449920 0.0555769 0.0393499
0.0423381 0.0484266 0.0350291
0.0416598 0.0436422 0.0316132
0.0436656 0.0418605 0.0291389
0.0486403 0.0428413 0.0273813
0.0562292 0.0453518 0.0256890
0.0656569 0.0478110 0.0234542
0.0774550 0.0504210 0.0215039
0.0923294 0.0540997 0.0211505
0.1101276 0.0590962 0.0226835
0.1293339 0.0642352 0.0254465
0.1484573 0.0684087 0.0284262
0.1670608 0.0712443 0.0307025
0.1856124 0.0730731 0.0318349
0.2042674 0.0739511 0.0315966
0.2231391 0.0738924 0.0301880
0.2425342 0.0731643 0.0280531
0.2627875 0.0721454 0.0255395
0.2841135 0.0711509 0.0227566
0.3065210 0.0703532 0.0196259
0.3298688 0.0697418 0.0160000
0.3539593 0.0690252 0.0118341
0.3789757 0.0678798 0.0073353
0.4054124 0.0659396 0.0028545
0.4344485 0.0632013 0.0000000
0.4677433 0.0596714 0.0000000
0.5073613 0.0555317 0.0000000
0.5555672 0.0509459 0.0000000
0.6138947 0.0459667 0.0000000
0.6801326 0.0401684 0.0000000
0.7520792 0.0338185 0.0006453
0.0485397 0.0792697 0.0411098
0.0427899 0.0678746 0.0359196
0.0370230 0.0566052 0.0306193
0.0318264 0.0462274 0.0255180
0.0283696 0.0380838 0.0211054
0.0280952 0.0336383 0.0178816
0.0321924 0.0335619 0.0159909
0.0409433 0.0371929 0.0150131
0.0535133 0.0428694 0.0145759
0.0696921 0.0499391 0.0147553
0.0897847 0.0588075 0.0163218
0.1135401 0.0694901 0.0197105
0.1382868 0.0797680 0.0239580
0.1618548 0.0880498 0.0279551
0.1834380 0.0938269 0.0309409
0.2035890 0.0975766 0.0327692
0.2221891 0.0990911 0.0333069
0.2389262 0.0979002 0.0325856
0.2546875 0.0946430 0.0310433
0.2711522 0.0907094 0.0290770
0.2896038 0.0873136 0.0267752
0.3106092 0.0852541 0.0240507
0.3338737 0.0845753 0.0207150
0.3586208 0.0848020 0.0167645
0.3845132 0.0853565 0.0124547
0.4115145 0.0854311 0.0080800
0.4404551 0.0846140 0.0040448
0.4728875 0.0826834 0.0006760
0.5110340 0.0797270 0.0000000
0.5576542 0.0760628 0.0000000
0.6144581 0.0717925 0.0000000
0.6800884 0.0665896 0.0000000
0.7519089 0.0605834 0.0022356
0.0511044 0.0933043 0.0380220
0.0441886 0.0801796 0.0330492
0.0366534 0.0665721 0.0274390
0.0290994 0.0532017 0.0215088
0.0230085 0.0417245 0.0160785
0.0202791 0.0341903 0.0120402
0.0225935 0.0320276 0.0099443
0.0306920 0.0352235 0.0096493
0.0442318 0.0424653 0.0104694
0.0631564 0.0528229 0.0119704
0.0879124 0.0663468 0.0145164
0.1177343 0.0824058 0.0185966
0.1497009 0.0988121 0.0236126
0.1802468 0.1130191 0.0285341
0.2071706 0.1234946 0.0325130
0.2302563 0.1301707 0.0354907
0.2488248 0.1322462 0.0373371
0.2625160 0.1291032 0.0378798
0.2731286 0.1219395 0.0371411
0.2841093 0.1133929 0.0353992
0.2984662 0.1060824 0.0328901
0.3177965 0.1018253 0.0298638
0.3414508 0.1006690 0.0263120
0.3676740 0.1016995 0.0222353
0.3952482 0.1038939 0.0178806
0.4236302 0.1060772 0.0134925
0.4533414 0.1074825 0.0093443
0.4857457 0.1076921 0.0057420
0.5229451 0.1065633 0.0029344
0.5675440 0.1044347 0.0012969
0.6212793 0.1015357 0.0010771
0.6839153 0.0976783 0.0021516
0.7530051 0.0930596 0.0040688
0.0615440 0.1160551 0.0417449
0.0536542 0.1016191 0.0367567
0.0446702 0.0862698 0.0306691
0.0352191 0.0706692 0.0238190
0.0268567 0.0565080 0.0172015
0.0215086 0.0459299 0.0119221
0.0210292 0.0407801 0.0088425
0.0264139 0.0415025 0.0080453
0.0377415 0.0470264 0.0085705
0.0557610 0.0568732 0.0095648
0.0824005 0.0721644 0.0116784
0.1182343 0.0933688 0.0160012
0.1604371 0.1185220 0.0225342
0.2029700 0.1429258 0.0297070
0.2396483 0.1617065 0.0357594
0.2669374 0.1721746 0.0403302
0.2839478 0.1733671 0.0439617
0.2933338 0.1671121 0.0465978
0.2979827 0.1552698 0.0471814
0.3026298 0.1413126 0.0453291
0.3118667 0.1290696 0.0416998
0.3285173 0.1214411 0.0372836
0.3521534 0.1189664 0.0327497
0.3801491 0.1202913 0.0280775
0.4099996 0.1237461 0.0234445
0.4402502 0.1277710 0.0189176
0.4708633 0.1311408 0.0145240
0.5032222 0.1334209 0.0105401
0.5393791 0.1344754 0.0073164
0.5816548 0.1346045 0.0053153
0.6318271 0.1340704 0.0047813
0.6899777 0.1326816 0.0055178
0.7543412 0.1308937 0.0071362
0.0790761 0.1463498 0.0524899
0.0703068 0.1310497 0.0469490
0.0602612 0.1146963 0.0400857
0.0497561 0.0981240 0.0323505
0.0401036 0.0826916 0.0246025
0.0327436 0.0699895 0.0177246
0.0291466 0.0615525 0.0124585
0.0304589 0.0581118 0.0091772
0.0373145 0.0592099 0.0073715
0.0511849 0.0650056 0.0062877
0.0754017 0.0777572 0.0065353
0.1137503 0.1008562 0.0101716
0.1662319 0.1348539 0.0188601
0.2251406 0.1734142 0.0305377
0.2765222 0.2047766 0.0402212
0.3095203 0.2203712 0.0467919
0.3245113 0.2204596 0.0536476
0.3284522 0.2100593 0.0593822
0.3271448 0.1933327 0.0612968
0.3261814 0.1745406 0.0588702
0.3306283 0.1578244 0.0534219
0.3439451 0.1465946 0.0469579
0.3663587 0.1417879 0.0406646
0.3955032 0.1422383 0.0347130
0.4276967 0.1461457 0.0294449
0.4602609 0.1513250 0.0244832
0.4916636 0.1560435 0.0196141
0.5232396 0.1597743 0.0150315
0.5578174 0.1626888 0.0113196
0.5975907 0.1650544 0.0090853
0.6438932 0.1672562 0.0086057
0.6971807 0.1696852 0.0099278
0.7561341 0.1726770 0.0125361
0.1012646 0.1814493 0.0688310
0.0918097 0.1658677 0.0622206
0.0813183 0.1494573 0.0544585
0.0708294 0.1332723 0.0461195
0.0614212 0.1183872 0.0378121
0.0538694 0.1055825 0.0299158
0.0486807 0.0952913 0.0225346
0.0464920 0.0878204 0.0158152
0.0483317 0.0834335 0.0099228
0.0562933 0.0831469 0.0049966
0.0743239 0.0898852 0.0017113
0.1089269 0.1094079 0.0027609
0.1647626 0.1462880 0.0119194
0.2357861 0.1955832 0.0285527
0.3023993 0.2402630 0.0445551
0.3455348 0.2649418 0.0560977
0.3631057 0.2681026 0.0678997
0.3627206 0.2543251 0.0762047
0.3565247 0.2332206 0.0780686
0.3521856 0.2113391 0.0744983
0.3536934 0.1920369 0.0674049
0.3640225 0.1781036 0.0590919
0.3842928 0.1709783 0.0512137
0.4129196 0.1697021 0.0437871
0.4469313 0.1728801 0.0370377
0.4820831 0.1783290 0.0310449
0.5144832 0.1836307 0.0253881
0.5444121 0.1877605 0.0199526
0.5765072 0.1914625 0.0154772
0.6138369 0.1954375 0.0130313
0.6567941 0.2000576 0.0130453
0.7056528 0.2063462 0.0157259
0.7594213 0.2147564 0.0205799
0.1244074 0.2177275 0.0878791
0.1151127 0.2029167 0.0802386
0.1051261 0.1875585 0.0718275
0.0956288 0.1728347 0.0632615
0.0877403 0.1598310 0.0551000
0.0819302 0.1488994 0.0474297
0.0780818 0.1397512 0.0398501
0.0760547 0.1318728 0.0318412
0.0759799 0.1248440 0.0229913
0.0791262 0.1192579 0.0134973
0.0894832 0.1186142 0.0049163
0.1145598 0.1296151 0.0008843
0.1621249 0.1592914 0.0063967
0.2301035 0.2063619 0.0233896
0.3017149 0.2563792 0.0461765
0.3572430 0.2925443 0.0679960
0.3859183 0.3054642 0.0858656
0.3895667 0.2949776 0.0956087
0.3825443 0.2725772 0.0957805
0.3773573 0.2494373 0.0898134
0.3788733 0.2301656 0.0816084
0.3883923 0.2159696 0.0730085
0.4066998 0.2077184 0.0650707
0.4327579 0.2044186 0.0568871
0.4657031 0.2054524 0.0482325
0.5020300 0.2095978 0.0399918
0.5360248 0.2145718 0.0329107
0.5647045 0.2184019 0.0266798
0.5940367 0.2220070 0.0215568
0.6295229 0.2267356 0.0187022
0.6711935 0.2331922 0.0194497
0.7167206 0.2414800 0.0235618
0.7650056 0.2520324 0.0303206
0.1452230 0.2521655 0.1064463
0.1373313 0.2393321 0.0984875
0.1289488 0.2260786 0.0899971
0.1212967 0.2136186 0.0816548
0.1157065 0.2032109 0.0741765
0.1126725 0.1951906 0.0676211
0.1120218 0.1891579 0.0615135
0.1134744 0.1844901 0.0551501
0.1165711 0.1802689 0.0475871
0.1210939 0.1757986 0.0380753
0.1282508 0.1720691 0.0268005
0.1433191 0.1740087 0.0170456
0.1750584 0.1897350 0.0151847
0.2274376 0.2234249 0.0265503
0.2910401 0.2672517 0.0496067
0.3489288 0.3062212 0.0766418
0.3871123 0.3272824 0.0992337
0.4021956 0.3261817 0.1115599
0.4032164 0.3101809 0.1124947
0.4014956 0.2893982 0.1047043
0.4046355 0.2711750 0.0944276
0.4159268 0.2589333 0.0865178
0.4344776 0.2518050 0.0805175
0.4581722 0.2475023 0.0732459
0.4864796 0.2455509 0.0638996
0.5184195 0.2461877 0.0537466
0.5509039 0.2487365 0.0446312
0.5810584 0.2521594 0.0379544
0.6093725 0.2555393 0.0331948
0.6432795 0.2597471 0.0293552
0.6871622 0.2674399 0.0301505
0.7306459 0.2751939 0.0349988
0.7729301 0.2830858 0.0419111
0.1622195 0.2833792 0.1226776
0.1565638 0.2732185 0.1150707
0.1506341 0.2627882 0.1071091
0.1455164 0.2531489 0.0994739
0.1425336 0.2455468 0.0929329
0.1423707 0.2405219 0.0877181
0.1450166 0.2378281 0.0834859
0.1502865 0.2369732 0.0796181
0.1579019 0.2372676 0.0752996
0.1677801 0.2382460 0.0700399
0.1793187 0.2391041 0.0629942
0.1927841 0.2401494 0.0541817
0.2124561 0.2455468 0.0472224
0.2453978 0.2622179 0.0494533
0.2918689 0.2910932 0.0647918
0.3408541 0.3222252 0.0875377
0.3801040 0.3439096 0.1086159
0.4044193 0.3504998 0.1215630
0.4168441 0.3441860 0.1244547
0.4237116 0.3306458 0.1185102
0.4315579 0.3161719 0.1077114
0.4452136 0.3058100 0.0986473
0.4658003 0.3009935 0.0947734
0.4897363 0.2979380 0.0906471
0.5146062 0.2944488 0.0828720
0.5401256 0.2908774 0.0719390
0.5668281 0.2888556 0.0611120
0.5935449 0.2892996 0.0556618
0.6197842 0.2915297 0.0556782
0.6548382 0.2958995 0.0522350
0.7021834 0.3029793 0.0494497
0.7436538 0.3075125 0.0526353
0.7811993 0.3096514 0.0565713
0.1748766 0.3109289 0.1356588
0.1719372 0.3037230 0.1288946
0.1689396 0.2964273 0.1219734
0.1666507 0.2897689 0.1153587
0.1662581 0.2848724 0.1098020
0.1685062 0.2823471 0.1056762
0.1735367 0.2821243 0.1028132
0.1812237 0.2838223 0.1006981
0.1915997 0.2871589 0.0988566
0.2050121 0.2921242 0.0972365
0.2211837 0.2981434 0.0954396
0.2386202 0.3037218 0.0924924
0.2567877 0.3087075 0.0884769
0.2789998 0.3165335 0.0869940
0.3086814 0.3306706 0.0926806
0.3434601 0.3489516 0.1052036
0.3769865 0.3651435 0.1192753
0.4042254 0.3739946 0.1289847
0.4246571 0.3747025 0.1318133
0.4408691 0.3695157 0.1280066
0.4566336 0.3621714 0.1197461
0.4750111 0.3559509 0.1110932
0.4976257 0.3528705 0.1069868
0.5230660 0.3516321 0.1056368
0.5473073 0.3485795 0.1015175
0.5688737 0.3429616 0.0932319
0.5885277 0.3363982 0.0835593
0.6075251 0.3311580 0.0788128
0.6261497 0.3279653 0.0834190
0.6528318 0.3280841 0.0890670
0.6977513 0.3328025 0.0834788
0.7447980 0.3358181 0.0789701
0.7892175 0.3348277 0.0750831
0.1836933 0.3353211 0.1456236
0.1834724 0.3308957 0.1398359
0.1833567 0.3265236 0.1340625
0.1838623 0.3226868 0.1285735
0.1858646 0.3202026 0.1239563
0.1899785 0.3195669 0.1205719
0.1963371 0.3207526 0.1183145
0.2047948 0.3234355 0.1167391
0.2152443 0.3272988 0.1154013
0.2282698 0.3326074 0.1145670
0.2449556 0.3399536 0.1149584
0.2645102 0.3482649 0.1161034
0.2849460 0.3560577 0.1169839
0.3055591 0.3633585 0.1175081
0.3276399 0.3715046 0.1194148
0.3524505 0.3812350 0.1243672
0.3791331 0.3912418 0.1311604
0.4052052 0.3989007 0.1361717
0.4296268 0.4032698 0.1372278
0.4528173 0.4047185 0.1340242
0.4760262 0.4045849 0.1283548
0.5005987 0.4044107 0.1223670
0.5267091 0.4045957 0.1183493
0.5537276 0.4047852 0.1170097
0.5787908 0.4027398 0.1158816
0.5996759 0.3972913 0.1123937
0.6155180 0.3885240 0.1066067
0.6274115 0.3779520 0.1028430
0.6377969 0.3677552 0.1067293
0.6518576 0.3598885 0.1168324
0.6828419 0.3582241 0.1192807
0.7382501 0.3617215 0.1086682
0.7999585 0.3618616 0.0954916
0.1895383 0.3574027 0.1532296
0.1918590 0.3554285 0.1484413
0.1943216 0.3535475 0.1437095
0.1973092 0.3521143 0.1392501
0.2013342 0.3515790 0.1354052
0.2067607 0.3522203 0.1324116
0.2136146 0.3539461 0.1301359
0.2216057 0.3563606 0.1280931
0.2305320 0.3591099 0.1259190
0.2408804 0.3624377 0.1238765
0.2543240 0.3675296 0.1231755
0.2720040 0.3749839 0.1247238
0.2930733 0.3839984 0.1279020
0.3151054 0.3931255 0.1311344
0.3368837 0.4018033 0.1338668
0.3589115 0.4098154 0.1368072
0.3820949 0.4171212 0.1400555
0.4067460 0.4237632 0.1421665
0.4326466 0.4297673 0.1417014
0.4598978 0.4354637 0.1385519
0.4885626 0.4411287 0.1340491
0.5182525 0.4465164 0.1298110
0.5483785 0.4510867 0.1267093
0.5779516 0.4539523 0.1253264
0.6050542 0.4538435 0.1260464
0.6273941 0.4496149 0.1274038
0.6439986 0.4412975 0.1266351
0.6542927 0.4286020 0.1230515
0.6621294 0.4142275 0.1219803
0.6746695 0.4016864 0.1263360
0.7025605 0.3946133 0.1310295
0.7547791 0.3945223 0.1256516
0.8177032 0.3929568 0.1113331
0.1934880 0.3781475 0.1593545
0.1979666 0.3781468 0.1554084
0.2025590 0.3782390 0.1515282
0.2075144 0.3786223 0.1478548
0.2130572 0.3794647 0.1445383
0.2192962 0.3808192 0.1416404
0.2261218 0.3824971 0.1389693
0.2332569 0.3841498 0.1361715
0.2405273 0.3855089 0.1329732
0.2481975 0.3866240 0.1294789
0.2576685 0.3885272 0.1266433
0.2710821 0.3928408 0.1259690
0.2899665 0.4008408 0.1285285
0.3124697 0.4110315 0.1328453
0.3362222 0.4217558 0.1372645
0.3595834 0.4313604 0.1409973
0.3828353 0.4393896 0.1440299
0.4073645 0.4465470 0.1456499
0.4337046 0.4535224 0.1448422
0.4626314 0.4614127 0.1421029
0.4941331 0.4706325 0.1384238
0.5273165 0.4805763 0.1352473
0.5610099 0.4899400 0.1336958
0.5937980 0.4970008 0.1341226
0.6241691 0.5003560 0.1368311
0.6497451 0.4985351 0.1419867
0.6697399 0.4917540 0.1446827
0.6835858 0.4799263 0.1410559
0.6942113 0.4647689 0.1334524
0.7097716 0.4502599 0.1271889
0.7391851 0.4396450 0.1245470
0.7866298 0.4338258 0.1218054
0.8418223 0.4288114 0.1115838
0.1963775 0.3982617 0.1646421
0.2024794 0.3996736 0.1613003
0.2086437 0.4011390 0.1579984
0.2149777 0.4027204 0.1548057
0.2215097 0.4043907 0.1517334
0.2281858 0.4060490 0.1487422
0.2348506 0.4074876 0.1456721
0.2412832 0.4084307 0.1422783
0.2474340 0.4087453 0.1384112
0.2534694 0.4084351 0.1340645
0.2604280 0.4082615 0.1297847
0.2704968 0.4100412 0.1269674
0.2860628 0.4159095 0.1273463
0.3069443 0.4254161 0.1307783
0.3311314 0.4367936 0.1356478
0.3560626 0.4478958 0.1403107
0.3809224 0.4576813 0.1441493
0.4064129 0.4663473 0.1465438
0.4329718 0.4742154 0.1463950
0.4621770 0.4831846 0.1447308
0.4944866 0.4942826 0.1425588
0.5294703 0.5075034 0.1411602
0.5658662 0.5213678 0.1419537
0.6017789 0.5332586 0.1452616
0.6355362 0.5409968 0.1510571
0.6652379 0.5427924 0.1582044
0.6897945 0.5382789 0.1622143
0.7095976 0.5287536 0.1578616
0.7265741 0.5156622 0.1442771
0.7461019 0.5015346 0.1279220
0.7747458 0.4891133 0.1129750
0.8150420 0.4794735 0.1015342
0.8622742 0.4713799 0.0902067
0.1986642 0.4181149 0.1695119
0.2058538 0.4204088 0.1665049
0.2130511 0.4226995 0.1635082
0.2202408 0.4249429 0.1605152
0.2273390 0.4270109 0.1574766
0.2342319 0.4287449 0.1543295
0.2407760 0.4299504 0.1509643
0.2468640 0.4304674 0.1472576
0.2525284 0.4302435 0.1431321
0.2580242 0.4294014 0.1385933
0.2642377 0.4286197 0.1340538
0.2730135 0.4294825 0.1306013
0.2863136 0.4337068 0.1294245
0.3045822 0.4414396 0.1306708
0.3268668 0.4515514 0.1338749
0.3515903 0.4626245 0.1381906
0.3775825 0.4736128 0.1426373
0.4040831 0.4836997 0.1459392
0.4309088 0.4925488 0.1468865
0.4599000 0.5022864 0.1467084
0.4921826 0.5146589 0.1467178
0.5278674 0.5300692 0.1481230
0.5658951 0.5472497 0.1520849
0.6043064 0.5634447 0.1587931
0.6411680 0.5758236 0.1676159
0.6745722 0.5818701 0.1760624
0.7038799 0.5809411 0.1802190
0.7297229 0.5745486 0.1748093
0.7535151 0.5645849 0.1569320
0.7773726 0.5524781 0.1323351
0.8051246 0.5404024 0.1058427
0.8391642 0.5300157 0.0800134
0.8786695 0.5210956 0.0568748
0.2005499 0.4378783 0.1741932
0.2083597 0.4405949 0.1712871
0.2161274 0.4432569 0.1683564
0.2237722 0.4457604 0.1653571
0.2311587 0.4479525 0.1622334
0.2381602 0.4496460 0.1589243
0.2446916 0.4506966 0.1553760
0.2507437 0.4510445 0.1515540
0.2564610 0.4507486 0.1474651
0.2622339 0.4500887 0.1432144
0.2688559 0.4497086 0.1391501
0.2775936 0.4506542 0.1359260
0.2898637 0.4541261 0.1342671
0.3063522 0.4605427 0.1342213
0.3263995 0.4689837 0.1352359
0.3492116 0.4785610 0.1376696
0.3744251 0.4891154 0.1414380
0.4010186 0.4997536 0.1451815
0.4281141 0.5096482 0.1473643
0.4572481 0.5206409 0.1490758
0.4896341 0.5343648 0.1517330
0.5256583 0.5513404 0.1563384
0.5645625 0.5705772 0.1635631
0.6046495 0.5897817 0.1731844
0.6439054 0.6059826 0.1840253
0.6804320 0.6163913 0.1932273
0.7135942 0.6198094 0.1969324
0.7441786 0.6172034 0.1909317
0.7732528 0.6106024 0.1713100
0.8014721 0.6017512 0.1405501
0.8304844 0.5921141 0.1041303
0.8622339 0.5833399 0.0654623
0.8963445 0.5754768 0.0266235
0.2020434 0.4575507 0.1787795
0.2101316 0.4603572 0.1758001
0.2181475 0.4630811 0.1727762
0.2259825 0.4656005 0.1696553
0.2334997 0.4677506 0.1663885
0.2405937 0.4693762 0.1629382
0.2472396 0.4703809 0.1592945
0.2535137 0.4707840 0.1554890
0.2596539 0.4707481 0.1516002
0.2661037 0.4706178 0.1477828
0.2735083 0.4709178 0.1442760
0.2826772 0.4722847 0.1413770
0.2944641 0.4753793 0.1393532
0.3094461 0.4805149 0.1383002
0.3276491 0.4874776 0.1381345
0.3487492 0.4958633 0.1391057
0.3724446 0.5054649 0.1415192
0.3984298 0.5161346 0.1450560
0.4260662 0.5273897 0.1488026
0.4558288 0.5400233 0.1528971
0.4885491 0.5550640 0.1582356
0.5246755 0.5730172 0.1656936
0.5638219 0.5932552 0.1755113
0.6046930 0.6140303 0.1868874
0.6453755 0.6326798 0.1981475
0.6842750 0.6467821 0.2068978
0.7205141 0.6546968 0.2097161
0.7547018 0.6566995 0.2032329
0.7876769 0.6543814 0.1835261
0.8198685 0.6497847 0.1494849
0.8518469 0.6440803 0.1064762
0.8845109 0.6379693 0.0583576
0.9176314 0.6314420 0.0058766
0.2030900 0.4770658 0.1833078
0.2112483 0.4797684 0.1801451
0.2193301 0.4823891 0.1769417
0.2272206 0.4847991 0.1736487
0.2348074 0.4868491 0.1702288
0.2420290 0.4884269 0.1666676
0.2489097 0.4894893 0.1629874
0.2555818 0.4901086 0.1592567
0.2623256 0.4904849 0.1555842
0.2695522 0.4909489 0.1521078
0.2777584 0.4918925 0.1489721
0.2874767 0.4937098 0.1462814
0.2992136 0.4967295 0.1440960
0.3133985 0.5011741 0.1425011
0.3302517 0.5070841 0.1416323
0.3499136 0.5145000 0.1418018
0.3725180 0.5236142 0.1436042
0.3977943 0.5342966 0.1470250
0.4255936 0.5465504 0.1518587
0.4560283 0.5607053 0.1581076
0.4892796 0.5770310 0.1659374
0.5255325 0.5956860 0.1756668
0.5645794 0.6162503 0.1871596
0.6054613 0.6374340 0.1993255
0.6467559 0.6573061 0.2103438
0.6872193 0.6739954 0.2181319
0.7259751 0.6859902 0.2199263
0.7631515 0.6930611 0.2120621
0.7993616 0.6962018 0.1908663
0.8350190 0.6969036 0.1560459
0.8702867 0.6959673 0.1120857
0.9053500 0.6934585 0.0610615
0.9405927 0.6894511 0.0038865
0.2036389 0.4963606 0.1877997
0.2117810 0.4988863 0.1844061
0.2198572 0.5013436 0.1809858
0.2277675 0.5036128 0.1775056
0.2354343 0.5055773 0.1739429
