catalog/styles/film/film-chrome/look.cube
# film-chrome iteration 4
LUT_3D_SIZE 9
DOMAIN_MIN 0 0 0
DOMAIN_MAX 1 1 1
0.1712148 0.1533834 0.1683841
0.1759783 0.1241072 0.1113802
0.1561796 0.0654322 0.0467064
0.1629060 0.0138781 0.0000000
0.2878809 0.0405829 0.0000000
0.4627686 0.0868327 0.0000000
0.6272092 0.1071030 0.0023520
0.7916266 0.1323277 0.0137385
0.9391102 0.1551320 0.0428304
0.0675981 0.0804787 0.0678071
0.0580895 0.0463238 0.0439430
0.0934216 0.0464009 0.0084991
0.1818074 0.0691224 0.0000000
0.2811224 0.0982424 0.0075189
0.3751510 0.1222553 0.0234170
0.4915053 0.1504220 0.0273098
0.6619253 0.1815574 0.0291133
0.8868500 0.2045659 0.0346162
0.0448574 0.1005167 0.0253053
0.0173466 0.0453268 0.0107925
0.0516639 0.0482682 0.0048345
0.2968206 0.2005327 0.0395502
0.3119287 0.1767951 0.0520645
0.3632224 0.1695556 0.0502750
0.5087095 0.2186090 0.0549235
0.6602953 0.2559467 0.0515226
0.8793883 0.2944792 0.0585187
0.1087894 0.2208946 0.0663453
0.1320067 0.2118241 0.0634945
0.1957843 0.2333660 0.0754951
0.2388660 0.2142996 0.0620275
0.3661912 0.2784968 0.1265951
0.3885595 0.2483726 0.1067005
0.5488928 0.2792274 0.0849417
0.7365755 0.3426295 0.0761084
0.8847624 0.4162294 0.1295035
0.1467579 0.3293044 0.0888960
0.1983186 0.3413127 0.0957386
0.2403878 0.3408012 0.0970577
0.2947524 0.3427291 0.1113613
0.3449274 0.3291729 0.1462444
0.4465426 0.3495883 0.1576493
0.5902327 0.3854624 0.1578160
0.7041040 0.3981315 0.1570301
0.8746776 0.4543523 0.1596328
0.1426530 0.4075352 0.0797967
0.1955158 0.4121936 0.0896518
0.2424892 0.4113096 0.1003107
0.3083969 0.4233970 0.1256738
0.3835358 0.4303228 0.1430556
0.4691784 0.4343385 0.1719989
0.6238094 0.4846642 0.1958385
0.7694127 0.5168073 0.2040855
0.9012707 0.5578843 0.1974800
0.1155090 0.4712236 0.0674111
0.1751820 0.4721198 0.0782873
0.2393674 0.4774987 0.0939517
0.3116829 0.4890085 0.1104930
0.3913445 0.5010287 0.1249344
0.4911555 0.5236458 0.1631608
0.6267422 0.5738408 0.2160266
0.7847950 0.6408634 0.2452633
0.9612675 0.6821387 0.1215731
0.0801453 0.5328775 0.0614845
0.1526252 0.5343189 0.0691903
0.2276733 0.5388046 0.0784419
0.3069222 0.5477305 0.0891648
0.3967769 0.5665337 0.1090620
0.5065632 0.6040201 0.1500335
0.6417868 0.6655089 0.2114870
0.8018739 0.7428369 0.2509947
0.9775825 0.8134544 0.1979945
0.0442321 0.5960646 0.0594539
0.1292990 0.5976997 0.0610090
0.2144630 0.6003544 0.0627340
0.3036074 0.6098552 0.0699734
0.4037745 0.6355098 0.0910281
0.5214364 0.6837092 0.1302293
0.6607328 0.7539789 0.1860264
0.8218649 0.8416134 0.2648754
0.9964677 0.9398115 0.3824187
0.1194057 0.0976187 0.1432191
0.1069573 0.0724759 0.0941896
0.0957748 0.0378712 0.0446125
0.1358714 0.0179162 0.0163498
0.2881280 0.0512899 0.0312138
0.4929080 0.0965982 0.0505653
0.6868137 0.1277334 0.0558721
0.8504943 0.1703078 0.0647891
0.9549286 0.2503249 0.0900187
0.0559663 0.0833808 0.0812625
0.0586362 0.0547452 0.0508424
0.0706638 0.0345723 0.0207776
0.1379421 0.0520227 0.0330008
0.2471831 0.0885276 0.0579651
0.3870585 0.1269269 0.0736513
0.5634062 0.1792244 0.0880700
0.7428847 0.2429216 0.1106448
0.9200377 0.3168865 0.1420062
0.0180240 0.0994915 0.0432164
0.0455918 0.0834981 0.0417753
0.1088405 0.1083779 0.0599506
0.2286217 0.1656031 0.0841167
0.2398873 0.1402630 0.0819358
0.3221130 0.1612409 0.0959675
0.4865711 0.2216301 0.1153957
0.6837672 0.2939304 0.1404290
0.8834915 0.3664844 0.1731766
0.0403376 0.1773431 0.0641560
0.1128906 0.2021368 0.0874965
0.2062796 0.2493196 0.1175533
0.2762015 0.2635558 0.1247292
0.4579153 0.3419015 0.1523875
0.4017979 0.2689851 0.1473107
0.4653984 0.2727512 0.1604700
0.6616839 0.3452119 0.1840965
0.8514100 0.4130121 0.2099699
0.0882909 0.2874316 0.1033845
0.1636697 0.3139479 0.1238120
0.2398248 0.3404604 0.1468840
0.3018383 0.3505259 0.1681164
0.3711690 0.3471306 0.1821006
0.4703269 0.3726419 0.2180137
0.5431815 0.3788615 0.2328383
0.6832329 0.4197558 0.2427737
0.8533308 0.4794338 0.2571483
0.1186732 0.3923283 0.1304434
0.1853051 0.4068380 0.1450499
0.2505910 0.4188307 0.1622807
0.3151311 0.4258610 0.1872527
0.3796004 0.4271754 0.2199634
0.4705465 0.4439698 0.2502911
0.6000265 0.4842003 0.2825300
0.7410997 0.5326781 0.3062665
0.8877590 0.5852623 0.3118756
0.1271408 0.4861443 0.1493031
0.1928603 0.4929760 0.1600953
0.2592334 0.4992450 0.1727067
0.3285199 0.5051841 0.1892278
0.4062270 0.5143449 0.2118324
0.5038288 0.5371081 0.2452622
0.6276792 0.5807822 0.2891085
0.7704503 0.6423850 0.3342859
0.9215253 0.7148346 0.3827854
0.1257066 0.5752405 0.1674670
0.1960078 0.5780019 0.1731201
0.2678935 0.5818974 0.1799249
0.3438169 0.5888404 0.1895494
0.4284154 0.6029644 0.2067432
0.5294329 0.6320975 0.2400765
0.6527724 0.6826621 0.2923704
0.7975377 0.7531264 0.3593599
0.9583177 0.8384740 0.4484532
0.1217444 0.6629807 0.1862183
0.1979356 0.6626431 0.1850570
0.2759803 0.6647322 0.1854365
0.3591769 0.6738299 0.1914630
0.4515300 0.6952661 0.2091587
0.5573273 0.7332174 0.2445380
0.6818655 0.7901559 0.3044567
0.8280747 0.8656771 0.3963686
0.9884588 0.9521569 0.5126007
0.0717531 0.0505486 0.1454003
0.0472472 0.0274346 0.0906930
0.0422145 0.0125488 0.0463536
0.0977839 0.0148423 0.0398993
0.2466249 0.0442724 0.0687039
0.4478342 0.0891876 0.1016049
0.6576101 0.1455333 0.1318981
0.8369172 0.2272064 0.1721025
0.9754058 0.3434247 0.2369610
0.0370658 0.0710175 0.0944477
0.0435192 0.0526205 0.0860362
0.0713178 0.0495746 0.0860213
0.1225954 0.0569430 0.0830552
0.2338281 0.0847088 0.0970339
0.3992955 0.1296281 0.1217110
0.5846674 0.1919297 0.1545384
0.7643620 0.2760919 0.1993109
0.9358988 0.3791873 0.2558929
0.0139290 0.1123582 0.0794868
0.0614755 0.1063237 0.0958827
0.0930920 0.0954271 0.0983797
0.1518799 0.1155606 0.1210739
0.2184695 0.1271034 0.1143320
0.3510678 0.1673566 0.1283741
0.5201157 0.2339044 0.1691278
0.7039006 0.3162657 0.2190578
0.8931987 0.4076583 0.2755923
0.0300307 0.1850572 0.1122188
0.1059753 0.1999927 0.1332593
0.1729299 0.2198177 0.1551375
0.1907875 0.1906495 0.1409416
0.2647797 0.2138105 0.1657088
0.3283690 0.2124974 0.1282329
0.4953800 0.2826392 0.1791186
0.6812947 0.3634498 0.2402270
0.8602642 0.4336897 0.2903025
0.0666113 0.2756634 0.1481907
0.1436852 0.2990685 0.1680411
0.2152774 0.3192296 0.1875671
0.2734981 0.3241625 0.1994190
0.3242979 0.3107221 0.2002662
0.4324732 0.3487510 0.2370349
0.5447741 0.3834913 0.2566947
0.6955417 0.4323428 0.2804656
0.8594359 0.4936416 0.3112895
0.1095748 0.3913198 0.1947160
0.1818536 0.4091293 0.2096423
0.2515335 0.4231295 0.2247274
0.3138557 0.4259244 0.2366991
0.3804527 0.4242436 0.2487825
0.4835157 0.4496327 0.2803891
0.6067576 0.4939441 0.3213557
0.7461871 0.5425176 0.3451660
0.8815031 0.5944758 0.3548408
0.1467432 0.5100085 0.2400038
0.2138191 0.5183702 0.2474298
0.2805962 0.5247447 0.2555143
0.3488057 0.5284279 0.2661123
0.4230294 0.5325148 0.2798974
0.5136104 0.5486235 0.3037070
0.6307089 0.5892065 0.3450423
0.7650882 0.6495354 0.3946929
0.9046751 0.7184548 0.4406626
0.1752997 0.6207257 0.2773993
0.2405311 0.6223102 0.2780219
0.3080150 0.6250427 0.2808393
0.3809187 0.6311009 0.2890019
0.4608484 0.6420277 0.3044299
0.5517521 0.6625722 0.3313420
0.6630752 0.7033077 0.3794720
0.7950340 0.7658863 0.4533970
0.9412443 0.8429219 0.5502685
0.1989802 0.7256799 0.3097755
0.2654286 0.7234368 0.3050313
0.3354211 0.7248357 0.3038276
0.4123038 0.7339439 0.3106439
0.4980592 0.7533211 0.3298449
0.5950957 0.7848152 0.3664222
0.7070904 0.8300822 0.4277895
0.8383041 0.8906299 0.5227544
0.9836769 0.9613491 0.6454793
0.0169906 0.0056657 0.1843559
0.0071541 0.0000000 0.1309105
0.0172307 0.0027483 0.0821289
0.0775664 0.0191834 0.0732478
0.2089208 0.0461160 0.1109363
0.3881039 0.0859975 0.1578435
0.5849507 0.1496028 0.2098910
0.7798493 0.2435546 0.2761997
0.9637856 0.3554226 0.3556710
0.0120304 0.0474151 0.1323835
0.0433325 0.0595812 0.1493386
0.0792607 0.0703730 0.1540363
0.1249481 0.0725776 0.1382263
0.2185015 0.0821898 0.1339008
0.3828999 0.1241235 0.1668999
0.5741835 0.1963408 0.2242023
0.7556739 0.2890189 0.2909260
0.9327212 0.3950130 0.3647200
0.0260667 0.1140095 0.1323072
0.0898897 0.1391673 0.1817006
0.1362556 0.1431430 0.1969997
0.1717128 0.1386815 0.1836988
0.2239839 0.1268488 0.1562951
0.3729520 0.1679450 0.1760426
0.5640701 0.2477485 0.2350959
0.7325985 0.3343108 0.2995770
0.9062074 0.4305544 0.3717256
0.0543338 0.2052899 0.1866631
0.1230587 0.2182389 0.2093805
0.1727838 0.2257134 0.2185204
0.2029625 0.2041671 0.2018831
0.2808828 0.2310034 0.2258238
0.3708432 0.2407370 0.2070841
0.5408309 0.2985389 0.2252932
0.7250290 0.3844149 0.2976845
0.8918706 0.4615627 0.3692175
0.0786523 0.2927242 0.2249473
0.1506034 0.3105513 0.2431386
0.2124504 0.3221325 0.2549420
0.2453839 0.3014969 0.2377603
0.3086917 0.3053633 0.2452158
0.4436570 0.3703404 0.3012638
0.5589598 0.3754815 0.2472930
0.7478070 0.4577355 0.3129631
0.8923745 0.5228770 0.3790096
0.1313800 0.4225783 0.2900115
0.1967939 0.4328626 0.2981525
0.2587009 0.4388918 0.3022747
0.3166609 0.4377605 0.3002742
0.3820530 0.4320338 0.2941342
0.5084913 0.4749350 0.3323334
0.6302725 0.5166944 0.3682821
0.7512778 0.5474940 0.3792180
0.8953383 0.6174309 0.4129651
0.1881159 0.5546639 0.3501329
0.2444040 0.5543693 0.3469950
0.3027669 0.5546483 0.3445720
0.3680785 0.5570282 0.3455540
0.4496164 0.5672619 0.3572332
0.5435380 0.5852584 0.3809839
0.6459952 0.6152657 0.4173303
0.7643068 0.6610772 0.4505667
0.9083290 0.7309821 0.4772043
0.2352156 0.6711382 0.3928421
0.2886317 0.6670617 0.3844840
0.3468152 0.6662106 0.3802441
0.4153595 0.6722938 0.3856801
0.4961090 0.6866555 0.4044888
0.5849693 0.7068750 0.4352442
0.6851978 0.7381907 0.4804805
0.8023765 0.7857361 0.5373500
0.9341389 0.8419265 0.5903844
0.2759116 0.7783096 0.4258444
0.3312438 0.7752200 0.4168420
0.3910483 0.7759640 0.4132800
0.4597553 0.7846583 0.4215460
0.5385744 0.8025567 0.4451292
0.6296103 0.8309003 0.4870682
0.7359163 0.8704637 0.5505616
0.8571437 0.9179468 0.6367843
0.9880241 0.9689930 0.7422331
0.0000000 0.0000000 0.2758839
0.0032235 0.0035917 0.2357596
0.0272779 0.0158378 0.1779252
0.0846841 0.0312843 0.1386887
0.1987981 0.0573016 0.1696898
0.3516463 0.0918362 0.2224484
0.5257030 0.1452731 0.2828650
0.7138769 0.2224398 0.3559949
0.9084050 0.3118930 0.4367252
0.0080098 0.0479606 0.2316760
0.0497502 0.0704645 0.2463034
0.0864314 0.0820948 0.2339780
0.1284937 0.0821653 0.2004776
0.2108941 0.0868894 0.1900446
0.3580235 0.1232009 0.2263311
0.5441835 0.1955388 0.2959076
0.7306897 0.2846725 0.3733641
0.9125522 0.3788170 0.4514169
0.0411768 0.1232812 0.2256373
0.1005513 0.1524636 0.2706337
0.1461037 0.1613331 0.2829923
0.1650159 0.1362965 0.2378989
0.2185478 0.1224971 0.2066904
0.3673682 0.1664820 0.2415399
0.5652867 0.2547125 0.3137656
0.7461766 0.3475264 0.3865229
0.9176418 0.4428091 0.4603889
0.0822564 0.2233686 0.2770034
0.1533275 0.2564470 0.3188288
0.1921893 0.2483188 0.3106473
0.2197539 0.2229006 0.2807921
0.2735863 0.2153053 0.2704196
0.4016745 0.2534251 0.2934930
0.5869782 0.3307016 0.3359889
0.7617430 0.4127233 0.3892701
0.9246426 0.4983419 0.4568859
0.1210171 0.3471283 0.3434953
0.1941335 0.3688932 0.3701242
0.2339102 0.3557712 0.3583831
0.3037077 0.3724195 0.3715938
0.3569522 0.3592303 0.3581295
0.4620564 0.3872792 0.3813801
0.6177053 0.4292443 0.3797509
0.8002091 0.5004863 0.3924230
0.9246090 0.5571310 0.4559346
0.1947390 0.4983320 0.4259799
0.2365686 0.4848287 0.4167269
0.2723690 0.4666299 0.3987531
0.3267872 0.4628352 0.3895664
0.4049781 0.4734503 0.3942149
0.5544047 0.5288844 0.4506096
0.6274356 0.5367092 0.4573665
0.8182703 0.6075426 0.4374699
0.9170978 0.6524926 0.4928983
0.2599168 0.6225747 0.4802524
0.2880611 0.6001848 0.4579213
0.3269389 0.5871507 0.4417692
0.3863551 0.5897690 0.4375123
0.4742952 0.6085736 0.4531365
0.6118584 0.6677293 0.5201424
0.7069435 0.6895661 0.5511919
0.7662703 0.6798525 0.5317375
0.9111968 0.7504892 0.5572550
0.3096256 0.7252613 0.5122524
0.3429886 0.7111134 0.4925243
0.3849624 0.7035670 0.4794473
0.4446579 0.7085254 0.4805928
0.5286363 0.7297507 0.5049907
0.6329017 0.7646789 0.5547099
0.7370474 0.7985319 0.6088033
0.8265846 0.8188710 0.6382010
0.9352472 0.8478170 0.6511928
0.3547411 0.8208805 0.5365551
0.3976566 0.8187377 0.5232722
0.4440472 0.8177934 0.5146572
0.4994017 0.8216006 0.5187640
0.5677577 0.8338958 0.5417735
0.6514148 0.8570477 0.5852162
0.7558814 0.8950402 0.6510116
0.8776628 0.9407175 0.7300600
0.9988684 0.9780375 0.8066380
0.0000000 0.0102224 0.4031524
0.0372012 0.0432772 0.3853039
0.0706446 0.0523711 0.3201484
0.1224472 0.0556434 0.2598902
0.2135741 0.0706637 0.2600954
0.3367701 0.0957411 0.2965267
0.4855775 0.1342733 0.3506415
0.6526243 0.1865708 0.4173125
0.8298857 0.2472213 0.4914899
0.0319750 0.0836827 0.3893615
0.0751061 0.1022575 0.3784064
0.1119924 0.1077245 0.3434796
0.1532397 0.1022100 0.2969507
0.2275674 0.1046388 0.2801700
0.3541802 0.1361488 0.3113861
0.5196750 0.1973557 0.3750820
0.6972520 0.2717756 0.4480632
0.8745545 0.3486241 0.5209216
0.0594418 0.1565058 0.3746603
0.1139689 0.1764169 0.3854345
0.1597378 0.1824081 0.3807185
0.1873093 0.1595038 0.3348550
0.2417423 0.1449805 0.3002144
0.3776345 0.1888629 0.3390277
0.5609927 0.2710074 0.4107246
0.7408377 0.3576097 0.4779555
0.9127196 0.4429628 0.5420765
0.0838134 0.2487291 0.3770338
0.1711152 0.2885453 0.4312116
0.2219544 0.2894213 0.4411787
0.2436803 0.2528600 0.3930083
0.2959714 0.2381660 0.3669548
0.4236316 0.2776941 0.3978580
0.6074205 0.3621007 0.4577767
0.7789813 0.4456227 0.5045787
0.9385685 0.5271869 0.5503197
0.1834239 0.4430876 0.4994330
0.2366630 0.4244277 0.4965510
0.2558987 0.3878401 0.4763465
0.2934638 0.3660483 0.4572599
0.4351979 0.4368914 0.5285981
0.5061776 0.4205898 0.4942375
0.6435863 0.4662286 0.5094423
0.8031466 0.5397385 0.5314991
0.9519103 0.6093372 0.5563770
0.2936792 0.6040683 0.5889070
0.2848949 0.5377312 0.5345372
0.2936992 0.4980286 0.5072027
0.3488416 0.5021134 0.5155649
0.4817284 0.5650147 0.5745760
0.5878884 0.5818292 0.5841536
0.6566336 0.5707899 0.5590057
0.8048188 0.6355883 0.5669934
0.9521152 0.7041294 0.5938263
0.3511104 0.6962134 0.6142477
0.3420467 0.6456292 0.5693725
0.3532480 0.6167104 0.5443296
0.4113229 0.6267876 0.5490101
0.5217997 0.6705025 0.5848097
0.6680282 0.7372999 0.6616674
0.7997077 0.7916949 0.7315354
0.7936186 0.7138207 0.6226260
0.9306335 0.7850657 0.6597924
0.3961346 0.7767175 0.6298580
0.4053800 0.7535461 0.6024258
0.4255883 0.7375401 0.5814606
0.4710170 0.7375026 0.5767659
0.5521799 0.7590274 0.5997294
0.6753960 0.8092438 0.6661326
0.8066516 0.8676699 0.7505745
0.8549961 0.8529991 0.7440752
0.9434678 0.8668542 0.7417445
0.4417868 0.8644225 0.6526135
0.4699837 0.8619489 0.6345493
0.5000032 0.8565845 0.6171587
0.5362220 0.8491000 0.6084389
0.5862415 0.8469302 0.6198017
0.6566261 0.8583241 0.6547579
0.7555490 0.8919206 0.7154961
0.8842715 0.9461872 0.7967950
1.0000000 0.9831145 0.8556615
0.0622557 0.0918555 0.5698663
0.1152847 0.1202102 0.5504886
0.1426829 0.1093544 0.4810523
0.1771733 0.0899935 0.4110352
0.2402483 0.0834905 0.3778336
0.3338797 0.0928161 0.3831266
0.4548567 0.1151320 0.4164589
0.5963520 0.1467030 0.4675176
0.7454840 0.1812258 0.5249870
0.0905448 0.1532994 0.5682011
0.1350280 0.1682759 0.5339767
0.1681529 0.1617832 0.4838499
0.2057174 0.1453519 0.4315782
0.2700456 0.1407673 0.4062110
0.3736394 0.1620387 0.4216759
0.5100571 0.2057153 0.4661750
0.6627391 0.2587835 0.5214441
0.8191791 0.3136498 0.5779971
0.1077885 0.2275186 0.5732216
0.1578287 0.2338032 0.5314665
0.2087357 0.2371225 0.5082097
0.2489117 0.2197183 0.4699592
0.3085486 0.2106798 0.4462787
0.4205560 0.2432738 0.4723662
0.5696793 0.3040771 0.5240126
0.7280755 0.3712204 0.5761797
0.8846424 0.4378017 0.6249386
0.0612645 0.2564133 0.4584552
0.1926085 0.3261047 0.5464837
0.2721331 0.3446552 0.5595386
0.3250397 0.3388327 0.5465631
0.3845914 0.3338200 0.5361179
0.4895440 0.3585551 0.5529434
0.6333652 0.4144107 0.5912983
0.7839105 0.4820996 0.6283009
0.9310706 0.5497258 0.6604983
0.1208352 0.4005524 0.4893644
0.2508216 0.4436498 0.5795425
0.3112599 0.4301100 0.5696210
0.4065640 0.4905611 0.6479149
0.5222352 0.5449592 0.7022348
0.5882325 0.5173774 0.6616264
0.6926316 0.5353398 0.6585100
0.8191117 0.5881807 0.6750391
0.9541986 0.6500480 0.6893739
0.3308845 0.6509553 0.6981931
0.3143466 0.5536408 0.6093437
0.3322310 0.5247529 0.6062320
0.3929211 0.5689145 0.6763104
0.5900194 0.6896447 0.7746981
0.7022797 0.7006553 0.7740014
0.7452038 0.6656598 0.7245863
0.8309617 0.6834992 0.7143535
0.9631679 0.7468960 0.7286545
0.4261584 0.7345833 0.7175440
0.3928328 0.6733497 0.6635364
0.3912490 0.6479586 0.6517908
0.4267121 0.6474756 0.6570154
0.5649112 0.7155386 0.7108841
0.7923820 0.8543272 0.8447760
0.8078458 0.8043675 0.8053967
0.8254128 0.7601742 0.7441456
0.9673135 0.8405926 0.7893411
0.4894455 0.8207154 0.7431251
0.4735494 0.7938373 0.7146366
0.4729687 0.7719852 0.6894147
0.5051204 0.7647633 0.6779989
0.5783031 0.7790044 0.6946613
0.7018232 0.8288293 0.7577582
0.8173337 0.8751174 0.8205299
0.8510318 0.8520382 0.8007951
0.9592839 0.8958562 0.8335204
0.5452846 0.9242511 0.7861796
0.5543587 0.9153602 0.7630121
0.5653382 0.9013626 0.7361039
0.5829334 0.8812767 0.7123623
0.6113581 0.8604941 0.7033957
0.6606506 0.8519668 0.7163457
0.7544065 0.8809554 0.7675154
0.8797545 0.9378958 0.8437831
0.9957287 0.9825491 0.8984340
0.2703386 0.3036018 0.7910873
0.2411568 0.2364036 0.7203770
0.2288836 0.1784433 0.6480465
0.2365197 0.1296372 0.5709648
0.2720302 0.0982342 0.5114275
0.3373547 0.0862624 0.4829637
0.4305200 0.0908845 0.4870436
0.5416113 0.1049025 0.5112326
0.6583024 0.1214108 0.5412741
0.2062256 0.2741445 0.7419486
0.2334083 0.2683133 0.7007483
0.2494489 0.2387198 0.6439269
0.2771871 0.2082323 0.5897880
0.3286572 0.1926604 0.5557543
0.4078015 0.1977513 0.5502899
0.5113177 0.2191614 0.5681267
0.6292218 0.2477991 0.5965254
0.7520689 0.2781387 0.6275798
0.2021319 0.3304765 0.7524267
0.2347763 0.3196841 0.6910872
0.2741961 0.3053147 0.6441375
0.3248639 0.2946566 0.6164411
0.3913990 0.2959257 0.6087134
0.4819179 0.3166982 0.6242133
0.5931852 0.3509533 0.6519015
0.7149941 0.3899175 0.6813505
0.8399231 0.4298343 0.7102145
0.1913214 0.4188144 0.7794746
0.2411307 0.3823965 0.6711265
0.3043509 0.3767814 0.6435740
0.3809450 0.3944137 0.6541514
0.4667063 0.4230854 0.6838236
0.5640014 0.4528314 0.7111668
0.6744511 0.4871435 0.7359606
0.7925358 0.5278715 0.7607961
0.9112858 0.5696540 0.7832623
0.1179988 0.4363071 0.6579538
0.2677164 0.4594324 0.6584110
0.3290289 0.4376505 0.6293146
0.4169581 0.4918770 0.6941487
0.5533353 0.5817333 0.7827863
0.6577080 0.6084197 0.8030377
0.7543209 0.6267195 0.8141600
0.8562497 0.6576785 0.8295908
0.9570244 0.6907071 0.8410430
0.1148728 0.4916962 0.6174818
0.3353786 0.5577373 0.6790766
0.3726594 0.5355275 0.6661838
0.4586972 0.6343100 0.8089128
0.5956764 0.6973479 0.8309679
0.7657987 0.7750412 0.8862236
0.8374598 0.7725888 0.8890879
0.8965970 0.7689656 0.8789104
0.9812277 0.7946942 0.8850761
0.4585599 0.7093570 0.7672322
0.4241467 0.6815348 0.7419399
0.4395272 0.6774038 0.7466819
0.4818579 0.6940591 0.7670528
0.5871660 0.7348813 0.7965277
0.8004760 0.8606332 0.9062915
0.8782947 0.8767369 0.9259064
0.9005708 0.8434370 0.8936725
0.9994760 0.8908682 0.9242627
0.5697871 0.8582897 0.8520735
0.5396191 0.8332784 0.8304204
0.5310601 0.8144210 0.8104920
0.5561716 0.8018412 0.7920587
0.6172964 0.8052641 0.7929564
0.7047014 0.8263919 0.8190433
0.7995668 0.8566421 0.8524319
0.8853188 0.8872768 0.8855600
0.9969070 0.9507057 0.9412525
0.6737898 1.0000000 0.9366727
0.6535070 0.9815611 0.9105837
0.6417467 0.9564848 0.8799044
0.6481948 0.9288938 0.8492216
0.6681268 0.8987952 0.8231794
0.7034738 0.8759986 0.8102649
0.7761058 0.8865310 0.8311855
0.8808894 0.9306673 0.8841569
0.9945348 0.9871017 0.9512838
0.5183126 0.5402785 0.9433142
0.3876416 0.3674338 0.8879726
0.3209050 0.2528892 0.8191384
0.3006423 0.1757724 0.7370122
0.3081857 0.1171930 0.6536838
0.3448032 0.0803515 0.5918727
0.4077963 0.0650040 0.5610337
0.4861026 0.0620249 0.5518572
0.5692643 0.0626162 0.5502329
0.3810222 0.4564671 0.9234927
0.3505404 0.3841487 0.8687200
0.3385864 0.3218381 0.8089421
0.3543052 0.2778747 0.7545542
0.3930072 0.2516124 0.7136158
0.4480236 0.2384979 0.6873317
0.5167062 0.2350496 0.6749769
0.5960323 0.2377702 0.6726492
0.6802695 0.2429487 0.6744854
0.3488189 0.4867781 0.9431463
0.3293739 0.4182193 0.8511498
0.3415991 0.3736149 0.7815586
0.3966426 0.3668779 0.7598945
0.4731496 0.3822102 0.7692839
0.5492300 0.3964577 0.7809344
0.6242472 0.4047979 0.7867646
0.7040469 0.4119978 0.7908718
0.7885092 0.4204351 0.7962718
0.4084071 0.6147024 0.9901575
0.3207421 0.4654327 0.8237920
0.3288884 0.4039641 0.7344962
0.4150059 0.4290373 0.7454013
0.5297059 0.4913579 0.8050497
0.6372929 0.5442643 0.8603403
0.7263176 0.5700472 0.8885985
0.8073266 0.5808874 0.9004144
0.8878843 0.5884928 0.9089366
0.4045287 0.6828311 0.9455001
0.3070197 0.5010299 0.7763083
0.3402897 0.4530218 0.7116521
0.4198569 0.4773080 0.7249061
0.5350600 0.5521241 0.7979447
0.6840806 0.6524495 0.8970862
0.8113399 0.7161746 0.9632875
0.9005865 0.7372346 0.9907312
0.9698751 0.7390952 1.0000000
0.2191577 0.5858771 0.8027163
0.3392293 0.5614868 0.7598426
0.3963739 0.5552783 0.7472829
0.4402240 0.5564820 0.7379322
0.5070574 0.5852358 0.7669774
0.6577688 0.6868295 0.8623638
0.8551005 0.8157018 0.9856098
0.9684780 0.8647485 1.0000000
1.0000000 0.8688298 1.0000000
0.3756964 0.6839870 0.8157137
0.4482675 0.7002570 0.8391101
0.4834378 0.7075758 0.8386685
0.5243885 0.7149382 0.8369107
0.5845789 0.7280301 0.8400744
0.6624888 0.7413104 0.8448258
0.8365756 0.8456594 0.9418050
0.9864917 0.9395305 1.0000000
1.0000000 0.9786040 1.0000000
0.6356271 0.8895156 0.9527170
0.5993918 0.8762604 0.9545913
0.5979947 0.8676615 0.9491163
0.6354109 0.8642724 0.9407763
0.6910108 0.8628209 0.9256464
0.7519829 0.8638218 0.9122815
0.8256441 0.8769920 0.9192479
0.9554274 0.9579971 0.9930501
1.0000000 1.0000000 1.0000000
0.8207236 1.0000000 1.0000000
0.7617560 1.0000000 1.0000000
0.7244928 1.0000000 1.0000000
0.7240451 0.9855742 1.0000000
0.7457511 0.9532691 0.9659357
0.7724725 0.9217330 0.9259532
0.8185906 0.9122379 0.9112296
0.9149888 0.9523526 0.9511247
1.0000000 0.9978837 1.0000000
