catalog/styles/film/film-chrome/look.cube
# film-chrome iteration 4
LUT_3D_SIZE 5
DOMAIN_MIN 0 0 0
DOMAIN_MAX 1 1 1
0.1712148 0.1533834 0.1683841
0.1561796 0.0654322 0.0467064
0.2878809 0.0405829 0.0000000
0.6272092 0.1071030 0.0023520
0.9391102 0.1551320 0.0428304
0.0448574 0.1005167 0.0253053
0.0516639 0.0482682 0.0048345
0.3119287 0.1767951 0.0520645
0.5087095 0.2186090 0.0549235
0.8793883 0.2944792 0.0585187
0.1467579 0.3293044 0.0888960
0.2403878 0.3408012 0.0970577
0.3449274 0.3291729 0.1462444
0.5902327 0.3854624 0.1578160
0.8746776 0.4543523 0.1596328
0.1155090 0.4712236 0.0674111
0.2393674 0.4774987 0.0939517
0.3913445 0.5010287 0.1249344
0.6267422 0.5738408 0.2160266
0.9612675 0.6821387 0.1215731
0.0442321 0.5960646 0.0594539
0.2144630 0.6003544 0.0627340
0.4037745 0.6355098 0.0910281
0.6607328 0.7539789 0.1860264
0.9964677 0.9398115 0.3824187
0.0717531 0.0505486 0.1454003
0.0422145 0.0125488 0.0463536
0.2466249 0.0442724 0.0687039
0.6576101 0.1455333 0.1318981
0.9754058 0.3434247 0.2369610
0.0139290 0.1123582 0.0794868
0.0930920 0.0954271 0.0983797
0.2184695 0.1271034 0.1143320
0.5201157 0.2339044 0.1691278
0.8931987 0.4076583 0.2755923
0.0666113 0.2756634 0.1481907
0.2152774 0.3192296 0.1875671
0.3242979 0.3107221 0.2002662
0.5447741 0.3834913 0.2566947
0.8594359 0.4936416 0.3112895
0.1467432 0.5100085 0.2400038
0.2805962 0.5247447 0.2555143
0.4230294 0.5325148 0.2798974
0.6307089 0.5892065 0.3450423
0.9046751 0.7184548 0.4406626
0.1989802 0.7256799 0.3097755
0.3354211 0.7248357 0.3038276
0.4980592 0.7533211 0.3298449
0.7070904 0.8300822 0.4277895
0.9836769 0.9613491 0.6454793
0.0000000 0.0000000 0.2758839
0.0272779 0.0158378 0.1779252
0.1987981 0.0573016 0.1696898
0.5257030 0.1452731 0.2828650
0.9084050 0.3118930 0.4367252
0.0411768 0.1232812 0.2256373
0.1461037 0.1613331 0.2829923
0.2185478 0.1224971 0.2066904
0.5652867 0.2547125 0.3137656
0.9176418 0.4428091 0.4603889
0.1210171 0.3471283 0.3434953
0.2339102 0.3557712 0.3583831
0.3569522 0.3592303 0.3581295
0.6177053 0.4292443 0.3797509
0.9246090 0.5571310 0.4559346
0.2599168 0.6225747 0.4802524
0.3269389 0.5871507 0.4417692
0.4742952 0.6085736 0.4531365
0.7069435 0.6895661 0.5511919
0.9111968 0.7504892 0.5572550
0.3547411 0.8208805 0.5365551
0.4440472 0.8177934 0.5146572
0.5677577 0.8338958 0.5417735
0.7558814 0.8950402 0.6510116
0.9988684 0.9780375 0.8066380
0.0622557 0.0918555 0.5698663
0.1426829 0.1093544 0.4810523
0.2402483 0.0834905 0.3778336
0.4548567 0.1151320 0.4164589
0.7454840 0.1812258 0.5249870
0.1077885 0.2275186 0.5732216
0.2087357 0.2371225 0.5082097
0.3085486 0.2106798 0.4462787
0.5696793 0.3040771 0.5240126
0.8846424 0.4378017 0.6249386
0.1208352 0.4005524 0.4893644
0.3112599 0.4301100 0.5696210
0.5222352 0.5449592 0.7022348
0.6926316 0.5353398 0.6585100
0.9541986 0.6500480 0.6893739
0.4261584 0.7345833 0.7175440
0.3912490 0.6479586 0.6517908
0.5649112 0.7155386 0.7108841
0.8078458 0.8043675 0.8053967
0.9673135 0.8405926 0.7893411
0.5452846 0.9242511 0.7861796
0.5653382 0.9013626 0.7361039
0.6113581 0.8604941 0.7033957
0.7544065 0.8809554 0.7675154
0.9957287 0.9825491 0.8984340
0.5183126 0.5402785 0.9433142
0.3209050 0.2528892 0.8191384
0.3081857 0.1171930 0.6536838
0.4077963 0.0650040 0.5610337
0.5692643 0.0626162 0.5502329
0.3488189 0.4867781 0.9431463
0.3415991 0.3736149 0.7815586
0.4731496 0.3822102 0.7692839
0.6242472 0.4047979 0.7867646
0.7885092 0.4204351 0.7962718
0.4045287 0.6828311 0.9455001
0.3402897 0.4530218 0.7116521
0.5350600 0.5521241 0.7979447
0.8113399 0.7161746 0.9632875
0.9698751 0.7390952 1.0000000
0.3756964 0.6839870 0.8157137
0.4834378 0.7075758 0.8386685
0.5845789 0.7280301 0.8400744
0.8365756 0.8456594 0.9418050
1.0000000 0.9786040 1.0000000
0.8207236 1.0000000 1.0000000
0.7244928 1.0000000 1.0000000
0.7457511 0.9532691 0.9659357
0.8185906 0.9122379 0.9112296
1.0000000 0.9978837 1.0000000
