catalog/styles/film/film-chrome/look.cube
# film-chrome iteration 4
LUT_3D_SIZE 33
DOMAIN_MIN 0 0 0
DOMAIN_MAX 1 1 1
0.1712148 0.1533834 0.1683841
0.1726056 0.1464598 0.1538465
0.1741661 0.1396223 0.1395344
0.1755045 0.1324189 0.1254353
0.1759783 0.1241072 0.1113802
0.1744502 0.1135112 0.0966875
0.1701243 0.0998040 0.0807780
0.1635822 0.0834174 0.0639340
0.1561796 0.0654322 0.0467064
0.1500877 0.0476273 0.0300175
0.1477400 0.0319883 0.0148893
0.1514029 0.0202675 0.0021574
0.1629060 0.0138781 0.0000000
0.1830643 0.0134135 0.0000000
0.2116270 0.0185715 0.0000000
0.2472663 0.0282126 0.0000000
0.2878809 0.0405829 0.0000000
0.3313240 0.0539074 0.0000000
0.3757333 0.0666838 0.0000000
0.4198013 0.0778487 0.0000000
0.4627686 0.0868327 0.0000000
0.5045597 0.0936531 0.0000000
0.5454334 0.0987417 0.0009062
0.5860651 0.1029271 0.0015288
0.6272092 0.1071030 0.0023520
0.6687837 0.1118846 0.0037944
0.7103718 0.1177219 0.0061320
0.7515106 0.1246211 0.0094319
0.7916266 0.1323277 0.0137385
0.8297833 0.1399488 0.0189733
0.8660026 0.1464656 0.0252999
0.9019914 0.1514238 0.0332105
0.9391102 0.1551320 0.0428304
0.1412111 0.1307054 0.1406073
0.1422226 0.1240648 0.1288882
0.1434683 0.1176006 0.1172944
0.1448950 0.1111725 0.1057306
0.1461310 0.1042783 0.0938634
0.1465255 0.0961100 0.0811312
0.1455242 0.0859708 0.0670960
0.1432193 0.0738179 0.0518987
0.1404882 0.0603264 0.0361436
0.1390273 0.0468940 0.0208921
0.1410403 0.0353571 0.0074263
0.1485872 0.0274107 0.0000000
0.1630769 0.0242177 0.0000000
0.1849398 0.0261426 0.0000000
0.2134867 0.0326311 0.0000000
0.2472616 0.0424869 0.0000000
0.2844018 0.0541787 0.0000000
0.3231017 0.0662386 0.0000000
0.3619229 0.0774959 0.0000000
0.3999642 0.0872136 0.0021778
0.4369086 0.0951216 0.0046568
0.4730316 0.1013860 0.0062466
0.5090602 0.1065081 0.0071405
0.5459922 0.1112357 0.0077221
0.5846545 0.1162793 0.0084080
0.6250948 0.1219523 0.0094685
0.6667201 0.1283091 0.0110942
0.7088445 0.1352536 0.0134317
0.7510199 0.1424710 0.0165257
0.7932727 0.1494974 0.0203721
0.8354994 0.1557859 0.0250517
0.8782663 0.1611482 0.0306247
0.9213925 0.1658385 0.0368695
0.1129788 0.1099245 0.1140123
0.1129998 0.1028632 0.1046568
0.1134500 0.0962240 0.0954585
0.1145933 0.0901960 0.0862993
0.1163864 0.0845561 0.0767128
0.1186202 0.0787922 0.0661436
0.1207874 0.0721416 0.0540060
0.1227024 0.0642447 0.0403682
0.1248011 0.0553718 0.0259624
0.1283655 0.0465920 0.0121373
0.1351885 0.0394674 0.0004067
0.1469469 0.0354843 0.0000000
0.1646378 0.0355988 0.0000000
0.1881754 0.0398656 0.0000000
0.2165159 0.0475098 0.0000000
0.2481584 0.0573305 0.0000000
0.2815681 0.0680728 0.0000000
0.3154140 0.0786635 0.0005384
0.3487305 0.0883224 0.0048696
0.3810384 0.0966319 0.0083612
0.4123874 0.1035589 0.0108604
0.4433277 0.1093732 0.0124348
0.4748981 0.1146268 0.0133514
0.5084271 0.1199901 0.0139586
0.5450428 0.1259588 0.0145420
0.5846251 0.1325633 0.0152844
0.6263520 0.1395446 0.0163497
0.6696249 0.1467069 0.0179281
0.7143556 0.1538287 0.0200330
0.7605485 0.1605795 0.0226807
0.8081465 0.1666886 0.0258585
0.8570076 0.1721834 0.0295210
0.9064042 0.1772747 0.0334938
0.0880349 0.0927116 0.0895037
0.0862721 0.0842752 0.0818817
0.0851112 0.0765257 0.0745236
0.0851253 0.0700126 0.0673761
0.0867824 0.0649872 0.0600318
0.0903046 0.0612474 0.0518032
0.0952705 0.0579187 0.0416983
0.1014526 0.0543831 0.0296012
0.1090607 0.0506677 0.0166005
0.1188189 0.0473917 0.0043775
0.1316655 0.0455115 0.0000000
0.1485941 0.0461299 0.0000000
0.1699674 0.0498532 0.0000000
0.1950147 0.0562823 0.0000000
0.2225154 0.0645177 0.0000000
0.2512171 0.0735537 0.0000000
0.2802392 0.0826500 0.0012053
0.3089756 0.0913086 0.0064294
0.3370274 0.0992049 0.0109772
0.3643321 0.1062292 0.0145462
0.3911963 0.1124848 0.0170717
0.4182762 0.1182461 0.0186930
0.4467446 0.1240004 0.0196916
0.4780255 0.1302347 0.0203367
0.5130178 0.1371493 0.0208238
0.5515796 0.1445641 0.0213016
0.5931810 0.1521829 0.0219720
0.6374579 0.1597079 0.0229755
0.6842759 0.1669047 0.0243129
0.7335417 0.1735170 0.0259795
0.7854158 0.1794878 0.0279879
0.8395416 0.1849271 0.0303415
0.8949374 0.1900339 0.0329834
0.0675981 0.0804787 0.0678071
0.0634660 0.0698872 0.0613242
0.0599312 0.0600758 0.0551648
0.0578285 0.0519661 0.0494684
0.0580895 0.0463238 0.0439430
0.0616029 0.0435118 0.0378103
0.0685150 0.0429124 0.0297557
0.0790151 0.0439106 0.0194645
0.0934216 0.0464009 0.0084991
0.1114298 0.0501235 0.0000000
0.1324737 0.0550364 0.0000000
0.1562391 0.0614577 0.0000000
0.1818074 0.0691224 0.0000000
0.2078156 0.0772175 0.0000000
0.2332030 0.0849380 0.0000000
0.2575722 0.0919164 0.0018424
0.2811224 0.0982424 0.0075189
0.3043253 0.1042366 0.0127619
0.3275580 0.1101631 0.0172539
0.3510460 0.1161342 0.0208066
0.3751510 0.1222553 0.0234170
0.4004220 0.1286258 0.0252085
0.4276240 0.1353553 0.0263328
0.4577947 0.1426412 0.0269793
0.4915053 0.1504220 0.0273098
0.5287592 0.1584428 0.0275282
0.5694775 0.1664183 0.0278461
0.6138495 0.1741725 0.0283731
0.6619253 0.1815574 0.0291133
0.7133228 0.1882250 0.0300450
0.7682596 0.1941868 0.0312485
0.8264936 0.1995736 0.0327799
0.8868500 0.2045659 0.0346162
0.0526739 0.0745221 0.0497885
0.0461521 0.0615376 0.0440072
0.0400474 0.0492002 0.0385345
0.0351507 0.0385436 0.0335923
0.0327395 0.0308715 0.0291026
0.0345738 0.0274343 0.0244528
0.0419509 0.0283783 0.0183284
0.0563096 0.0336069 0.0104637
0.0784999 0.0430045 0.0023824
0.1073069 0.0555978 0.0000000
0.1395561 0.0695342 0.0000000
0.1721289 0.0832108 0.0000000
0.2021368 0.0949608 0.0000000
0.2280043 0.1037943 0.0000000
0.2494663 0.1094835 0.0041874
0.2677005 0.1127888 0.0098902
0.2845276 0.1150245 0.0151632
0.3018201 0.1175626 0.0198363
0.3208695 0.1213261 0.0238784
0.3419799 0.1265119 0.0272388
0.3652541 0.1330322 0.0299295
0.3907144 0.1405832 0.0319654
0.4184211 0.1487411 0.0332799
0.4488420 0.1573559 0.0339719
0.4822581 0.1661861 0.0341787
0.5183824 0.1747208 0.0341056
0.5573109 0.1826552 0.0340039
0.6003393 0.1902720 0.0340288
0.6484745 0.1978329 0.0342743
0.7008000 0.2047269 0.0347124
0.7574345 0.2109166 0.0354266
0.8182050 0.2164724 0.0364760
0.8817792 0.2215415 0.0378441
0.0436682 0.0755966 0.0361371
0.0356312 0.0608574 0.0310065
0.0276495 0.0464042 0.0260055
0.0202458 0.0331129 0.0213123
0.0147745 0.0226050 0.0170348
0.0136151 0.0169774 0.0130043
0.0197647 0.0177542 0.0087094
0.0364232 0.0257516 0.0039276
0.0659693 0.0416244 0.0000000
0.1072302 0.0644154 0.0000000
0.1535100 0.0896208 0.0000000
0.1966510 0.1118931 0.0008178
0.2309137 0.1274932 0.0048665
0.2551571 0.1358188 0.0099800
0.2710167 0.1380507 0.0155050
0.2815175 0.1362264 0.0205446
0.2905257 0.1331498 0.0246513
0.3017160 0.1315666 0.0280411
0.3171375 0.1329225 0.0310658
0.3371442 0.1374434 0.0338996
0.3611178 0.1446090 0.0365004
0.3884654 0.1536672 0.0387242
0.4183280 0.1636147 0.0403134
0.4504448 0.1738813 0.0411929
0.4848701 0.1841251 0.0414622
0.5206785 0.1933957 0.0411573
0.5578674 0.2013182 0.0405588
0.5986279 0.2086160 0.0400189
0.6448090 0.2159251 0.0397469
0.6963356 0.2230391 0.0398364
0.7530757 0.2297844 0.0403486
0.8146563 0.2360477 0.0412816
0.8794890 0.2418306 0.0425414
0.0409567 0.0842106 0.0276942
0.0328778 0.0690466 0.0234156
0.0244993 0.0537981 0.0189753
0.0160781 0.0390453 0.0144919
0.0089071 0.0264308 0.0103693
0.0054395 0.0184532 0.0069829
0.0091529 0.0173207 0.0043413
0.0245091 0.0246112 0.0020115
0.0570786 0.0432334 0.0011614
0.1084394 0.0744304 0.0039572
0.1702302 0.1123287 0.0099907
0.2263093 0.1451068 0.0160134
0.2648734 0.1644451 0.0206501
0.2865969 0.1714532 0.0255071
0.2963014 0.1697162 0.0305523
0.2987545 0.1623989 0.0344541
0.2995437 0.1534173 0.0367058
0.3043185 0.1470348 0.0380048
0.3161591 0.1455297 0.0392972
0.3355401 0.1491107 0.0410439
0.3612069 0.1567828 0.0431464
0.3915142 0.1672109 0.0453150
0.4246000 0.1788585 0.0471142
0.4591434 0.1906448 0.0482212
0.4947310 0.2020334 0.0485956
0.5305523 0.2121391 0.0481826
0.5668665 0.2206050 0.0472190
0.6058165 0.2281576 0.0462019
0.6494568 0.2355275 0.0455201
0.6988186 0.2430846 0.0454459
0.7540993 0.2508579 0.0461440
0.8147629 0.2585934 0.0474627
0.8788912 0.2660307 0.0490852
0.0448574 0.1005167 0.0253053
0.0382934 0.0865072 0.0221104
0.0312279 0.0722104 0.0184518
0.0239025 0.0580651 0.0144999
0.0173466 0.0453268 0.0107925
0.0133250 0.0359508 0.0078852
0.0143166 0.0317436 0.0059778
0.0242715 0.0341061 0.0045605
0.0516639 0.0482682 0.0048345
0.1045396 0.0807529 0.0103084
0.1789506 0.1293173 0.0223510
0.2511106 0.1753454 0.0338215
0.2968206 0.2005327 0.0395502
0.3182206 0.2077952 0.0447383
0.3226321 0.2026393 0.0492457
0.3182097 0.1907129 0.0518026
0.3119287 0.1767951 0.0520645
0.3105590 0.1657240 0.0508584
0.3183231 0.1607842 0.0497971
0.3362794 0.1624076 0.0495472
0.3632224 0.1695556 0.0502750
0.3968446 0.1806463 0.0518497
0.4343570 0.1936757 0.0535328
0.4722780 0.2067189 0.0546773
0.5087095 0.2186090 0.0549235
0.5440106 0.2290975 0.0543216
0.5799797 0.2385701 0.0532294
0.6183256 0.2474202 0.0521372
0.6602953 0.2559467 0.0515226
0.7070059 0.2646361 0.0517537
0.7594376 0.2740108 0.0531600
0.8176180 0.2841710 0.0556317
0.8793883 0.2944792 0.0585187
0.0554758 0.1243179 0.0295656
0.0513259 0.1124943 0.0272211
0.0467634 0.1004833 0.0243706
0.0423258 0.0888800 0.0213243
0.0388552 0.0785511 0.0185479
0.0370700 0.0702244 0.0163054
0.0376858 0.0643053 0.0145499
0.0421498 0.0609142 0.0126309
0.0573298 0.0642532 0.0109191
0.0967435 0.0852176 0.0136834
0.1661197 0.1296530 0.0256517
0.2474465 0.1836347 0.0427655
0.3107708 0.2234256 0.0563733
0.3423864 0.2391633 0.0656128
0.3463012 0.2341882 0.0705150
0.3370252 0.2191735 0.0718753
0.3265387 0.2025251 0.0706621
0.3211951 0.1886401 0.0675003
0.3248111 0.1804117 0.0639340
0.3396690 0.1789850 0.0610387
0.3662044 0.1841187 0.0593919
0.4022312 0.1945158 0.0593438
0.4447004 0.2082023 0.0601801
0.4877482 0.2222478 0.0606519
0.5260029 0.2343676 0.0602142
0.5610404 0.2450059 0.0592095
0.5966151 0.2554104 0.0581145
0.6346730 0.2660142 0.0574377
0.6753953 0.2764353 0.0575222
0.7195863 0.2871044 0.0588202
0.7684789 0.2988441 0.0617874
0.8228995 0.3123728 0.0665330
0.8808255 0.3267007 0.0720300
0.0717704 0.1543435 0.0397412
0.0701923 0.1450427 0.0376733
0.0684756 0.1357689 0.0353232
0.0676826 0.1275391 0.0332422
0.0688529 0.1212619 0.0319285
0.0723580 0.1171301 0.0314427
0.0775581 0.1142426 0.0311493
0.0828089 0.1104851 0.0296234
0.0876947 0.1043445 0.0249596
0.1041272 0.1054257 0.0206515
0.1485118 0.1284954 0.0246784
0.2176921 0.1724222 0.0396981
0.2902075 0.2202713 0.0608208
0.3411404 0.2518244 0.0793172
0.3572519 0.2568371 0.0892168
0.3510949 0.2446266 0.0919380
0.3416882 0.2290495 0.0908122
0.3362677 0.2153635 0.0871389
0.3368634 0.2049413 0.0817206
0.3467182 0.1997589 0.0763365
0.3690972 0.2013749 0.0723364
0.4048526 0.2095216 0.0697607
0.4507674 0.2224890 0.0684925
0.5000758 0.2371788 0.0673562
0.5436742 0.2500881 0.0655137
0.5807382 0.2609997 0.0632826
0.6166434 0.2721464 0.0617618
0.6546085 0.2846054 0.0617807
0.6946052 0.2977590 0.0635765
0.7365413 0.3111183 0.0671070
0.7815349 0.3255734 0.0727232
0.8306592 0.3422815 0.0806786
0.8825397 0.3603954 0.0898251
0.0907405 0.1876756 0.0531379
0.0918288 0.1810294 0.0511038
0.0930091 0.1745415 0.0490484
0.0957969 0.1696009 0.0477835
0.1014759 0.1672878 0.0478791
0.1105146 0.1678310 0.0493594
0.1225360 0.1706174 0.0517110
0.1353320 0.1732059 0.0533264
0.1433958 0.1698580 0.0506918
0.1457702 0.1589316 0.0421365
0.1589549 0.1550546 0.0354929
0.1976875 0.1728089 0.0403245
0.2548535 0.2076814 0.0575489
0.3090048 0.2419165 0.0794612
0.3434179 0.2613692 0.0977307
0.3559552 0.2635897 0.1080210
0.3568861 0.2558566 0.1107734
0.3545339 0.2443517 0.1076342
0.3534393 0.2326274 0.1009522
0.3590612 0.2247446 0.0942959
0.3753348 0.2227839 0.0892050
0.4042870 0.2268207 0.0850278
0.4462940 0.2363532 0.0812049
0.4985468 0.2500320 0.0772652
0.5529724 0.2649602 0.0727951
0.5989388 0.2778453 0.0682827
0.6377441 0.2896924 0.0652002
0.6758995 0.3035280 0.0653945
0.7166720 0.3204010 0.0696036
0.7583968 0.3383134 0.0772445
0.7996603 0.3555906 0.0868322
0.8415369 0.3732961 0.0981087
0.8839763 0.3913704 0.1100866
0.1087894 0.2208946 0.0663453
0.1129293 0.2171893 0.0647464
0.1171358 0.2135082 0.0631375
0.1230273 0.2113252 0.0625027
0.1320067 0.2118241 0.0634945
0.1446189 0.2153385 0.0661207
0.1607145 0.2214884 0.0698873
0.1790741 0.2288035 0.0737014
0.1957843 0.2333660 0.0754951
0.2039835 0.2286342 0.0717821
0.2041595 0.2145054 0.0626205
0.2117650 0.2056009 0.0564396
0.2388660 0.2142996 0.0620275
0.2791435 0.2360380 0.0785760
0.3184509 0.2583280 0.0987611
0.3481607 0.2733157 0.1161674
0.3661912 0.2784968 0.1265951
0.3720610 0.2730057 0.1272220
0.3710725 0.2607202 0.1193637
0.3750089 0.2513594 0.1111548
0.3885595 0.2483726 0.1067005
0.4113974 0.2499824 0.1035345
0.4446326 0.2551957 0.0991015
0.4912567 0.2651791 0.0930058
0.5488928 0.2792274 0.0849417
0.6070613 0.2945995 0.0766369
0.6538688 0.3080584 0.0708755
0.6926045 0.3217799 0.0700179
0.7365755 0.3426295 0.0761084
0.7830574 0.3686459 0.0899544
0.8225444 0.3899537 0.1050712
0.8549470 0.4045934 0.1180983
0.8847624 0.4162294 0.1295035
0.1236712 0.2519347 0.0769851
0.1309823 0.2510832 0.0762757
0.1382958 0.2501640 0.0755058
0.1467808 0.2501771 0.0754596
0.1577240 0.2522174 0.0768139
0.1715776 0.2565699 0.0795321
0.1881094 0.2627920 0.0830223
0.2067771 0.2700827 0.0865936
0.2264206 0.2772211 0.0897600
0.2426896 0.2802870 0.0910012
0.2499275 0.2740687 0.0885035
0.2499565 0.2602557 0.0827783
0.2543753 0.2496706 0.0801846
0.2726995 0.2516419 0.0870359
0.3019204 0.2638103 0.1019403
0.3335500 0.2787449 0.1193250
0.3607156 0.2901667 0.1338238
0.3787371 0.2936510 0.1407338
0.3857895 0.2870324 0.1366688
0.3913438 0.2778039 0.1266563
0.4054120 0.2750380 0.1215490
0.4275777 0.2778192 0.1216670
0.4558543 0.2817053 0.1197536
0.4947199 0.2878598 0.1133113
0.5464339 0.2982256 0.1029814
0.6035833 0.3118265 0.0923745
0.6527705 0.3248564 0.0849381
0.6960878 0.3387515 0.0816571
0.7451698 0.3610257 0.0860817
0.8011027 0.3968532 0.1054622
0.8440378 0.4257170 0.1275689
0.8661898 0.4325749 0.1383851
0.8842404 0.4326723 0.1442066
0.1347455 0.2801694 0.0840645
0.1448309 0.2816385 0.0844272
0.1548050 0.2829111 0.0846568
0.1653128 0.2845031 0.0852200
0.1772513 0.2871560 0.0866426
0.1908270 0.2909609 0.0888382
0.2056908 0.2953920 0.0912326
0.2215084 0.2999180 0.0933502
0.2383887 0.3045437 0.0954051
0.2555792 0.3086810 0.0978253
0.2697901 0.3094724 0.0999690
0.2778405 0.3043557 0.1006718
0.2805870 0.2936670 0.1002851
0.2862132 0.2846452 0.1028307
0.3012395 0.2836310 0.1114307
0.3244177 0.2898677 0.1243684
0.3499468 0.2983745 0.1372567
0.3728583 0.3046031 0.1459836
0.3900492 0.3053071 0.1470464
0.4042045 0.3022737 0.1412870
0.4230325 0.3022448 0.1360629
0.4479925 0.3068602 0.1363625
0.4764675 0.3121731 0.1371793
0.5099660 0.3171203 0.1340920
0.5528666 0.3242890 0.1260966
0.5992809 0.3326724 0.1156924
0.6416392 0.3414439 0.1081974
0.6801008 0.3516712 0.1054660
0.7226532 0.3676497 0.1069918
0.7840087 0.4039379 0.1213750
0.8429548 0.4458632 0.1476745
0.8647826 0.4479555 0.1530935
0.8820060 0.4415852 0.1527509
0.1422834 0.3058260 0.0878170
0.1543117 0.3086858 0.0890548
0.1661824 0.3113166 0.0901564
0.1781259 0.3138589 0.0913052
0.1905220 0.3166055 0.0927738
0.2033358 0.3194259 0.0944500
0.2161324 0.3217866 0.0958455
0.2284043 0.3230557 0.0964560
0.2406892 0.3236620 0.0967143
0.2543779 0.3248905 0.0980506
0.2696636 0.3270010 0.1012423
0.2840428 0.3280273 0.1056123
0.2943732 0.3247978 0.1100610
0.3010706 0.3173302 0.1148983
0.3096911 0.3106473 0.1221234
0.3241209 0.3085209 0.1317044
0.3438522 0.3108626 0.1415706
0.3661371 0.3152914 0.1490387
0.3884507 0.3192550 0.1522179
0.4112287 0.3226803 0.1515861
0.4374148 0.3278270 0.1494934
0.4673224 0.3349424 0.1484051
0.4994978 0.3424739 0.1486270
0.5328527 0.3488339 0.1485347
0.5694104 0.3548783 0.1459950
0.6064982 0.3599134 0.1400676
0.6399869 0.3637559 0.1339768
0.6700330 0.3683850 0.1318907
0.7006723 0.3764792 0.1346550
0.7446419 0.3958105 0.1401914
0.8049614 0.4310747 0.1522531
0.8448677 0.4431296 0.1549827
0.8787407 0.4468379 0.1562467
0.1467579 0.3293044 0.0888960
0.1599598 0.3327228 0.0907735
0.1729818 0.3359232 0.0925234
0.1857795 0.3388135 0.0941624
0.1983186 0.3413127 0.0957386
0.2103839 0.3431532 0.0971199
0.2215018 0.3438091 0.0978998
0.2313381 0.3428929 0.0977638
0.2403878 0.3408012 0.0970577
0.2504467 0.3390761 0.0971090
0.2634329 0.3393155 0.0994166
0.2790497 0.3412627 0.1044271
0.2947524 0.3427291 0.1113613
0.3076734 0.3409739 0.1193746
0.3181887 0.3360957 0.1283648
0.3293993 0.3310318 0.1375948
0.3449274 0.3291729 0.1462444
0.3649591 0.3308546 0.1527709
0.3887387 0.3352294 0.1565158
0.4158457 0.3415321 0.1579834
0.4465426 0.3495883 0.1576493
0.4809873 0.3592026 0.1562653
0.5176858 0.3690866 0.1549716
0.5545611 0.3780250 0.1554129
0.5902327 0.3854624 0.1578160
0.6234393 0.3904610 0.1589846
0.6523485 0.3923213 0.1565774
0.6781408 0.3938393 0.1547107
0.7041040 0.3981315 0.1570301
0.7355233 0.4069972 0.1606487
0.7771306 0.4205042 0.1570850
0.8241139 0.4362246 0.1537672
0.8746776 0.4543523 0.1596328
0.1486682 0.3509388 0.0880461
0.1624153 0.3542927 0.0903260
0.1759736 0.3574544 0.0924909
0.1891354 0.3601964 0.0944723
0.2016440 0.3622381 0.0962015
0.2131501 0.3632211 0.0975071
0.2233877 0.3628466 0.0982080
0.2322692 0.3610121 0.0981860
0.2403289 0.3581388 0.0977685
0.2488952 0.3552974 0.0977285
0.2599706 0.3539516 0.0992987
0.2748047 0.3550938 0.1036770
0.2924164 0.3578955 0.1110135
0.3100861 0.3600199 0.1204540
0.3252449 0.3591808 0.1306758
0.3382977 0.3557997 0.1405804
0.3525692 0.3526293 0.1491436
0.3704110 0.3520291 0.1557935
0.3928576 0.3547704 0.1601756
0.4202191 0.3607197 0.1624100
0.4522258 0.3692840 0.1626366
0.4888352 0.3801980 0.1617633
0.5287229 0.3921901 0.1606432
0.5691970 0.4035330 0.1609063
0.6071875 0.4130626 0.1651438
0.6414174 0.4197559 0.1708498
0.6712365 0.4230786 0.1735667
0.6968494 0.4242567 0.1732236
0.7208730 0.4258598 0.1723229
0.7476325 0.4307826 0.1734999
0.7801779 0.4388610 0.1720835
0.8207495 0.4509730 0.1672933
0.8708798 0.4696426 0.1700342
0.1484654 0.3710589 0.0859656
0.1623179 0.3739386 0.0884320
0.1759812 0.3766455 0.0908123
0.1891790 0.3789072 0.0930021
0.2015892 0.3803921 0.0948880
0.2129241 0.3808210 0.0963732
0.2230813 0.3800737 0.0974270
0.2322368 0.3782963 0.0981502
0.2409247 0.3759050 0.0988541
0.2500952 0.3735633 0.0999851
0.2613554 0.3724635 0.1022910
0.2760005 0.3735423 0.1064681
0.2938536 0.3765077 0.1129888
0.3131900 0.3797827 0.1215799
0.3315693 0.3815101 0.1310505
0.3479607 0.3808474 0.1404178
0.3636454 0.3788009 0.1490014
0.3808647 0.3775021 0.1565350
0.4011840 0.3781261 0.1619970
0.4264290 0.3820540 0.1656117
0.4568999 0.3892420 0.1669607
0.4931430 0.4000185 0.1672518
0.5339037 0.4131390 0.1676283
0.5765642 0.4265906 0.1693023
0.6177550 0.4383389 0.1737087
0.6551474 0.4468642 0.1795615
0.6880057 0.4522016 0.1848608
0.7163538 0.4548520 0.1864484
0.7412444 0.4561337 0.1840039
0.7666072 0.4594662 0.1816488
0.7956848 0.4673717 0.1835820
0.8304812 0.4801528 0.1882743
0.8725515 0.4962285 0.1921344
0.1463929 0.3898571 0.0830887
0.1601404 0.3920678 0.0856317
0.1737114 0.3941263 0.0881099
0.1868429 0.3957854 0.0904329
0.1992622 0.3967831 0.0925227
0.2108102 0.3969618 0.0943679
0.2215143 0.3963283 0.0960498
0.2316731 0.3951239 0.0977786
0.2417817 0.3937092 0.0998271
0.2527161 0.3927237 0.1026613
0.2657976 0.3931664 0.1069395
0.2819427 0.3957115 0.1128492
0.3003268 0.3994013 0.1192153
0.3194422 0.4026398 0.1253842
0.3383520 0.4047167 0.1314667
0.3568417 0.4056357 0.1385796
0.3748873 0.4055208 0.1466160
0.3929335 0.4047427 0.1548354
0.4121176 0.4042120 0.1616684
0.4346734 0.4058101 0.1668270
0.4624285 0.4109149 0.1703108
0.4963701 0.4202637 0.1728033
0.5359526 0.4332702 0.1753705
0.5789155 0.4479301 0.1791236
0.6223879 0.4618523 0.1844768
0.6632546 0.4727013 0.1898519
0.6993380 0.4797587 0.1945072
0.7305247 0.4837191 0.1960074
0.7583844 0.4865320 0.1938322
0.7848189 0.4904105 0.1902086
0.8133240 0.4980042 0.1898264
0.8462234 0.5116145 0.1982874
0.8838114 0.5295907 0.2120770
0.1426530 0.4075352 0.0797967
0.1562699 0.4090386 0.0823527
0.1697482 0.4104321 0.0848736
0.1828877 0.4115376 0.0873123
0.1955158 0.4121936 0.0896518
0.2075748 0.4123379 0.0919427
0.2191819 0.4120542 0.0943246
0.2306547 0.4115875 0.0970218
0.2424892 0.4113096 0.1003107
0.2554460 0.4118036 0.1046126
0.2704949 0.4138399 0.1104201
0.2883690 0.4179665 0.1179264
0.3083969 0.4233970 0.1256738
0.3278713 0.4273163 0.1306228
0.3458792 0.4287191 0.1328305
0.3643659 0.4295278 0.1366238
0.3835358 0.4303228 0.1430556
0.4027110 0.4304652 0.1512347
0.4222732 0.4302625 0.1594776
0.4436160 0.4308644 0.1663532
0.4691784 0.4343385 0.1719989
0.5003258 0.4418419 0.1770159
0.5375165 0.4538267 0.1823578
0.5794827 0.4688805 0.1885842
0.6238094 0.4846642 0.1958385
0.6669155 0.4981533 0.2024738
0.7058413 0.5075182 0.2065959
0.7392657 0.5128457 0.2069452
0.7694127 0.5168073 0.2040855
0.7979569 0.5218197 0.2003787
0.8281162 0.5294288 0.1953681
0.8626439 0.5413747 0.1929688
0.9012707 0.5578843 0.1974800
0.1374359 0.4242619 0.0763574
0.1510524 0.4251695 0.0789239
0.1645789 0.4260153 0.0814849
0.1778988 0.4267025 0.0840448
0.1909352 0.4271617 0.0866398
0.2037099 0.4274038 0.0893644
0.2163808 0.4275467 0.0923713
0.2292494 0.4278196 0.0958610
0.2427542 0.4285609 0.1000712
0.2574471 0.4302079 0.1052517
0.2738641 0.4331748 0.1115234
0.2922908 0.4376553 0.1186376
0.3122930 0.4431218 0.1255144
0.3320398 0.4475196 0.1299243
0.3508189 0.4498601 0.1319311
0.3693547 0.4508808 0.1342302
0.3888116 0.4519609 0.1391230
0.4089927 0.4531323 0.1467564
0.4296480 0.4540475 0.1556070
0.4516934 0.4554510 0.1642055
0.4763572 0.4584110 0.1717102
0.5054392 0.4646288 0.1787728
0.5403925 0.4755686 0.1866071
0.5805333 0.4902826 0.1951420
0.6241856 0.5070436 0.2043003
0.6678671 0.5227743 0.2128796
0.7083370 0.5350018 0.2188085
0.7437614 0.5427302 0.2197034
0.7751282 0.5479998 0.2174689
0.8056878 0.5539403 0.2125295
0.8389430 0.5616341 0.2013833
0.8771651 0.5714404 0.1832704
0.9193584 0.5828125 0.1612683
0.1309938 0.4402842 0.0730313
0.1448048 0.4407575 0.0755979
0.1585787 0.4412183 0.0781977
0.1722757 0.4416424 0.0808707
0.1858940 0.4420279 0.0836904
0.1995060 0.4424327 0.0867665
0.2132764 0.4429848 0.0902388
0.2274597 0.4438805 0.0942534
0.2423722 0.4453641 0.0989416
0.2583286 0.4476775 0.1043382
0.2755139 0.4509344 0.1102527
0.2938813 0.4550204 0.1161748
0.3130666 0.4594645 0.1213425
0.3323922 0.4633767 0.1249924
0.3515093 0.4661646 0.1273841
0.3706419 0.4679796 0.1298453
0.3906692 0.4698175 0.1342995
0.4118410 0.4721321 0.1415018
0.4340579 0.4747836 0.1506371
0.4574046 0.4777450 0.1603126
0.4824791 0.4815244 0.1695733
0.5108833 0.4877901 0.1786932
0.5441867 0.4980465 0.1884833
0.5824157 0.5122133 0.1988318
0.6242813 0.5289832 0.2093820
0.6671856 0.5459876 0.2193158
0.7081714 0.5607852 0.2271699
0.7451837 0.5719431 0.2312899
0.7783736 0.5801468 0.2311540
0.8110628 0.5874105 0.2243249
0.8474248 0.5950877 0.2063713
0.8896797 0.6033963 0.1751282
0.9365256 0.6118168 0.1332045
0.1235957 0.4558632 0.0700048
0.1378067 0.4560620 0.0725571
0.1520289 0.4562949 0.0751743
0.1662795 0.4565884 0.0779245
0.1806071 0.4569856 0.0808979
0.1951073 0.4575647 0.0841960
0.2099240 0.4584443 0.0879179
0.2252381 0.4597655 0.0921384
0.2412336 0.4616635 0.0968655
0.2580345 0.4642115 0.1019751
0.2756422 0.4673569 0.1071646
0.2939185 0.4708901 0.1119900
0.3126572 0.4744989 0.1160549
0.3316495 0.4778193 0.1192233
0.3508273 0.4806079 0.1218405
0.3704762 0.4830543 0.1248208
0.3909259 0.4855366 0.1292873
0.4126580 0.4886147 0.1360009
0.4360455 0.4926855 0.1450780
0.4608747 0.4975050 0.1555831
0.4872537 0.5031813 0.1665319
0.5160951 0.5106119 0.1776699
0.5485683 0.5209560 0.1892473
0.5851111 0.5346822 0.2011881
0.6249642 0.5511214 0.2130556
0.6663783 0.5686561 0.2241807
0.7070573 0.5852519 0.2334121
0.7454357 0.5996672 0.2395568
0.7813126 0.6114397 0.2401423
0.8168675 0.6210579 0.2313405
0.8556566 0.6293569 0.2088357
0.9007368 0.6374725 0.1706416
0.9514633 0.6457780 0.1202826
0.1155090 0.4712236 0.0674111
0.1302951 0.4712784 0.0699072
0.1451303 0.4714085 0.0724971
0.1600686 0.4716675 0.0752624
0.1751820 0.4721198 0.0782873
