catalog/styles/experimental/experimental-cinema/look.cube
# experimental-cinema iteration 3
LUT_3D_SIZE 33
DOMAIN_MIN 0 0 0
DOMAIN_MAX 1 1 1
0.0000000 0.0000000 0.0000000
0.0000000 0.0000000 0.0000000
0.0000000 0.0000000 0.0000000
0.0000000 0.0000000 0.0000000
0.0000000 0.0000000 0.0000000
0.0000000 0.0000000 0.0000000
0.0000000 0.0000000 0.0000000
0.0818355 0.0000000 0.0000000
0.1669747 0.0000000 0.0000000
0.2501829 0.0000000 0.0000000
0.3311731 0.0000000 0.0000000
0.4095973 0.0000000 0.0000000
0.4851156 0.0000000 0.0000000
0.5573850 0.0000000 0.0000000
0.6261100 0.0000000 0.0000000
0.6909499 0.0000000 0.0000000
0.7515651 0.0000000 0.0000000
0.8077021 0.0000000 0.0000000
0.8591819 0.0000000 0.0000000
0.9059503 0.0000000 0.0000000
0.9480380 0.0000000 0.0000000
0.9854868 0.0000000 0.0000000
1.0000000 0.0000000 0.0000000
1.0000000 0.0078322 0.0000000
1.0000000 0.0190645 0.0000000
1.0000000 0.0301876 0.0000000
1.0000000 0.0411513 0.0000000
1.0000000 0.0519313 0.0000000
1.0000000 0.0625339 0.0000000
1.0000000 0.0729829 0.0000000
1.0000000 0.0833227 0.0000000
1.0000000 0.0936030 0.0000000
1.0000000 0.1038593 0.0000000
0.0000000 0.0000000 0.0000000
0.0000000 0.0000000 0.0000000
0.0000000 0.0000000 0.0000000
0.0000000 0.0000000 0.0000000
0.0000000 0.0000000 0.0000000
0.0000000 0.0000000 0.0000000
0.0000000 0.0000000 0.0000000
0.0820001 0.0000000 0.0000000
0.1667908 0.0000000 0.0000000
0.2497302 0.0000000 0.0000000
0.3303920 0.0000000 0.0000000
0.4083410 0.0000000 0.0000000
0.4831202 0.0000000 0.0000000
0.5543273 0.0000000 0.0000000
0.6216676 0.0000000 0.0000000
0.6848709 0.0000000 0.0000000
0.7436902 0.0000000 0.0000000
0.7980045 0.0000000 0.0000000
0.8477417 0.0000000 0.0000000
0.8929232 0.0000000 0.0000000
0.9336108 0.0064418 0.0000000
0.9698720 0.0159748 0.0000000
1.0000000 0.0254213 0.0000000
1.0000000 0.0347529 0.0000000
1.0000000 0.0439392 0.0000000
1.0000000 0.0529545 0.0000000
1.0000000 0.0617826 0.0000000
1.0000000 0.0704237 0.0000000
1.0000000 0.0788971 0.0000000
1.0000000 0.0872382 0.0000000
1.0000000 0.0954825 0.0000000
1.0000000 0.1036634 0.0000000
1.0000000 0.1118208 0.0000000
0.0000000 0.0000000 0.0000000
0.0000000 0.0000000 0.0000000
0.0000000 0.0000000 0.0000000
0.0000000 0.0000000 0.0000000
0.0000000 0.0000000 0.0000000
0.0000000 0.0000000 0.0000000
0.0000000 0.0000000 0.0000000
0.0820940 0.0000000 0.0000000
0.1665139 0.0000000 0.0000000
0.2491577 0.0000000 0.0000000
0.3294827 0.0000000 0.0000000
0.4069329 0.0000000 0.0000000
0.4809608 0.0000000 0.0000000
0.5511049 0.0000000 0.0000000
0.6170766 0.0000000 0.0000000
0.6786679 0.0000000 0.0000000
0.7357379 0.0046544 0.0000000
0.7882768 0.0136930 0.0000000
0.8363136 0.0223697 0.0000000
0.8799404 0.0307354 0.0000000
0.9192491 0.0388288 0.0000000
0.9543368 0.0466822 0.0000000
0.9853137 0.0542969 0.0000000
1.0000000 0.0616707 0.0000000
1.0000000 0.0688062 0.0000000
1.0000000 0.0757171 0.0000000
1.0000000 0.0824214 0.0000000
1.0000000 0.0889387 0.0000000
1.0000000 0.0952978 0.0000000
1.0000000 0.1015410 0.0000000
1.0000000 0.1077088 0.0000000
1.0000000 0.1138320 0.0000000
1.0000000 0.1199368 0.0000000
0.0000000 0.0000000 0.0000000
0.0000000 0.0000000 0.0000000
0.0000000 0.0000000 0.0000000
0.0000000 0.0000000 0.0000000
0.0000000 0.0000000 0.0000000
0.0000000 0.0000000 0.0000000
0.0000000 0.0000000 0.0000000
0.0820180 0.0000000 0.0000000
0.1659852 0.0000000 0.0000000
0.2482516 0.0000000 0.0000000
0.3281505 0.0000000 0.0000000
0.4050267 0.0000000 0.0000000
0.4782490 0.0005087 0.0000000
0.5473310 0.0114284 0.0000000
0.6119879 0.0222438 0.0000000
0.6720615 0.0321770 0.0000000
0.7275092 0.0412703 0.0000000
0.7784113 0.0496194 0.0000000
0.8248692 0.0573147 0.0000000
0.8670460 0.0644418 0.0000000
0.9050557 0.0710790 0.0000000
0.9390107 0.0772885 0.0000000
0.9690399 0.0831057 0.0000000
0.9953451 0.0885537 0.0000000
1.0000000 0.0936655 0.0000000
1.0000000 0.0984891 0.0000000
1.0000000 0.1030908 0.0000000
1.0000000 0.1075228 0.0000000
1.0000000 0.1118163 0.0000000
1.0000000 0.1160185 0.0000000
1.0000000 0.1201620 0.0000000
1.0000000 0.1242789 0.0000000
1.0000000 0.1283886 0.0000000
0.0000000 0.0000000 0.0000000
0.0000000 0.0000000 0.0000000
0.0000000 0.0000000 0.0000000
0.0000000 0.0000000 0.0000000
0.0000000 0.0000000 0.0000000
0.0000000 0.0000000 0.0000000
0.0000000 0.0000000 0.0000000
0.0816583 0.0000000 0.0000000
0.1650220 0.0000000 0.0000000
0.2467184 0.0000000 0.0000000
0.3259860 0.0078814 0.0000000
0.4021022 0.0217363 0.0000000
0.4744118 0.0349874 0.0000000
0.5424245 0.0472236 0.0000000
0.6058690 0.0583087 0.0000000
0.6646200 0.0682247 0.0000000
0.7186877 0.0770326 0.0000000
0.7682069 0.0848206 0.0000000
0.8133269 0.0916867 0.0000000
0.8542363 0.0977182 0.0000000
0.8910785 0.1030156 0.0000000
0.9239830 0.1076657 0.0000000
0.9530832 0.1117434 0.0000000
0.9785790 0.1153155 0.0000000
1.0000000 0.1184602 0.0000000
1.0000000 0.1212706 0.0000000
1.0000000 0.1238402 0.0000000
1.0000000 0.1262456 0.0000000
1.0000000 0.1285403 0.0000000
1.0000000 0.1307664 0.0000000
1.0000000 0.1329609 0.0000000
1.0000000 0.1351474 0.0000000
1.0000000 0.1373399 0.0000000
0.0000000 0.0000000 0.0000000
0.0000000 0.0000000 0.0000000
0.0000000 0.0000000 0.0000000
0.0000000 0.0000000 0.0000000
0.0000000 0.0000000 0.0000000
0.0000000 0.0000000 0.0000000
0.0000000 0.0000000 0.0000000
0.0808825 0.0000000 0.0000000
0.1634127 0.0096943 0.0000000
0.2442177 0.0251544 0.0000000
0.3225063 0.0404543 0.0000000
0.3975559 0.0550726 0.0000000
0.4687567 0.0687593 0.0000000
0.5356717 0.0813376 0.0000000
0.5980634 0.0926763 0.0000000
0.6557939 0.1027121 0.0000000
0.7088613 0.1114390 0.0000000
0.7573763 0.1188883 0.0000000
0.8014875 0.1251242 0.0000000
0.8413822 0.1302445 0.0000000
0.8772202 0.1343613 0.0000000
0.9091591 0.1375868 0.0000000
0.9373622 0.1400436 0.0000000
0.9620357 0.1418440 0.0000000
0.9834637 0.1431202 0.0000000
1.0000000 0.1440156 0.0000000
1.0000000 0.1446570 0.0000000
1.0000000 0.1451391 0.0000000
1.0000000 0.1455281 0.0000000
1.0000000 0.1458767 0.0000000
1.0000000 0.1462197 0.0000000
1.0000000 0.1465742 0.0000000
1.0000000 0.1469394 0.0000000
0.0000000 0.0000000 0.0000000
0.0000000 0.0000000 0.0000000
0.0000000 0.0000000 0.0000000
0.0000000 0.0000000 0.0000000
0.0000000 0.0000000 0.0000000
0.0000000 0.0000000 0.0000000
0.0000000 0.0074355 0.0000000
0.0795448 0.0236709 0.0000000
0.1608793 0.0402094 0.0000000
0.2403777 0.0564012 0.0000000
0.3172391 0.0719441 0.0000000
0.3908384 0.0866695 0.0000000
0.4606706 0.1004634 0.0000000
0.5264290 0.1132191 0.0000000
0.5879385 0.1248141 0.0000000
0.6450090 0.1351155 0.0000000
0.6975362 0.1440017 0.0000000
0.7455162 0.1513856 0.0000000
0.7890094 0.1572554 0.0000000
0.8281710 0.1616850 0.0000000
0.8631755 0.1647977 0.0000000
0.8942336 0.1667525 0.0000000
0.9215718 0.1677358 0.0000000
0.9454238 0.1679326 0.0000000
0.9661157 0.1675184 0.0000000
0.9839851 0.1666583 0.0000000
0.9994844 0.1655010 0.0000000
1.0000000 0.1641764 0.0000000
1.0000000 0.1627905 0.0000000
1.0000000 0.1613996 0.0000000
1.0000000 0.1600295 0.0000000
1.0000000 0.1586805 0.0000000
1.0000000 0.1573394 0.0000000
0.0000000 0.0000000 0.0000000
0.0000000 0.0000000 0.0000000
0.0000000 0.0000000 0.0000000
0.0000000 0.0000000 0.0000000
0.0000000 0.0030684 0.0000000
0.0000000 0.0192282 0.0000000
0.0000000 0.0361049 0.0000000
0.0774412 0.0532816 0.0000000
0.1571490 0.0701789 0.0000000
0.2348632 0.0864376 0.0000000
0.3098400 0.1018346 0.0000000
0.3815859 0.1163031 0.0000000
0.4497910 0.1298829 0.0000000
0.5143206 0.1426130 0.0000000
0.5750752 0.1544166 0.0000000
0.6318085 0.1650812 0.0000000
0.6842305 0.1743298 0.0000000
0.7321290 0.1819136 0.0000000
0.7753884 0.1876915 0.0000000
0.8140944 0.1916723 0.0000000
0.8484411 0.1939997 0.0000000
0.8787168 0.1948912 0.0000000
0.9052345 0.1945999 0.0000000
0.9283014 0.1933711 0.0000000
0.9482973 0.1914362 0.0000000
0.9655917 0.1889998 0.0000000
0.9806696 0.1862360 0.0000000
0.9940337 0.1833023 0.0000000
1.0000000 0.1803179 0.0000000
1.0000000 0.1773540 0.0000000
1.0000000 0.1744449 0.0000000
1.0000000 0.1715755 0.0000000
1.0000000 0.1687163 0.0000000
0.0000000 0.0000000 0.0000000
0.0000000 0.0000000 0.0000000
0.0000000 0.0000000 0.0000000
0.0000000 0.0142817 0.0000000
0.0000000 0.0303040 0.0000000
0.0000000 0.0472537 0.0000000
0.0000000 0.0646298 0.0000000
0.0743684 0.0820233 0.0000000
0.1519774 0.0989365 0.0000000
0.2274608 0.1149690 0.0000000
0.3001557 0.1299423 0.0000000
0.3697428 0.1439171 0.0000000
0.4361317 0.1570822 0.0000000
0.4993693 0.1696216 0.0000000
0.5594359 0.1815360 0.0000000
0.6160202 0.1925710 0.0000000
0.6686131 0.2022855 0.0000000
0.7167314 0.2102330 0.0000000
0.7600474 0.2161167 0.0000000
0.7985327 0.2198760 0.0000000
0.8323876 0.2216514 0.0000000
0.8619903 0.2217068 0.0000000
0.8877644 0.2203556 0.0000000
0.9101322 0.2179121 0.0000000
0.9295317 0.2146622 0.0000000
0.9463889 0.2108595 0.0000000
0.9612257 0.2067135 0.0000000
0.9745479 0.2023992 0.0000000
0.9867809 0.1980560 0.0000000
0.9982757 0.1937566 0.0000000
1.0000000 0.1895392 0.0000000
1.0000000 0.1853859 0.0000000
1.0000000 0.1812544 0.0000000
0.0000000 0.0000000 0.0000000
0.0000000 0.0109266 0.0000000
0.0000000 0.0258637 0.0000000
0.0000000 0.0416023 0.0000000
0.0000000 0.0579414 0.0000000
0.0000000 0.0749065 0.0000000
0.0000000 0.0922671 0.0000000
0.0701993 0.1095561 0.0000000
0.1452590 0.1262132 0.0000000
0.2181356 0.1418215 0.0000000
0.2882826 0.1562484 0.0000000
0.3555558 0.1696429 0.0000000
0.4200561 0.1823271 0.0000000
0.4819827 0.1946017 0.0000000
0.5413525 0.2065332 0.0000000
0.5977726 0.2178363 0.0000000
0.6505563 0.2279526 0.0000000
0.6989661 0.2362739 0.0000000
0.7424514 0.2423632 0.0000000
0.7808638 0.2460611 0.0000000
0.8143752 0.2474750 0.0000000
0.8434344 0.2469047 0.0000000
0.8685964 0.2447282 0.0000000
0.8904069 0.2413237 0.0000000
0.9093957 0.2370278 0.0000000
0.9260427 0.2321250 0.0000000
0.9408880 0.2268702 0.0000000
0.9544420 0.2214603 0.0000000
0.9670833 0.2160275 0.0000000
0.9790991 0.2106637 0.0000000
0.9907570 0.2054086 0.0000000
1.0000000 0.2002394 0.0000000
1.0000000 0.1951079 0.0000000
0.0000000 0.0236796 0.0000000
0.0000000 0.0385916 0.0000000
0.0000000 0.0536775 0.0000000
0.0000000 0.0691687 0.0000000
0.0000000 0.0852285 0.0000000
0.0000000 0.1018623 0.0000000
0.0000000 0.1188497 0.0000000
0.0649464 0.1357163 0.0000000
0.1370791 0.1518990 0.0000000
0.2070935 0.1669753 0.0000000
0.2745570 0.1808443 0.0000000
0.3394884 0.1937267 0.0000000
0.4021265 0.2060100 0.0000000
0.4627328 0.2180328 0.0000000
0.5213067 0.2298799 0.0000000
0.5773689 0.2412554 0.0000000
0.6301080 0.2515617 0.0000000
0.6786376 0.2601125 0.0000000
0.7222368 0.2663681 0.0000000
0.7606170 0.2700731 0.0000000
0.7939024 0.2712895 0.0000000
0.8225872 0.2703146 0.0000000
0.8473290 0.2675701 0.0000000
0.8688003 0.2634912 0.0000000
0.8876513 0.2584604 0.0000000
0.9043887 0.2527896 0.0000000
0.9195709 0.2467510 0.0000000
0.9336656 0.2405572 0.0000000
0.9470133 0.2343459 0.0000000
0.9598439 0.2282068 0.0000000
0.9723775 0.2221770 0.0000000
0.9847611 0.2162478 0.0000000
0.9971309 0.2103719 0.0000000
0.0000000 0.0523901 0.0000000
0.0000000 0.0668806 0.0000000
0.0000000 0.0815321 0.0000000
0.0000000 0.0965404 0.0000000
0.0000000 0.1120417 0.0000000
0.0000000 0.1280399 0.0000000
0.0000000 0.1443256 0.0000000
0.0587834 0.1604879 0.0000000
0.1277199 0.1760225 0.0000000
0.1947361 0.1905460 0.0000000
0.2595045 0.2039545 0.0000000
0.3221356 0.2164664 0.0000000
0.3829343 0.2284700 0.0000000
0.4421551 0.2402806 0.0000000
0.4997215 0.2519474 0.0000000
0.5550804 0.2631767 0.0000000
0.6073835 0.2733934 0.0000000
0.6556966 0.2819142 0.0000000
0.6992087 0.2881704 0.0000000
0.7375233 0.2918590 0.0000000
0.7706998 0.2929964 0.0000000
0.7992244 0.2918477 0.0000000
0.8238228 0.2888315 0.0000000
0.8452676 0.2844095 0.0000000
0.8643032 0.2789951 0.0000000
0.8814874 0.2729294 0.0000000
0.8973547 0.2664808 0.0000000
0.9123188 0.2598525 0.0000000
0.9266599 0.2531828 0.0000000
0.9405654 0.2465526 0.0000000
0.9542238 0.2400101 0.0000000
0.9677500 0.2335432 0.0000000
0.9812561 0.2271200 0.0000000
0.0000000 0.0813886 0.0000000
0.0000000 0.0952837 0.0000000
0.0000000 0.1093072 0.0000000
0.0000000 0.1236219 0.0000000
0.0000000 0.1383318 0.0000000
0.0000000 0.1534282 0.0000000
0.0000000 0.1687514 0.0000000
0.0520257 0.1839927 0.0000000
0.1176176 0.1987676 0.0000000
0.1815859 0.2127522 0.0000000
0.2437003 0.2258273 0.0000000
0.3040824 0.2381223 0.0000000
0.3630028 0.2499433 0.0000000
0.4206527 0.2615321 0.0000000
0.4768809 0.2728914 0.0000000
0.5311057 0.2837492 0.0000000
0.5825048 0.2935951 0.0000000
0.6301879 0.3018161 0.0000000
0.6733413 0.3078805 0.0000000
0.7115259 0.3114902 0.0000000
0.7447163 0.3126253 0.0000000
0.7733537 0.3115086 0.0000000
0.7981802 0.3085290 0.0000000
0.8199900 0.3041332 0.0000000
0.8395949 0.2987403 0.0000000
0.8575817 0.2926818 0.0000000
0.8744584 0.2862083 0.0000000
0.8905837 0.2794979 0.0000000
0.9061806 0.2726813 0.0000000
0.9213885 0.2658458 0.0000000
0.9363807 0.2590326 0.0000000
0.9512351 0.2522590 0.0000000
0.9660721 0.2455125 0.0000000
0.0000000 0.1105275 0.0000000
0.0000000 0.1236724 0.0000000
0.0000000 0.1369062 0.0000000
0.0000000 0.1503439 0.0000000
0.0000000 0.1640676 0.0000000
0.0000000 0.1780788 0.0000000
0.0000000 0.1922780 0.0000000
0.0450457 0.2064759 0.0000000
0.1072408 0.2204142 0.0000000
0.1681532 0.2338481 0.0000000
0.2276324 0.2466257 0.0000000
0.2857615 0.2587726 0.0000000
0.3426792 0.2704392 0.0000000
0.3984808 0.2817576 0.0000000
0.4529787 0.2926802 0.0000000
0.5056060 0.3029579 0.0000000
0.5556385 0.3121811 0.0000000
0.6022786 0.3198690 0.0000000
0.6448038 0.3255902 0.0000000
0.6827736 0.3290806 0.0000000
0.7161033 0.3303004 0.0000000
0.7451649 0.3294281 0.0000000
0.7706367 0.3267987 0.0000000
0.7932608 0.3227991 0.0000000
0.8138321 0.3178010 0.0000000
0.8329640 0.3121146 0.0000000
0.8511386 0.3059639 0.0000000
0.8686703 0.2995085 0.0000000
0.8857364 0.2928689 0.0000000
0.9024410 0.2861304 0.0000000
0.9189247 0.2793376 0.0000000
0.9352683 0.2725270 0.0000000
0.9515882 0.2657103 0.0000000
0.0000000 0.1396507 0.0000000
0.0000000 0.1519197 0.0000000
0.0000000 0.1642300 0.0000000
0.0000000 0.1766491 0.0000000
0.0000000 0.1892502 0.0000000
0.0000000 0.2020709 0.0000000
0.0000000 0.2150828 0.0000000
0.0381843 0.2281863 0.0000000
0.0969979 0.2412253 0.0000000
0.1548502 0.2540199 0.0000000
0.2116397 0.2664171 0.0000000
0.2673986 0.2783492 0.0000000
0.3221120 0.2897978 0.0000000
0.3757738 0.3007506 0.0000000
0.4281653 0.3111074 0.0000000
0.4787997 0.3206707 0.0000000
0.5270548 0.3291372 0.0000000
0.5723099 0.3361665 0.0000000
0.6139613 0.3414556 0.0000000
0.6516364 0.3448168 0.0000000
0.6852179 0.3462118 0.0000000
0.7149841 0.3457769 0.0000000
0.7414869 0.3437621 0.0000000
0.7653421 0.3404658 0.0000000
0.7872772 0.3361912 0.0000000
0.8078665 0.3312032 0.0000000
0.8275902 0.3257169 0.0000000
0.8467294 0.3198592 0.0000000
0.8654438 0.3137235 0.0000000
0.8837985 0.3073827 0.0000000
0.9019096 0.3009088 0.0000000
0.9198684 0.2943644 0.0000000
0.9378053 0.2878034 0.0000000
0.0000000 0.1686451 0.0000000
0.0000000 0.1798956 0.0000000
0.0000000 0.1911591 0.0000000
0.0000000 0.2024797 0.0000000
0.0000000 0.2139127 0.0000000
0.0000000 0.2255135 0.0000000
0.0000000 0.2373135 0.0000000
0.0316851 0.2492845 0.0000000
0.0871626 0.2613397 0.0000000
0.1419233 0.2733525 0.0000000
0.1959064 0.2851871 0.0000000
0.2490898 0.2967039 0.0000000
0.3013599 0.3077669 0.0000000
0.3526103 0.3182364 0.0000000
0.4026116 0.3279642 0.0000000
0.4509514 0.3367752 0.0000000
0.4971658 0.3444695 0.0000000
0.5407955 0.3508347 0.0000000
0.5814086 0.3556987 0.0000000
0.6187125 0.3589586 0.0000000
0.6526022 0.3606089 0.0000000
0.6832589 0.3607429 0.0000000
0.7110659 0.3595348 0.0000000
0.7364861 0.3571950 0.0000000
0.7601068 0.3539344 0.0000000
0.7824382 0.3499576 0.0000000
0.8039241 0.3454284 0.0000000
0.8248393 0.3404556 0.0000000
0.8453469 0.3351180 0.0000000
0.8654954 0.3294962 0.0000000
0.8853647 0.3236678 0.0000000
0.9050629 0.3177214 0.0000000
0.9247404 0.3117354 0.0000000
0.0000000 0.1973229 0.0000000
0.0000000 0.2074838 0.0000000
0.0000000 0.2176466 0.0000000
0.0000000 0.2278359 0.0000000
0.0000000 0.2380902 0.0000000
0.0000000 0.2484711 0.0000000
0.0000000 0.2590409 0.0000000
0.0256889 0.2698209 0.0000000
0.0778739 0.2807865 0.0000000
0.1294916 0.2918554 0.0000000
0.1805205 0.3028946 0.0000000
0.2309068 0.3137405 0.0000000
0.2804972 0.3242017 0.0000000
0.3291235 0.3340632 0.0000000
0.3765494 0.3431301 0.0000000
0.4224547 0.3512349 0.0000000
0.4665154 0.3582432 0.0000000
0.5084302 0.3640533 0.0000000
0.5479248 0.3685930 0.0000000
0.5848046 0.3718364 0.0000000
0.6189897 0.3738166 0.0000000
0.6505840 0.3746113 0.0000000
0.6798146 0.3743395 0.0000000
0.7069783 0.3731197 0.0000000
0.7325050 0.3710752 0.0000000
0.7567870 0.3683310 0.0000000
0.7802156 0.3650091 0.0000000
0.8030610 0.3611912 0.0000000
0.8254917 0.3569496 0.0000000
0.8475489 0.3523577 0.0000000
0.8693104 0.3474967 0.0000000
0.8908938 0.3424599 0.0000000
0.9124582 0.3373556 0.0000000
0.0000000 0.2255361 0.0000000
0.0000000 0.2345908 0.0000000
0.0000000 0.2436334 0.0000000
0.0000000 0.2526768 0.0000000
0.0000000 0.2617537 0.0000000
0.0000000 0.2709264 0.0000000
0.0000000 0.2802657 0.0000000
0.0202704 0.2898130 0.0000000
0.0691990 0.2995830 0.0000000
0.1176378 0.3095331 0.0000000
0.1655789 0.3195521 0.0000000
0.2129858 0.3294911 0.0000000
0.2597095 0.3391430 0.0000000
0.3055770 0.3482765 0.0000000
0.3503760 0.3566726 0.0000000
0.3938500 0.3641686 0.0000000
0.4357905 0.3706622 0.0000000
0.4760415 0.3761154 0.0000000
0.5144349 0.3805033 0.0000000
0.5508626 0.3838578 0.0000000
0.5852830 0.3862536 0.0000000
0.6177321 0.3877681 0.0000000
0.6483374 0.3884733 0.0000000
0.6772590 0.3884374 0.0000000
0.7047513 0.3877052 0.0000000
0.7310976 0.3863436 0.0000000
0.7565928 0.3844246 0.0000000
0.7814887 0.3819974 0.0000000
0.8059510 0.3791029 0.0000000
0.8300390 0.3758090 0.0000000
0.8538207 0.3722052 0.0000000
0.8774318 0.3684017 0.0000000
0.9010273 0.3645185 0.0000000
0.0000000 0.2531876 0.0000000
0.0000000 0.2611185 0.0000000
0.0000000 0.2690349 0.0000000
0.0000000 0.2769338 0.0000000
0.0000000 0.2848451 0.0000000
0.0000000 0.2928315 0.0000000
0.0000000 0.3009571 0.0000000
0.0154667 0.3092617 0.0000000
0.0611951 0.3177691 0.0000000
0.1064523 0.3264713 0.0000000
0.1512543 0.3353076 0.0000000
0.1955893 0.3441559 0.0000000
0.2393541 0.3528427 0.0000000
0.2824266 0.3611594 0.0000000
0.3246322 0.3688983 0.0000000
0.3657803 0.3758977 0.0000000
0.4057604 0.3820668 0.0000000
0.4444814 0.3873753 0.0000000
0.4818695 0.3918263 0.0000000
0.5178647 0.3954652 0.0000000
0.5524312 0.3983774 0.0000000
0.5855882 0.4006475 0.0000000
0.6174020 0.4023296 0.0000000
0.6479369 0.4034669 0.0000000
0.6773158 0.4040741 0.0000000
0.7057067 0.4041580 0.0000000
0.7333033 0.4037425 0.0000000
0.7603131 0.4028539 0.0000000
0.7868913 0.4015021 0.0000000
0.8131065 0.3997433 0.0000000
0.8390269 0.3976686 0.0000000
0.8647818 0.3953943 0.0000000
0.8905240 0.3930339 0.0000000
0.0000000 0.2801746 0.0000000
0.0000000 0.2869811 0.0000000
0.0000000 0.2937814 0.0000000
0.0000000 0.3005664 0.0000000
0.0000000 0.3073464 0.0000000
0.0000000 0.3141696 0.0000000
0.0000000 0.3210884 0.0000000
0.0113024 0.3281498 0.0000000
0.0539019 0.3353865 0.0000000
0.0960443 0.3428098 0.0000000
0.1377550 0.3504065 0.0000000
0.1790518 0.3580956 0.0000000
0.2198977 0.3657454 0.0000000
0.2602356 0.3731963 0.0000000
0.2999577 0.3802868 0.0000000
0.3389479 0.3868785 0.0000000
0.3771516 0.3928755 0.0000000
0.4145214 0.3982296 0.0000000
0.4510257 0.4029396 0.0000000
0.4866250 0.4070424 0.0000000
0.5212852 0.4106009 0.0000000
0.5550036 0.4136809 0.0000000
0.5878189 0.4163346 0.0000000
0.6197444 0.4186021 0.0000000
0.6508170 0.4205005 0.0000000
0.6811113 0.4220177 0.0000000
0.7107450 0.4231495 0.0000000
0.7398587 0.4238888 0.0000000
0.7685801 0.4242200 0.0000000
0.7969644 0.4241696 0.0000000
0.8250858 0.4238223 0.0000000
0.8530609 0.4232890 0.0000000
0.8810268 0.4226766 0.0000000
0.0000000 0.3064389 0.0000000
0.0000000 0.3121226 0.0000000
0.0000000 0.3178129 0.0000000
0.0000000 0.3235037 0.0000000
0.0000000 0.3291977 0.0000000
0.0000000 0.3349173 0.0000000
0.0000000 0.3406907 0.0000000
0.0077989 0.3465562 0.0000000
0.0473785 0.3525619 0.0000000
0.0865262 0.3587496 0.0000000
0.1252800 0.3651319 0.0000000
0.1636910 0.3716683 0.0000000
0.2017650 0.3782924 0.0000000
0.2395205 0.3849079 0.0000000
0.2769367 0.3914019 0.0000000
0.3139540 0.3976563 0.0000000
0.3505625 0.4035771 0.0000000
0.3867429 0.4090979 0.0000000
0.4224788 0.4142011 0.0000000
0.4577258 0.4188911 0.0000000
0.4924387 0.4231969 0.0000000
0.5266141 0.4271576 0.0000000
0.5602543 0.4308134 0.0000000
0.5933559 0.4342045 0.0000000
0.6258925 0.4373513 0.0000000
0.6578969 0.4402556 0.0000000
0.6894160 0.4429021 0.0000000
0.7205371 0.4452672 0.0000000
0.7513357 0.4473248 0.0000000
0.7818652 0.4490893 0.0000000
0.8121747 0.4506156 0.0000000
0.8423850 0.4519809 0.0000000
0.8725947 0.4532666 0.0000000
0.0000000 0.3318417 0.0000000
0.0000000 0.3364709 0.0000000
0.0000000 0.3411091 0.0000000
0.0000000 0.3457581 0.0000000
0.0000000 0.3504161 0.0000000
0.0000000 0.3550867 0.0000000
0.0000000 0.3597842 0.0000000
0.0049800 0.3645499 0.0000000
0.0416739 0.3694291 0.0000000
0.0779902 0.3744843 0.0000000
0.1139818 0.3797453 0.0000000
0.1497188 0.3852219 0.0000000
0.1852495 0.3909038 0.0000000
0.2206550 0.3967631 0.0000000
0.2559687 0.4027329 0.0000000
0.2912000 0.4087180 0.0000000
0.3263667 0.4146258 0.0000000
0.3614864 0.4203803 0.0000000
0.3965318 0.4259347 0.0000000
0.4314579 0.4312687 0.0000000
0.4662176 0.4363814 0.0000000
0.5007733 0.4412732 0.0000000
0.5351234 0.4459706 0.0000000
0.5692309 0.4505055 0.0000000
0.6030467 0.4548967 0.0000000
0.6365558 0.4591503 0.0000000
0.6697745 0.4632613 0.0000000
0.7027389 0.4672132 0.0000000
0.7354907 0.4709874 0.0000000
0.7680635 0.4745958 0.0000000
0.8004949 0.4780549 0.0000000
0.8328703 0.4814031 0.0000000
0.8652607 0.4846935 0.0000000
0.0000000 0.3562978 0.0000000
0.0000000 0.3599664 0.0000000
0.0000000 0.3636405 0.0000000
0.0000000 0.3673232 0.0000000
0.0000000 0.3710131 0.0000000
0.0000000 0.3747044 0.0000000
0.0000000 0.3784138 0.0000000
0.0028609 0.3821874 0.0000000
0.0368254 0.3860847 0.0000000
0.0704806 0.3901594 0.0000000
0.1039217 0.3944582 0.0000000
0.1372311 0.3990284 0.0000000
0.1704852 0.4039079 0.0000000
0.2037875 0.4091145 0.0000000
0.2372143 0.4146332 0.0000000
0.2708254 0.4203954 0.0000000
0.3046921 0.4263204 0.0000000
0.3388462 0.4323281 0.0000000
0.3732594 0.4383540 0.0000000
0.4078925 0.4443510 0.0000000
0.4426837 0.4502904 0.0000000
0.4775880 0.4561496 0.0000000
0.5125705 0.4619220 0.0000000
0.5475768 0.4676197 0.0000000
0.5825255 0.4732593 0.0000000
0.6173674 0.4788544 0.0000000
0.6521036 0.4844170 0.0000000
0.6867402 0.4899359 0.0000000
0.7212898 0.4954018 0.0000000
0.7557663 0.5008236 0.0000000
0.7901990 0.5062010 0.0000000
0.8246123 0.5115369 0.0000000
0.8590416 0.5168482 0.0000000
0.0000000 0.3798550 0.0000000
0.0000000 0.3826060 0.0000000
0.0000000 0.3853727 0.0000000
0.0000000 0.3881656 0.0000000
0.0000000 0.3909785 0.0000000
0.0000000 0.3938034 0.0000000
0.0000000 0.3966556 0.0000000
0.0014552 0.3995791 0.0000000
0.0328242 0.4026354 0.0000000
0.0640069 0.4058846 0.0000000
0.0951082 0.4093954 0.0000000
0.1262186 0.4132385 0.0000000
0.1574335 0.4174754 0.0000000
0.1888592 0.4221548 0.0000000
0.2206006 0.4272922 0.0000000
0.2527599 0.4328619 0.0000000
0.2854545 0.4388140 0.0000000
0.3187295 0.4450769 0.0000000
0.3525590 0.4515627 0.0000000
0.3869052 0.4582001 0.0000000
0.4217189 0.4649483 0.0000000
0.4569380 0.4717690 0.0000000
0.4925120 0.4786361 0.0000000
0.5283407 0.4855309 0.0000000
0.5643121 0.4924504 0.0000000
0.6003630 0.4994160 0.0000000
0.6364722 0.5064331 0.0000000
0.6726301 0.5135070 0.0000000
0.7088423 0.5206455 0.0000000
0.7450850 0.5278513 0.0000000
0.7813683 0.5351068 0.0000000
0.8176690 0.5423829 0.0000000
0.8539884 0.5496656 0.0000000
0.0000000 0.4024847 0.0000000
0.0000000 0.4044198 0.0000000
0.0000000 0.4063867 0.0000000
0.0000000 0.4083885 0.0000000
0.0000000 0.4104195 0.0000000
