catalog/styles/experimental/experimental-cinema/look.cube
# experimental-cinema iteration 3
LUT_3D_SIZE 5
DOMAIN_MIN 0 0 0
DOMAIN_MAX 1 1 1
0.0000000 0.0000000 0.0000000
0.1669747 0.0000000 0.0000000
0.7515651 0.0000000 0.0000000
1.0000000 0.0190645 0.0000000
1.0000000 0.1038593 0.0000000
0.0000000 0.0000000 0.0000000
0.1519774 0.0989365 0.0000000
0.6686131 0.2022855 0.0000000
0.9295317 0.2146622 0.0000000
1.0000000 0.1812544 0.0000000
0.0000000 0.1973229 0.0000000
0.0778739 0.2807865 0.0000000
0.4665154 0.3582432 0.0000000
0.7325050 0.3710752 0.0000000
0.9124582 0.3373556 0.0000000
0.0000000 0.4024847 0.0000000
0.0296536 0.4191618 0.0000000
0.2684320 0.4521491 0.0000000
0.5481812 0.5123574 0.0000000
0.8501891 0.5831518 0.0000000
0.0000000 0.5630277 0.0000000
0.0225072 0.5526575 0.0000000
0.1728565 0.5774196 0.0000000
0.4562101 0.6831489 0.0000000
0.8538048 0.8689387 0.0691891
0.0000000 0.0000000 0.3407148
0.2491518 0.0000000 0.2283037
0.6460500 0.0000000 0.1232477
0.8920251 0.0090213 0.0783488
0.9574795 0.1563044 0.0874500
0.0000000 0.1335316 0.2232776
0.0960936 0.1054054 0.1150757
0.4321076 0.1144622 0.0966987
0.7269138 0.1534422 0.0856885
0.9020892 0.1709495 0.0982506
0.0000000 0.2774517 0.1137856
0.0706782 0.2939360 0.0847829
0.2859257 0.2803825 0.0837666
0.5699327 0.3115584 0.1088979
0.8559417 0.3420744 0.1079843
0.0000000 0.4252120 0.0679499
0.0393477 0.4481682 0.0476850
0.2524708 0.4644824 0.0307678
0.5272846 0.5161447 0.0707606
0.8495453 0.5862785 0.1436981
0.0000000 0.5653859 0.0592815
0.0241308 0.5988121 0.0150420
0.2250612 0.6529125 0.0000322
0.5005530 0.7394880 0.0521211
0.8533710 0.8646705 0.1809795
0.1725593 0.1878865 0.7576394
0.3576025 0.0806023 0.5944922
0.5377428 0.0000000 0.4189514
0.6918567 0.0000000 0.2995877
0.8249943 0.0427703 0.2464951
0.1039735 0.2391072 0.5234038
0.1997954 0.1815710 0.4445691
0.3804032 0.1332823 0.3465108
0.6337305 0.1508246 0.3079324
0.8511684 0.1868936 0.2616319
0.0066358 0.3236202 0.3447150
0.0911773 0.3132854 0.2904511
0.3089487 0.3276085 0.3361276
0.6068834 0.3226254 0.2655446
0.8479912 0.3536469 0.2783202
0.0000000 0.4477161 0.2503388
0.0560644 0.4737812 0.2435770
0.2592327 0.5246719 0.2378464
0.5595295 0.5660789 0.2796913
0.8389420 0.5873335 0.3039381
0.0000000 0.5694518 0.2045352
0.0254392 0.6417342 0.1935610
0.2408849 0.7071263 0.1944494
0.5118090 0.7805746 0.2454274
0.8718201 0.8750200 0.3445686
0.4476888 0.3357746 1.0000000
0.4936673 0.2061082 0.8739258
0.5141089 0.0752143 0.6796051
0.5640536 0.0000000 0.5211637
0.6528499 0.0000000 0.4067697
0.3056714 0.3307909 0.7716536
0.3534558 0.2804557 0.7001633
0.4569817 0.2198482 0.6304543
0.6087591 0.1811972 0.5497689
0.7744015 0.1600275 0.4544970
0.1855502 0.3890231 0.5789298
0.1957145 0.3395908 0.5398831
0.3854919 0.3755470 0.6026830
0.6581275 0.4113738 0.5976007
0.8580498 0.3737774 0.4697632
0.0000000 0.4759985 0.4396229
0.1103136 0.5030000 0.4749392
0.2800313 0.5430874 0.5161471
0.6585915 0.6669478 0.6460103
0.8727686 0.6078798 0.5257243
0.0000000 0.5602513 0.3311192
0.0247500 0.6784156 0.4032645
0.2547899 0.7672281 0.4550659
0.5010694 0.8026618 0.4978892
0.8782446 0.8683831 0.5991111
0.6750772 0.4267255 1.0000000
0.6215774 0.3138332 1.0000000
0.5636948 0.1747629 0.9318854
0.5057648 0.0000000 0.7535000
0.4563729 0.0000000 0.5625398
0.5081480 0.4626746 1.0000000
0.4948918 0.3639768 0.9568334
0.5161367 0.2852319 0.8757037
0.5861534 0.2164067 0.7879501
0.6820736 0.1425226 0.6904996
0.3066431 0.4917997 0.8368434
0.3525460 0.4367599 0.8401737
0.4346747 0.3938200 0.7971479
0.6217156 0.4092296 0.7963537
0.8778569 0.4538129 0.8187660
0.0438836 0.5060289 0.6290060
0.1900986 0.5498317 0.7309435
0.3804330 0.6015225 0.8014760
0.6041754 0.6092453 0.8009427
0.9841992 0.7134762 0.8839029
0.0000000 0.5336195 0.4237706
0.0246935 0.7018648 0.6281837
0.2939976 0.8289873 0.7957859
0.6332156 0.9051936 0.8731100
0.8812273 0.8696254 0.8500204
