catalog/styles/experimental/experimental-cinema/look.cube
# experimental-cinema iteration 3
LUT_3D_SIZE 9
DOMAIN_MIN 0 0 0
DOMAIN_MAX 1 1 1
0.0000000 0.0000000 0.0000000
0.0000000 0.0000000 0.0000000
0.1669747 0.0000000 0.0000000
0.4851156 0.0000000 0.0000000
0.7515651 0.0000000 0.0000000
0.9480380 0.0000000 0.0000000
1.0000000 0.0190645 0.0000000
1.0000000 0.0625339 0.0000000
1.0000000 0.1038593 0.0000000
0.0000000 0.0000000 0.0000000
0.0000000 0.0000000 0.0000000
0.1650220 0.0000000 0.0000000
0.4744118 0.0349874 0.0000000
0.7186877 0.0770326 0.0000000
0.8910785 0.1030156 0.0000000
1.0000000 0.1184602 0.0000000
1.0000000 0.1285403 0.0000000
1.0000000 0.1373399 0.0000000
0.0000000 0.0000000 0.0000000
0.0000000 0.0303040 0.0000000
0.1519774 0.0989365 0.0000000
0.4361317 0.1570822 0.0000000
0.6686131 0.2022855 0.0000000
0.8323876 0.2216514 0.0000000
0.9295317 0.2146622 0.0000000
0.9867809 0.1980560 0.0000000
1.0000000 0.1812544 0.0000000
0.0000000 0.0813886 0.0000000
0.0000000 0.1383318 0.0000000
0.1176176 0.1987676 0.0000000
0.3630028 0.2499433 0.0000000
0.5825048 0.2935951 0.0000000
0.7447163 0.3126253 0.0000000
0.8395949 0.2987403 0.0000000
0.9061806 0.2726813 0.0000000
0.9660721 0.2455125 0.0000000
0.0000000 0.1973229 0.0000000
0.0000000 0.2380902 0.0000000
0.0778739 0.2807865 0.0000000
0.2804972 0.3242017 0.0000000
0.4665154 0.3582432 0.0000000
0.6189897 0.3738166 0.0000000
0.7325050 0.3710752 0.0000000
0.8254917 0.3569496 0.0000000
0.9124582 0.3373556 0.0000000
0.0000000 0.3064389 0.0000000
0.0000000 0.3291977 0.0000000
0.0473785 0.3525619 0.0000000
0.2017650 0.3782924 0.0000000
0.3505625 0.4035771 0.0000000
0.4924387 0.4231969 0.0000000
0.6258925 0.4373513 0.0000000
0.7513357 0.4473248 0.0000000
0.8725947 0.4532666 0.0000000
0.0000000 0.4024847 0.0000000
0.0000000 0.4104195 0.0000000
0.0296536 0.4191618 0.0000000
0.1459224 0.4316318 0.0000000
0.2684320 0.4521491 0.0000000
0.4030674 0.4803180 0.0000000
0.5481812 0.5123574 0.0000000
0.6980907 0.5467229 0.0000000
0.8501891 0.5831518 0.0000000
0.0000000 0.4853944 0.0000000
0.0000000 0.4846511 0.0000000
0.0235029 0.4856561 0.0000000
0.1107600 0.4928596 0.0000000
0.2156908 0.5121752 0.0000000
0.3446526 0.5470512 0.0000000
0.4975443 0.5964500 0.0000000
0.6676473 0.6567990 0.0000000
0.8477765 0.7236625 0.0319349
0.0000000 0.5630277 0.0000000
0.0000000 0.5562157 0.0000000
0.0225072 0.5526575 0.0000000
0.0833469 0.5576314 0.0000000
0.1728565 0.5774196 0.0000000
0.2970065 0.6180404 0.0000000
0.4562101 0.6831489 0.0000000
0.6458804 0.7698478 0.0000000
0.8538048 0.8689387 0.0691891
0.0000000 0.0000000 0.1038264
0.0000000 0.0000000 0.0628672
0.2051657 0.0000000 0.0238535
0.4690187 0.0000000 0.0000000
0.6974427 0.0000000 0.0000000
0.8748907 0.0000000 0.0000000
0.9859045 0.0158123 0.0000000
1.0000000 0.0728743 0.0000000
1.0000000 0.1381760 0.0000000
0.0000000 0.0000000 0.0721099
0.0000000 0.0000000 0.0364735
0.1536850 0.0016047 0.0056503
0.4001471 0.0231143 0.0000000
0.6377903 0.0499457 0.0000000
0.8120753 0.0740150 0.0000000
0.9107188 0.0968161 0.0000000
0.9662728 0.1207117 0.0000000
1.0000000 0.1434513 0.0009731
0.0000000 0.0557029 0.0396879
0.0000000 0.0727297 0.0126035
0.1068104 0.0932565 0.0000000
0.3594156 0.1513306 0.0000000
0.5745614 0.1738791 0.0025551
0.7246692 0.1755778 0.0000000
0.8265308 0.1815264 0.0000000
0.8975230 0.1806498 0.0028343
0.9548422 0.1679183 0.0112202
0.0000000 0.1489592 0.0097218
0.0000000 0.1666204 0.0000000
0.0895204 0.1942389 0.0000000
0.3113371 0.2544848 0.0000000
0.4790812 0.2722751 0.0110551
0.6156609 0.2645054 0.0134269
0.7495169 0.2713423 0.0135722
0.8394837 0.2618784 0.0142791
0.9114863 0.2373362 0.0173623
0.0000000 0.2403191 0.0000000
0.0000000 0.2621006 0.0000000
0.0737425 0.2856287 0.0000000
0.2284301 0.3044734 0.0000000
0.3645388 0.3183318 0.0000000
0.5018884 0.3306673 0.0107891
0.6493783 0.3425091 0.0168780
0.7747468 0.3433710 0.0193901
0.8814055 0.3375173 0.0233843
0.0000000 0.3301929 0.0000000
0.0000000 0.3477428 0.0000000
0.0502011 0.3609495 0.0000000
0.1750125 0.3674917 0.0000000
0.2971921 0.3777522 0.0000000
0.4327417 0.4003152 0.0000000
0.5795421 0.4237357 0.0099172
0.7217260 0.4381705 0.0235603
0.8556813 0.4499100 0.0376900
0.0000000 0.4140612 0.0000000
0.0000000 0.4245730 0.0000000
0.0345008 0.4333232 0.0000000
0.1427227 0.4413176 0.0000000
0.2578829 0.4542882 0.0000000
0.3887148 0.4790568 0.0000000
0.5373847 0.5145306 0.0000000
0.6926052 0.5506830 0.0288580
0.8435985 0.5812235 0.0654981
0.0000000 0.4907883 0.0000000
0.0000000 0.4972613 0.0000000
0.0271155 0.5048585 0.0000000
0.1196931 0.5161492 0.0000000
0.2278652 0.5349957 0.0000000
0.3559179 0.5656929 0.0000000
0.5055991 0.6103995 0.0000000
0.6725722 0.6657027 0.0343595
0.8474924 0.7248560 0.0962678
0.0000000 0.5634922 0.0000000
0.0000000 0.5685059 0.0000000
0.0232844 0.5760944 0.0000000
0.1004575 0.5910323 0.0000000
0.2019003 0.6168319 0.0000000
0.3276721 0.6559867 0.0000000
0.4792820 0.7108916 0.0000000
0.6572300 0.7827399 0.0405345
0.8518440 0.8650300 0.1227889
0.0000000 0.0000000 0.3407148
0.0347104 0.0000000 0.2830661
0.2491518 0.0000000 0.2283037
0.4611694 0.0000000 0.1730261
0.6460500 0.0000000 0.1232477
0.7947330 0.0000000 0.0920305
0.8920251 0.0090213 0.0783488
0.9381344 0.0705699 0.0772742
0.9574795 0.1563044 0.0874500
0.0000000 0.0577558 0.2828789
0.0036040 0.0442633 0.2294153
0.1566253 0.0289287 0.1712023
0.3381407 0.0199014 0.1282096
0.5535264 0.0315559 0.1073912
0.7249367 0.0530610 0.0918089
0.8232207 0.0811168 0.0830497
0.8813963 0.1151031 0.0840611
0.9345174 0.1480092 0.0906968
0.0000000 0.1335316 0.2232776
0.0000000 0.1238151 0.1769191
0.0960936 0.1054054 0.1150757
0.2211553 0.0979399 0.0890736
0.4321076 0.1144622 0.0966987
0.6021271 0.1315427 0.0882670
0.7269138 0.1534422 0.0856885
0.8250533 0.1706838 0.0901772
0.9020892 0.1709495 0.0982506
0.0000000 0.2060712 0.1638577
0.0000000 0.2042009 0.1302254
0.0823382 0.2025094 0.0997064
0.2215883 0.2209222 0.0914849
0.3280153 0.2128606 0.0910332
0.4429073 0.2015272 0.0901305
0.6247459 0.2253074 0.0881833
0.7762828 0.2507721 0.0974225
0.8740544 0.2409377 0.1042932
0.0000000 0.2774517 0.1137856
0.0000000 0.2863807 0.0972504
0.0706782 0.2939360 0.0847829
0.1865939 0.2851000 0.0770274
0.2859257 0.2803825 0.0837666
0.4201288 0.3045348 0.1077723
0.5699327 0.3115584 0.1088979
0.7194127 0.3252358 0.1045047
0.8559417 0.3420744 0.1079843
0.0000000 0.3514888 0.0826529
0.0000000 0.3640474 0.0738704
0.0528705 0.3720919 0.0657645
0.1629709 0.3723882 0.0581726
0.2709252 0.3699016 0.0532372
0.3929500 0.3846710 0.0683274
0.5555907 0.4198761 0.1029938
0.7043904 0.4339012 0.1139589
0.8483211 0.4530737 0.1183742
0.0000000 0.4252120 0.0679499
0.0000000 0.4373459 0.0579085
0.0393477 0.4481682 0.0476850
0.1424816 0.4569046 0.0371877
0.2524708 0.4644824 0.0307678
0.3769631 0.4810845 0.0401784
0.5272846 0.5161447 0.0707606
0.6902504 0.5548847 0.1084044
0.8495453 0.5862785 0.1436981
0.0000000 0.4963901 0.0619105
0.0000000 0.5093952 0.0464391
0.0305312 0.5234488 0.0310568
0.1272715 0.5396999 0.0189222
0.2381633 0.5597037 0.0153061
0.3649253 0.5862881 0.0261583
0.5106507 0.6243838 0.0563435
0.6758291 0.6735593 0.1053931
0.8520079 0.7265124 0.1644983
0.0000000 0.5653859 0.0592815
0.0000000 0.5809309 0.0360317
0.0241308 0.5988121 0.0150420
0.1146677 0.6220416 0.0011477
0.2250612 0.6529125 0.0000322
0.3533560 0.6919652 0.0158418
0.5005530 0.7394880 0.0521211
0.6689643 0.7976834 0.1095392
0.8533710 0.8646705 0.1809795
0.0082074 0.0886884 0.5632720
0.1486157 0.0501341 0.4914251
0.2988069 0.0163812 0.4203027
0.4534622 0.0000000 0.3491478
0.5920079 0.0000000 0.2773665
0.7060468 0.0000000 0.2220136
0.7905378 0.0000000 0.1910097
0.8467177 0.0466581 0.1763708
0.8882125 0.1088338 0.1695407
0.0015166 0.1418633 0.4721434
0.1048335 0.1099204 0.4220414
0.2036138 0.0731394 0.3574388
0.3217193 0.0415769 0.2839450
0.4735454 0.0330773 0.2364645
0.6204266 0.0467349 0.2109061
0.7310809 0.0722115 0.1931000
0.8132198 0.1047876 0.1813237
0.8856510 0.1404905 0.1733412
0.0000000 0.1948245 0.3851804
0.0635421 0.1714497 0.3431842
0.1345147 0.1399125 0.2955617
0.1983170 0.0918276 0.2099724
0.3546632 0.0949727 0.2002610
0.5261439 0.1208191 0.2002098
0.6618891 0.1443936 0.1903717
0.7774359 0.1686638 0.1837703
0.8788039 0.1899974 0.1799592
0.0000000 0.2486932 0.3053726
0.0218238 0.2366507 0.2604772
0.0937675 0.2243808 0.2249210
0.2031209 0.2200540 0.2170631
0.2967399 0.1884091 0.1868151
0.4464787 0.1958076 0.1760311
0.5998394 0.2181173 0.1782671
0.7383165 0.2407765 0.1822415
0.8628311 0.2581639 0.1873201
0.0000000 0.3050269 0.2329244
0.0000000 0.3065120 0.2061887
0.0732841 0.3075732 0.1907342
0.1699364 0.2989539 0.1771682
0.2909363 0.2949990 0.1690959
0.4256033 0.3040937 0.1811130
0.5755405 0.3118885 0.1763538
0.7124184 0.3286950 0.1856281
0.8462379 0.3466744 0.1940577
0.0000000 0.3683994 0.1835249
0.0000000 0.3777620 0.1739418
0.0579844 0.3850548 0.1655364
0.1565334 0.3907025 0.1549266
0.2733608 0.3927492 0.1434636
0.4015058 0.4010188 0.1564035
0.5452775 0.4188306 0.1870843
0.7050436 0.4409943 0.2020083
0.8423665 0.4568687 0.1998765
0.0000000 0.4359077 0.1578029
0.0000000 0.4488868 0.1504341
0.0449597 0.4620229 0.1415566
0.1428851 0.4772670 0.1317433
0.2562324 0.4918967 0.1242289
0.3812083 0.5032961 0.1282163
0.5235855 0.5239107 0.1554325
0.6844726 0.5553339 0.1896111
0.8453078 0.5873059 0.2186973
0.0000000 0.5025382 0.1429244
0.0000000 0.5210091 0.1320633
0.0343249 0.5407570 0.1206328
0.1320156 0.5627363 0.1106153
0.2454905 0.5877371 0.1081612
0.3745953 0.6141119 0.1186401
0.5179426 0.6442279 0.1451497
0.6775252 0.6817182 0.1858223
0.8519367 0.7264240 0.2345340
0.0000000 0.5679847 0.1314501
0.0000000 0.5938698 0.1157338
0.0249161 0.6205183 0.1009884
0.1236809 0.6493611 0.0912911
0.2371942 0.6820203 0.0929230
0.3668973 0.7209129 0.1099962
0.5142300 0.7653571 0.1436023
0.6802616 0.8146620 0.1925448
0.8601621 0.8688136 0.2517358
0.1725593 0.1878865 0.7576394
0.2648134 0.1333912 0.6780218
0.3576025 0.0806023 0.5944922
0.4508614 0.0346405 0.5077086
0.5377428 0.0000000 0.4189514
0.6175525 0.0000000 0.3461573
0.6918567 0.0000000 0.2995877
0.7601005 0.0123244 0.2705906
0.8249943 0.0427703 0.2464951
0.1386438 0.2119808 0.6360704
0.2106692 0.1770047 0.5930489
0.2811873 0.1364990 0.5331328
0.3531025 0.0885384 0.4450963
0.4464900 0.0591889 0.3749018
0.5555867 0.0562255 0.3342286
0.6596694 0.0687043 0.3053781
0.7523622 0.0893905 0.2795881
0.8398112 0.1136702 0.2550167
0.1039735 0.2391072 0.5234038
0.1528067 0.2131280 0.4889161
0.1997954 0.1815710 0.4445691
0.2677059 0.1458516 0.3778464
0.3804032 0.1332823 0.3465108
0.5120655 0.1386686 0.3290585
0.6337305 0.1508246 0.3079324
0.7442505 0.1673824 0.2845626
0.8511684 0.1868936 0.2616319
0.0622389 0.2751245 0.4269119
0.0918480 0.2539920 0.3773826
0.0845937 0.1805310 0.2530812
0.2238058 0.2311511 0.3475669
0.3547469 0.2373689 0.3578763
0.4886671 0.2288017 0.3261572
0.6194484 0.2348828 0.2960862
0.7390226 0.2493510 0.2795278
0.8536895 0.2652549 0.2676528
0.0066358 0.3236202 0.3447150
0.0419967 0.3201282 0.3129692
0.0911773 0.3132854 0.2904511
0.1709598 0.3047529 0.2997696
0.3089487 0.3276085 0.3361276
0.4454560 0.3134404 0.3042467
0.6068834 0.3226254 0.2655446
0.7395174 0.3409900 0.2639007
0.8479912 0.3536469 0.2783202
0.0000000 0.3837350 0.2857996
0.0109416 0.3914346 0.2778158
0.0736159 0.3945834 0.2709244
0.1497396 0.4005276 0.2658503
0.2755706 0.4331126 0.2772547
0.4466453 0.4588061 0.2935089
0.5528940 0.4212727 0.2743065
0.7285964 0.4525239 0.2758855
0.8474940 0.4647854 0.2925006
0.0000000 0.4477161 0.2503388
0.0000000 0.4612684 0.2485839
0.0560644 0.4737812 0.2435770
0.1412633 0.4916730 0.2362511
0.2592327 0.5246719 0.2378464
0.4165858 0.5612792 0.2579907
0.5595295 0.5660789 0.2796913
0.6880669 0.5631791 0.2946259
0.8389420 0.5873335 0.3039381
0.0000000 0.5092368 0.2259236
0.0000000 0.5326616 0.2228224
0.0400943 0.5568554 0.2178803
0.1351051 0.5836832 0.2122672
0.2494718 0.6150635 0.2138596
0.3883100 0.6496215 0.2323596
0.5392606 0.6783747 0.2641980
0.6865258 0.6972266 0.2929441
0.8383225 0.7164785 0.3108675
0.0000000 0.5694518 0.2045352
0.0000000 0.6057658 0.1986728
0.0254392 0.6417342 0.1935610
0.1293569 0.6761041 0.1909054
0.2408849 0.7071263 0.1944494
0.3645237 0.7393262 0.2107408
0.5118090 0.7805746 0.2454274
0.6852913 0.8280979 0.2935408
0.8718201 0.8750200 0.3445686
0.3190018 0.2716178 0.9177246
0.3745959 0.2089036 0.8358048
0.4250810 0.1454412 0.7470863
0.4689030 0.0843116 0.6494188
0.5099374 0.0317691 0.5510485
0.5567582 0.0000000 0.4684982
0.6143612 0.0000000 0.4090902
0.6789399 0.0000000 0.3651158
0.7458119 0.0000000 0.3254974
0.2610162 0.2735383 0.7793963
0.3105069 0.2384470 0.7305469
0.3574561 0.1962518 0.6702046
0.4028453 0.1442055 0.5917337
0.4597459 0.1015470 0.5175501
0.5323712 0.0786978 0.4616512
0.6143241 0.0716239 0.4185241
0.6984140 0.0733223 0.3795476
0.7823567 0.0783555 0.3416285
0.2078794 0.2786124 0.6471047
0.2394286 0.2587706 0.6130556
0.2778105 0.2343856 0.5746475
0.3366352 0.2017396 0.5303737
0.4216425 0.1798985 0.4957813
0.5191661 0.1674282 0.4632033
0.6201901 0.1647292 0.4286384
0.7186130 0.1676530 0.3908047
0.8155904 0.1732313 0.3520429
0.1545987 0.2904130 0.5270116
0.1615070 0.2782183 0.4966508
0.1792696 0.2467512 0.4509963
0.2701659 0.2555468 0.4649893
0.3997669 0.2761558 0.4996975
0.5183627 0.2703773 0.4821139
0.6313911 0.2626972 0.4358259
0.7383936 0.2627613 0.3931781
0.8414248 0.2649698 0.3547535
0.0917694 0.3433758 0.4546947
0.1006519 0.3330929 0.4264552
0.1093912 0.2899350 0.3701164
0.1987200 0.2984396 0.3960300
0.3790926 0.4052838 0.5425069
0.5171173 0.3910843 0.5111532
0.6309432 0.3620285 0.4348521
0.7491541 0.3586249 0.3836776
0.8570774 0.3610305 0.3562876
0.0168314 0.4050837 0.3945168
0.0564505 0.4047644 0.3861899
0.1102811 0.4044408 0.3822863
0.1646592 0.3911753 0.3802652
0.2674468 0.4287018 0.4180091
0.5132927 0.5414059 0.5318461
0.5985638 0.4602908 0.4276466
0.7431981 0.4597725 0.3695231
0.8601366 0.4721813 0.3764058
0.0000000 0.4612036 0.3446894
0.0112965 0.4747909 0.3514292
0.0788200 0.4872841 0.3555306
0.1496303 0.4988596 0.3532270
0.2572236 0.5359050 0.3693635
0.4447834 0.6133452 0.4307211
0.6387970 0.6432107 0.4714008
0.7124502 0.5765699 0.4056093
0.8507045 0.6002201 0.4162621
0.0000000 0.5147691 0.3064451
0.0000000 0.5441403 0.3170235
0.0503339 0.5729198 0.3245347
0.1425981 0.6037650 0.3296526
0.2535535 0.6387379 0.3391716
0.3960411 0.6787914 0.3652960
0.5710961 0.7193119 0.4144947
0.7086543 0.7204836 0.4318578
0.8411004 0.7205269 0.4316433
0.0000000 0.5673112 0.2729971
0.0000000 0.6148431 0.2837731
0.0252154 0.6617770 0.2947435
0.1348145 0.7040404 0.3047865
0.2445692 0.7349825 0.3127523
0.3580108 0.7562939 0.3251730
0.4950511 0.7847663 0.3565019
0.6776911 0.8314495 0.4122975
0.8803571 0.8761726 0.4666346
0.4476888 0.3357746 1.0000000
0.4729905 0.2717599 0.9624694
0.4936673 0.2061082 0.8739258
0.5051424 0.1389688 0.7773819
0.5141089 0.0752143 0.6796051
0.5320102 0.0222194 0.5922377
0.5640536 0.0000000 0.5211637
0.6065236 0.0000000 0.4618989
0.6528499 0.0000000 0.4067697
0.3743237 0.3313558 0.9055832
0.4013623 0.2913762 0.8481918
0.4269327 0.2461414 0.7875966
0.4527726 0.1950644 0.7214730
0.4852609 0.1464146 0.6532327
0.5297868 0.1077610 0.5901222
0.5858145 0.0803180 0.5343203
0.6491204 0.0603447 0.4829151
0.7150554 0.0430740 0.4328404
0.3056714 0.3307909 0.7716536
0.3268712 0.3090213 0.7354736
0.3534558 0.2804557 0.7001633
0.3959466 0.2478691 0.6653974
0.4569817 0.2198482 0.6304543
0.5294727 0.1973605 0.5928085
0.6087591 0.1811972 0.5497689
0.6913572 0.1697535 0.5026625
0.7744015 0.1600275 0.4544970
0.2468100 0.3450327 0.6584557
0.2481591 0.3275605 0.6353227
0.2697543 0.3048738 0.6139052
0.3300067 0.2927746 0.6057924
0.4291328 0.3004863 0.6169391
0.5325436 0.2989364 0.6080222
0.6325905 0.2894016 0.5697846
0.7300615 0.2796541 0.5196063
0.8246644 0.2698174 0.4664920
0.1855502 0.3890231 0.5789298
0.1724130 0.3632337 0.5567623
0.1957145 0.3395908 0.5398831
0.2666918 0.3387296 0.5564759
0.3854919 0.3755470 0.6026830
0.5425709 0.4247785 0.6405105
0.6581275 0.4113738 0.5976007
0.7576801 0.3894993 0.5327345
0.8580498 0.3737774 0.4697632
0.0854931 0.4375951 0.5070633
0.1045644 0.4202116 0.5007844
0.1509502 0.4146469 0.5040208
0.2249327 0.4184961 0.5202088
0.3141020 0.4391804 0.5863941
0.5671443 0.5829412 0.6890279
0.6818935 0.5489433 0.6352540
0.7612340 0.4934358 0.5383857
0.8737854 0.4836015 0.4813072
0.0000000 0.4759985 0.4396229
0.0419435 0.4877797 0.4564686
0.1103136 0.5030000 0.4749392
0.1848734 0.5187298 0.4913707
0.2800313 0.5430874 0.5161471
0.4532003 0.6146865 0.5901198
0.6585915 0.6669478 0.6460103
0.7407797 0.5963584 0.5368860
0.8727686 0.6078798 0.5257243
0.0000000 0.5175526 0.3830178
0.0000000 0.5542369 0.4122461
0.0666505 0.5899992 0.4390426
0.1606846 0.6255610 0.4629023
0.2684166 0.6614184 0.4879978
0.4006512 0.6955791 0.5198960
0.5676287 0.7262540 0.5586189
0.7181307 0.7237646 0.5611789
0.8665078 0.7374294 0.5803987
0.0000000 0.5602513 0.3311192
0.0000000 0.6200647 0.3679914
0.0247500 0.6784156 0.4032645
0.1407917 0.7301423 0.4338243
0.2547899 0.7672281 0.4550659
0.3691575 0.7864515 0.4699090
0.5010694 0.8026618 0.4978892
0.6748777 0.8339442 0.5523958
0.8782446 0.8683831 0.5991111
0.5637239 0.3845797 1.0000000
0.5628856 0.3238200 1.0000000
0.5586582 0.2612691 0.9825889
0.5485157 0.1945062 0.8956970
0.5364425 0.1242641 0.8060123
0.5293759 0.0548302 0.7179537
0.5316086 0.0000000 0.6358999
0.5419238 0.0000000 0.5596324
0.5553208 0.0000000 0.4854248
0.4834653 0.3876185 1.0000000
0.4882805 0.3409369 0.9625325
0.4933027 0.2922535 0.9034062
0.5007055 0.2411802 0.8434639
0.5136873 0.1893564 0.7809173
0.5350803 0.1394635 0.7166908
0.5653784 0.0935358 0.6526939
0.6026926 0.0508776 0.5898812
0.6429671 0.0096960 0.5280436
0.4059393 0.3952302 0.9034269
0.4132912 0.3595821 0.8648086
0.4247739 0.3220187 0.8276859
0.4484554 0.2859553 0.7916409
0.4874987 0.2542567 0.7551574
0.5383500 0.2253835 0.7152925
0.5974255 0.1986794 0.6697088
0.6621073 0.1740489 0.6200009
0.7292607 0.1503732 0.5692616
0.3355334 0.4163273 0.7998809
0.3357079 0.3821016 0.7776022
0.3501767 0.3513548 0.7575081
0.3886669 0.3283920 0.7405270
0.4545276 0.3186411 0.7285860
0.5375254 0.3147504 0.7147124
0.6257697 0.3069114 0.6881595
0.7159087 0.2961986 0.6495017
0.8058682 0.2839794 0.6051118
0.2616807 0.4525659 0.7107729
0.2509021 0.4104369 0.6984555
0.2729897 0.3869603 0.6940171
0.3265267 0.3773820 0.6939074
0.4089518 0.3812418 0.6958372
0.5256228 0.4050531 0.7092071
0.6496013 0.4220739 0.7097028
0.7598323 0.4181542 0.6782127
0.8635850 0.4066980 0.6319390
0.1419754 0.4713631 0.6203747
0.1615289 0.4503821 0.6274902
0.2036060 0.4418072 0.6414751
0.2769973 0.4527026 0.6632970
0.3537627 0.4518913 0.6590029
0.4847338 0.4834446 0.6836277
0.6632493 0.5421161 0.7316443
0.7834586 0.5344147 0.7013720
0.9002433 0.5235987 0.6538724
0.0128947 0.4909428 0.5342497
0.0757161 0.5043209 0.5660220
0.1475275 0.5231709 0.6004728
0.2338075 0.5497313 0.6380525
0.3276090 0.5722790 0.6686696
0.4347020 0.5758872 0.6717026
0.6300406 0.6375803 0.7244559
0.7722690 0.6360091 0.7071662
0.9188595 0.6453941 0.6841698
0.0000000 0.5178653 0.4554948
0.0000000 0.5626311 0.5074680
0.0870658 0.6072141 0.5582449
0.1892824 0.6504373 0.6061982
0.3014046 0.6896003 0.6501334
0.4237763 0.7146171 0.6805558
0.5655570 0.7221495 0.6913892
0.7407947 0.7429198 0.7161646
0.8992806 0.7526973 0.7077144
0.0000000 0.5485282 0.3791031
0.0000000 0.6210986 0.4487678
0.0244419 0.6910650 0.5154187
0.1477947 0.7526678 0.5741967
0.2723733 0.7989322 0.6195244
0.4049426 0.8285261 0.6506025
0.5541232 0.8482401 0.6790382
0.7126730 0.8561402 0.7038595
0.8728338 0.8572467 0.7223666
0.6750772 0.4267255 1.0000000
0.6489556 0.3715184 1.0000000
0.6215774 0.3138332 1.0000000
0.5934000 0.2491818 1.0000000
0.5636948 0.1747629 0.9318854
0.5337180 0.0901407 0.8460404
0.5057648 0.0000000 0.7535000
0.4801351 0.0000000 0.6579899
0.4563729 0.0000000 0.5625398
0.5919017 0.4434331 1.0000000
0.5745047 0.3903291 1.0000000
0.5590281 0.3378603 1.0000000
0.5481193 0.2857300 0.9638340
0.5427580 0.2311551 0.9059844
0.5426139 0.1721366 0.8419805
0.5477008 0.1087167 0.7717927
0.5574729 0.0431690 0.6988026
0.5698364 0.0000000 0.6253772
0.5081480 0.4626746 1.0000000
0.4994356 0.4115515 0.9976522
0.4948918 0.3639768 0.9568334
0.4991719 0.3219950 0.9160922
0.5161367 0.2852319 0.8757037
0.5460812 0.2511640 0.8334122
0.5861534 0.2164067 0.7879501
0.6325262 0.1798178 0.7399204
0.6820736 0.1425226 0.6904996
0.4161009 0.4815503 0.9394249
0.4197702 0.4364887 0.9200567
0.4267115 0.3957262 0.8968693
0.4438920 0.3615428 0.8672155
0.4783962 0.3356512 0.8361103
0.5360674 0.3222387 0.8130151
0.6132219 0.3173304 0.7970870
0.6994506 0.3116636 0.7791390
0.7873687 0.3029897 0.7570684
0.3066431 0.4917997 0.8368434
0.3288926 0.4633861 0.8422746
0.3525460 0.4367599 0.8401737
0.3853224 0.4131168 0.8225900
0.4346747 0.3938200 0.7971479
0.5112044 0.3897399 0.7853474
0.6217156 0.4092296 0.7963537
0.7498062 0.4350908 0.8115148
0.8778569 0.4538129 0.8187660
0.1825003 0.4982199 0.7331670
0.2251267 0.4916897 0.7615457
0.2727557 0.4879272 0.7848854
0.3302691 0.4854293 0.7922161
0.4027145 0.4826319 0.7865454
0.4871854 0.4775930 0.7763836
0.6104567 0.4984234 0.7906652
0.7777649 0.5486252 0.8327922
0.9461661 0.5913507 0.8646262
0.0438836 0.5060289 0.6290060
0.1137596 0.5260698 0.6805298
0.1900986 0.5498317 0.7309435
0.2791128 0.5775006 0.7745030
0.3804330 0.6015225 0.8014760
0.4780971 0.6028904 0.7985873
0.6041754 0.6092453 0.8009427
0.7905020 0.6631023 0.8466989
0.9841992 0.7134762 0.8839029
0.0000000 0.5180519 0.5256731
0.0022555 0.5704841 0.6029710
0.1079959 0.6236864 0.6795790
0.2216175 0.6762251 0.7521053
0.3419646 0.7188812 0.8066873
0.4671124 0.7382174 0.8273587
0.6165834 0.7512738 0.8347439
0.8157854 0.7985576 0.8592824
0.9608683 0.8037316 0.8731505
0.0000000 0.5336195 0.4237706
0.0000000 0.6196966 0.5269626
0.0246935 0.7018648 0.6281837
0.1563809 0.7735540 0.7205344
0.2939976 0.8289873 0.7957859
0.4503744 0.8716723 0.8484472
0.6332156 0.9051936 0.8731100
0.7990183 0.9114720 0.8706706
0.8812273 0.8696254 0.8500204
