presets/experimental/experimental-lightning/look.cube
# Approximate v0 colour conversion; calibrate before claiming visual parity.
LUT_3D_SIZE 33
DOMAIN_MIN 0 0 0
DOMAIN_MAX 1 1 1
0.0022035 0.0022035 0.0022035
0.0121944 0.0121944 0.0121944
0.0221854 0.0221854 0.0221854
0.0318673 0.0318673 0.0318673
0.0414788 0.0414788 0.0414788
0.0508501 0.0508501 0.0508501
0.0600794 0.0600794 0.0600794
0.0690578 0.0690578 0.0690578
0.0804785 0.0804785 0.0804785
0.0956282 0.0956282 0.0956282
0.1099291 0.1099291 0.1099291
0.1234710 0.1234710 0.1234710
0.1363621 0.1363621 0.1363621
0.1487164 0.1487164 0.1487164
0.1605934 0.1605934 0.1605934
0.1721720 0.1721720 0.1721720
0.1767146 0.1767146 0.1767146
0.1789230 0.1789230 0.1789230
0.1811316 0.1811316 0.1811316
0.1833401 0.1833401 0.1833401
0.1855486 0.1855486 0.1855486
0.1877571 0.1877571 0.1877571
0.1899579 0.1899579 0.1899579
0.1920050 0.1920050 0.1920050
0.1931276 0.1931276 0.1931276
0.1942500 0.1942500 0.1942500
0.1953725 0.1953725 0.1953725
0.1964950 0.1964950 0.1964950
0.1976175 0.1976175 0.1976175
0.1987399 0.1987399 0.1987399
0.1998624 0.1998624 0.1998624
0.2004202 0.2004202 0.2004202
0.2004202 0.2004202 0.2004202
0.0242010 0.0242010 0.0242010
0.0326543 0.0326543 0.0326543
0.0411077 0.0411077 0.0411077
0.0505043 0.0505043 0.0505043
0.0601163 0.0601163 0.0601163
0.0695119 0.0695119 0.0695119
0.0787794 0.0787794 0.0787794
0.0877822 0.0877822 0.0877822
0.0992119 0.0992119 0.0992119
0.1143490 0.1143490 0.1143490
0.1286216 0.1286216 0.1286216
0.1421280 0.1421280 0.1421280
0.1549823 0.1549823 0.1549823
0.1673018 0.1673018 0.1673018
0.1791489 0.1791489 0.1791489
0.1907018 0.1907018 0.1907018
0.1952349 0.1952349 0.1952349
0.1974396 0.1974396 0.1974396
0.1996443 0.1996443 0.1996443
0.2018490 0.2018490 0.2018490
0.2040537 0.2040537 0.2040537
0.2062584 0.2062584 0.2062584
0.2084557 0.2084557 0.2084557
0.2105001 0.2105001 0.2105001
0.2116211 0.2116211 0.2116211
0.2127421 0.2127421 0.2127421
0.2138630 0.2138630 0.2138630
0.2149840 0.2149840 0.2149840
0.2161050 0.2161050 0.2161050
0.2172259 0.2172259 0.2172259
0.2183469 0.2183469 0.2183469
0.2189039 0.2189039 0.2189039
0.2189039 0.2189039 0.2189039
0.0461983 0.0461983 0.0461983
0.0531142 0.0531142 0.0531142
0.0600301 0.0600301 0.0600301
0.0691413 0.0691413 0.0691413
0.0787538 0.0787538 0.0787538
0.0881736 0.0881736 0.0881736
0.0974795 0.0974795 0.0974795
0.1065065 0.1065065 0.1065065
0.1179454 0.1179454 0.1179454
0.1330697 0.1330697 0.1330697
0.1473140 0.1473140 0.1473140
0.1607851 0.1607851 0.1607851
0.1736025 0.1736025 0.1736025
0.1858873 0.1858873 0.1858873
0.1977043 0.1977043 0.1977043
0.2092316 0.2092316 0.2092316
0.2137551 0.2137551 0.2137551
0.2159560 0.2159560 0.2159560
0.2181570 0.2181570 0.2181570
0.2203579 0.2203579 0.2203579
0.2225588 0.2225588 0.2225588
0.2247598 0.2247598 0.2247598
0.2269535 0.2269535 0.2269535
0.2289952 0.2289952 0.2289952
0.2301146 0.2301146 0.2301146
0.2312340 0.2312340 0.2312340
0.2323535 0.2323535 0.2323535
0.2334730 0.2334730 0.2334730
0.2345925 0.2345925 0.2345925
0.2357119 0.2357119 0.2357119
0.2368313 0.2368313 0.2368313
0.2373877 0.2373877 0.2373877
0.2373877 0.2373877 0.2373877
0.0679972 0.0679972 0.0679972
0.0742664 0.0742664 0.0742664
0.0805355 0.0805355 0.0805355
0.0891670 0.0891670 0.0891670
0.0983378 0.0983378 0.0983378
0.1075025 0.1075025 0.1075025
0.1166635 0.1166635 0.1166635
0.1255822 0.1255822 0.1255822
0.1369390 0.1369390 0.1369390
0.1519750 0.1519750 0.1519750
0.1661447 0.1661447 0.1661447
0.1795479 0.1795479 0.1795479
0.1923034 0.1923034 0.1923034
0.2045330 0.2045330 0.2045330
0.2163035 0.2163035 0.2163035
0.2277920 0.2277920 0.2277920
0.2323013 0.2323013 0.2323013
0.2344964 0.2344964 0.2344964
0.2366916 0.2366916 0.2366916
0.2388867 0.2388867 0.2388867
0.2410820 0.2410820 0.2410820
0.2432771 0.2432771 0.2432771
0.2454655 0.2454655 0.2454655
0.2475030 0.2475030 0.2475030
0.2486202 0.2486202 0.2486202
0.2497374 0.2497374 0.2497374
0.2508546 0.2508546 0.2508546
0.2519718 0.2519718 0.2519718
0.2530890 0.2530890 0.2530890
0.2542062 0.2542062 0.2542062
0.2553234 0.2553234 0.2553234
0.2558786 0.2558786 0.2558786
0.2558786 0.2558786 0.2558786
0.0896520 0.0896520 0.0896520
0.0959217 0.0959217 0.0959217
0.1021914 0.1021914 0.1021914
0.1102018 0.1102018 0.1102018
0.1186096 0.1186096 0.1186096
0.1273161 0.1273161 0.1273161
0.1361992 0.1361992 0.1361992
0.1449132 0.1449132 0.1449132
0.1561215 0.1561215 0.1561215
0.1710144 0.1710144 0.1710144
0.1850758 0.1850758 0.1850758
0.1983875 0.1983875 0.1983875
0.2110629 0.2110629 0.2110629
0.2232224 0.2232224 0.2232224
0.2349346 0.2349346 0.2349346
0.2463746 0.2463746 0.2463746
0.2508661 0.2508661 0.2508661
0.2530541 0.2530541 0.2530541
0.2552421 0.2552421 0.2552421
0.2574302 0.2574302 0.2574302
0.2596182 0.2596182 0.2596182
0.2618062 0.2618062 0.2618062
0.2639879 0.2639879 0.2639879
0.2660203 0.2660203 0.2660203
0.2671347 0.2671347 0.2671347
0.2682491 0.2682491 0.2682491
0.2693635 0.2693635 0.2693635
0.2704779 0.2704779 0.2704779
0.2715923 0.2715923 0.2715923
0.2727067 0.2727067 0.2727067
0.2738211 0.2738211 0.2738211
0.2743749 0.2743749 0.2743749
0.2743749 0.2743749 0.2743749
0.1112521 0.1112521 0.1112521
0.1175282 0.1175282 0.1175282
0.1238045 0.1238045 0.1238045
0.1312575 0.1312575 0.1312575
0.1389793 0.1389793 0.1389793
0.1472483 0.1472483 0.1472483
0.1558412 0.1558412 0.1558412
0.1643360 0.1643360 0.1643360
0.1753731 0.1753731 0.1753731
0.1901002 0.1901002 0.1901002
0.2040384 0.2040384 0.2040384
0.2172490 0.2172490 0.2172490
0.2298376 0.2298376 0.2298376
0.2419223 0.2419223 0.2419223
0.2535727 0.2535727 0.2535727
0.2649618 0.2649618 0.2649618
0.2694345 0.2694345 0.2694345
0.2716149 0.2716149 0.2716149
0.2737954 0.2737954 0.2737954
0.2759759 0.2759759 0.2759759
0.2781563 0.2781563 0.2781563
0.2803368 0.2803368 0.2803368
0.2825115 0.2825115 0.2825115
0.2845386 0.2845386 0.2845386
0.2856500 0.2856500 0.2856500
0.2867615 0.2867615 0.2867615
0.2878729 0.2878729 0.2878729
0.2889844 0.2889844 0.2889844
0.2900959 0.2900959 0.2900959
0.2912073 0.2912073 0.2912073
0.2923188 0.2923188 0.2923188
0.2928711 0.2928711 0.2928711
0.2928711 0.2928711 0.2928711
0.1325617 0.1325617 0.1325617
0.1388762 0.1388762 0.1388762
0.1451907 0.1451907 0.1451907
0.1524246 0.1524246 0.1524246
0.1598684 0.1598684 0.1598684
0.1678108 0.1678108 0.1678108
0.1760482 0.1760482 0.1760482
0.1842465 0.1842465 0.1842465
0.1949910 0.1949910 0.1949910
0.2094322 0.2094322 0.2094322
0.2231682 0.2231682 0.2231682
0.2362261 0.2362261 0.2362261
0.2486931 0.2486931 0.2486931
0.2606781 0.2606781 0.2606781
0.2722488 0.2722488 0.2722488
0.2835725 0.2835725 0.2835725
0.2880214 0.2880214 0.2880214
0.2901923 0.2901923 0.2901923
0.2923632 0.2923632 0.2923632
0.2945342 0.2945342 0.2945342
0.2967051 0.2967051 0.2967051
0.2988760 0.2988760 0.2988760
0.3010419 0.3010419 0.3010419
0.3030622 0.3030622 0.3030622
0.3041699 0.3041699 0.3041699
0.3052777 0.3052777 0.3052777
0.3063855 0.3063855 0.3063855
0.3074933 0.3074933 0.3074933
0.3086010 0.3086010 0.3086010
0.3097088 0.3097088 0.3097088
0.3108166 0.3108166 0.3108166
0.3113670 0.3113670 0.3113670
0.3113670 0.3113670 0.3113670
0.1538715 0.1538715 0.1538715
0.1602242 0.1602242 0.1602242
0.1665769 0.1665769 0.1665769
0.1735917 0.1735917 0.1735917
0.1807577 0.1807577 0.1807577
0.1883733 0.1883733 0.1883733
0.1962552 0.1962552 0.1962552
0.2041570 0.2041570 0.2041570
0.2146090 0.2146090 0.2146090
0.2287642 0.2287642 0.2287642
0.2422979 0.2422979 0.2422979
0.2552033 0.2552033 0.2552033
0.2675486 0.2675486 0.2675486
0.2794339 0.2794339 0.2794339
0.2909248 0.2909248 0.2909248
0.3021833 0.3021833 0.3021833
0.3066083 0.3066083 0.3066083
0.3087696 0.3087696 0.3087696
0.3109310 0.3109310 0.3109310
0.3130924 0.3130924 0.3130924
0.3152538 0.3152538 0.3152538
0.3174152 0.3174152 0.3174152
0.3195723 0.3195723 0.3195723
0.3215859 0.3215859 0.3215859
0.3226899 0.3226899 0.3226899
0.3237940 0.3237940 0.3237940
0.3248980 0.3248980 0.3248980
0.3260021 0.3260021 0.3260021
0.3271062 0.3271062 0.3271062
0.3282103 0.3282103 0.3282103
0.3293143 0.3293143 0.3293143
0.3298630 0.3298630 0.3298630
0.3298630 0.3298630 0.3298630
0.1748033 0.1748033 0.1748033
0.1811711 0.1811711 0.1811711
0.1875390 0.1875390 0.1875390
0.1944296 0.1944296 0.1944296
0.2014397 0.2014397 0.2014397
0.2088359 0.2088359 0.2088359
0.2164608 0.2164608 0.2164608
0.2241272 0.2241272 0.2241272
0.2343046 0.2343046 0.2343046
0.2481643 0.2481643 0.2481643
0.2614749 0.2614749 0.2614749
0.2742090 0.2742090 0.2742090
0.2864194 0.2864194 0.2864194
0.2981958 0.2981958 0.2981958
0.3096008 0.3096008 0.3096008
0.3207895 0.3207895 0.3207895
0.3251889 0.3251889 0.3251889
0.3273401 0.3273401 0.3273401
0.3294914 0.3294914 0.3294914
0.3316426 0.3316426 0.3316426
0.3337938 0.3337938 0.3337938
0.3359451 0.3359451 0.3359451
0.3380927 0.3380927 0.3380927
0.3400989 0.3400989 0.3400989
0.3411991 0.3411991 0.3411991
0.3422992 0.3422992 0.3422992
0.3433992 0.3433992 0.3433992
0.3444993 0.3444993 0.3444993
0.3455995 0.3455995 0.3455995
0.3466995 0.3466995 0.3466995
0.3477996 0.3477996 0.3477996
0.3483463 0.3483463 0.3483463
0.3483463 0.3483463 0.3483463
0.2054077 0.2054077 0.2054077
0.2117857 0.2117857 0.2117857
0.2181636 0.2181636 0.2181636
0.2249214 0.2249214 0.2249214
0.2317658 0.2317658 0.2317658
0.2388953 0.2388953 0.2388953
0.2461936 0.2461936 0.2461936
0.2535456 0.2535456 0.2535456
0.2633284 0.2633284 0.2633284
0.2767481 0.2767481 0.2767481
0.2897194 0.2897194 0.2897194
0.3021919 0.3021919 0.3021919
0.3141964 0.3141964 0.3141964
0.3258080 0.3258080 0.3258080
0.3370832 0.3370832 0.3370832
0.3481669 0.3481669 0.3481669
0.3525279 0.3525279 0.3525279
0.3546639 0.3546639 0.3546639
0.3567999 0.3567999 0.3567999
0.3589358 0.3589358 0.3589358
0.3610718 0.3610718 0.3610718
0.3632077 0.3632077 0.3632077
0.3653411 0.3653411 0.3653411
0.3673365 0.3673365 0.3673365
0.3684306 0.3684306 0.3684306
0.3695247 0.3695247 0.3695247
0.3706187 0.3706187 0.3706187
0.3717128 0.3717128 0.3717128
0.3728069 0.3728069 0.3728069
0.3739010 0.3739010 0.3739010
0.3749951 0.3749951 0.3749951
0.3755388 0.3755388 0.3755388
0.3755388 0.3755388 0.3755388
0.2429459 0.2429459 0.2429459
0.2493073 0.2493073 0.2493073
0.2556688 0.2556688 0.2556688
0.2623148 0.2623148 0.2623148
0.2690258 0.2690258 0.2690258
0.2759378 0.2759378 0.2759378
0.2829687 0.2829687 0.2829687
0.2900444 0.2900444 0.2900444
0.2994482 0.2994482 0.2994482
0.3124124 0.3124124 0.3124124
0.3250129 0.3250129 0.3250129
0.3371901 0.3371901 0.3371901
0.3489592 0.3489592 0.3489592
0.3603810 0.3603810 0.3603810
0.3715070 0.3715070 0.3715070
0.3824684 0.3824684 0.3824684
0.3867847 0.3867847 0.3867847
0.3889026 0.3889026 0.3889026
0.3910206 0.3910206 0.3910206
0.3931386 0.3931386 0.3931386
0.3952566 0.3952566 0.3952566
0.3973746 0.3973746 0.3973746
0.3994911 0.3994911 0.3994911
0.4014735 0.4014735 0.4014735
0.4025605 0.4025605 0.4025605
0.4036475 0.4036475 0.4036475
0.4047345 0.4047345 0.4047345
0.4058215 0.4058215 0.4058215
0.4069085 0.4069085 0.4069085
0.4079954 0.4079954 0.4079954
0.4090824 0.4090824 0.4090824
0.4096226 0.4096226 0.4096226
0.4096226 0.4096226 0.4096226
0.2798441 0.2798441 0.2798441
0.2861773 0.2861773 0.2861773
0.2925105 0.2925105 0.2925105
0.2990629 0.2990629 0.2990629
0.3056654 0.3056654 0.3056654
0.3124093 0.3124093 0.3124093
0.3192370 0.3192370 0.3192370
0.3260971 0.3260971 0.3260971
0.3351957 0.3351957 0.3351957
0.3477805 0.3477805 0.3477805
0.3600665 0.3600665 0.3600665
0.3719924 0.3719924 0.3719924
0.3835621 0.3835621 0.3835621
0.3948240 0.3948240 0.3948240
0.4058234 0.4058234 0.4058234
0.4166808 0.4166808 0.4166808
0.4209588 0.4209588 0.4209588
0.4230612 0.4230612 0.4230612
0.4251637 0.4251637 0.4251637
0.4272661 0.4272661 0.4272661
0.4293685 0.4293685 0.4293685
0.4314710 0.4314710 0.4314710
0.4335730 0.4335730 0.4335730
0.4355441 0.4355441 0.4355441
0.4366248 0.4366248 0.4366248
0.4377056 0.4377056 0.4377056
0.4387863 0.4387863 0.4387863
0.4398670 0.4398670 0.4398670
0.4409478 0.4409478 0.4409478
0.4420286 0.4420286 0.4420286
0.4431093 0.4431093 0.4431093
0.4436464 0.4436464 0.4436464
0.4436464 0.4436464 0.4436464
0.3161521 0.3161521 0.3161521
0.3224504 0.3224504 0.3224504
0.3287487 0.3287487 0.3287487
0.3352185 0.3352185 0.3352185
0.3417274 0.3417274 0.3417274
0.3483371 0.3483371 0.3483371
0.3550065 0.3550065 0.3550065
0.3616964 0.3616964 0.3616964
0.3705512 0.3705512 0.3705512
0.3828252 0.3828252 0.3828252
0.3948511 0.3948511 0.3948511
0.4065708 0.4065708 0.4065708
0.4179797 0.4179797 0.4179797
0.4291150 0.4291150 0.4291150
0.4400147 0.4400147 0.4400147
0.4507896 0.4507896 0.4507896
0.4550372 0.4550372 0.4550372
0.4571271 0.4571271 0.4571271
0.4592171 0.4592171 0.4592171
0.4613071 0.4613071 0.4613071
0.4633971 0.4633971 0.4633971
0.4654870 0.4654870 0.4654870
0.4675773 0.4675773 0.4675773
0.4695390 0.4695390 0.4695390
0.4706147 0.4706147 0.4706147
0.4716904 0.4716904 0.4716904
0.4727660 0.4727660 0.4727660
0.4738417 0.4738417 0.4738417
0.4749174 0.4749174 0.4749174
0.4759931 0.4759931 0.4759931
0.4770687 0.4770687 0.4770687
0.4776032 0.4776032 0.4776032
0.4776032 0.4776032 0.4776032
0.3518990 0.3518990 0.3518990
0.3581599 0.3581599 0.3581599
0.3644209 0.3644209 0.3644209
0.3708163 0.3708163 0.3708163
0.3772423 0.3772423 0.3772423
0.3837410 0.3837410 0.3837410
0.3902827 0.3902827 0.3902827
0.3968362 0.3968362 0.3968362
0.4054967 0.4054967 0.4054967
0.4175195 0.4175195 0.4175195
0.4293358 0.4293358 0.4293358
0.4408934 0.4408934 0.4408934
0.4521816 0.4521816 0.4521816
0.4632259 0.4632259 0.4632259
0.4740568 0.4740568 0.4740568
0.4847748 0.4847748 0.4847748
0.4890014 0.4890014 0.4890014
0.4910826 0.4910826 0.4910826
0.4931639 0.4931639 0.4931639
0.4952452 0.4952452 0.4952452
0.4973264 0.4973264 0.4973264
0.4994076 0.4994076 0.4994076
0.5014897 0.5014897 0.5014897
0.5034449 0.5034449 0.5034449
0.5045169 0.5045169 0.5045169
0.5055890 0.5055890 0.5055890
0.5066610 0.5066610 0.5066610
0.5077331 0.5077331 0.5077331
0.5088052 0.5088052 0.5088052
0.5098772 0.5098772 0.5098772
0.5109492 0.5109492 0.5109492
0.5114820 0.5114820 0.5114820
0.5114820 0.5114820 0.5114820
0.3870727 0.3870727 0.3870727
0.3932987 0.3932987 0.3932987
0.3995246 0.3995246 0.3995246
0.4058555 0.4058555 0.4058555
0.4122104 0.4122104 0.4122104
0.4186188 0.4186188 0.4186188
0.4250588 0.4250588 0.4250588
0.4315049 0.4315049 0.4315049
0.4400144 0.4400144 0.4400144
0.4518409 0.4518409 0.4518409
0.4634944 0.4634944 0.4634944
0.4749291 0.4749291 0.4749291
0.4861318 0.4861318 0.4861318
0.4971190 0.4971190 0.4971190
0.5079130 0.5079130 0.5079130
0.5186034 0.5186034 0.5186034
0.5228201 0.5228201 0.5228201
0.5248974 0.5248974 0.5248974
0.5269746 0.5269746 0.5269746
0.5290519 0.5290519 0.5290519
0.5311292 0.5311292 0.5311292
0.5332064 0.5332064 0.5332064
0.5352846 0.5352846 0.5352846
0.5372367 0.5372367 0.5372367
0.5383070 0.5383070 0.5383070
0.5393773 0.5393773 0.5393773
0.5404476 0.5404476 0.5404476
0.5415179 0.5415179 0.5415179
0.5425882 0.5425882 0.5425882
0.5436585 0.5436585 0.5436585
0.5447288 0.5447288 0.5447288
0.5452607 0.5452607 0.5452607
0.5452607 0.5452607 0.5452607
0.4219307 0.4219307 0.4219307
0.4281248 0.4281248 0.4281248
0.4343190 0.4343190 0.4343190
0.4405930 0.4405930 0.4405930
0.4468853 0.4468853 0.4468853
0.4532156 0.4532156 0.4532156
0.4595684 0.4595684 0.4595684
0.4659231 0.4659231 0.4659231
0.4743047 0.4743047 0.4743047
0.4859650 0.4859650 0.4859650
0.4974801 0.4974801 0.4974801
0.5088114 0.5088114 0.5088114
0.5199445 0.5199445 0.5199445
0.5308898 0.5308898 0.5308898
0.5416621 0.5416621 0.5416621
0.5523395 0.5523395 0.5523395
0.5565519 0.5565519 0.5565519
0.5586278 0.5586278 0.5586278
0.5607037 0.5607037 0.5607037
0.5627796 0.5627796 0.5627796
0.5648555 0.5648555 0.5648555
0.5669314 0.5669314 0.5669314
0.5690083 0.5690083 0.5690083
0.5709593 0.5709593 0.5709593
0.5720290 0.5720290 0.5720290
0.5730988 0.5730988 0.5730988
0.5741685 0.5741685 0.5741685
0.5752382 0.5752382 0.5752382
0.5763080 0.5763080 0.5763080
0.5773777 0.5773777 0.5773777
0.5784474 0.5784474 0.5784474
0.5789790 0.5789790 0.5789790
0.5789790 0.5789790 0.5789790
0.4565240 0.4565240 0.4565240
0.4626900 0.4626900 0.4626900
0.4688558 0.4688558 0.4688558
0.4750802 0.4750802 0.4750802
0.4813180 0.4813180 0.4813180
0.4875814 0.4875814 0.4875814
0.4938602 0.4938602 0.4938602
0.5001375 0.5001375 0.5001375
0.5084114 0.5084114 0.5084114
0.5199316 0.5199316 0.5199316
0.5313293 0.5313293 0.5313293
0.5425730 0.5425730 0.5425730
0.5536492 0.5536492 0.5536492
0.5645634 0.5645634 0.5645634
0.5753249 0.5753249 0.5753249
0.5860002 0.5860002 0.5860002
0.5902128 0.5902128 0.5902128
0.5922894 0.5922894 0.5922894
0.5943660 0.5943660 0.5943660
0.5964426 0.5964426 0.5964426
0.5985192 0.5985192 0.5985192
0.6005958 0.6005958 0.6005958
0.6026735 0.6026735 0.6026735
0.6046251 0.6046251 0.6046251
0.6056953 0.6056953 0.6056953
0.6067654 0.6067654 0.6067654
0.6078356 0.6078356 0.6078356
0.6089057 0.6089057 0.6089057
0.6099758 0.6099758 0.6099758
0.6110460 0.6110460 0.6110460
0.6121162 0.6121162 0.6121162
0.6126480 0.6126480 0.6126480
0.6126480 0.6126480 0.6126480
0.4877903 0.4877903 0.4877903
0.4939335 0.4939335 0.4939335
0.5000767 0.5000767 0.5000767
0.5062623 0.5062623 0.5062623
0.5124576 0.5124576 0.5124576
0.5186695 0.5186695 0.5186695
0.5248911 0.5248911 0.5248911
0.5311090 0.5311090 0.5311090
0.5393007 0.5393007 0.5393007
0.5507129 0.5507129 0.5507129
0.5620197 0.5620197 0.5620197
0.5731953 0.5731953 0.5731953
0.5842277 0.5842277 0.5842277
0.5951202 0.5951202 0.5951202
0.6058777 0.6058777 0.6058777
0.6165581 0.6165581 0.6165581
0.6207735 0.6207735 0.6207735
0.6228521 0.6228521 0.6228521
0.6249306 0.6249306 0.6249306
0.6270093 0.6270093 0.6270093
0.6290878 0.6290878 0.6290878
0.6311664 0.6311664 0.6311664
0.6332461 0.6332461 0.6332461
0.6351997 0.6351997 0.6351997
0.6362708 0.6362708 0.6362708
0.6373421 0.6373421 0.6373421
0.6384133 0.6384133 0.6384133
0.6394845 0.6394845 0.6394845
0.6405557 0.6405557 0.6405557
0.6416269 0.6416269 0.6416269
0.6426981 0.6426981 0.6426981
0.6432304 0.6432304 0.6432304
0.6432304 0.6432304 0.6432304
0.4944848 0.4944848 0.4944848
0.5006239 0.5006239 0.5006239
0.5067629 0.5067629 0.5067629
0.5129414 0.5129414 0.5129414
0.5191289 0.5191289 0.5191289
0.5253312 0.5253312 0.5253312
0.5315424 0.5315424 0.5315424
0.5377493 0.5377493 0.5377493
0.5459260 0.5459260 0.5459260
0.5573183 0.5573183 0.5573183
0.5686083 0.5686083 0.5686083
0.5797711 0.5797711 0.5797711
0.5907953 0.5907953 0.5907953
0.6016838 0.6016838 0.6016838
0.6124410 0.6124410 0.6124410
0.6231231 0.6231231 0.6231231
0.6273392 0.6273392 0.6273392
0.6294184 0.6294184 0.6294184
0.6314975 0.6314975 0.6314975
0.6335767 0.6335767 0.6335767
0.6356558 0.6356558 0.6356558
0.6377349 0.6377349 0.6377349
0.6398151 0.6398151 0.6398151
0.6417693 0.6417693 0.6417693
0.6428408 0.6428408 0.6428408
0.6439123 0.6439123 0.6439123
0.6449838 0.6449838 0.6449838
0.6460553 0.6460553 0.6460553
0.6471269 0.6471269 0.6471269
0.6481983 0.6481983 0.6481983
0.6492698 0.6492698 0.6492698
0.6498023 0.6498023 0.6498023
0.6498023 0.6498023 0.6498023
0.5011655 0.5011655 0.5011655
0.5073007 0.5073007 0.5073007
0.5134361 0.5134361 0.5134361
0.5196079 0.5196079 0.5196079
0.5257883 0.5257883 0.5257883
0.5319819 0.5319819 0.5319819
0.5381836 0.5381836 0.5381836
0.5443806 0.5443806 0.5443806
0.5525437 0.5525437 0.5525437
0.5639178 0.5639178 0.5639178
0.5751922 0.5751922 0.5751922
0.5863434 0.5863434 0.5863434
0.5973598 0.5973598 0.5973598
0.6082448 0.6082448 0.6082448
0.6190020 0.6190020 0.6190020
0.6296858 0.6296858 0.6296858
0.6339029 0.6339029 0.6339029
0.6359827 0.6359827 0.6359827
0.6380625 0.6380625 0.6380625
0.6401422 0.6401422 0.6401422
0.6422220 0.6422220 0.6422220
0.6443018 0.6443018 0.6443018
0.6463826 0.6463826 0.6463826
0.6483374 0.6483374 0.6483374
0.6494092 0.6494092 0.6494092
0.6504811 0.6504811 0.6504811
0.6515530 0.6515530 0.6515530
0.6526248 0.6526248 0.6526248
0.6536966 0.6536966 0.6536966
0.6547684 0.6547684 0.6547684
0.6558403 0.6558403 0.6558403
0.6563729 0.6563729 0.6563729
0.6563729 0.6563729 0.6563729
0.5078462 0.5078462 0.5078462
0.5139777 0.5139777 0.5139777
0.5201091 0.5201091 0.5201091
0.5262745 0.5262745 0.5262745
0.5324476 0.5324476 0.5324476
0.5386327 0.5386327 0.5386327
0.5448248 0.5448248 0.5448248
0.5510119 0.5510119 0.5510119
0.5591613 0.5591613 0.5591613
0.5705173 0.5705173 0.5705173
0.5817763 0.5817763 0.5817763
0.5929155 0.5929155 0.5929155
0.6039245 0.6039245 0.6039245
0.6148057 0.6148057 0.6148057
0.6255629 0.6255629 0.6255629
0.6362486 0.6362486 0.6362486
0.6404667 0.6404667 0.6404667
0.6425470 0.6425470 0.6425470
0.6446275 0.6446275 0.6446275
0.6467078 0.6467078 0.6467078
0.6487883 0.6487883 0.6487883
0.6508686 0.6508686 0.6508686
0.6529502 0.6529502 0.6529502
0.6549055 0.6549055 0.6549055
0.6559777 0.6559777 0.6559777
0.6570499 0.6570499 0.6570499
0.6581220 0.6581220 0.6581220
0.6591942 0.6591942 0.6591942
0.6602664 0.6602664 0.6602664
0.6613385 0.6613385 0.6613385
0.6624106 0.6624106 0.6624106
0.6629435 0.6629435 0.6629435
0.6629435 0.6629435 0.6629435
0.5145268 0.5145268 0.5145268
0.5206545 0.5206545 0.5206545
0.5267822 0.5267822 0.5267822
0.5329411 0.5329411 0.5329411
0.5391070 0.5391070 0.5391070
0.5452834 0.5452834 0.5452834
0.5514660 0.5514660 0.5514660
0.5576432 0.5576432 0.5576432
0.5657789 0.5657789 0.5657789
0.5771168 0.5771168 0.5771168
0.5883603 0.5883603 0.5883603
0.5994878 0.5994878 0.5994878
0.6104891 0.6104891 0.6104891
0.6213667 0.6213667 0.6213667
0.6321238 0.6321238 0.6321238
0.6428114 0.6428114 0.6428114
0.6470303 0.6470303 0.6470303
0.6491114 0.6491114 0.6491114
0.6511924 0.6511924 0.6511924
0.6532735 0.6532735 0.6532735
0.6553545 0.6553545 0.6553545
0.6574355 0.6574355 0.6574355
0.6595177 0.6595177 0.6595177
0.6614736 0.6614736 0.6614736
0.6625461 0.6625461 0.6625461
0.6636186 0.6636186 0.6636186
0.6646911 0.6646911 0.6646911
0.6657636 0.6657636 0.6657636
0.6668361 0.6668361 0.6668361
0.6679086 0.6679086 0.6679086
0.6689811 0.6689811 0.6689811
0.6695140 0.6695140 0.6695140
0.6695140 0.6695140 0.6695140
0.5212075 0.5212075 0.5212075
0.5273314 0.5273314 0.5273314
0.5334553 0.5334553 0.5334553
0.5396076 0.5396076 0.5396076
0.5457664 0.5457664 0.5457664
0.5519342 0.5519342 0.5519342
0.5581072 0.5581072 0.5581072
0.5642745 0.5642745 0.5642745
0.5723965 0.5723965 0.5723965
0.5837162 0.5837162 0.5837162
0.5949442 0.5949442 0.5949442
0.6060600 0.6060600 0.6060600
0.6170536 0.6170536 0.6170536
0.6279277 0.6279277 0.6279277
0.6386847 0.6386847 0.6386847
0.6493742 0.6493742 0.6493742
0.6535940 0.6535940 0.6535940
0.6556757 0.6556757 0.6556757
0.6577574 0.6577574 0.6577574
0.6598391 0.6598391 0.6598391
0.6619207 0.6619207 0.6619207
0.6640024 0.6640024 0.6640024
0.6660851 0.6660851 0.6660851
0.6680417 0.6680417 0.6680417
0.6691146 0.6691146 0.6691146
0.6701874 0.6701874 0.6701874
0.6712602 0.6712602 0.6712602
0.6723330 0.6723330 0.6723330
0.6734058 0.6734058 0.6734058
0.6744787 0.6744787 0.6744787
0.6755515 0.6755515 0.6755515
0.6760846 0.6760846 0.6760846
0.6760846 0.6760846 0.6760846
0.5278883 0.5278883 0.5278883
0.5340083 0.5340083 0.5340083
0.5401284 0.5401284 0.5401284
0.5462742 0.5462742 0.5462742
0.5524258 0.5524258 0.5524258
0.5585849 0.5585849 0.5585849
0.5647485 0.5647485 0.5647485
0.5709058 0.5709058 0.5709058
0.5790141 0.5790141 0.5790141
0.5903157 0.5903157 0.5903157
0.6015282 0.6015282 0.6015282
0.6126322 0.6126322 0.6126322
0.6236182 0.6236182 0.6236182
0.6344887 0.6344887 0.6344887
0.6452456 0.6452456 0.6452456
0.6559369 0.6559369 0.6559369
0.6601577 0.6601577 0.6601577
0.6622401 0.6622401 0.6622401
0.6643223 0.6643223 0.6643223
0.6664047 0.6664047 0.6664047
0.6684870 0.6684870 0.6684870
0.6705692 0.6705692 0.6705692
0.6726527 0.6726527 0.6726527
0.6746099 0.6746099 0.6746099
0.6756830 0.6756830 0.6756830
0.6767562 0.6767562 0.6767562
0.6778294 0.6778294 0.6778294
0.6789025 0.6789025 0.6789025
0.6799756 0.6799756 0.6799756
0.6810488 0.6810488 0.6810488
0.6821219 0.6821219 0.6821219
0.6826552 0.6826552 0.6826552
0.6826552 0.6826552 0.6826552
0.5345689 0.5345689 0.5345689
0.5406852 0.5406852 0.5406852
0.5468015 0.5468015 0.5468015
