presets/experimental/experimental-lightning/look.cube
# Approximate v0 colour conversion; calibrate before claiming visual parity.
LUT_3D_SIZE 5
DOMAIN_MIN 0 0 0
DOMAIN_MAX 1 1 1
0.0022035 0.0022035 0.0022035
0.0804785 0.0804785 0.0804785
0.1767146 0.1767146 0.1767146
0.1931276 0.1931276 0.1931276
0.2004202 0.2004202 0.2004202
0.1748033 0.1748033 0.1748033
0.2343046 0.2343046 0.2343046
0.3251889 0.3251889 0.3251889
0.3411991 0.3411991 0.3411991
0.3483463 0.3483463 0.3483463
0.4565240 0.4565240 0.4565240
0.5084114 0.5084114 0.5084114
0.5902128 0.5902128 0.5902128
0.6056953 0.6056953 0.6056953
0.6126480 0.6126480 0.6126480
0.5345689 0.5345689 0.5345689
0.5856317 0.5856317 0.5856317
0.6667214 0.6667214 0.6667214
0.6822514 0.6822514 0.6822514
0.6892258 0.6892258 0.6892258
0.5662672 0.5662672 0.5662672
0.6171010 0.6171010 0.6171010
0.6979917 0.6979917 0.6979917
0.7135448 0.7135448 0.7135448
0.7205297 0.7205297 0.7205297
0.0478952 0.0478952 0.0478952
0.1058867 0.1058867 0.1058867
0.1951616 0.1951616 0.1951616
0.2110691 0.2110691 0.2110691
0.2181790 0.2181790 0.2181790
0.2015568 0.2015568 0.2015568
0.2719026 0.2719026 0.2719026
0.3710097 0.3710097 0.3710097
0.3871775 0.3871775 0.3871775
0.3944219 0.3944219 0.3944219
0.4754119 0.4754119 0.4754119
0.5393955 0.5393955 0.5393955
0.6151563 0.6151563 0.6151563
0.6335067 0.6335067 0.6335067
0.6415532 0.6415532 0.6415532
0.5526085 0.5526085 0.5526085
0.6151534 0.6151534 0.6151534
0.6878442 0.6878442 0.6878442
0.7026033 0.7026033 0.7026033
0.7111016 0.7111016 0.7111016
0.5840712 0.5840712 0.5840712
0.6463174 0.6463174 0.6463174
0.7192338 0.7192338 0.7192338
0.7328259 0.7328259 0.7328259
0.7395630 0.7395630 0.7395630
0.0886127 0.0886127 0.0886127
0.1400585 0.1400585 0.1400585
0.2214755 0.2214755 0.2214755
0.2369767 0.2369767 0.2369767
0.2439381 0.2439381 0.2439381
0.2370763 0.2370763 0.2370763
0.3202614 0.3202614 0.3202614
0.3937014 0.3937014 0.3937014
0.4098434 0.4098434 0.4098434
0.4170647 0.4170647 0.4170647
0.5020861 0.5020861 0.5020861
0.5649982 0.5649982 0.5649982
0.6456812 0.6456812 0.6456812
0.6605009 0.6605009 0.6605009
0.6689918 0.6689918 0.6689918
0.5785959 0.5785959 0.5785959
0.6372462 0.6372462 0.6372462
0.7038151 0.7038151 0.7038151
0.7120195 0.7120195 0.7120195
0.7232989 0.7232989 0.7232989
0.6098668 0.6098668 0.6098668
0.6683700 0.6683700 0.6683700
0.7336803 0.7336803 0.7336803
0.7406079 0.7406079 0.7406079
0.7463144 0.7463144 0.7463144
0.0941839 0.0941839 0.0941839
0.1451437 0.1451437 0.1451437
0.2261439 0.2261439 0.2261439
0.2416842 0.2416842 0.2416842
0.2486633 0.2486633 0.2486633
0.2422491 0.2422491 0.2422491
0.3258986 0.3258986 0.3258986
0.3998192 0.3998192 0.3998192
0.4136782 0.4136782 0.4136782
0.4209512 0.4209512 0.4209512
0.5067368 0.5067368 0.5067368
0.5727772 0.5727772 0.5727772
0.6520588 0.6520588 0.6520588
0.6601612 0.6601612 0.6601612
0.6691127 0.6691127 0.6691127
0.5832940 0.5832940 0.5832940
0.6420635 0.6420635 0.6420635
0.7040765 0.7040765 0.7040765
0.7081005 0.7081005 0.7081005
0.7191306 0.7191306 0.7191306
0.6145876 0.6145876 0.6145876
0.6720314 0.6720314 0.6720314
0.7322188 0.7322188 0.7322188
0.7346337 0.7346337 0.7346337
0.7362902 0.7362902 0.7362902
0.0965242 0.0965242 0.0965242
0.1473142 0.1473142 0.1473142
0.2281669 0.2281669 0.2281669
0.2437243 0.2437243 0.2437243
0.2507113 0.2507113 0.2507113
0.2444503 0.2444503 0.2444503
0.3283039 0.3283039 0.3283039
0.4023636 0.4023636 0.4023636
0.4163527 0.4163527 0.4163527
0.4226500 0.4226500 0.4226500
0.5087520 0.5087520 0.5087520
0.5759419 0.5759419 0.5759419
0.6562935 0.6562935 0.6562935
0.6651522 0.6651522 0.6651522
0.6696366 0.6696366 0.6696366
0.5853298 0.5853298 0.5853298
0.6456490 0.6456490 0.6456490
0.7109619 0.7109619 0.7109619
0.7154380 0.7154380 0.7154380
0.7175213 0.7175213 0.7175213
0.6166337 0.6166337 0.6166337
0.6741740 0.6741740 0.6741740
0.7340137 0.7340137 0.7340137
0.7328411 0.7328411 0.7328411
0.7300437 0.7300437 0.7300437
