presets/experimental/experimental-lightning/look.cube
# Approximate v0 colour conversion; calibrate before claiming visual parity.
LUT_3D_SIZE 9
DOMAIN_MIN 0 0 0
DOMAIN_MAX 1 1 1
0.0022035 0.0022035 0.0022035
0.0414788 0.0414788 0.0414788
0.0804785 0.0804785 0.0804785
0.1363621 0.1363621 0.1363621
0.1767146 0.1767146 0.1767146
0.1855486 0.1855486 0.1855486
0.1931276 0.1931276 0.1931276
0.1976175 0.1976175 0.1976175
0.2004202 0.2004202 0.2004202
0.0896520 0.0896520 0.0896520
0.1186096 0.1186096 0.1186096
0.1561215 0.1561215 0.1561215
0.2110629 0.2110629 0.2110629
0.2508661 0.2508661 0.2508661
0.2596182 0.2596182 0.2596182
0.2671347 0.2671347 0.2671347
0.2715923 0.2715923 0.2715923
0.2743749 0.2743749 0.2743749
0.1748033 0.1748033 0.1748033
0.2014397 0.2014397 0.2014397
0.2343046 0.2343046 0.2343046
0.2864194 0.2864194 0.2864194
0.3251889 0.3251889 0.3251889
0.3337938 0.3337938 0.3337938
0.3411991 0.3411991 0.3411991
0.3455995 0.3455995 0.3455995
0.3483463 0.3483463 0.3483463
0.3161521 0.3161521 0.3161521
0.3417274 0.3417274 0.3417274
0.3705512 0.3705512 0.3705512
0.4179797 0.4179797 0.4179797
0.4550372 0.4550372 0.4550372
0.4633971 0.4633971 0.4633971
0.4706147 0.4706147 0.4706147
0.4749174 0.4749174 0.4749174
0.4776032 0.4776032 0.4776032
0.4565240 0.4565240 0.4565240
0.4813180 0.4813180 0.4813180
0.5084114 0.5084114 0.5084114
0.5536492 0.5536492 0.5536492
0.5902128 0.5902128 0.5902128
0.5985192 0.5985192 0.5985192
0.6056953 0.6056953 0.6056953
0.6099758 0.6099758 0.6099758
0.6126480 0.6126480 0.6126480
0.5078462 0.5078462 0.5078462
0.5324476 0.5324476 0.5324476
0.5591613 0.5591613 0.5591613
0.6039245 0.6039245 0.6039245
0.6404667 0.6404667 0.6404667
0.6487883 0.6487883 0.6487883
0.6559777 0.6559777 0.6559777
0.6602664 0.6602664 0.6602664
0.6629435 0.6629435 0.6629435
0.5345689 0.5345689 0.5345689
0.5590852 0.5590852 0.5590852
0.5856317 0.5856317 0.5856317
0.6301828 0.6301828 0.6301828
0.6667214 0.6667214 0.6667214
0.6750532 0.6750532 0.6750532
0.6822514 0.6822514 0.6822514
0.6865454 0.6865454 0.6865454
0.6892258 0.6892258 0.6892258
0.5525697 0.5525697 0.5525697
0.5770417 0.5770417 0.5770417
0.6035022 0.6035022 0.6035022
0.6479404 0.6479404 0.6479404
0.6844786 0.6844786 0.6844786
0.6928174 0.6928174 0.6928174
0.7000217 0.7000217 0.7000217
0.7043194 0.7043194 0.7043194
0.7070021 0.7070021 0.7070021
0.5662672 0.5662672 0.5662672
0.5907057 0.5907057 0.5907057
0.6171010 0.6171010 0.6171010
0.6614537 0.6614537 0.6614537
0.6979917 0.6979917 0.6979917
0.7063357 0.7063357 0.7063357
0.7135448 0.7135448 0.7135448
0.7178452 0.7178452 0.7178452
0.7205297 0.7205297 0.7205297
0.0256853 0.0256853 0.0256853
0.0539762 0.0539762 0.0539762
0.0909629 0.0909629 0.0909629
0.1457002 0.1457002 0.1457002
0.1854095 0.1854095 0.1854095
0.1941478 0.1941478 0.1941478
0.2016539 0.2016539 0.2016539
0.2061061 0.2061061 0.2061061
0.2088853 0.2088853 0.2088853
0.1027594 0.1027594 0.1027594
0.1189426 0.1189426 0.1189426
0.1765400 0.1765400 0.1765400
0.2362010 0.2362010 0.2362010
0.2761315 0.2761315 0.2761315
0.2849047 0.2849047 0.2849047
0.2924392 0.2924392 0.2924392
0.2969117 0.2969117 0.2969117
0.2997009 0.2997009 0.2997009
0.1855234 0.1855234 0.1855234
0.2123676 0.2123676 0.2123676
0.2483174 0.2483174 0.2483174
0.3095795 0.3095795 0.3095795
0.3493815 0.3493815 0.3493815
0.3581611 0.3581611 0.3581611
0.3657037 0.3657037 0.3657037
0.3701873 0.3701873 0.3701873
0.3729806 0.3729806 0.3729806
0.3257875 0.3257875 0.3257875
0.3580373 0.3580373 0.3580373
0.3861568 0.3861568 0.3861568
0.4334176 0.4334176 0.4334176
0.4735901 0.4735901 0.4735901
0.4824225 0.4824225 0.4824225
0.4900066 0.4900066 0.4900066
0.4945189 0.4945189 0.4945189
0.4973257 0.4973257 0.4973257
0.4653652 0.4653652 0.4653652
0.4969326 0.4969326 0.4969326
0.5231867 0.5231867 0.5231867
0.5662012 0.5662012 0.5662012
0.6022392 0.6022392 0.6022392
0.6114695 0.6114695 0.6114695
0.6193516 0.6193516 0.6193516
0.6240208 0.6240208 0.6240208
0.6269216 0.6269216 0.6269216
0.5164919 0.5164919 0.5164919
0.5478320 0.5478320 0.5478320
0.5736869 0.5736869 0.5736869
0.6164479 0.6164479 0.6164479
0.6508324 0.6508324 0.6508324
0.6594066 0.6594066 0.6594066
0.6674377 0.6674377 0.6674377
0.6721877 0.6721877 0.6721877
0.6751374 0.6751374 0.6751374
0.5431281 0.5431281 0.5431281
0.5743665 0.5743665 0.5743665
0.6000496 0.6000496 0.6000496
0.6426830 0.6426830 0.6426830
0.6772403 0.6772403 0.6772403
0.6851015 0.6851015 0.6851015
0.6925633 0.6925633 0.6925633
0.6973568 0.6973568 0.6973568
0.7003329 0.7003329 0.7003329
0.5610839 0.5610839 0.5610839
0.5922787 0.5922787 0.5922787
0.6178823 0.6178823 0.6178823
0.6604499 0.6604499 0.6604499
0.6950960 0.6950960 0.6950960
0.7029860 0.7029860 0.7029860
0.7098081 0.7098081 0.7098081
0.7143859 0.7143859 0.7143859
0.7173790 0.7173790 0.7173790
0.5747474 0.5747474 0.5747474
0.6059067 0.6059067 0.6059067
0.6314485 0.6314485 0.6314485
0.6739638 0.6739638 0.6739638
0.7086757 0.7086757 0.7086757
0.7165871 0.7165871 0.7165871
0.7234277 0.7234277 0.7234277
0.7275103 0.7275103 0.7275103
0.7303510 0.7303510 0.7303510
0.0478952 0.0478952 0.0478952
0.0742657 0.0742657 0.0742657
0.1058867 0.1058867 0.1058867
0.1568105 0.1568105 0.1568105
0.1951616 0.1951616 0.1951616
0.2037082 0.2037082 0.2037082
0.2110691 0.2110691 0.2110691
0.2154465 0.2154465 0.2154465
0.2181790 0.2181790 0.2181790
0.1235101 0.1235101 0.1235101
0.1621238 0.1621238 0.1621238
0.1924092 0.1924092 0.1924092
0.2474447 0.2474447 0.2474447
0.2856970 0.2856970 0.2856970
0.2942425 0.2942425 0.2942425
0.3016057 0.3016057 0.3016057
0.3059913 0.3059913 0.3059913
0.3087260 0.3087260 0.3087260
0.2015568 0.2015568 0.2015568
0.2341094 0.2341094 0.2341094
0.2719026 0.2719026 0.2719026
0.3325946 0.3325946 0.3325946
0.3710097 0.3710097 0.3710097
0.3796969 0.3796969 0.3796969
0.3871775 0.3871775 0.3871775
0.3916446 0.3916446 0.3916446
0.3944219 0.3944219 0.3944219
0.3376285 0.3376285 0.3376285
0.3703029 0.3703029 0.3703029
0.4070773 0.4070773 0.4070773
0.4543304 0.4543304 0.4543304
0.4941792 0.4941792 0.4941792
0.5031556 0.5031556 0.5031556
0.5108680 0.5108680 0.5108680
0.5154815 0.5154815 0.5154815
0.5183387 0.5183387 0.5183387
0.4754119 0.4754119 0.4754119
0.5068760 0.5068760 0.5068760
0.5393955 0.5393955 0.5393955
0.5808509 0.5808509 0.5808509
0.6151563 0.6151563 0.6151563
0.6250880 0.6250880 0.6250880
0.6335067 0.6335067 0.6335067
0.6384788 0.6384788 0.6384788
0.6415532 0.6415532 0.6415532
0.5261453 0.5261453 0.5261453
0.5572745 0.5572745 0.5572745
0.5891136 0.5891136 0.5891136
0.6301971 0.6301971 0.6301971
0.6615030 0.6615030 0.6615030
0.6701264 0.6701264 0.6701264
0.6788928 0.6788928 0.6788928
0.6840475 0.6840475 0.6840475
0.6872329 0.6872329 0.6872329
0.5526085 0.5526085 0.5526085
0.5835922 0.5835922 0.5835922
0.6151534 0.6151534 0.6151534
0.6560430 0.6560430 0.6560430
0.6878442 0.6878442 0.6878442
0.6950058 0.6950058 0.6950058
0.7026033 0.7026033 0.7026033
0.7078566 0.7078566 0.7078566
0.7111016 0.7111016 0.7111016
0.5704751 0.5704751 0.5704751
0.6013976 0.6013976 0.6013976
0.6328566 0.6328566 0.6328566
0.6736565 0.6736565 0.6736565
0.7056790 0.7056790 0.7056790
0.7129085 0.7129085 0.7129085
0.7191770 0.7191770 0.7191770
0.7239816 0.7239816 0.7239816
0.7272638 0.7272638 0.7272638
0.5840712 0.5840712 0.5840712
0.6149440 0.6149440 0.6149440
0.6463174 0.6463174 0.6463174
0.6870445 0.6870445 0.6870445
0.7192338 0.7192338 0.7192338
0.7265141 0.7265141 0.7265141
0.7328259 0.7328259 0.7328259
0.7365980 0.7365980 0.7365980
0.7395630 0.7395630 0.7395630
0.0740021 0.0740021 0.0740021
0.0992530 0.0992530 0.0992530
0.1273032 0.1273032 0.1273032
0.1737300 0.1737300 0.1737300
0.2104883 0.2104883 0.2104883
0.2188057 0.2188057 0.2188057
0.2259902 0.2259902 0.2259902
0.2302750 0.2302750 0.2302750
0.2329499 0.2329499 0.2329499
0.1486751 0.1486751 0.1486751
0.1923803 0.1923803 0.1923803
0.2196258 0.2196258 0.2196258
0.2633405 0.2633405 0.2633405
0.3003261 0.3003261 0.3003261
0.3086696 0.3086696 0.3086696
0.3158740 0.3158740 0.3158740
0.3201743 0.3201743 0.3201743
0.3228556 0.3228556 0.3228556
0.2239769 0.2239769 0.2239769
0.2658713 0.2658713 0.2658713
0.3064019 0.3064019 0.3064019
0.3478057 0.3478057 0.3478057
0.3851208 0.3851208 0.3851208
0.3935401 0.3935401 0.3935401
0.4008100 0.4008100 0.4008100
0.4051620 0.4051620 0.4051620
0.4078674 0.4078674 0.4078674
0.3554459 0.3554459 0.3554459
0.3898235 0.3898235 0.3898235
0.4282816 0.4282816 0.4282816
0.4909499 0.4909499 0.4909499
0.5205934 0.5205934 0.5205934
0.5291924 0.5291924 0.5291924
0.5366701 0.5366701 0.5366701
0.5412421 0.5412421 0.5412421
0.5440542 0.5440542 0.5440542
0.4910836 0.4910836 0.4910836
0.5217208 0.5217208 0.5217208
0.5538921 0.5538921 0.5538921
0.6058690 0.6058690 0.6058690
0.6357877 0.6357877 0.6357877
0.6453752 0.6453752 0.6453752
0.6537375 0.6537375 0.6537375
0.6588493 0.6588493 0.6588493
0.6619847 0.6619847 0.6619847
0.5413540 0.5413540 0.5413540
0.5717356 0.5717356 0.5717356
0.6030082 0.6030082 0.6030082
0.6508563 0.6508563 0.6508563
0.6767987 0.6767987 0.6767987
0.6846151 0.6846151 0.6846151
0.6938817 0.6938817 0.6938817
0.6993994 0.6993994 0.6993994
0.7027878 0.7027878 0.7027878
0.5676102 0.5676102 0.5676102
0.5978675 0.5978675 0.5978675
0.6287442 0.6287442 0.6287442
0.6751669 0.6751669 0.6751669
0.7019459 0.7019459 0.7019459
0.7074309 0.7074309 0.7074309
0.7148135 0.7148135 0.7148135
0.7205797 0.7205797 0.7205797
0.7241170 0.7241170 0.7241170
0.5853666 0.5853666 0.5853666
0.6155694 0.6155694 0.6155694
0.6462813 0.6462813 0.6462813
0.6922978 0.6922978 0.6922978
0.7193287 0.7193287 0.7193287
0.7249996 0.7249996 0.7249996
0.7300618 0.7300618 0.7300618
0.7350359 0.7350359 0.7350359
0.7386498 0.7386498 0.7386498
0.5988790 0.5988790 0.5988790
0.6290370 0.6290370 0.6290370
0.6596154 0.6596154 0.6596154
0.7052896 0.7052896 0.7052896
0.7325348 0.7325348 0.7325348
0.7383488 0.7383488 0.7383488
0.7435319 0.7435319 0.7435319
0.7466587 0.7466587 0.7466587
0.7497091 0.7497091 0.7497091
0.0886127 0.0886127 0.0886127
0.1132583 0.1132583 0.1132583
0.1400585 0.1400585 0.1400585
0.1849315 0.1849315 0.1849315
0.2214755 0.2214755 0.2214755
0.2297918 0.2297918 0.2297918
0.2369767 0.2369767 0.2369767
0.2412627 0.2412627 0.2412627
0.2439381 0.2439381 0.2439381
0.1627604 0.1627604 0.1627604
0.2068319 0.2068319 0.2068319
0.2327774 0.2327774 0.2327774
0.2758064 0.2758064 0.2758064
0.3103901 0.3103901 0.3103901
0.3188087 0.3188087 0.3188087
0.3260896 0.3260896 0.3260896
0.3304277 0.3304277 0.3304277
0.3331325 0.3331325 0.3331325
0.2370763 0.2370763 0.2370763
0.2802072 0.2802072 0.2802072
0.3202614 0.3202614 0.3202614
0.3616523 0.3616523 0.3616523
0.3937014 0.3937014 0.3937014
0.4023554 0.4023554 0.4023554
0.4098434 0.4098434 0.4098434
0.4142957 0.4142957 0.4142957
0.4170647 0.4170647 0.4170647
0.3669130 0.3669130 0.3669130
0.4044825 0.4044825 0.4044825
0.4436718 0.4436718 0.4436718
0.4988889 0.4988889 0.4988889
0.5258373 0.5258373 0.5258373
0.5349934 0.5349934 0.5349934
0.5429758 0.5429758 0.5429758
0.5477351 0.5477351 0.5477351
0.5506745 0.5506745 0.5506745
0.5020861 0.5020861 0.5020861
0.5332313 0.5332313 0.5332313
0.5649982 0.5649982 0.5649982
0.6144567 0.6144567 0.6144567
0.6456812 0.6456812 0.6456812
0.6530119 0.6530119 0.6530119
0.6605009 0.6605009 0.6605009
0.6657456 0.6657456 0.6657456
0.6689918 0.6689918 0.6689918
0.5523406 0.5523406 0.5523406
0.5816833 0.5816833 0.5816833
0.6111536 0.6111536 0.6111536
0.6553403 0.6553403 0.6553403
0.6841214 0.6841214 0.6841214
0.6876662 0.6876662 0.6876662
0.6950284 0.6950284 0.6950284
0.7011186 0.7011186 0.7011186
0.7050657 0.7050657 0.7050657
0.5785959 0.5785959 0.5785959
0.6079270 0.6079270 0.6079270
0.6372462 0.6372462 0.6372462
0.6803488 0.6803488 0.6803488
0.7038151 0.7038151 0.7038151
0.7054229 0.7054229 0.7054229
0.7120195 0.7120195 0.7120195
0.7189951 0.7189951 0.7189951
0.7232989 0.7232989 0.7232989
0.5963535 0.5963535 0.5963535
0.6256813 0.6256813 0.6256813
0.6549257 0.6549257 0.6549257
0.6976207 0.6976207 0.6976207
0.7205836 0.7205836 0.7205836
0.7227435 0.7227435 0.7227435
0.7269573 0.7269573 0.7269573
0.7324008 0.7324008 0.7324008
0.7363686 0.7363686 0.7363686
0.6098668 0.6098668 0.6098668
0.6391886 0.6391886 0.6391886
0.6683700 0.6683700 0.6683700
0.7107486 0.7107486 0.7107486
0.7336803 0.7336803 0.7336803
0.7364112 0.7364112 0.7364112
0.7406079 0.7406079 0.7406079
0.7433398 0.7433398 0.7433398
0.7463144 0.7463144 0.7463144
0.0916831 0.0916831 0.0916831
0.1162332 0.1162332 0.1162332
0.1428462 0.1428462 0.1428462
0.1874815 0.1874815 0.1874815
0.2240216 0.2240216 0.2240216
0.2323493 0.2323493 0.2323493
0.2395440 0.2395440 0.2395440
0.2438359 0.2438359 0.2438359
0.2465149 0.2465149 0.2465149
0.1657478 0.1657478 0.1657478
0.2098809 0.2098809 0.2098809
0.2356445 0.2356445 0.2356445
0.2785311 0.2785311 0.2785311
0.3132813 0.3132813 0.3132813
0.3211871 0.3211871 0.3211871
0.3284630 0.3284630 0.3284630
0.3328166 0.3328166 0.3328166
0.3355309 0.3355309 0.3355309
0.2399149 0.2399149 0.2399149
0.2832625 0.2832625 0.2832625
0.3233541 0.3233541 0.3233541
0.3645971 0.3645971 0.3645971
0.3970852 0.3970852 0.3970852
0.4044297 0.4044297 0.4044297
0.4118989 0.4118989 0.4118989
0.4163852 0.4163852 0.4163852
0.4191754 0.4191754 0.4191754
0.3695036 0.3695036 0.3695036
0.4075864 0.4075864 0.4075864
0.4470633 0.4470633 0.4470633
0.5022914 0.5022914 0.5022914
0.5301953 0.5301953 0.5301953
0.5361982 0.5361982 0.5361982
0.5441762 0.5441762 0.5441762
0.5490302 0.5490302 0.5490302
0.5520299 0.5520299 0.5520299
0.5046226 0.5046226 0.5046226
0.5367295 0.5367295 0.5367295
0.5693320 0.5693320 0.5693320
0.6189884 0.6189884 0.6189884
0.6486291 0.6486291 0.6486291
0.6517661 0.6517661 0.6517661
0.6596706 0.6596706 0.6596706
0.6651991 0.6651991 0.6651991
0.6686374 0.6686374 0.6686374
0.5548925 0.5548925 0.5548925
0.5847069 0.5847069 0.5847069
0.6145165 0.6145165 0.6145165
0.6585245 0.6585245 0.6585245
0.6834071 0.6834071 0.6834071
0.6844238 0.6844238 0.6844238
0.6916438 0.6916438 0.6916438
0.6986030 0.6986030 0.6986030
0.7031799 0.7031799 0.7031799
0.5811581 0.5811581 0.5811581
0.6102542 0.6102542 0.6102542
0.6391433 0.6391433 0.6391433
0.6810207 0.6810207 0.6810207
0.7009818 0.7009818 0.7009818
0.7001434 0.7001434 0.7001434
0.7071338 0.7071338 0.7071338
0.7156006 0.7156006 0.7156006
0.7206934 0.7206934 0.7206934
0.5989226 0.5989226 0.5989226
0.6280289 0.6280289 0.6280289
0.6568724 0.6568724 0.6568724
0.6984425 0.6984425 0.6984425
0.7182369 0.7182369 0.7182369
0.7184694 0.7184694 0.7184694
0.7227960 0.7227960 0.7227960
0.7289596 0.7289596 0.7289596
0.7333296 0.7333296 0.7333296
0.6124413 0.6124413 0.6124413
0.6415517 0.6415517 0.6415517
0.6703544 0.6703544 0.6703544
0.7116875 0.7116875 0.7116875
0.7318550 0.7318550 0.7318550
0.7331370 0.7331370 0.7331370
0.7371950 0.7371950 0.7371950
0.7399183 0.7399183 0.7399183
0.7429456 0.7429456 0.7429456
0.0941839 0.0941839 0.0941839
0.1186652 0.1186652 0.1186652
0.1451437 0.1451437 0.1451437
0.1896056 0.1896056 0.1896056
0.2261439 0.2261439 0.2261439
0.2344811 0.2344811 0.2344811
0.2416842 0.2416842 0.2416842
0.2459811 0.2459811 0.2459811
0.2486633 0.2486633 0.2486633
0.1681887 0.1681887 0.1681887
0.2123713 0.2123713 0.2123713
0.2380068 0.2380068 0.2380068
0.2807874 0.2807874 0.2807874
0.3156559 0.3156559 0.3156559
0.3235989 0.3235989 0.3235989
0.3304657 0.3304657 0.3304657
0.3348129 0.3348129 0.3348129
0.3375351 0.3375351 0.3375351
0.2422491 0.2422491 0.2422491
0.2857637 0.2857637 0.2857637
0.3258986 0.3258986 0.3258986
0.3670319 0.3670319 0.3670319
0.3998192 0.3998192 0.3998192
0.4072460 0.4072460 0.4072460
0.4136782 0.4136782 0.4136782
0.4181441 0.4181441 0.4181441
0.4209512 0.4209512 0.4209512
0.3716578 0.3716578 0.3716578
0.4101275 0.4101275 0.4101275
0.4498453 0.4498453 0.4498453
0.5051703 0.5051703 0.5051703
0.5336918 0.5336918 0.5336918
0.5399210 0.5399210 0.5399210
0.5453838 0.5453838 0.5453838
0.5501969 0.5501969 0.5501969
0.5532436 0.5532436 0.5532436
0.5067368 0.5067368 0.5067368
0.5395536 0.5395536 0.5395536
0.5727772 0.5727772 0.5727772
0.6228091 0.6228091 0.6228091
0.6520588 0.6520588 0.6520588
0.6559177 0.6559177 0.6559177
0.6601612 0.6601612 0.6601612
0.6656395 0.6656395 0.6656395
0.6691127 0.6691127 0.6691127
0.5570198 0.5570198 0.5570198
0.5876731 0.5876731 0.5876731
0.6182875 0.6182875 0.6182875
0.6631772 0.6631772 0.6631772
0.6869315 0.6869315 0.6869315
0.6882587 0.6882587 0.6882587
0.6924452 0.6924452 0.6924452
0.6990880 0.6990880 0.6990880
0.7032124 0.7032124 0.7032124
0.5832940 0.5832940 0.5832940
0.6128161 0.6128161 0.6128161
0.6420635 0.6420635 0.6420635
0.6842307 0.6842307 0.6842307
0.7040765 0.7040765 0.7040765
0.7039861 0.7039861 0.7039861
0.7081005 0.7081005 0.7081005
0.7153381 0.7153381 0.7153381
0.7191306 0.7191306 0.7191306
0.6010644 0.6010644 0.6010644
0.6299921 0.6299921 0.6299921
0.6585190 0.6585190 0.6585190
0.6992939 0.6992939 0.6992939
0.7186920 0.7186920 0.7186920
0.7192471 0.7192471 0.7192471
0.7220928 0.7220928 0.7220928
0.7264488 0.7264488 0.7264488
0.7289425 0.7289425 0.7289425
0.6145876 0.6145876 0.6145876
0.6435276 0.6435276 0.6435276
0.6720314 0.6720314 0.6720314
0.7126322 0.7126322 0.7126322
0.7322188 0.7322188 0.7322188
0.7335131 0.7335131 0.7335131
0.7346337 0.7346337 0.7346337
0.7352821 0.7352821 0.7352821
0.7362902 0.7362902 0.7362902
0.0957082 0.0957082 0.0957082
0.1201520 0.1201520 0.1201520
0.1465574 0.1465574 0.1465574
0.1909235 0.1909235 0.1909235
0.2274616 0.2274616 0.2274616
0.2358047 0.2358047 0.2358047
0.2430130 0.2430130 0.2430130
0.2473130 0.2473130 0.2473130
0.2499973 0.2499973 0.2499973
0.1696804 0.1696804 0.1696804
0.2138949 0.2138949 0.2138949
0.2394632 0.2394632 0.2394632
0.2821845 0.2821845 0.2821845
0.3171166 0.3171166 0.3171166
0.3250811 0.3250811 0.3250811
0.3319664 0.3319664 0.3319664
0.3360754 0.3360754 0.3360754
0.3387808 0.3387808 0.3387808
0.2436828 0.2436828 0.2436828
0.2872987 0.2872987 0.2872987
0.3274723 0.3274723 0.3274723
0.3685440 0.3685440 0.3685440
0.4014849 0.4014849 0.4014849
0.4089576 0.4089576 0.4089576
0.4154291 0.4154291 0.4154291
0.4192948 0.4192948 0.4192948
0.4220577 0.4220577 0.4220577
0.3729927 0.3729927 0.3729927
0.4116898 0.4116898 0.4116898
0.4515688 0.4515688 0.4515688
0.5070233 0.5070233 0.5070233
0.5358218 0.5358218 0.5358218
0.5421685 0.5421685 0.5421685
0.5477319 0.5477319 0.5477319
0.5510721 0.5510721 0.5510721
0.5540105 0.5540105 0.5540105
0.5080494 0.5080494 0.5080494
0.5412718 0.5412718 0.5412718
0.5748552 0.5748552 0.5748552
0.6252377 0.6252377 0.6252377
0.6548401 0.6548401 0.6548401
0.6590187 0.6590187 0.6590187
0.6634613 0.6634613 0.6634613
0.6662536 0.6662536 0.6662536
0.6694539 0.6694539 0.6694539
0.5583405 0.5583405 0.5583405
0.5894717 0.5894717 0.5894717
0.6205453 0.6205453 0.6205453
0.6660077 0.6660077 0.6660077
0.6906057 0.6906057 0.6906057
0.6928816 0.6928816 0.6928816
0.6970692 0.6970692 0.6970692
0.6999023 0.6999023 0.6999023
0.7032738 0.7032738 0.7032738
0.5846200 0.5846200 0.5846200
0.6146582 0.6146582 0.6146582
0.6444181 0.6444181 0.6444181
0.6873046 0.6873046 0.6873046
0.7085950 0.7085950 0.7085950
0.7100532 0.7100532 0.7100532
0.7133934 0.7133934 0.7133934
0.7155402 0.7155402 0.7155402
0.7180824 0.7180824 0.7180824
0.6023942 0.6023942 0.6023942
0.6316988 0.6316988 0.6316988
0.6605850 0.6605850 0.6605850
0.7018303 0.7018303 0.7018303
0.7219641 0.7219641 0.7219641
0.7233266 0.7233266 0.7233266
0.7244633 0.7244633 0.7244633
0.7250661 0.7250661 0.7250661
0.7261771 0.7261771 0.7261771
0.6159203 0.6159203 0.6159203
0.6447561 0.6447561 0.6447561
0.6730787 0.6730787 0.6730787
0.7132458 0.7132458 0.7132458
0.7325871 0.7325871 0.7325871
0.7339139 0.7339139 0.7339139
0.7330667 0.7330667 0.7330667
0.7323742 0.7323742 0.7323742
0.7322102 0.7322102 0.7322102
0.0965242 0.0965242 0.0965242
0.1209478 0.1209478 0.1209478
0.1473142 0.1473142 0.1473142
0.1916290 0.1916290 0.1916290
0.2281669 0.2281669 0.2281669
0.2365132 0.2365132 0.2365132
0.2437243 0.2437243 0.2437243
0.2480260 0.2480260 0.2480260
0.2507113 0.2507113 0.2507113
0.1704789 0.1704789 0.1704789
0.2147081 0.2147081 0.2147081
0.2402394 0.2402394 0.2402394
0.2829281 0.2829281 0.2829281
0.3178939 0.3178939 0.3178939
0.3258695 0.3258695 0.3258695
0.3327646 0.3327646 0.3327646
0.3368791 0.3368791 0.3368791
0.3394476 0.3394476 0.3394476
0.2444503 0.2444503 0.2444503
0.2881155 0.2881155 0.2881155
0.3283039 0.3283039 0.3283039
0.3693410 0.3693410 0.3693410
0.4023636 0.4023636 0.4023636
0.4098607 0.4098607 0.4098607
0.4163527 0.4163527 0.4163527
0.4202298 0.4202298 0.4202298
0.4226500 0.4226500 0.4226500
0.3737072 0.3737072 0.3737072
0.4125176 0.4125176 0.4125176
0.4524713 0.4524713 0.4524713
0.5079752 0.5079752 0.5079752
0.5369279 0.5369279 0.5369279
0.5433380 0.5433380 0.5433380
0.5489534 0.5489534 0.5489534
0.5523197 0.5523197 0.5523197
0.5544210 0.5544210 0.5544210
0.5087520 0.5087520 0.5087520
0.5421799 0.5421799 0.5421799
0.5759419 0.5759419 0.5759419
0.6264858 0.6264858 0.6264858
0.6562935 0.6562935 0.6562935
0.6606547 0.6606547 0.6606547
0.6651522 0.6651522 0.6651522
0.6679131 0.6679131 0.6679131
0.6696366 0.6696366 0.6696366
0.5590475 0.5590475 0.5590475
0.5904216 0.5904216 0.5904216
0.6217258 0.6217258 0.6217258
0.6674704 0.6674704 0.6674704
0.6926771 0.6926771 0.6926771
0.6955314 0.6955314 0.6955314
0.6993837 0.6993837 0.6993837
0.7017990 0.7017990 0.7017990
0.7033067 0.7033067 0.7033067
0.5853298 0.5853298 0.5853298
0.6156306 0.6156306 0.6156306
0.6456490 0.6456490 0.6456490
0.6888929 0.6888929 0.6888929
0.7109619 0.7109619 0.7109619
0.7131316 0.7131316 0.7131316
0.7154380 0.7154380 0.7154380
0.7167207 0.7167207 0.7167207
0.7175213 0.7175213 0.7175213
0.6031061 0.6031061 0.6031061
0.6326859 0.6326859 0.6326859
0.6618473 0.6618473 0.6618473
0.7034838 0.7034838 0.7034838
0.7240522 0.7240522 0.7240522
0.7257927 0.7257927 0.7257927
0.7253962 0.7253962 0.7253962
0.7249718 0.7249718 0.7249718
0.7246890 0.7246890 0.7246890
0.6166337 0.6166337 0.6166337
0.6456647 0.6456647 0.6456647
0.6741740 0.6741740 0.6741740
0.7145873 0.7145873 0.7145873
0.7340137 0.7340137 0.7340137
0.7354276 0.7354276 0.7354276
0.7328411 0.7328411 0.7328411
0.7311175 0.7311175 0.7311175
0.7300437 0.7300437 0.7300437
