presets/film/film-matte/look.cube
# Approximate v0 colour conversion; calibrate before claiming visual parity.
LUT_3D_SIZE 33
DOMAIN_MIN 0 0 0
DOMAIN_MAX 1 1 1
0.0949980 0.0975990 0.0978460
0.1139337 0.0916143 0.0903968
0.1328695 0.0856296 0.0829477
0.1453193 0.0755271 0.0749807
0.1577510 0.0654131 0.0670122
0.1774203 0.0586413 0.0591565
0.1971299 0.0518882 0.0513014
0.2236836 0.0470731 0.0454239
0.2502947 0.0422743 0.0395630
0.2804579 0.0392224 0.0352936
0.3106610 0.0361901 0.0310420
0.3416416 0.0342228 0.0272739
0.3726331 0.0322705 0.0235126
0.4032775 0.0313022 0.0200017
0.4339160 0.0303505 0.0164951
0.4632903 0.0301592 0.0131559
0.4926396 0.0299829 0.0098200
0.5206003 0.0304711 0.0067556
0.5485296 0.0309744 0.0036974
0.5748742 0.0319480 0.0018582
0.6011782 0.0329337 0.0000502
0.6261700 0.0339402 0.0000000
0.6511244 0.0349473 0.0000000
0.6756141 0.0356741 0.0000000
0.7000891 0.0363921 0.0000000
0.7247404 0.0365507 0.0000000
0.7493976 0.0366900 0.0000000
0.7747899 0.0362156 0.0000000
0.8002096 0.0357183 0.0000000
0.8270734 0.0348222 0.0000000
0.8539956 0.0339100 0.0000000
0.8828983 0.0332332 0.0000000
0.9118871 0.0325666 0.0000000
0.0859440 0.1134766 0.0905075
0.1103567 0.1136606 0.0896340
0.1347694 0.1138446 0.0887604
0.1464611 0.1022179 0.0813454
0.1581173 0.0905584 0.0739122
0.1772687 0.0838278 0.0641107
0.1964619 0.0771248 0.0542960
0.2231398 0.0732043 0.0479146
0.2498806 0.0693072 0.0415621
0.2806428 0.0670562 0.0372978
0.3114501 0.0648237 0.0330568
0.3426028 0.0630697 0.0291097
0.3737605 0.0613225 0.0251667
0.4045675 0.0604351 0.0214699
0.4353687 0.0595623 0.0177773
0.4648154 0.0593727 0.0142612
0.4942354 0.0591967 0.0107485
0.5222077 0.0596418 0.0076021
0.5501471 0.0601010 0.0044640
0.5763902 0.0610045 0.0022506
0.6025898 0.0619195 0.0000608
0.6275177 0.0628515 0.0000000
0.6524094 0.0637840 0.0000000
0.6767885 0.0644379 0.0000000
0.7011515 0.0650830 0.0000000
0.7257187 0.0652432 0.0000000
0.7502929 0.0653867 0.0000000
0.7756303 0.0649302 0.0000000
0.8009962 0.0644512 0.0000000
0.8278134 0.0635589 0.0000000
0.8546892 0.0626499 0.0000000
0.8835751 0.0619939 0.0000000
0.9125482 0.0613489 0.0000000
0.0768900 0.1293541 0.0831691
0.1067797 0.1357069 0.0888711
0.1366694 0.1420596 0.0945731
0.1476029 0.1289087 0.0877101
0.1584836 0.1157036 0.0808122
0.1771171 0.1090143 0.0690649
0.1957939 0.1023613 0.0572906
0.2225961 0.0993355 0.0504054
0.2494665 0.0963400 0.0435612
0.2808276 0.0948900 0.0393019
0.3122391 0.0934574 0.0350717
0.3435641 0.0919167 0.0309454
0.3748878 0.0903745 0.0268207
0.4058576 0.0895680 0.0229381
0.4368214 0.0887740 0.0190595
0.4663406 0.0885863 0.0153664
0.4958312 0.0884105 0.0116770
0.5238150 0.0888124 0.0084486
0.5517646 0.0892275 0.0052307
0.5779061 0.0900611 0.0026430
0.6040014 0.0909054 0.0000713
0.6288655 0.0917629 0.0000000
0.6536944 0.0926207 0.0000000
0.6779629 0.0932016 0.0000000
0.7022139 0.0937739 0.0000000
0.7266970 0.0939357 0.0000000
0.7511882 0.0940835 0.0000000
0.7764707 0.0936448 0.0000000
0.8017829 0.0931842 0.0000000
0.8285534 0.0922957 0.0000000
0.8553828 0.0913899 0.0000000
0.8842518 0.0907547 0.0000000
0.9132093 0.0901313 0.0000000
0.0648007 0.1424270 0.0757582
0.0919656 0.1431152 0.0809020
0.1191305 0.1438033 0.0860459
0.1328508 0.1329680 0.0814848
0.1465337 0.1221006 0.0768966
0.1679708 0.1203362 0.0665315
0.1894512 0.1186227 0.0561341
0.2180172 0.1183387 0.0500302
0.2466425 0.1180666 0.0439623
0.2794431 0.1182810 0.0404619
0.3122905 0.1185009 0.0369904
0.3445608 0.1177008 0.0329446
0.3768230 0.1168863 0.0288906
0.4083429 0.1162662 0.0247872
0.4398502 0.1156493 0.0206828
0.4696437 0.1155017 0.0167068
0.4994032 0.1153633 0.0127333
0.5272908 0.1157210 0.0092460
0.5551359 0.1160899 0.0057698
0.5810951 0.1168261 0.0029163
0.6070060 0.1175716 0.0000787
0.6316875 0.1183528 0.0000000
0.6563339 0.1191351 0.0000000
0.6805309 0.1196734 0.0000000
0.7047138 0.1202040 0.0000000
0.7290603 0.1203553 0.0000000
0.7534125 0.1204936 0.0000000
0.7786101 0.1201081 0.0000000
0.8038393 0.1197030 0.0000000
0.8305453 0.1189539 0.0000000
0.8573110 0.1181909 0.0000000
0.8861504 0.1176346 0.0000000
0.9150799 0.1170873 0.0000000
0.0526685 0.1554604 0.0683462
0.0769929 0.1503170 0.0728313
0.1013173 0.1451736 0.0773165
0.1178745 0.1367079 0.0750818
0.1344101 0.1282330 0.0728283
0.1586977 0.1314626 0.0638924
0.1830285 0.1347575 0.0549192
0.2133813 0.1372413 0.0496146
0.2437845 0.1397183 0.0443408
0.2780364 0.1416093 0.0416100
0.3123315 0.1434939 0.0389078
0.3455581 0.1434417 0.0349460
0.3787695 0.1433624 0.0309665
0.4108450 0.1429300 0.0266416
0.4429012 0.1424916 0.0223109
0.4729718 0.1423846 0.0180504
0.5030031 0.1422842 0.0137913
0.5307930 0.1425976 0.0100426
0.5585319 0.1429205 0.0063056
0.5843077 0.1435588 0.0031879
0.6100332 0.1442051 0.0000861
0.6345304 0.1449101 0.0000000
0.6589926 0.1456167 0.0000000
0.6831186 0.1461128 0.0000000
0.7072340 0.1466023 0.0000000
0.7314431 0.1467429 0.0000000
0.7556554 0.1468715 0.0000000
0.7807677 0.1465396 0.0000000
0.8059136 0.1461906 0.0000000
0.8325549 0.1455828 0.0000000
0.8592567 0.1449647 0.0000000
0.8880663 0.1444880 0.0000000
0.9169675 0.1440175 0.0000000
0.0428357 0.1752573 0.0611534
0.0671789 0.1698723 0.0642946
0.0915221 0.1644874 0.0674357
0.1083049 0.1540242 0.0675308
0.1250666 0.1435468 0.0676174
0.1491314 0.1454906 0.0610090
0.1732368 0.1475038 0.0543633
0.2067192 0.1536192 0.0486901
0.2402803 0.1597691 0.0430250
0.2763538 0.1634841 0.0406167
0.3124554 0.1671718 0.0382449
0.3471584 0.1678275 0.0347437
0.3818418 0.1684406 0.0312265
0.4148148 0.1684593 0.0272523
0.4477588 0.1684680 0.0232704
0.4779772 0.1685863 0.0189398
0.5081416 0.1687067 0.0146024
0.5358766 0.1690648 0.0106234
0.5635565 0.1694283 0.0066525
0.5890402 0.1699225 0.0033629
0.6144677 0.1704201 0.0000908
0.6387515 0.1710823 0.0000000
0.6630028 0.1717492 0.0000000
0.6869726 0.1722322 0.0000000
0.7109336 0.1727095 0.0000000
0.7350788 0.1728552 0.0000000
0.7592303 0.1729896 0.0000000
0.7843200 0.1726994 0.0000000
0.8094448 0.1723933 0.0000000
0.8360695 0.1718352 0.0000000
0.8627547 0.1712668 0.0000000
0.8915348 0.1708481 0.0000000
0.9204058 0.1704359 0.0000000
0.0330686 0.1952477 0.0539669
0.0575125 0.1897812 0.0557444
0.0819564 0.1843147 0.0575220
0.0988900 0.1717290 0.0599470
0.1158027 0.1591234 0.0623738
0.1395566 0.1596017 0.0581187
0.1633487 0.1601530 0.0538263
0.1999992 0.1699249 0.0477510
0.2367576 0.1797741 0.0416607
0.2746632 0.1853173 0.0395620
0.3125817 0.1908121 0.0375081
0.3487761 0.1921746 0.0344782
0.3849463 0.1934789 0.0314347
0.4188266 0.1939562 0.0278274
0.4526681 0.1944196 0.0242107
0.4830306 0.1947684 0.0198163
0.5133242 0.1951150 0.0154064
0.5410056 0.1955203 0.0111979
0.5686277 0.1959269 0.0069940
0.5938162 0.1962757 0.0035352
0.6189425 0.1966230 0.0000954
0.6430121 0.1972435 0.0000000
0.6670516 0.1978717 0.0000000
0.6908628 0.1983425 0.0000000
0.7146669 0.1988083 0.0000000
0.7387503 0.1989597 0.0000000
0.7628433 0.1991002 0.0000000
0.7879123 0.1988514 0.0000000
0.8130177 0.1985880 0.0000000
0.8396271 0.1980767 0.0000000
0.8662972 0.1975555 0.0000000
0.8950477 0.1971941 0.0000000
0.9238884 0.1968397 0.0000000
0.0266366 0.2205969 0.0479053
0.0520443 0.2160716 0.0490868
0.0774520 0.2115463 0.0502683
0.0971111 0.2020501 0.0518774
0.1167542 0.1925400 0.0534877
0.1404815 0.1911752 0.0512669
0.1642315 0.1898559 0.0490247
0.1989552 0.1971797 0.0444967
0.2337711 0.2045761 0.0399496
0.2721701 0.2105689 0.0373849
0.3106094 0.2165459 0.0348425
0.3469913 0.2179425 0.0312830
0.3833442 0.2192747 0.0277092
0.4188012 0.2199313 0.0246667
0.4542430 0.2205763 0.0216333
0.4858868 0.2210477 0.0179664
0.5174555 0.2215156 0.0142869
0.5452857 0.2221781 0.0102670
0.5730310 0.2228450 0.0062394
0.5981678 0.2233283 0.0031502
0.6232377 0.2238069 0.0000850
0.6471589 0.2244264 0.0000000
0.6710472 0.2250500 0.0000000
0.6947782 0.2254948 0.0000000
0.7185041 0.2259340 0.0000000
0.7426138 0.2260632 0.0000000
0.7667367 0.2261816 0.0000000
0.7919193 0.2259477 0.0000000
0.8171416 0.2257005 0.0000000
0.8438864 0.2252542 0.0000000
0.8706928 0.2247998 0.0000000
0.8995078 0.2244770 0.0000000
0.9284100 0.2241599 0.0000000
0.0203498 0.2461795 0.0418926
0.0467589 0.2426400 0.0425116
0.0731680 0.2391004 0.0431305
0.0956647 0.2329207 0.0437867
0.1181506 0.2267336 0.0444429
0.1418636 0.2235093 0.0442425
0.1655834 0.2203014 0.0440373
0.1981585 0.2249115 0.0411417
0.2308079 0.2295871 0.0382234
0.2696421 0.2359694 0.0351590
0.3085458 0.2423709 0.0320929
0.3450583 0.2437724 0.0279602
0.3815372 0.2451036 0.0238124
0.4186000 0.2459271 0.0213433
0.4556727 0.2467420 0.0189027
0.4886474 0.2473312 0.0159978
0.5215409 0.2479159 0.0130837
0.5495288 0.2488447 0.0092706
0.5774053 0.2497814 0.0054371
0.6025009 0.2504114 0.0027410
0.6275252 0.2510335 0.0000740
0.6513007 0.2516539 0.0000000
0.6750405 0.2522742 0.0000000
0.6986946 0.2526925 0.0000000
0.7223459 0.2531045 0.0000000
0.7464857 0.2532102 0.0000000
0.7706423 0.2533053 0.0000000
0.7959444 0.2530851 0.0000000
0.8212895 0.2528531 0.0000000
0.8481763 0.2524724 0.0000000
0.8751255 0.2520856 0.0000000
0.9040091 0.2518006 0.0000000
0.9329768 0.2515199 0.0000000
0.0162196 0.2748606 0.0366414
0.0433880 0.2720596 0.0369587
0.0705563 0.2692586 0.0372759
0.0946395 0.2645962 0.0375260
0.1187142 0.2599286 0.0377758
0.1435363 0.2572387 0.0374861
0.1683625 0.2545598 0.0371933
0.1999071 0.2577125 0.0352137
0.2315081 0.2609141 0.0332198
0.2686286 0.2657968 0.0302100
0.3058110 0.2706984 0.0271888
0.3422543 0.2721894 0.0230833
0.3786873 0.2736325 0.0189626
0.4155384 0.2744784 0.0162557
0.4523965 0.2753143 0.0135727
0.4862268 0.2758854 0.0110534
0.5199972 0.2764513 0.0085373
0.5496684 0.2773225 0.0057706
0.5792467 0.2782007 0.0029982
0.6049199 0.2788222 0.0015030
0.6304930 0.2794371 0.0000406
0.6543854 0.2800309 0.0000000
0.6782299 0.2806241 0.0000000
0.7019950 0.2810524 0.0000000
0.7257576 0.2814754 0.0000000
0.7500177 0.2815495 0.0000000
0.7742949 0.2816115 0.0000000
0.7998571 0.2814787 0.0000000
0.8254674 0.2813386 0.0000000
0.8526069 0.2810724 0.0000000
0.8798082 0.2808011 0.0000000
0.9088239 0.2805444 0.0000000
0.9379183 0.2802882 0.0000000
0.0122164 0.3037244 0.0314351
0.0401298 0.3016473 0.0314660
0.0680432 0.2995703 0.0314969
0.0936391 0.2963191 0.0313731
0.1192286 0.2930647 0.0312488
0.1452261 0.2910503 0.0307455
0.1712258 0.2890428 0.0302400
0.2018058 0.2908122 0.0291341
0.2324242 0.2926132 0.0280231
0.2677043 0.2958850 0.0251006
0.3030366 0.2991733 0.0221577
0.3393991 0.3007589 0.0181149
0.3757760 0.3023205 0.0140567
0.4123082 0.3031803 0.0110641
0.4488430 0.3040283 0.0080895
0.4835010 0.3045734 0.0059336
0.5181217 0.3051125 0.0037938
0.5495663 0.3059070 0.0021230
0.5809388 0.3067074 0.0004629
0.6072261 0.3073112 0.0002163
0.6333831 0.3079100 0.0000058
0.6574079 0.3084756 0.0000000
0.6813718 0.3090403 0.0000000
0.7052591 0.3094807 0.0000000
0.7291440 0.3099172 0.0000000
0.7535296 0.3099591 0.0000000
0.7779325 0.3099874 0.0000000
0.8037631 0.3099463 0.0000000
0.8296471 0.3099026 0.0000000
0.8570458 0.3097539 0.0000000
0.8845057 0.3096008 0.0000000
0.9136571 0.3093718 0.0000000
0.9428820 0.3091395 0.0000000
0.0096742 0.3342610 0.0267902
0.0381245 0.3326360 0.0266900
0.0665748 0.3310109 0.0265898
0.0931241 0.3285119 0.0262678
0.1196681 0.3260105 0.0259452
0.1464540 0.3244071 0.0252459
0.1732412 0.3228087 0.0245445
0.2034379 0.3239278 0.0233316
0.2336632 0.3250697 0.0221143
0.2677522 0.3274433 0.0193872
0.3018846 0.3298307 0.0166430
0.3375054 0.3312203 0.0127609
0.3731472 0.3325959 0.0088627
0.4090881 0.3333870 0.0064989
0.4450342 0.3341682 0.0041610
0.4795545 0.3346480 0.0030006
0.5140466 0.3351218 0.0018636
0.5459302 0.3357761 0.0010057
0.5777547 0.3364344 0.0001541
0.6053740 0.3370424 0.0000682
0.6328856 0.3376490 0.0000018
0.6579671 0.3381814 0.0000000
0.6829793 0.3387115 0.0000000
0.7075272 0.3391225 0.0000000
0.7320605 0.3395296 0.0000000
0.7569068 0.3396276 0.0000000
0.7817639 0.3397149 0.0000000
0.8078369 0.3397069 0.0000000
0.8339554 0.3396954 0.0000000
0.8615406 0.3395919 0.0000000
0.8891850 0.3394847 0.0000000
0.9184521 0.3393062 0.0000000
0.9477896 0.3391247 0.0000000
0.0072411 0.3649228 0.0221872
0.0362128 0.3637293 0.0219675
0.0651845 0.3625359 0.0217478
0.0926454 0.3607398 0.0212408
0.1201020 0.3589420 0.0207329
0.1476474 0.3577298 0.0198391
0.1751933 0.3565209 0.0189431
0.2050501 0.3570446 0.0175498
0.2349263 0.3575828 0.0161523
0.2678729 0.3591114 0.0136286
0.3008538 0.3606511 0.0110923
0.3356837 0.3618231 0.0073780
0.3705395 0.3629900 0.0036472
0.4058688 0.3637062 0.0019805
0.4412062 0.3644148 0.0003487
0.4755168 0.3648263 0.0002312
0.5098071 0.3652319 0.0001436
0.5420300 0.3657411 0.0000775
0.5742060 0.3662527 0.0000119
0.6032111 0.3668664 0.0000053
0.6321349 0.3674828 0.0000001
0.6583422 0.3679814 0.0000000
0.6844721 0.3684766 0.0000000
0.7097208 0.3688550 0.0000000
0.7349419 0.3692297 0.0000000
0.7602739 0.3693903 0.0000000
0.7856097 0.3695436 0.0000000
0.8119232 0.3695642 0.0000000
0.8382733 0.3695799 0.0000000
0.8660395 0.3695164 0.0000000
0.8938630 0.3694496 0.0000000
0.9232442 0.3693234 0.0000000
0.9526930 0.3691947 0.0000000
0.0058297 0.3964210 0.0180275
0.0351690 0.3954888 0.0177505
0.0645083 0.3945566 0.0174736
0.0925843 0.3931576 0.0168674
0.1206568 0.3917573 0.0162603
0.1487370 0.3907727 0.0152372
0.1768172 0.3897904 0.0142118
0.2066140 0.3900458 0.0126555
0.2364252 0.3903116 0.0110948
0.2687027 0.3913710 0.0085483
0.3010079 0.3924394 0.0059906
0.3350601 0.3933540 0.0038681
0.3691368 0.3942664 0.0017517
0.4038070 0.3948732 0.0008737
0.4384873 0.3954748 0.0000166
0.4724512 0.3958775 0.0000000
0.5064008 0.3962764 0.0000000
0.5386413 0.3967086 0.0000000
0.5708430 0.3971415 0.0000000
0.6005102 0.3976885 0.0000000
0.6301125 0.3982383 0.0000000
0.6573414 0.3987289 0.0000000
0.6845025 0.3992179 0.0000000
0.7106286 0.3995978 0.0000000
0.7367222 0.3999743 0.0000000
0.7627084 0.4001615 0.0000000
0.7886909 0.4003421 0.0000000
0.8154165 0.4003834 0.0000000
0.8421700 0.4004196 0.0000000
0.8701685 0.4003712 0.0000000
0.8982173 0.4003193 0.0000000
0.9277187 0.4002218 0.0000000
0.9572831 0.4001222 0.0000000
0.0045114 0.4279954 0.0139081
0.0342042 0.4273089 0.0135796
0.0638970 0.4266223 0.0132511
0.0925612 0.4255927 0.0125535
0.1212225 0.4245621 0.0118549
0.1498171 0.4237900 0.0107085
0.1784113 0.4230195 0.0095597
0.2081736 0.4230364 0.0078421
0.2379456 0.4230600 0.0061198
0.2695972 0.4236845 0.0035297
0.3012700 0.4243158 0.0009299
0.3345456 0.4249693 0.0005287
0.3678438 0.4256231 0.0001585
0.4018507 0.4261173 0.0000775
0.4358695 0.4266089 0.0000015
0.4694740 0.4270083 0.0000000
0.5030704 0.4274059 0.0000000
0.5352991 0.4277672 0.0000000
0.5674969 0.4281278 0.0000000
0.5977603 0.4286014 0.0000000
0.6279743 0.4290779 0.0000000
0.6562152 0.4295628 0.0000000
0.6843998 0.4300480 0.0000000
0.7114193 0.4304327 0.0000000
0.7384022 0.4308142 0.0000000
0.7650579 0.4310245 0.0000000
0.7917024 0.4312289 0.0000000
0.8188558 0.4312902 0.0000000
0.8460282 0.4313462 0.0000000
0.8742637 0.4313107 0.0000000
0.9025421 0.4312715 0.0000000
0.9321642 0.4312004 0.0000000
0.9618447 0.4311278 0.0000000
0.0038873 0.4599265 0.0101630
0.0338283 0.4593872 0.0098076
0.0637693 0.4588480 0.0094521
0.0928426 0.4580338 0.0087038
0.1219135 0.4572189 0.0079544
0.1508855 0.4565783 0.0067364
0.1798569 0.4559386 0.0055158
0.2096959 0.4558601 0.0043140
0.2395422 0.4557862 0.0031123
0.2708731 0.4561797 0.0016780
0.3022206 0.4565784 0.0002412
0.3349430 0.4570540 0.0001123
0.3676847 0.4575306 0.0000018
0.4011253 0.4579324 0.0000000
0.4345778 0.4583329 0.0000000
0.4677961 0.4586944 0.0000000
0.5010099 0.4590552 0.0000000
0.5331573 0.4594077 0.0000000
0.5652806 0.4597601 0.0000000
0.5958560 0.4602119 0.0000000
0.6263918 0.4606663 0.0000000
0.6552738 0.4611379 0.0000000
0.6841085 0.4616099 0.0000000
0.7118317 0.4619877 0.0000000
0.7395200 0.4623625 0.0000000
0.7667972 0.4625746 0.0000000
0.7940602 0.4627811 0.0000000
0.8216674 0.4628433 0.0000000
0.8492875 0.4629001 0.0000000
0.8778027 0.4628658 0.0000000
0.9063541 0.4628279 0.0000000
0.9361117 0.4627664 0.0000000
0.9659217 0.4627039 0.0000000
0.0033381 0.4918961 0.0064583
0.0335159 0.4914935 0.0060785
0.0636936 0.4910908 0.0056988
0.0931567 0.4904756 0.0049042
0.1226179 0.4898597 0.0041085
0.1519525 0.4893418 0.0028243
0.1812864 0.4888244 0.0015375
0.2112143 0.4886657 0.0009245
0.2411471 0.4885100 0.0003171
0.2721901 0.4886944 0.0001680
0.3032456 0.4888826 0.0000242
0.3354387 0.4891893 0.0000112
0.3676479 0.4894976 0.0000002
0.4005328 0.4898090 0.0000000
0.4334291 0.4901205 0.0000000
0.4662584 0.4904405 0.0000000
0.4990864 0.4907605 0.0000000
0.5311450 0.4911110 0.0000000
0.5631862 0.4914622 0.0000000
0.5940429 0.4918977 0.0000000
0.6248693 0.4923355 0.0000000
0.6543523 0.4927929 0.0000000
0.6837970 0.4932508 0.0000000
0.7122034 0.4936205 0.0000000
0.7405771 0.4939873 0.0000000
0.7684706 0.4941989 0.0000000
0.7963475 0.4944052 0.0000000
0.8244113 0.4944662 0.0000000
0.8524822 0.4945217 0.0000000
0.8812818 0.4944874 0.0000000
0.9101108 0.4944495 0.0000000
0.9400054 0.4943958 0.0000000
0.9699463 0.4943415 0.0000000
0.0032311 0.5239615 0.0033780
0.0335751 0.5236417 0.0031643
0.0639191 0.5233219 0.0029506
0.0936572 0.5228270 0.0025038
0.1233935 0.5223316 0.0020563
0.1529962 0.5218949 0.0013348
0.1825980 0.5214585 0.0006117
0.2126390 0.5212781 0.0003058
0.2426837 0.5210999 0.0000034
0.2735987 0.5211853 0.0000000
0.3045233 0.5212736 0.0000000
0.3363857 0.5214865 0.0000000
0.3682613 0.5217012 0.0000000
0.4007422 0.5219589 0.0000000
0.4332334 0.5222173 0.0000000
0.4657409 0.5225166 0.0000000
0.4982487 0.5228167 0.0000000
0.5301867 0.5231718 0.0000000
0.5621116 0.5235281 0.0000000
0.5930917 0.5239603 0.0000000
0.6240476 0.5243944 0.0000000
0.6538926 0.5248390 0.0000000
0.6837059 0.5252839 0.0000000
0.7125963 0.5256391 0.0000000
0.7414577 0.5259914 0.0000000
0.7698416 0.5261910 0.0000000
0.7982090 0.5263853 0.0000000
0.8266744 0.5264345 0.0000000
0.8551436 0.5264782 0.0000000
0.8842141 0.5264363 0.0000000
0.9133090 0.5263908 0.0000000
0.9433390 0.5263365 0.0000000
0.9734097 0.5262817 0.0000000
0.0031795 0.5560389 0.0003759
0.0336809 0.5557952 0.0003521
0.0641824 0.5555515 0.0003283
0.0941809 0.5551671 0.0002786
0.1241781 0.5547822 0.0002288
0.1540369 0.5544216 0.0001485
0.1838948 0.5540611 0.0000681
0.2140521 0.5538664 0.0000340
0.2442118 0.5536730 0.0000004
0.2750187 0.5536731 0.0000000
0.3058328 0.5536754 0.0000000
0.3373892 0.5538040 0.0000000
0.3689562 0.5539344 0.0000000
0.4010521 0.5541429 0.0000000
0.4331570 0.5543527 0.0000000
0.4653511 0.5546341 0.0000000
0.4975471 0.5549168 0.0000000
0.5293603 0.5552773 0.0000000
0.5611647 0.5556396 0.0000000
0.5922484 0.5560700 0.0000000
0.6233136 0.5565021 0.0000000
0.6534907 0.5569342 0.0000000
0.6836424 0.5573662 0.0000000
0.7129920 0.5577060 0.0000000
0.7423163 0.5580430 0.0000000
0.7711747 0.5582291 0.0000000
0.8000172 0.5584100 0.0000000
0.8288774 0.5584461 0.0000000
0.8577382 0.5584767 0.0000000
0.8870780 0.5584261 0.0000000
0.9164371 0.5583722 0.0000000
0.9466025 0.5583161 0.0000000
0.9768028 0.5582598 0.0000000
0.0033828 0.5880811 0.0000000
0.0339953 0.5878845 0.0000000
0.0646077 0.5876878 0.0000000
0.0947906 0.5873735 0.0000000
0.1249723 0.5870589 0.0000000
0.1550192 0.5867530 0.0000000
0.1850654 0.5864471 0.0000000
0.2153292 0.5862604 0.0000000
0.2455949 0.5860747 0.0000000
0.2763646 0.5860428 0.0000000
0.3071399 0.5860126 0.0000000
0.3385157 0.5861028 0.0000000
0.3699000 0.5861947 0.0000000
0.4017367 0.5863788 0.0000000
0.4335811 0.5865645 0.0000000
0.4655386 0.5868376 0.0000000
0.4974984 0.5871123 0.0000000
0.5291866 0.5874736 0.0000000
0.5608686 0.5878368 0.0000000
0.5919824 0.5882634 0.0000000
0.6230817 0.5886916 0.0000000
0.6534521 0.5891124 0.0000000
0.6838018 0.5895331 0.0000000
0.7134623 0.5898579 0.0000000
0.7431011 0.5901797 0.0000000
0.7723133 0.5903509 0.0000000
0.8015108 0.5905169 0.0000000
0.8306891 0.5905404 0.0000000
0.8598666 0.5905585 0.0000000
0.8894379 0.5905002 0.0000000
0.9190251 0.5904387 0.0000000
0.9493115 0.5903802 0.0000000
0.9796283 0.5903218 0.0000000
0.0036226 0.6201183 0.0000000
0.0343395 0.6199645 0.0000000
0.0650563 0.6198108 0.0000000
0.0954125 0.6195609 0.0000000
0.1257678 0.6193108 0.0000000
0.1559932 0.6190564 0.0000000
0.1862179 0.6188021 0.0000000
0.2165870 0.6186267 0.0000000
0.2469573 0.6184519 0.0000000
0.2776999 0.6183956 0.0000000
0.3084467 0.6183406 0.0000000
0.3396598 0.6183989 0.0000000
0.3708794 0.6184588 0.0000000
0.4024750 0.6186222 0.0000000
0.4340769 0.6187873 0.0000000
0.4658087 0.6190534 0.0000000
0.4975431 0.6193214 0.0000000
0.5291063 0.6196828 0.0000000
0.5606656 0.6200462 0.0000000
0.5917991 0.6204687 0.0000000
0.6229217 0.6208927 0.0000000
0.6534656 0.6213026 0.0000000
0.6839930 0.6217121 0.0000000
0.7139432 0.6220219 0.0000000
0.7438754 0.6223286 0.0000000
0.7734240 0.6224847 0.0000000
0.8029595 0.6226356 0.0000000
0.8324448 0.6226465 0.0000000
0.8619283 0.6226523 0.0000000
0.8917257 0.6225863 0.0000000
0.9215358 0.6225174 0.0000000
0.9519413 0.6224565 0.0000000
0.9823726 0.6223959 0.0000000
0.0039852 0.6520588 0.0000000
0.0347754 0.6519330 0.0000000
0.0655657 0.6518072 0.0000000
0.0960452 0.6516008 0.0000000
0.1265238 0.6513943 0.0000000
0.1568792 0.6511785 0.0000000
0.1872340 0.6509627 0.0000000
0.2176884 0.6508063 0.0000000
0.2481437 0.6506503 0.0000000
0.2788866 0.6505921 0.0000000
0.3096326 0.6505349 0.0000000
0.3407515 0.6505829 0.0000000
0.3718757 0.6506323 0.0000000
0.4033129 0.6507864 0.0000000
0.4347553 0.6509423 0.0000000
0.4663235 0.6512021 0.0000000
0.4978942 0.6514639 0.0000000
0.5293492 0.6518180 0.0000000
0.5608016 0.6521742 0.0000000
0.5919217 0.6525847 0.0000000
0.6230332 0.6529966 0.0000000
0.6536732 0.6533903 0.0000000
0.6842998 0.6537835 0.0000000
0.7144417 0.6540780 0.0000000
0.7445683 0.6543693 0.0000000
0.7743595 0.6545140 0.0000000
0.8041392 0.6546536 0.0000000
0.8338620 0.6546586 0.0000000
0.8635827 0.6546585 0.0000000
0.8935636 0.6545914 0.0000000
0.9235549 0.6545215 0.0000000
0.9540608 0.6544610 0.0000000
0.9845889 0.6544009 0.0000000
0.0043675 0.6839838 0.0000000
0.0352262 0.6838835 0.0000000
0.0660849 0.6837832 0.0000000
0.0966795 0.6836170 0.0000000
0.1272734 0.6834506 0.0000000
0.1577511 0.6832713 0.0000000
0.1882281 0.6830920 0.0000000
0.2187647 0.6829557 0.0000000
0.2493018 0.6828198 0.0000000
0.2800492 0.6827633 0.0000000
0.3107989 0.6827076 0.0000000
0.3418348 0.6827488 0.0000000
0.3728746 0.6827913 0.0000000
0.4041668 0.6829380 0.0000000
0.4354633 0.6830864 0.0000000
0.4668779 0.6833399 0.0000000
0.4982949 0.6835955 0.0000000
0.5296444 0.6839413 0.0000000
0.5609924 0.6842891 0.0000000
0.5920937 0.6846863 0.0000000
0.6231886 0.6850848 0.0000000
0.6539123 0.6854615 0.0000000
0.6846254 0.6858376 0.0000000
0.7149430 0.6861166 0.0000000
0.7452481 0.6863926 0.0000000
0.7752667 0.6865265 0.0000000
0.8052755 0.6866554 0.0000000
0.8352245 0.6866555 0.0000000
0.8651713 0.6866507 0.0000000
0.8953287 0.6865833 0.0000000
0.9254946 0.6865134 0.0000000
0.9560978 0.6864539 0.0000000
0.9867199 0.6863948 0.0000000
0.0047835 0.7157880 0.0000000
0.0356902 0.7157053 0.0000000
0.0665970 0.7156226 0.0000000
0.0972730 0.7154843 0.0000000
0.1279484 0.7153459 0.0000000
0.1585142 0.7151951 0.0000000
0.1890794 0.7150442 0.0000000
0.2196791 0.7149277 0.0000000
0.2502792 0.7148115 0.0000000
0.2810384 0.7147639 0.0000000
0.3117995 0.7147171 0.0000000
0.3427867 0.7147593 0.0000000
0.3737771 0.7148029 0.0000000
0.4049736 0.7149456 0.0000000
0.4361736 0.7150899 0.0000000
0.4674787 0.7153346 0.0000000
0.4987858 0.7155813 0.0000000
0.5300500 0.7159124 0.0000000
0.5613131 0.7162455 0.0000000
0.5923844 0.7166222 0.0000000
0.6234507 0.7169999 0.0000000
0.6542169 0.7173549 0.0000000
0.6849746 0.7177093 0.0000000
0.7154057 0.7179713 0.0000000
0.7458265 0.7182305 0.0000000
0.7760063 0.7183563 0.0000000
0.8061778 0.7184775 0.0000000
0.8362964 0.7184788 0.0000000
0.8664131 0.7184757 0.0000000
0.8967091 0.7184138 0.0000000
0.9270124 0.7183496 0.0000000
0.9576936 0.7182949 0.0000000
0.9883912 0.7182406 0.0000000
0.0052055 0.7475705 0.0000000
0.0361567 0.7475039 0.0000000
0.0671078 0.7474373 0.0000000
