presets/film/film-matte/look.cube
# Approximate v0 colour conversion; calibrate before claiming visual parity.
LUT_3D_SIZE 5
DOMAIN_MIN 0 0 0
DOMAIN_MAX 1 1 1
0.0949980 0.0975990 0.0978460
0.2502947 0.0422743 0.0395630
0.4926396 0.0299829 0.0098200
0.7000891 0.0363921 0.0000000
0.9118871 0.0325666 0.0000000
0.0203498 0.2461795 0.0418926
0.2308079 0.2295871 0.0382234
0.5215409 0.2479159 0.0130837
0.7223459 0.2531045 0.0000000
0.9329768 0.2515199 0.0000000
0.0033381 0.4918961 0.0064583
0.2411471 0.4885100 0.0003171
0.4990864 0.4907605 0.0000000
0.7405771 0.4939873 0.0000000
0.9699463 0.4943415 0.0000000
0.0052055 0.7475705 0.0000000
0.2512239 0.7467709 0.0000000
0.4992931 0.7475407 0.0000000
0.7463866 0.7500348 0.0000000
0.9899794 0.7500595 0.0000000
0.0073801 0.9937069 0.0000000
0.2549631 0.9936806 0.0000000
0.5018613 0.9937594 0.0000000
0.7485596 0.9939325 0.0000000
0.9953929 0.9939555 0.0000000
0.0459793 0.0511716 0.2222714
0.2252607 0.0490559 0.2192180
0.4898050 0.0271473 0.2347334
0.7024591 0.0399374 0.2156733
0.8906365 0.0443359 0.1938352
0.0612681 0.2578603 0.2821007
0.2200285 0.2209843 0.2598441
0.5105816 0.2387798 0.2507750
0.7465448 0.2465970 0.2320692
0.9010502 0.2522678 0.2023182
0.0145691 0.4994851 0.2607071
0.2506499 0.4902531 0.2785495
0.4772875 0.4831224 0.2093400
0.7618259 0.4999346 0.1469937
0.9542722 0.5050883 0.2000524
0.0113324 0.7522357 0.2373924
0.2776197 0.7504352 0.2531386
0.5128392 0.7509105 0.2261832
0.7581680 0.7642085 0.1673735
0.9899529 0.7622924 0.1879018
0.0124539 0.9940873 0.2277790
0.2853517 0.9940463 0.2462937
0.5224085 0.9940903 0.2294099
0.7594520 0.9943453 0.2071875
0.9953564 0.9943072 0.1998808
0.0856088 0.0758107 0.4217914
0.2730271 0.0489084 0.4446318
0.4952542 0.0262172 0.4597209
0.7205477 0.0175128 0.4550407
0.9476891 0.0159273 0.4472076
0.1050166 0.2812489 0.5007926
0.2643968 0.2966400 0.4960796
0.4957455 0.2814189 0.4777052
0.7302193 0.2759154 0.4717965
0.9409856 0.2733904 0.4574744
0.0467891 0.5238714 0.5062336
0.2561866 0.5196201 0.5306011
0.4724612 0.4763330 0.4952633
0.7690720 0.5268626 0.5089351
0.9336899 0.5144744 0.4603740
0.0301780 0.7639396 0.4824104
0.2895454 0.7597165 0.4952214
0.5329171 0.7572088 0.5080655
0.7682617 0.7700740 0.4771669
0.9743080 0.7626256 0.4658608
0.0258137 0.9949460 0.4742625
0.2951449 0.9946998 0.4881051
0.5436324 0.9943722 0.4968607
0.7664115 0.9941651 0.4841541
0.9881879 0.9938398 0.4745383
0.1566699 0.1237425 0.6556711
0.3206356 0.0684996 0.6780514
0.5142950 0.0365306 0.6925731
0.7355017 0.0210838 0.6974994
0.9730303 0.0156230 0.6980415
0.1941907 0.3527441 0.6741685
0.3277759 0.3279258 0.6908638
0.5140102 0.3006641 0.6904049
0.7347574 0.2882909 0.7000470
0.9691847 0.2841756 0.7052040
0.1445033 0.5600992 0.6933233
0.2946575 0.5465210 0.7097494
0.5240243 0.5546679 0.7154092
0.7410152 0.5382175 0.7157944
0.9676647 0.5348069 0.7182993
0.0643446 0.7777772 0.7090403
0.3125203 0.7686736 0.7116926
0.5355205 0.7654364 0.7236216
0.7561516 0.7644509 0.7559830
0.9681158 0.7626914 0.7280067
0.0436954 0.9958636 0.7132120
0.3069023 0.9952486 0.7206191
0.5447747 0.9940489 0.7265104
0.7636238 0.9858364 0.7303904
0.9749973 0.9813100 0.7263812
0.1482170 0.1142070 0.8966900
0.3371032 0.0754001 0.9112418
0.5264308 0.0417875 0.9246140
0.7437415 0.0240159 0.9321487
0.9816936 0.0176698 0.9346083
0.1711202 0.3554983 0.8911240
0.3582152 0.3383392 0.9111684
0.5369708 0.3101660 0.9227892
0.7497758 0.2944802 0.9322610
0.9798703 0.2881736 0.9349457
0.1789431 0.5762386 0.8853868
0.3536437 0.5613258 0.9105802
0.5436451 0.5539805 0.9201267
0.7568015 0.5446359 0.9328213
0.9785997 0.5374333 0.9371554
0.0844517 0.7854159 0.9285905
0.3259662 0.7813588 0.9309779
0.5408625 0.7706599 0.9229904
0.7659532 0.7672087 0.9225102
0.9744745 0.7617885 0.9351919
0.0532696 0.9963081 0.9421944
0.3127729 0.9956170 0.9413301
0.5450741 0.9942439 0.9371040
0.7624166 0.9818139 0.9321219
0.9729519 0.9757871 0.9355956
