presets/film/film-matte/look.cube
# Approximate v0 colour conversion; calibrate before claiming visual parity.
LUT_3D_SIZE 9
DOMAIN_MIN 0 0 0
DOMAIN_MAX 1 1 1
0.0949980 0.0975990 0.0978460
0.1577510 0.0654131 0.0670122
0.2502947 0.0422743 0.0395630
0.3726331 0.0322705 0.0235126
0.4926396 0.0299829 0.0098200
0.6011782 0.0329337 0.0000502
0.7000891 0.0363921 0.0000000
0.8002096 0.0357183 0.0000000
0.9118871 0.0325666 0.0000000
0.0526685 0.1554604 0.0683462
0.1344101 0.1282330 0.0728283
0.2437845 0.1397183 0.0443408
0.3787695 0.1433624 0.0309665
0.5030031 0.1422842 0.0137913
0.6100332 0.1442051 0.0000861
0.7072340 0.1466023 0.0000000
0.8059136 0.1461906 0.0000000
0.9169675 0.1440175 0.0000000
0.0203498 0.2461795 0.0418926
0.1181506 0.2267336 0.0444429
0.2308079 0.2295871 0.0382234
0.3815372 0.2451036 0.0238124
0.5215409 0.2479159 0.0130837
0.6275252 0.2510335 0.0000740
0.7223459 0.2531045 0.0000000
0.8212895 0.2528531 0.0000000
0.9329768 0.2515199 0.0000000
0.0072411 0.3649228 0.0221872
0.1201020 0.3589420 0.0207329
0.2349263 0.3575828 0.0161523
0.3705395 0.3629900 0.0036472
0.5098071 0.3652319 0.0001436
0.6321349 0.3674828 0.0000001
0.7349419 0.3692297 0.0000000
0.8382733 0.3695799 0.0000000
0.9526930 0.3691947 0.0000000
0.0033381 0.4918961 0.0064583
0.1226179 0.4898597 0.0041085
0.2411471 0.4885100 0.0003171
0.3676479 0.4894976 0.0000002
0.4990864 0.4907605 0.0000000
0.6248693 0.4923355 0.0000000
0.7405771 0.4939873 0.0000000
0.8524822 0.4945217 0.0000000
0.9699463 0.4943415 0.0000000
0.0036226 0.6201183 0.0000000
0.1257678 0.6193108 0.0000000
0.2469573 0.6184519 0.0000000
0.3708794 0.6184588 0.0000000
0.4975431 0.6193214 0.0000000
0.6229217 0.6208927 0.0000000
0.7438754 0.6223286 0.0000000
0.8619283 0.6226523 0.0000000
0.9823726 0.6223959 0.0000000
0.0052055 0.7475705 0.0000000
0.1286099 0.7472121 0.0000000
0.2512239 0.7467709 0.0000000
0.3746622 0.7467879 0.0000000
0.4992931 0.7475407 0.0000000
0.6237321 0.7488838 0.0000000
0.7463866 0.7500348 0.0000000
0.8675921 0.7502704 0.0000000
0.9899794 0.7500595 0.0000000
0.0066542 0.8738396 0.0000000
0.1305849 0.8736709 0.0000000
0.2538415 0.8734794 0.0000000
0.3772195 0.8735949 0.0000000
0.5010305 0.8742239 0.0000000
0.6248182 0.8752233 0.0000000
0.7479202 0.8760570 0.0000000
0.8705134 0.8762956 0.0000000
0.9939111 0.8762123 0.0000000
0.0073801 0.9937069 0.0000000
0.1314857 0.9936939 0.0000000
0.2549631 0.9936806 0.0000000
0.3783332 0.9936966 0.0000000
0.5018613 0.9937594 0.0000000
0.6253702 0.9938541 0.0000000
0.7485596 0.9939325 0.0000000
0.8716205 0.9939591 0.0000000
0.9953929 0.9939555 0.0000000
0.0599723 0.0606410 0.1552914
0.1296759 0.0735175 0.1412586
0.2322069 0.0506961 0.1398323
0.3675103 0.0356983 0.1362662
0.4923278 0.0343550 0.1270338
0.6012316 0.0426306 0.1176992
0.6938596 0.0538559 0.1070560
0.7869734 0.0530803 0.0953104
0.8955764 0.0417894 0.0870851
0.0685860 0.1508449 0.1601270
0.1435506 0.1446781 0.1632416
0.2094931 0.1328929 0.1488233
0.3687115 0.1499644 0.1549256
0.5158605 0.1488339 0.1388102
0.6192751 0.1518525 0.1287463
0.7050492 0.1592633 0.1202610
0.7911701 0.1608086 0.1110341
0.8902266 0.1559487 0.1017961
0.0370680 0.2484691 0.1624155
0.1386172 0.2286417 0.1712246
0.2252626 0.2366280 0.1622271
0.3579327 0.2257253 0.1318061
0.5322439 0.2335864 0.1311287
0.6445120 0.2441023 0.1249053
0.7291675 0.2536727 0.1159284
0.8145099 0.2559437 0.1046204
0.9166770 0.2495615 0.0961531
0.0143506 0.3668513 0.1480332
0.1294560 0.3559571 0.1561447
0.2124510 0.3463843 0.1498428
0.3509002 0.3576108 0.1330499
0.5056798 0.3550943 0.0964482
0.6494914 0.3637793 0.1181591
0.7452645 0.3701809 0.1153095
0.8343125 0.3736965 0.0959992
0.9439611 0.3722864 0.0867480
0.0066289 0.4937899 0.1334228
0.1354198 0.4906763 0.1441386
0.2425351 0.4875286 0.1385822
0.3597321 0.4875039 0.1234892
0.4939936 0.4871987 0.0951907
0.6280522 0.4923622 0.0772993
0.7466868 0.4984916 0.0785508
0.8522212 0.5006604 0.0782177
0.9661781 0.5007108 0.0746389
0.0057634 0.6217942 0.1208688
0.1406384 0.6207952 0.1321669
0.2564073 0.6192194 0.1260977
0.3750553 0.6185047 0.1133410
0.4993962 0.6192602 0.0930335
0.6249604 0.6223675 0.0719814
0.7483886 0.6285327 0.0587033
0.8638074 0.6298242 0.0597735
0.9817316 0.6295667 0.0628992
0.0069597 0.7489403 0.1111854
0.1445431 0.7486245 0.1229052
0.2636817 0.7478684 0.1171600
0.3836012 0.7476355 0.1067290
0.5055568 0.7485962 0.0917106
0.6283440 0.7509530 0.0745882
0.7492055 0.7532451 0.0607731
0.8692810 0.7552504 0.0576658
0.9903927 0.7558628 0.0592155
0.0082329 0.8749709 0.1048693
0.1470663 0.8749209 0.1170508
0.2676535 0.8745791 0.1118333
0.3882105 0.8745990 0.1030894
0.5094778 0.8753412 0.0913672
0.6310321 0.8767325 0.0783213
0.7517826 0.8778839 0.0673093
0.8714288 0.8778663 0.0619554
0.9942819 0.8795240 0.0611698
0.0088831 0.9938230 0.1020519
0.1482954 0.9938250 0.1146074
0.2695174 0.9937992 0.1096875
0.3904249 0.9938069 0.1017263
0.5116056 0.9938755 0.0914648
0.6328690 0.9939910 0.0803614
0.7537393 0.9940813 0.0708572
0.8742508 0.9940800 0.0651397
0.9956087 0.9941282 0.0631361
0.0459793 0.0511716 0.2222714
0.1275004 0.0648268 0.1972342
0.2252607 0.0490559 0.2192180
0.3607024 0.0323651 0.2359094
0.4898050 0.0271473 0.2347334
0.6038459 0.0301119 0.2267748
0.7024591 0.0399374 0.2156733
0.7904829 0.0483556 0.2018572
0.8906365 0.0443359 0.1938352
0.0601542 0.1502036 0.2326220
0.1469777 0.1515279 0.2279294
0.1966135 0.1452247 0.2282924
0.3659821 0.1494970 0.2521442
0.5020527 0.1464955 0.2461229
0.6172459 0.1460010 0.2354223
0.7155624 0.1516503 0.2282997
0.7963081 0.1566902 0.2153766
0.8742371 0.1608816 0.1920115
0.0612681 0.2578603 0.2821007
0.1584528 0.2269182 0.2708801
0.2200285 0.2209843 0.2598441
0.3552059 0.2295316 0.2531730
0.5105816 0.2387798 0.2507750
0.6398710 0.2400978 0.2341547
0.7465448 0.2465970 0.2320692
0.8147122 0.2593651 0.2228833
0.9010502 0.2522678 0.2023182
0.0305408 0.3743190 0.2762708
0.1431257 0.3634367 0.2820895
0.2337098 0.3499093 0.2851788
0.3300069 0.3416253 0.2446046
0.4987496 0.3532318 0.2231004
0.6293470 0.3321020 0.1890038
0.7564583 0.3598523 0.2155579
0.8310826 0.3743759 0.2185203
0.9270246 0.3702307 0.2039528
0.0145691 0.4994851 0.2607071
0.1410463 0.4959355 0.2698015
0.2506499 0.4902531 0.2785495
0.3424586 0.4844113 0.2660280
0.4772875 0.4831224 0.2093400
0.6293345 0.4891938 0.1510516
0.7618259 0.4999346 0.1469937
0.8492267 0.5107971 0.2132417
0.9542722 0.5050883 0.2000524
0.0111841 0.6261545 0.2476531
0.1447335 0.6247456 0.2568087
0.2678056 0.6217593 0.2628337
0.3792047 0.6188797 0.2510087
0.4990293 0.6194388 0.2226659
0.6293666 0.6289440 0.1791909
0.7665617 0.6511626 0.1232783
0.8696040 0.6431974 0.1627114
0.9780228 0.6366480 0.1876659
0.0113324 0.7522357 0.2373924
0.1483006 0.7516861 0.2468760
0.2776197 0.7504352 0.2531386
0.3938407 0.7495648 0.2436387
0.5128392 0.7509105 0.2261832
0.6353821 0.7562348 0.1999975
0.7581680 0.7642085 0.1673735
0.8735453 0.7643303 0.1741004
0.9899529 0.7622924 0.1879018
0.0120496 0.8775804 0.2307284
0.1505902 0.8774093 0.2407959
0.2828251 0.8769265 0.2479208
0.4006151 0.8766621 0.2402194
0.5191246 0.8775098 0.2280755
0.6385916 0.8797055 0.2123778
0.7572914 0.8818347 0.1969890
0.8730178 0.8808179 0.1922031
0.9941951 0.8831157 0.1953116
0.0124539 0.9940873 0.2277790
0.1516827 0.9940797 0.2384286
0.2853517 0.9940463 0.2462937
0.4038793 0.9940262 0.2394183
0.5224085 0.9940903 0.2294099
0.6411922 0.9942348 0.2177277
0.7594520 0.9943453 0.2071875
0.8768647 0.9942664 0.2013682
0.9953564 0.9943072 0.1998808
0.0564335 0.0611587 0.3229991
0.1518797 0.0674461 0.3197567
0.2478190 0.0446028 0.3297245
0.3669907 0.0307921 0.3432035
0.4900336 0.0235451 0.3464291
0.6053101 0.0207798 0.3423277
0.7119911 0.0216307 0.3349883
0.8140960 0.0235839 0.3262545
0.9234757 0.0244228 0.3200941
0.0661926 0.1639946 0.3385164
0.1554015 0.1679974 0.3410784
0.2326212 0.1606904 0.3302669
0.3592726 0.1569160 0.3496092
0.4930834 0.1516617 0.3551444
0.6112612 0.1481438 0.3502562
0.7186824 0.1482582 0.3436815
0.8160073 0.1499577 0.3339313
0.9164123 0.1517407 0.3225884
0.0628251 0.2615626 0.3811239
0.1341532 0.2607397 0.3978261
0.2410545 0.2637583 0.3806473
0.3568067 0.2666572 0.3737867
0.5033025 0.2648647 0.3723191
0.6252175 0.2625571 0.3628234
0.7341607 0.2634282 0.3533377
0.8199209 0.2653121 0.3397746
0.9071686 0.2613892 0.3197855
0.0416076 0.3854903 0.3961320
0.1482642 0.3821238 0.4086742
0.2563517 0.3764644 0.4218098
0.3510784 0.3509415 0.3840951
0.4904996 0.3615905 0.3684056
0.6358913 0.3700036 0.3628441
0.7631608 0.3802007 0.3631056
0.8320419 0.3866860 0.3441882
0.9120257 0.3772127 0.3234185
0.0261347 0.5095733 0.3859926
0.1487398 0.5069309 0.3959340
0.2624654 0.4984666 0.4064410
0.3702821 0.4800811 0.4041514
0.4726856 0.4732529 0.3616330
0.6289355 0.4897878 0.3347925
0.7777973 0.5007663 0.3284608
0.8527518 0.5157654 0.3341890
0.9337458 0.5040074 0.3211426
0.0204522 0.6334456 0.3725275
0.1519200 0.6316737 0.3804535
0.2734309 0.6268383 0.3873972
0.3913854 0.6207484 0.3897518
0.5022046 0.6188108 0.3723081
0.6272378 0.6289843 0.3289620
0.7800701 0.6653635 0.2615209
0.8687243 0.6476761 0.2909343
0.9667745 0.6390215 0.3181270
0.0188085 0.7574044 0.3617862
0.1547422 0.7564786 0.3695450
0.2826803 0.7543548 0.3758099
0.4063639 0.7527306 0.3784904
0.5218990 0.7535730 0.3658244
0.6418650 0.7600122 0.3389324
0.7701908 0.7769155 0.2860331
0.8766220 0.7726758 0.2974454
0.9854217 0.7655376 0.3222582
0.0183093 0.8814893 0.3550129
0.1562505 0.8810435 0.3632821
0.2874075 0.8800069 0.3696739
0.4138639 0.8793263 0.3734250
0.5295123 0.8797393 0.3642525
0.6460345 0.8819645 0.3494156
0.7623565 0.8850116 0.3309999
0.8730765 0.8823929 0.3254582
0.9916073 0.8844174 0.3319048
0.0181465 0.9944769 0.3520791
0.1569253 0.9944430 0.3610597
0.2896689 0.9943547 0.3680643
0.4177369 0.9942893 0.3728259
0.5335909 0.9942947 0.3652814
0.6492083 0.9943961 0.3549964
0.7641994 0.9944737 0.3447979
0.8779107 0.9942640 0.3387286
0.9931925 0.9942677 0.3370912
0.0856088 0.0758107 0.4217914
0.1794949 0.0700531 0.4267822
0.2730271 0.0489084 0.4446318
0.3809323 0.0353709 0.4557844
0.4952542 0.0262172 0.4597209
0.6092017 0.0204699 0.4587315
0.7205477 0.0175128 0.4550407
0.8313147 0.0162972 0.4503262
0.9476891 0.0159273 0.4472076
0.1037949 0.1795445 0.4282284
0.1789049 0.1817693 0.4375387
0.2667052 0.1748676 0.4548584
0.3780364 0.1670487 0.4623795
0.4931139 0.1586950 0.4632433
0.6107225 0.1534898 0.4640682
0.7230337 0.1507276 0.4614739
0.8318504 0.1493989 0.4566271
0.9459882 0.1489457 0.4531510
0.1050166 0.2812489 0.5007926
0.1629146 0.2850897 0.4975932
0.2643968 0.2966400 0.4960796
0.3777935 0.2910518 0.4840675
0.4957455 0.2814189 0.4777052
0.6162766 0.2770088 0.4752149
0.7302193 0.2759154 0.4717965
0.8332616 0.2743476 0.4632177
0.9409856 0.2733904 0.4574744
0.0736036 0.4041713 0.5187739
0.1426548 0.4052239 0.5339174
0.2522569 0.4146921 0.5392871
0.3798011 0.4038071 0.5205353
0.4935097 0.3926327 0.4949560
0.6227425 0.3954961 0.4896066
0.7489250 0.4007039 0.4950044
0.8362536 0.3972659 0.4704306
0.9316178 0.3938096 0.4609614
0.0467891 0.5238714 0.5062336
0.1549419 0.5221910 0.5188129
0.2561866 0.5196201 0.5306011
0.3655843 0.4808176 0.5087685
0.4724612 0.4763330 0.4952633
0.6242321 0.5062595 0.4997912
0.7690720 0.5268626 0.5089351
0.8464533 0.5218525 0.4722925
0.9336899 0.5144744 0.4603740
0.0357530 0.6430863 0.4922832
0.1625558 0.6408290 0.4991389
0.2783318 0.6361507 0.5077097
0.4002323 0.6285866 0.5197702
0.5219457 0.6273522 0.5377249
0.6167454 0.6194567 0.4960151
0.7695236 0.6536998 0.4871535
0.8593975 0.6442140 0.4608374
0.9530683 0.6392698 0.4596249
0.0301780 0.7639396 0.4824104
0.1642478 0.7625091 0.4885230
0.2895454 0.7597165 0.4952214
0.4122637 0.7575516 0.5025046
0.5329171 0.7572088 0.5080655
0.6451460 0.7590490 0.4955050
0.7682617 0.7700740 0.4771669
0.8692187 0.7677596 0.4662069
0.9743080 0.7626256 0.4658608
0.0271150 0.8862622 0.4766613
0.1640534 0.8853975 0.4832438
0.2935034 0.8836303 0.4892715
0.4182191 0.8819861 0.4943590
0.5392143 0.8811104 0.4974937
0.6515135 0.8813571 0.4904430
0.7636575 0.8827558 0.4817678
0.8688031 0.8783317 0.4719168
0.9850241 0.8812727 0.4721324
0.0258137 0.9949460 0.4742625
0.1638367 0.9948696 0.4816874
0.2951449 0.9946998 0.4881051
0.4214579 0.9945179 0.4932534
0.5436324 0.9943722 0.4968607
0.6556400 0.9942797 0.4911454
0.7664115 0.9941651 0.4841541
0.8760311 0.9937904 0.4777589
0.9881879 0.9938398 0.4745383
0.1219362 0.0962757 0.5300591
0.2108841 0.0791178 0.5417598
0.2985504 0.0582390 0.5593503
0.3972602 0.0425816 0.5698834
0.5039616 0.0313817 0.5743940
0.6152538 0.0236446 0.5759984
0.7283594 0.0186254 0.5756248
0.8434237 0.0157073 0.5740956
0.9630790 0.0145131 0.5729206
0.1553959 0.2152403 0.5268419
0.2166966 0.2035806 0.5464599
0.2983633 0.1887348 0.5655850
0.3967318 0.1763748 0.5726420
0.5019390 0.1663682 0.5741801
0.6141204 0.1590511 0.5769024
0.7279076 0.1545051 0.5786374
0.8425602 0.1516859 0.5783015
0.9619030 0.1506041 0.5782497
0.1445299 0.3092461 0.5812752
0.2097958 0.3117432 0.5833720
0.2934193 0.3137841 0.5896006
0.3924617 0.3023483 0.5830090
0.5028734 0.2938981 0.5829492
0.6154235 0.2864933 0.5834608
0.7307413 0.2833247 0.5857552
0.8423139 0.2808525 0.5837997
0.9595371 0.2800560 0.5836120
0.1234180 0.4312410 0.6325405
0.1919243 0.4283954 0.6212631
0.2688608 0.4311710 0.6246855
0.3899486 0.4282783 0.6139823
0.5078957 0.4211229 0.6040984
0.6177834 0.4088276 0.5957967
0.7358121 0.4087830 0.5971924
0.8437703 0.4063281 0.5915660
0.9556299 0.4053592 0.5896141
0.0841540 0.5412263 0.6125772
0.1846349 0.5394964 0.6224488
0.2083342 0.5446468 0.6512385
0.3817091 0.5433976 0.6403523
0.5046446 0.5336899 0.6261360
0.6130301 0.5197417 0.6089409
0.7426929 0.5337398 0.6126851
0.8445491 0.5285949 0.5983440
0.9495858 0.5287768 0.5965476
0.0604641 0.6538812 0.6026516
0.1828355 0.6495844 0.6070473
0.2861792 0.6452975 0.6159982
0.4008920 0.6475991 0.6303365
0.5220834 0.6430847 0.6482994
0.5749136 0.5846777 0.5892614
0.7516557 0.6526677 0.6265003
0.8504387 0.6481971 0.6066547
0.9570107 0.6498293 0.6042325
0.0460218 0.7709775 0.5976968
0.1778049 0.7685488 0.6015178
0.2990967 0.7650221 0.6072333
0.4180944 0.7635601 0.6163909
0.5374749 0.7617874 0.6306510
0.6488939 0.7597275 0.6396449
0.7548155 0.7601620 0.6329436
0.8537067 0.7565858 0.6114457
0.9657729 0.7608238 0.6039348
0.0380672 0.8912555 0.5952324
0.1736759 0.8897857 0.5998820
0.3007677 0.8870333 0.6048108
0.4226901 0.8840958 0.6100541
0.5407427 0.8810286 0.6153445
0.6540682 0.8778695 0.6199074
0.7597837 0.8747321 0.6199327
0.8592488 0.8681039 0.6077679
0.9768780 0.8754658 0.6058014
0.0348110 0.9954307 0.5942395
0.1718090 0.9952955 0.5999899
0.3012113 0.9950156 0.6054095
0.4251068 0.9946730 0.6103190
0.5446075 0.9942835 0.6145438
0.6595213 0.9938337 0.6180396
0.7657598 0.9930580 0.6148540
0.8713840 0.9904746 0.6091945
0.9813179 0.9894137 0.6056440
0.1566699 0.1237425 0.6556711
0.2392010 0.0954262 0.6643567
0.3206356 0.0684996 0.6780514
0.4129327 0.0497306 0.6874997
0.5142950 0.0365306 0.6925731
0.6224379 0.0273360 0.6955777
0.7355017 0.0210838 0.6974994
0.8521470 0.0172453 0.6980969
0.9730303 0.0156230 0.6980415
0.2652083 0.3224466 0.6762965
0.2559707 0.2293531 0.6669845
0.3266260 0.2018898 0.6810853
0.4158665 0.1846331 0.6882973
0.5148773 0.1723434 0.6906710
0.6216938 0.1641131 0.6936635
0.7344562 0.1580088 0.6973340
0.8507174 0.1543899 0.6998653
0.9716743 0.1529778 0.7015859
0.1941907 0.3527441 0.6741685
0.2507176 0.3361023 0.6803248
0.3277759 0.3279258 0.6908638
0.4146540 0.3117287 0.6907634
0.5140102 0.3006641 0.6904049
0.6247493 0.2942324 0.6982131
0.7347574 0.2882909 0.7000470
0.8496306 0.2852122 0.7029131
0.9691847 0.2841756 0.7052040
0.1658425 0.4495018 0.7038095
0.2451814 0.4475669 0.6942570
0.3155654 0.4417479 0.7017877
0.4131162 0.4340454 0.6999312
0.5188530 0.4280176 0.7014401
0.6290551 0.4216074 0.7064592
0.7371789 0.4145614 0.7062120
0.8506886 0.4118076 0.7086588
0.9682680 0.4113285 0.7110375
0.1445033 0.5600992 0.6933233
0.2330717 0.5552366 0.6999909
0.2946575 0.5465210 0.7097494
0.3978889 0.5347432 0.6977548
0.5240243 0.5546679 0.7154092
0.6378905 0.5508757 0.7199151
0.7410152 0.5382175 0.7157944
0.8516363 0.5342488 0.7154617
0.9676647 0.5348069 0.7182993
0.0935155 0.6650649 0.7027823
0.2136114 0.6603318 0.7051278
0.3222566 0.6501552 0.7063209
0.4183003 0.6664176 0.7189461
0.5281397 0.6755055 0.7346392
0.6568598 0.6821637 0.7500333
0.7488668 0.6589436 0.7360894
0.8514407 0.6501609 0.7233767
0.9673209 0.6523886 0.7244702
0.0643446 0.7777772 0.7090403
0.1942385 0.7744318 0.7101169
0.3125203 0.7686736 0.7116926
0.4256892 0.7663819 0.7156202
0.5355205 0.7654364 0.7236216
0.6489787 0.7637801 0.7403933
0.7561516 0.7644509 0.7559830
0.8405971 0.7504027 0.7280470
0.9681158 0.7626914 0.7280067
0.0494780 0.8958114 0.7121048
0.1836992 0.8936268 0.7144177
0.3081980 0.8894966 0.7168269
0.4264893 0.8846374 0.7191596
0.5403083 0.8790099 0.7218630
0.6505517 0.8720349 0.7257990
0.7515418 0.8593290 0.7292068
0.8435434 0.8502522 0.7204392
0.9705292 0.8696025 0.7272738
0.0436954 0.9958636 0.7132120
0.1795767 0.9956615 0.7170298
0.3069023 0.9952486 0.7206191
0.4281099 0.9947084 0.7237642
0.5447747 0.9940489 0.7265104
0.6570032 0.9927547 0.7289154
0.7636238 0.9858364 0.7303904
0.8659823 0.9806751 0.7276102
0.9749973 0.9813100 0.7263812
0.1574145 0.1240622 0.7827212
0.2490997 0.0999071 0.7905386
0.3332778 0.0741288 0.8010036
0.4238992 0.0545525 0.8091556
0.5227837 0.0402505 0.8147437
0.6290877 0.0300846 0.8187720
0.7412687 0.0231271 0.8216278
0.8580177 0.0188383 0.8231177
0.9792334 0.0170119 0.8236046
0.1950169 0.2708932 0.7790839
0.2671952 0.2354444 0.7913449
0.3427767 0.2087713 0.8022415
0.4299168 0.1903264 0.8091186
0.5267633 0.1768615 0.8136944
0.6319625 0.1674028 0.8181030
0.7428678 0.1607611 0.8216205
0.8574071 0.1565070 0.8230653
0.9783057 0.1549061 0.8253851
0.1889944 0.3639962 0.7791457
0.2725545 0.3488609 0.7910755
0.3504219 0.3354917 0.8038477
0.4338874 0.3188894 0.8089836
0.5289324 0.3069585 0.8118328
0.6345457 0.2987919 0.8183645
0.7443099 0.2924962 0.8223465
0.8563894 0.2879984 0.8233874
0.9765809 0.2869733 0.8273081
0.1895991 0.4640073 0.7772535
0.2823246 0.4611543 0.7850517
0.3485856 0.4480091 0.8024653
0.4369135 0.4408973 0.8090574
0.5328595 0.4323678 0.8132985
0.6384511 0.4261519 0.8202476
0.7462820 0.4192328 0.8238266
0.8564208 0.4144943 0.8252943
0.9757688 0.4142171 0.8305379
0.1978666 0.5767387 0.7715016
0.2924008 0.5729422 0.7775657
0.3467224 0.5584693 0.8020894
0.4323333 0.5486672 0.8059869
0.5336192 0.5504573 0.8107722
0.6421797 0.5488536 0.8199736
0.7499022 0.5420758 0.8267006
0.8569970 0.5358663 0.8278314
0.9757875 0.5368096 0.8346844
0.1218653 0.6748731 0.8047671
0.2397499 0.6732126 0.8090199
0.3367257 0.6652713 0.8134572
0.4326972 0.6580695 0.8071621
0.5109726 0.6468967 0.7946961
0.6397072 0.6621263 0.8096146
0.7565721 0.6604023 0.8268134
0.8563499 0.6497597 0.8289902
0.9744967 0.6526211 0.8372754
0.0790623 0.7832092 0.8224723
0.2073305 0.7817686 0.8237648
0.3224840 0.7766886 0.8242909
0.4314902 0.7696384 0.8200921
0.5315361 0.7587192 0.8097508
0.6532468 0.7685787 0.8098594
0.7607898 0.7608118 0.8185615
0.8491226 0.7504985 0.8261386
0.9715538 0.7612307 0.8378592
0.0583181 0.8991981 0.8305773
0.1914268 0.8968775 0.8307703
0.3137463 0.8918871 0.8304705
0.4291375 0.8852199 0.8286952
0.5401894 0.8776464 0.8259079
0.6501863 0.8701286 0.8237822
0.7512429 0.8530763 0.8209425
0.8349602 0.8325188 0.8161324
0.9695977 0.8672511 0.8386317
0.0504256 0.9961770 0.8335513
0.1853920 0.9959219 0.8352416
0.3110134 0.9953955 0.8364809
0.4300887 0.9946858 0.8369113
0.5447589 0.9938555 0.8367197
0.6556894 0.9909945 0.8362211
0.7614686 0.9810282 0.8356027
0.8645721 0.9746791 0.8373074
0.9724567 0.9765426 0.8389089
0.1482170 0.1142070 0.8966900
0.2486909 0.0976790 0.9025718
0.3371032 0.0754001 0.9112418
0.4281605 0.0563385 0.9187886
0.5264308 0.0417875 0.9246140
0.6320195 0.0312526 0.9289998
0.7437415 0.0240159 0.9321487
0.8604144 0.0195636 0.9339369
0.9816936 0.0176698 0.9346083
0.1592495 0.2394911 0.8950287
0.2656625 0.2327359 0.9024468
0.3478560 0.2105227 0.9115503
0.4355688 0.1926384 0.9181687
0.5322665 0.1790144 0.9238133
0.6365675 0.1689149 0.9285927
0.7469651 0.1619786 0.9321264
0.8618035 0.1576134 0.9339589
0.9810048 0.1557412 0.9346291
0.1711202 0.3554983 0.8911240
0.2739362 0.3494299 0.8995271
0.3582152 0.3383392 0.9111684
0.4421434 0.3221175 0.9179679
0.5369708 0.3101660 0.9227892
0.6405859 0.3010933 0.9283883
0.7497758 0.2944802 0.9322610
0.8627566 0.2900605 0.9341543
0.9798703 0.2881736 0.9349457
0.1813038 0.4665545 0.8855731
0.2835209 0.4635630 0.8938574
0.3582725 0.4511563 0.9092595
0.4471350 0.4451336 0.9173023
0.5412186 0.4356022 0.9221452
0.6446929 0.4285410 0.9278850
0.7528973 0.4220952 0.9325668
0.8642902 0.4175946 0.9352446
0.9791505 0.4155091 0.9360276
0.1789431 0.5762386 0.8853868
0.2830756 0.5738984 0.8934455
0.3536437 0.5613258 0.9105802
0.4424926 0.5544591 0.9165890
0.5436451 0.5539805 0.9201267
0.6484455 0.5498495 0.9264336
0.7568015 0.5446359 0.9328213
0.8661166 0.5397915 0.9361851
0.9785997 0.5374333 0.9371554
0.1266251 0.6777913 0.9095579
0.2441337 0.6771521 0.9143146
0.3409862 0.6704206 0.9201613
0.4372895 0.6635598 0.9196482
0.5376915 0.6601058 0.9170710
0.6522853 0.6643876 0.9224618
0.7612537 0.6603532 0.9295658
0.8672134 0.6549790 0.9349911
0.9771414 0.6527894 0.9369036
0.0844517 0.7854159 0.9285905
0.2119345 0.7853099 0.9301967
0.3259662 0.7813588 0.9309779
0.4341356 0.7757228 0.9281316
0.5408625 0.7706599 0.9229904
0.6556060 0.7707182 0.9215224
0.7659532 0.7672087 0.9225102
0.8665102 0.7620970 0.9312359
0.9744745 0.7617885 0.9351919
0.0619835 0.9006234 0.9384483
0.1946801 0.8999331 0.9386998
0.3166514 0.8963053 0.9382440
0.4321248 0.8908897 0.9360681
0.5445063 0.8849431 0.9326932
0.6561162 0.8787463 0.9290006
0.7626205 0.8695540 0.9255074
0.8649978 0.8660253 0.9296351
0.9720423 0.8675925 0.9354355
0.0532696 0.9963081 0.9421944
0.1878558 0.9961007 0.9420545
0.3127729 0.9956170 0.9413301
0.4310272 0.9949661 0.9396091
0.5450741 0.9942439 0.9371040
0.6558379 0.9911977 0.9342758
0.7624166 0.9818139 0.9321219
0.8658965 0.9756890 0.9347959
0.9729519 0.9757871 0.9355956
