presets/experimental/experimental-forge/look.cube
# Approximate v0 colour conversion; calibrate before claiming visual parity.
LUT_3D_SIZE 5
DOMAIN_MIN 0 0 0
DOMAIN_MAX 1 1 1
0.2852191 0.2852191 0.2852191
0.2096319 0.2096319 0.2096319
0.2125305 0.2125305 0.2125305
0.2413443 0.2413443 0.2413443
0.2830973 0.2830973 0.2830973
0.2771605 0.2771605 0.2771605
0.2480394 0.2480394 0.2480394
0.2392431 0.2392431 0.2392431
0.2505829 0.2505829 0.2505829
0.2712752 0.2712752 0.2712752
0.3399325 0.3399325 0.3399325
0.3275155 0.3275155 0.3275155
0.2931012 0.2931012 0.2931012
0.2895313 0.2895313 0.2895313
0.3102396 0.3102396 0.3102396
0.4559635 0.4559635 0.4559635
0.4526167 0.4526167 0.4526167
0.4384913 0.4384913 0.4384913
0.3914257 0.3914257 0.3914257
0.3721244 0.3721244 0.3721244
0.5692440 0.5692440 0.5692440
0.5696668 0.5696668 0.5696668
0.5582075 0.5582075 0.5582075
0.5419154 0.5419154 0.5419154
0.4785575 0.4785575 0.4785575
0.2250864 0.2250864 0.2250864
0.1965597 0.1965597 0.1965597
0.2109806 0.2109806 0.2109806
0.2617219 0.2617219 0.2617219
0.3142175 0.3142175 0.3142175
0.2961497 0.2961497 0.2961497
0.3418950 0.3418950 0.3418950
0.2815837 0.2815837 0.2815837
0.3073130 0.3073130 0.3073130
0.3431685 0.3431685 0.3431685
0.3972525 0.3972525 0.3972525
0.3843134 0.3843134 0.3843134
0.3198480 0.3198480 0.3198480
0.3024091 0.3024091 0.3024091
0.3183590 0.3183590 0.3183590
0.5185053 0.5185053 0.5185053
0.4976931 0.4976931 0.4976931
0.4773654 0.4773654 0.4773654
0.4255185 0.4255185 0.4255185
0.3824913 0.3824913 0.3824913
0.6322635 0.6322635 0.6322635
0.6069583 0.6069583 0.6069583
0.5958891 0.5958891 0.5958891
0.5638738 0.5638738 0.5638738
0.5073700 0.5073700 0.5073700
0.2478461 0.2478461 0.2478461
0.2269224 0.2269224 0.2269224
0.2238620 0.2238620 0.2238620
0.2573804 0.2573804 0.2573804
0.3142901 0.3142901 0.3142901
0.3204197 0.3204197 0.3204197
0.3686338 0.3686338 0.3686338
0.3514694 0.3514694 0.3514694
0.3435662 0.3435662 0.3435662
0.3754470 0.3754470 0.3754470
0.3830165 0.3830165 0.3830165
0.4233724 0.4233724 0.4233724
0.4999532 0.4999532 0.4999532
0.3871929 0.3871929 0.3871929
0.4047661 0.4047661 0.4047661
0.5600574 0.5600574 0.5600574
0.5537834 0.5537834 0.5537834
0.5374157 0.5374157 0.5374157
0.4462262 0.4462262 0.4462262
0.4010495 0.4010495 0.4010495
0.6736326 0.6736326 0.6736326
0.6565403 0.6565403 0.6565403
0.6403966 0.6403966 0.6403966
0.6010206 0.6010206 0.6010206
0.5342241 0.5342241 0.5342241
0.3207525 0.3207525 0.3207525
0.3007133 0.3007133 0.3007133
0.2895060 0.2895060 0.2895060
0.2890912 0.2890912 0.2890912
0.3138083 0.3138083 0.3138083
0.3701029 0.3701029 0.3701029
0.4145982 0.4145982 0.4145982
0.4081306 0.4081306 0.4081306
0.3844218 0.3844218 0.3844218
0.3955801 0.3955801 0.3955801
0.4426197 0.4426197 0.4426197
0.4601773 0.4601773 0.4601773
0.5227880 0.5227880 0.5227880
0.5009541 0.5009541 0.5009541
0.4816934 0.4816934 0.4816934
0.5386141 0.5386141 0.5386141
0.5689596 0.5689596 0.5689596
0.6120544 0.6120544 0.6120544
0.7235699 0.7235699 0.7235699
0.5939571 0.5939571 0.5939571
0.7299612 0.7299612 0.7299612
0.7468150 0.7468150 0.7468150
0.7529259 0.7529259 0.7529259
0.7471829 0.7471829 0.7471829
0.5984747 0.5984747 0.5984747
0.3410361 0.3410361 0.3410361
0.3310105 0.3310105 0.3310105
0.3247048 0.3247048 0.3247048
0.3253808 0.3253808 0.3253808
0.3363665 0.3363665 0.3363665
0.3672767 0.3672767 0.3672767
0.4169525 0.4169525 0.4169525
0.4211864 0.4211864 0.4211864
0.4120865 0.4120865 0.4120865
0.4187172 0.4187172 0.4187172
0.4466751 0.4466751 0.4466751
0.4369547 0.4369547 0.4369547
0.5005985 0.5005985 0.5005985
0.5092157 0.5092157 0.5092157
0.5093204 0.5093204 0.5093204
0.5607788 0.5607788 0.5607788
0.5719633 0.5719633 0.5719633
0.5962186 0.5962186 0.5962186
0.6425984 0.6425984 0.6425984
0.6931179 0.6931179 0.6931179
0.6648972 0.6648972 0.6648972
0.6947949 0.6947949 0.6947949
0.7290655 0.7290655 0.7290655
0.7909491 0.7909491 0.7909491
0.8820633 0.8820633 0.8820633
