presets/experimental/experimental-forge/look.cube
# Approximate v0 colour conversion; calibrate before claiming visual parity.
LUT_3D_SIZE 33
DOMAIN_MIN 0 0 0
DOMAIN_MAX 1 1 1
0.2852191 0.2852191 0.2852191
0.2734986 0.2734986 0.2734986
0.2595992 0.2595992 0.2595992
0.2445389 0.2445389 0.2445389
0.2334617 0.2334617 0.2334617
0.2235443 0.2235443 0.2235443
0.2170279 0.2170279 0.2170279
0.2128436 0.2128436 0.2128436
0.2096319 0.2096319 0.2096319
0.2084712 0.2084712 0.2084712
0.2082573 0.2082573 0.2082573
0.2080708 0.2080708 0.2080708
0.2079130 0.2079130 0.2079130
0.2085576 0.2085576 0.2085576
0.2098327 0.2098327 0.2098327
0.2111562 0.2111562 0.2111562
0.2125305 0.2125305 0.2125305
0.2139990 0.2139990 0.2139990
0.2165784 0.2165784 0.2165784
0.2198589 0.2198589 0.2198589
0.2232960 0.2232960 0.2232960
0.2274568 0.2274568 0.2274568
0.2318733 0.2318733 0.2318733
0.2364040 0.2364040 0.2364040
0.2413443 0.2413443 0.2413443
0.2464811 0.2464811 0.2464811
0.2517124 0.2517124 0.2517124
0.2568747 0.2568747 0.2568747
0.2619777 0.2619777 0.2619777
0.2671176 0.2671176 0.2671176
0.2723346 0.2723346 0.2723346
0.2777046 0.2777046 0.2777046
0.2830973 0.2830973 0.2830973
0.2720174 0.2720174 0.2720174
0.2641541 0.2641541 0.2641541
0.2548004 0.2548004 0.2548004
0.2413359 0.2413359 0.2413359
0.2318957 0.2318957 0.2318957
0.2225061 0.2225061 0.2225061
0.2149673 0.2149673 0.2149673
0.2110232 0.2110232 0.2110232
0.2074716 0.2074716 0.2074716
0.2055193 0.2055193 0.2055193
0.2053409 0.2053409 0.2053409
0.2052764 0.2052764 0.2052764
0.2052748 0.2052748 0.2052748
0.2053750 0.2053750 0.2053750
0.2066508 0.2066508 0.2066508
0.2079699 0.2079699 0.2079699
0.2093344 0.2093344 0.2093344
0.2107467 0.2107467 0.2107467
0.2131195 0.2131195 0.2131195
0.2163487 0.2163487 0.2163487
0.2197043 0.2197043 0.2197043
0.2235161 0.2235161 0.2235161
0.2278383 0.2278383 0.2278383
0.2322672 0.2322672 0.2322672
0.2369652 0.2369652 0.2369652
0.2420323 0.2420323 0.2420323
0.2471727 0.2471727 0.2471727
0.2521559 0.2521559 0.2521559
0.2571996 0.2571996 0.2571996
0.2622904 0.2622904 0.2622904
0.2674304 0.2674304 0.2674304
0.2727516 0.2727516 0.2727516
0.2781231 0.2781231 0.2781231
0.2588205 0.2588205 0.2588205
0.2496079 0.2496079 0.2496079
0.2467718 0.2467718 0.2467718
0.2396373 0.2396373 0.2396373
0.2313227 0.2313227 0.2313227
0.2241087 0.2241087 0.2241087
0.2171070 0.2171070 0.2171070
0.2122801 0.2122801 0.2122801
0.2075033 0.2075033 0.2075033
0.2032320 0.2032320 0.2032320
0.2021742 0.2021742 0.2021742
0.2021001 0.2021001 0.2021001
0.2020999 0.2020999 0.2020999
0.2021833 0.2021833 0.2021833
0.2030470 0.2030470 0.2030470
0.2043984 0.2043984 0.2043984
0.2057651 0.2057651 0.2057651
0.2071742 0.2071742 0.2071742
0.2091467 0.2091467 0.2091467
0.2125072 0.2125072 0.2125072
0.2158152 0.2158152 0.2158152
0.2193061 0.2193061 0.2193061
0.2235755 0.2235755 0.2235755
0.2279370 0.2279370 0.2279370
0.2324025 0.2324025 0.2324025
0.2374082 0.2374082 0.2374082
0.2424831 0.2424831 0.2424831
0.2473404 0.2473404 0.2473404
0.2523109 0.2523109 0.2523109
0.2573561 0.2573561 0.2573561
0.2624401 0.2624401 0.2624401
0.2676511 0.2676511 0.2676511
0.2729890 0.2729890 0.2729890
0.2551140 0.2551140 0.2551140
0.2462945 0.2462945 0.2462945
0.2371336 0.2371336 0.2371336
0.2332595 0.2332595 0.2332595
0.2307864 0.2307864 0.2307864
0.2256106 0.2256106 0.2256106
0.2208975 0.2208975 0.2208975
0.2170448 0.2170448 0.2170448
0.2133610 0.2133610 0.2133610
0.2100046 0.2100046 0.2100046
0.2085657 0.2085657 0.2085657
0.2074014 0.2074014 0.2074014
0.2062340 0.2062340 0.2062340
0.2050636 0.2050636 0.2050636
0.2041081 0.2041081 0.2041081
0.2039765 0.2039765 0.2039765
0.2038459 0.2038459 0.2038459
0.2037160 0.2037160 0.2037160
0.2050411 0.2050411 0.2050411
0.2083218 0.2083218 0.2083218
0.2117113 0.2117113 0.2117113
0.2150932 0.2150932 0.2150932
0.2191529 0.2191529 0.2191529
0.2234429 0.2234429 0.2234429
0.2278223 0.2278223 0.2278223
0.2326441 0.2326441 0.2326441
0.2376715 0.2376715 0.2376715
0.2424752 0.2424752 0.2424752
0.2473033 0.2473033 0.2473033
0.2523129 0.2523129 0.2523129
0.2573597 0.2573597 0.2573597
0.2624682 0.2624682 0.2624682
0.2677855 0.2677855 0.2677855
0.2528598 0.2528598 0.2528598
0.2480621 0.2480621 0.2480621
0.2414736 0.2414736 0.2414736
0.2365633 0.2365633 0.2365633
0.2316705 0.2316705 0.2316705
0.2272567 0.2272567 0.2272567
0.2242300 0.2242300 0.2242300
0.2216672 0.2216672 0.2216672
0.2189136 0.2189136 0.2189136
0.2164873 0.2164873 0.2164873
0.2151801 0.2151801 0.2151801
0.2142837 0.2142837 0.2142837
0.2133958 0.2133958 0.2133958
0.2125162 0.2125162 0.2125162
0.2116445 0.2116445 0.2116445
0.2115044 0.2115044 0.2115044
0.2115153 0.2115153 0.2115153
0.2115333 0.2115333 0.2115333
0.2115634 0.2115634 0.2115634
0.2122850 0.2122850 0.2122850
0.2133910 0.2133910 0.2133910
0.2145106 0.2145106 0.2145106
0.2160392 0.2160392 0.2160392
0.2188826 0.2188826 0.2188826
0.2231862 0.2231862 0.2231862
0.2277945 0.2277945 0.2277945
0.2327681 0.2327681 0.2327681
0.2375197 0.2375197 0.2375197
0.2422069 0.2422069 0.2422069
0.2471884 0.2471884 0.2471884
0.2522040 0.2522040 0.2522040
0.2572517 0.2572517 0.2572517
0.2625005 0.2625005 0.2625005
0.2559003 0.2559003 0.2559003
0.2524243 0.2524243 0.2524243
0.2476482 0.2476482 0.2476482
0.2428820 0.2428820 0.2428820
0.2389188 0.2389188 0.2389188
0.2335911 0.2335911 0.2335911
0.2292408 0.2292408 0.2292408
0.2265843 0.2265843 0.2265843
0.2242179 0.2242179 0.2242179
0.2221937 0.2221937 0.2221937
0.2209708 0.2209708 0.2209708
0.2203109 0.2203109 0.2203109
0.2196743 0.2196743 0.2196743
0.2190593 0.2190593 0.2190593
0.2184649 0.2184649 0.2184649
0.2182500 0.2182500 0.2182500
0.2184298 0.2184298 0.2184298
0.2186235 0.2186235 0.2186235
0.2188702 0.2188702 0.2188702
0.2195527 0.2195527 0.2195527
0.2208188 0.2208188 0.2208188
0.2221056 0.2221056 0.2221056
0.2235937 0.2235937 0.2235937
0.2256058 0.2256058 0.2256058
0.2276107 0.2276107 0.2276107
0.2297098 0.2297098 0.2297098
0.2322573 0.2322573 0.2322573
0.2346762 0.2346762 0.2346762
0.2371093 0.2371093 0.2371093
0.2420151 0.2420151 0.2420151
0.2469955 0.2469955 0.2469955
0.2520098 0.2520098 0.2520098
0.2571625 0.2571625 0.2571625
0.2606549 0.2606549 0.2606549
0.2591731 0.2591731 0.2591731
0.2562671 0.2562671 0.2562671
0.2518389 0.2518389 0.2518389
0.2471538 0.2471538 0.2471538
0.2432449 0.2432449 0.2432449
0.2364322 0.2364322 0.2364322
0.2319118 0.2319118 0.2319118
0.2297252 0.2297252 0.2297252
0.2279961 0.2279961 0.2279961
0.2269545 0.2269545 0.2269545
0.2263977 0.2263977 0.2263977
0.2259681 0.2259681 0.2259681
0.2255777 0.2255777 0.2255777
0.2252232 0.2252232 0.2252232
0.2250057 0.2250057 0.2250057
0.2253296 0.2253296 0.2253296
0.2256759 0.2256759 0.2256759
0.2261134 0.2261134 0.2261134
0.2268040 0.2268040 0.2268040
0.2282089 0.2282089 0.2282089
0.2296430 0.2296430 0.2296430
0.2311089 0.2311089 0.2311089
0.2332153 0.2332153 0.2332153
0.2353412 0.2353412 0.2353412
0.2374618 0.2374618 0.2374618
0.2400085 0.2400085 0.2400085
0.2424826 0.2424826 0.2424826
0.2448797 0.2448797 0.2448797
0.2474675 0.2474675 0.2474675
0.2501964 0.2501964 0.2501964
0.2529345 0.2529345 0.2529345
0.2557162 0.2557162 0.2557162
0.2682090 0.2682090 0.2682090
0.2672745 0.2672745 0.2672745
0.2652026 0.2652026 0.2652026
0.2616091 0.2616091 0.2616091
0.2574745 0.2574745 0.2574745
0.2536837 0.2536837 0.2536837
0.2508766 0.2508766 0.2508766
0.2414044 0.2414044 0.2414044
0.2357752 0.2357752 0.2357752
0.2341105 0.2341105 0.2341105
0.2332056 0.2332056 0.2332056
0.2326836 0.2326836 0.2326836
0.2323959 0.2323959 0.2323959
0.2321768 0.2321768 0.2321768
0.2320166 0.2320166 0.2320166
0.2319089 0.2319089 0.2319089
0.2322859 0.2322859 0.2322859
0.2327583 0.2327583 0.2327583
0.2333580 0.2333580 0.2333580
0.2341468 0.2341468 0.2341468
0.2356133 0.2356133 0.2356133
0.2371739 0.2371739 0.2371739
0.2387716 0.2387716 0.2387716
0.2408228 0.2408228 0.2408228
0.2430294 0.2430294 0.2430294
0.2452597 0.2452597 0.2452597
0.2477574 0.2477574 0.2477574
0.2502766 0.2502766 0.2502766
0.2527205 0.2527205 0.2527205
0.2552626 0.2552626 0.2552626
0.2580219 0.2580219 0.2580219
0.2607923 0.2607923 0.2607923
0.2635735 0.2635735 0.2635735
0.2771605 0.2771605 0.2771605
0.2771775 0.2771775 0.2771775
0.2760558 0.2760558 0.2760558
0.2728775 0.2728775 0.2728775
0.2688114 0.2688114 0.2688114
0.2647715 0.2647715 0.2647715
0.2616061 0.2616061 0.2616061
0.2578982 0.2578982 0.2578982
0.2480394 0.2480394 0.2480394
0.2410205 0.2410205 0.2410205
0.2399323 0.2399323 0.2399323
0.2392998 0.2392998 0.2392998
0.2390136 0.2390136 0.2390136
0.2388665 0.2388665 0.2388665
0.2388319 0.2388319 0.2388319
0.2388794 0.2388794 0.2388794
0.2392431 0.2392431 0.2392431
0.2398048 0.2398048 0.2398048
0.2405292 0.2405292 0.2405292
0.2414928 0.2414928 0.2414928
0.2429364 0.2429364 0.2429364
0.2445976 0.2445976 0.2445976
0.2463047 0.2463047 0.2463047
0.2483152 0.2483152 0.2483152
0.2505829 0.2505829 0.2505829
0.2528805 0.2528805 0.2528805
0.2553526 0.2553526 0.2553526
0.2579176 0.2579176 0.2579176
0.2603950 0.2603950 0.2603950
0.2628961 0.2628961 0.2628961
0.2656757 0.2656757 0.2656757
0.2684689 0.2684689 0.2684689
0.2712752 0.2712752 0.2712752
0.2831450 0.2831450 0.2831450
0.2834306 0.2834306 0.2834306
0.2829022 0.2829022 0.2829022
0.2803280 0.2803280 0.2803280
0.2767778 0.2767778 0.2767778
0.2729775 0.2729775 0.2729775
0.2693207 0.2693207 0.2693207
0.2662796 0.2662796 0.2662796
0.2586010 0.2586010 0.2586010
0.2499392 0.2499392 0.2499392
0.2450367 0.2450367 0.2450367
0.2441630 0.2441630 0.2441630
0.2437316 0.2437316 0.2437316
0.2434997 0.2434997 0.2434997
0.2434159 0.2434159 0.2434159
0.2434478 0.2434478 0.2434478
0.2437582 0.2437582 0.2437582
0.2443281 0.2443281 0.2443281
0.2450784 0.2450784 0.2450784
0.2460903 0.2460903 0.2460903
0.2475060 0.2475060 0.2475060
0.2492056 0.2492056 0.2492056
0.2509620 0.2509620 0.2509620
0.2529519 0.2529519 0.2529519
0.2552534 0.2552534 0.2552534
0.2575895 0.2575895 0.2575895
0.2600441 0.2600441 0.2600441
0.2626430 0.2626430 0.2626430
0.2651508 0.2651508 0.2651508
0.2676726 0.2676726 0.2676726
0.2704271 0.2704271 0.2704271
0.2732361 0.2732361 0.2732361
0.2760599 0.2760599 0.2760599
0.2905189 0.2905189 0.2905189
0.2908317 0.2908317 0.2908317
0.2901615 0.2901615 0.2901615
0.2877998 0.2877998 0.2877998
0.2848067 0.2848067 0.2848067
0.2813022 0.2813022 0.2813022
0.2776757 0.2776757 0.2776757
0.2744213 0.2744213 0.2744213
0.2713923 0.2713923 0.2713923
0.2607726 0.2607726 0.2607726
0.2549436 0.2549436 0.2549436
0.2496964 0.2496964 0.2496964
0.2487582 0.2487582 0.2487582
0.2483695 0.2483695 0.2483695
0.2481897 0.2481897 0.2481897
0.2481670 0.2481670 0.2481670
0.2484032 0.2484032 0.2484032
0.2489555 0.2489555 0.2489555
0.2497076 0.2497076 0.2497076
0.2507460 0.2507460 0.2507460
0.2521307 0.2521307 0.2521307
0.2538580 0.2538580 0.2538580
0.2556534 0.2556534 0.2556534
0.2576242 0.2576242 0.2576242
0.2599522 0.2599522 0.2599522
0.2623208 0.2623208 0.2623208
0.2647600 0.2647600 0.2647600
0.2673782 0.2673782 0.2673782
0.2699206 0.2699206 0.2699206
0.2724670 0.2724670 0.2724670
0.2751950 0.2751950 0.2751950
0.2780168 0.2780168 0.2780168
0.2808553 0.2808553 0.2808553
0.2979033 0.2979033 0.2979033
0.2985297 0.2985297 0.2985297
0.2981982 0.2981982 0.2981982
0.2961072 0.2961072 0.2961072
0.2931025 0.2931025 0.2931025
0.2897068 0.2897068 0.2897068
0.2862135 0.2862135 0.2862135
0.2829245 0.2829245 0.2829245
0.2805849 0.2805849 0.2805849
0.2736255 0.2736255 0.2736255
0.2663401 0.2663401 0.2663401
0.2603517 0.2603517 0.2603517
0.2549375 0.2549375 0.2549375
0.2535602 0.2535602 0.2535602
0.2532132 0.2532132 0.2532132
0.2530839 0.2530839 0.2530839
0.2532179 0.2532179 0.2532179
0.2537202 0.2537202 0.2537202
0.2544450 0.2544450 0.2544450
0.2554834 0.2554834 0.2554834
0.2568287 0.2568287 0.2568287
0.2585678 0.2585678 0.2585678
0.2603899 0.2603899 0.2603899
0.2623411 0.2623411 0.2623411
0.2646874 0.2646874 0.2646874
0.2670814 0.2670814 0.2670814
0.2695181 0.2695181 0.2695181
0.2721392 0.2721392 0.2721392
0.2746990 0.2746990 0.2746990
0.2772812 0.2772812 0.2772812
0.2799843 0.2799843 0.2799843
0.2828158 0.2828158 0.2828158
0.2856659 0.2856659 0.2856659
0.3052984 0.3052984 0.3052984
0.3062374 0.3062374 0.3062374
0.3062425 0.3062425 0.3062425
0.3045915 0.3045915 0.3045915
0.3020229 0.3020229 0.3020229
0.2986944 0.2986944 0.2986944
0.2949788 0.2949788 0.2949788
0.2916807 0.2916807 0.2916807
0.2891245 0.2891245 0.2891245
0.2873743 0.2873743 0.2873743
0.2799123 0.2799123 0.2799123
0.2725726 0.2725726 0.2725726
0.2660073 0.2660073 0.2660073
0.2604269 0.2604269 0.2604269
0.2585685 0.2585685 0.2585685
0.2582625 0.2582625 0.2582625
0.2582538 0.2582538 0.2582538
0.2586637 0.2586637 0.2586637
0.2593232 0.2593232 0.2593232
0.2603273 0.2603273 0.2603273
0.2616190 0.2616190 0.2616190
0.2633506 0.2633506 0.2633506
0.2651841 0.2651841 0.2651841
0.2671131 0.2671131 0.2671131
0.2694678 0.2694678 0.2694678
0.2718792 0.2718792 0.2718792
0.2743402 0.2743402 0.2743402
0.2769320 0.2769320 0.2769320
0.2795045 0.2795045 0.2795045
0.2821028 0.2821028 0.2821028
0.2847997 0.2847997 0.2847997
0.2876375 0.2876375 0.2876375
0.2904961 0.2904961 0.2904961
0.3135709 0.3135709 0.3135709
0.3143260 0.3143260 0.3143260
0.3142957 0.3142957 0.3142957
0.3130798 0.3130798 0.3130798
0.3109451 0.3109451 0.3109451
0.3079399 0.3079399 0.3079399
0.3044364 0.3044364 0.3044364
0.3009725 0.3009725 0.3009725
0.2979845 0.2979845 0.2979845
0.2959141 0.2959141 0.2959141
0.2945319 0.2945319 0.2945319
0.2863498 0.2863498 0.2863498
0.2789514 0.2789514 0.2789514
0.2722247 0.2722247 0.2722247
0.2661644 0.2661644 0.2661644
0.2637828 0.2637828 0.2637828
0.2635747 0.2635747 0.2635747
0.2638373 0.2638373 0.2638373
0.2643821 0.2643821 0.2643821
0.2653081 0.2653081 0.2653081
0.2665251 0.2665251 0.2665251
0.2682245 0.2682245 0.2682245
0.2700509 0.2700509 0.2700509
0.2719806 0.2719806 0.2719806
0.2743035 0.2743035 0.2743035
0.2767225 0.2767225 0.2767225
0.2791999 0.2791999 0.2791999
0.2817628 0.2817628 0.2817628
0.2843429 0.2843429 0.2843429
0.2869528 0.2869528 0.2869528
0.2896331 0.2896331 0.2896331
0.2924862 0.2924862 0.2924862
0.2953501 0.2953501 0.2953501
0.3221272 0.3221272 0.3221272
0.3230591 0.3230591 0.3230591
0.3231732 0.3231732 0.3231732
0.3219053 0.3219053 0.3219053
0.3198675 0.3198675 0.3198675
0.3172013 0.3172013 0.3172013
0.3139545 0.3139545 0.3139545
0.3106235 0.3106235 0.3106235
0.3075406 0.3075406 0.3075406
0.3051016 0.3051016 0.3051016
0.3037879 0.3037879 0.3037879
0.3012990 0.3012990 0.3012990
0.2929736 0.2929736 0.2929736
0.2854748 0.2854748 0.2854748
0.2786616 0.2786616 0.2786616
0.2723964 0.2723964 0.2723964
0.2692968 0.2692968 0.2692968
0.2693031 0.2693031 0.2693031
0.2696704 0.2696704 0.2696704
0.2704623 0.2704623 0.2704623
0.2715745 0.2715745 0.2715745
0.2732114 0.2732114 0.2732114
0.2750075 0.2750075 0.2750075
0.2769305 0.2769305 0.2769305
0.2792056 0.2792056 0.2792056
0.2816211 0.2816211 0.2816211
0.2841056 0.2841056 0.2841056
0.2866387 0.2866387 0.2866387
0.2892205 0.2892205 0.2892205
0.2918367 0.2918367 0.2918367
0.2944971 0.2944971 0.2944971
0.2973588 0.2973588 0.2973588
0.3002321 0.3002321 0.3002321
0.3306898 0.3306898 0.3306898
0.3317976 0.3317976 0.3317976
0.3321166 0.3321166 0.3321166
0.3311493 0.3311493 0.3311493
0.3293669 0.3293669 0.3293669
0.3266729 0.3266729 0.3266729
0.3235137 0.3235137 0.3235137
0.3203521 0.3203521 0.3203521
0.3172487 0.3172487 0.3172487
0.3146559 0.3146559 0.3146559
0.3132002 0.3132002 0.3132002
0.3121731 0.3121731 0.3121731
0.3085971 0.3085971 0.3085971
0.2999744 0.2999744 0.2999744
0.2924129 0.2924129 0.2924129
0.2854851 0.2854851 0.2854851
0.2791005 0.2791005 0.2791005
0.2754306 0.2754306 0.2754306
0.2754532 0.2754532 0.2754532
0.2759657 0.2759657 0.2759657
0.2768809 0.2768809 0.2768809
0.2783919 0.2783919 0.2783919
0.2801101 0.2801101 0.2801101
0.2819886 0.2819886 0.2819886
0.2841979 0.2841979 0.2841979
0.2865896 0.2865896 0.2865896
0.2890635 0.2890635 0.2890635
0.2915595 0.2915595 0.2915595
0.2941329 0.2941329 0.2941329
0.2967462 0.2967462 0.2967462
0.2993950 0.2993950 0.2993950
0.3022396 0.3022396 0.3022396
0.3051200 0.3051200 0.3051200
0.3399325 0.3399325 0.3399325
0.3409341 0.3409341 0.3409341
0.3414665 0.3414665 0.3414665
0.3408072 0.3408072 0.3408072
0.3393439 0.3393439 0.3393439
0.3369540 0.3369540 0.3369540
0.3339464 0.3339464 0.3339464
0.3306937 0.3306937 0.3306937
0.3275155 0.3275155 0.3275155
0.3248343 0.3248343 0.3248343
0.3233223 0.3233223 0.3233223
0.3221110 0.3221110 0.3221110
0.3211564 0.3211564 0.3211564
0.3167286 0.3167286 0.3167286
0.3080218 0.3080218 0.3080218
0.3001361 0.3001361 0.3001361
0.2931012 0.2931012 0.2931012
0.2865976 0.2865976 0.2865976
0.2819347 0.2819347 0.2819347
0.2820749 0.2820749 0.2820749
0.2827189 0.2827189 0.2827189
0.2840418 0.2840418 0.2840418
0.2856292 0.2856292 0.2856292
0.2874175 0.2874175 0.2874175
0.2895313 0.2895313 0.2895313
0.2918722 0.2918722 0.2918722
0.2943123 0.2943123 0.2943123
0.2967577 0.2967577 0.2967577
0.2993112 0.2993112 0.2993112
0.3019117 0.3019117 0.3019117
0.3045534 0.3045534 0.3045534
0.3073645 0.3073645 0.3073645
0.3102396 0.3102396 0.3102396
0.3535159 0.3535159 0.3535159
0.3546569 0.3546569 0.3546569
0.3551074 0.3551074 0.3551074
0.3545224 0.3545224 0.3545224
0.3532041 0.3532041 0.3532041
0.3512213 0.3512213 0.3512213
0.3486022 0.3486022 0.3486022
0.3456137 0.3456137 0.3456137
0.3424107 0.3424107 0.3424107
0.3394868 0.3394868 0.3394868
0.3378157 0.3378157 0.3378157
0.3363155 0.3363155 0.3363155
0.3350888 0.3350888 0.3350888
0.3341287 0.3341287 0.3341287
0.3317751 0.3317751 0.3317751
0.3227524 0.3227524 0.3227524
0.3144324 0.3144324 0.3144324
0.3067407 0.3067407 0.3067407
0.2985752 0.2985752 0.2985752
0.2911879 0.2911879 0.2911879
0.2913300 0.2913300 0.2913300
0.2922764 0.2922764 0.2922764
0.2936029 0.2936029 0.2936029
0.2952067 0.2952067 0.2952067
0.2971504 0.2971504 0.2971504
0.2993848 0.2993848 0.2993848
0.3017499 0.3017499 0.3017499
0.3041100 0.3041100 0.3041100
0.3066188 0.3066188 0.3066188
0.3091872 0.3091872 0.3091872
0.3118071 0.3118071 0.3118071
0.3145666 0.3145666 0.3145666
0.3174262 0.3174262 0.3174262
0.3671076 0.3671076 0.3671076
0.3684005 0.3684005 0.3684005
0.3690412 0.3690412 0.3690412
0.3687481 0.3687481 0.3687481
0.3677453 0.3677453 0.3677453
0.3658851 0.3658851 0.3658851
0.3634074 0.3634074 0.3634074
0.3605637 0.3605637 0.3605637
0.3575360 0.3575360 0.3575360
0.3546980 0.3546980 0.3546980
0.3529574 0.3529574 0.3529574
0.3513239 0.3513239 0.3513239
0.3498470 0.3498470 0.3498470
0.3485692 0.3485692 0.3485692
0.3475246 0.3475246 0.3475246
0.3468552 0.3468552 0.3468552
0.3378935 0.3378935 0.3378935
0.3292280 0.3292280 0.3292280
0.3197716 0.3197716 0.3197716
0.3092407 0.3092407 0.3092407
0.3006650 0.3006650 0.3006650
0.3010854 0.3010854 0.3010854
0.3020317 0.3020317 0.3020317
0.3033621 0.3033621 0.3033621
0.3050773 0.3050773 0.3050773
0.3071519 0.3071519 0.3071519
0.3094004 0.3094004 0.3094004
0.3116516 0.3116516 0.3116516
0.3140906 0.3140906 0.3140906
0.3166064 0.3166064 0.3166064
0.3191873 0.3191873 0.3191873
0.3218862 0.3218862 0.3218862
0.3247184 0.3247184 0.3247184
0.3814205 0.3814205 0.3814205
0.3826173 0.3826173 0.3826173
0.3832117 0.3832117 0.3832117
0.3829855 0.3829855 0.3829855
0.3822740 0.3822740 0.3822740
0.3807488 0.3807488 0.3807488
0.3786063 0.3786063 0.3786063
0.3759593 0.3759593 0.3759593
0.3729422 0.3729422 0.3729422
0.3700743 0.3700743 0.3700743
0.3682686 0.3682686 0.3682686
0.3665681 0.3665681 0.3665681
0.3649690 0.3649690 0.3649690
0.3635158 0.3635158 0.3635158
0.3623089 0.3623089 0.3623089
0.3613879 0.3613879 0.3613879
0.3607071 0.3607071 0.3607071
0.3537767 0.3537767 0.3537767
0.3429718 0.3429718 0.3429718
0.3312280 0.3312280 0.3312280
0.3205900 0.3205900 0.3205900
0.3108824 0.3108824 0.3108824
0.3110598 0.3110598 0.3110598
0.3119835 0.3119835 0.3119835
0.3133916 0.3133916 0.3133916
0.3152376 0.3152376 0.3152376
0.3173159 0.3173159 0.3173159
0.3194470 0.3194470 0.3194470
0.3217630 0.3217630 0.3217630
0.3242002 0.3242002 0.3242002
0.3267206 0.3267206 0.3267206
0.3293460 0.3293460 0.3293460
0.3321359 0.3321359 0.3321359
0.3958315 0.3958315 0.3958315
0.3971239 0.3971239 0.3971239
0.3978457 0.3978457 0.3978457
0.3978221 0.3978221 0.3978221
0.3971669 0.3971669 0.3971669
0.3957542 0.3957542 0.3957542
0.3937821 0.3937821 0.3937821
0.3914091 0.3914091 0.3914091
0.3886147 0.3886147 0.3886147
0.3858972 0.3858972 0.3858972
0.3840699 0.3840699 0.3840699
0.3822549 0.3822549 0.3822549
0.3804984 0.3804984 0.3804984
0.3788452 0.3788452 0.3788452
0.3774629 0.3774629 0.3774629
0.3763187 0.3763187 0.3763187
0.3753898 0.3753898 0.3753898
0.3746849 0.3746849 0.3746849
0.3681712 0.3681712 0.3681712
0.3548432 0.3548432 0.3548432
0.3428253 0.3428253 0.3428253
0.3320885 0.3320885 0.3320885
0.3222496 0.3222496 0.3222496
0.3213901 0.3213901 0.3213901
0.3223311 0.3223311 0.3223311
0.3238253 0.3238253 0.3238253
0.3256374 0.3256374 0.3256374
0.3275759 0.3275759 0.3275759
0.3297237 0.3297237 0.3297237
0.3320405 0.3320405 0.3320405
0.3344651 0.3344651 0.3344651
0.3369909 0.3369909 0.3369909
0.3397124 0.3397124 0.3397124
0.4105512 0.4105512 0.4105512
0.4117775 0.4117775 0.4117775
0.4124839 0.4124839 0.4124839
0.4126559 0.4126559 0.4126559
0.4122202 0.4122202 0.4122202
0.4110664 0.4110664 0.4110664
0.4093461 0.4093461 0.4093461
0.4070817 0.4070817 0.4070817
0.4043635 0.4043635 0.4043635
0.4017535 0.4017535 0.4017535
0.3999877 0.3999877 0.3999877
0.3981945 0.3981945 0.3981945
0.3964164 0.3964164 0.3964164
0.3947459 0.3947459 0.3947459
0.3932430 0.3932430 0.3932430
0.3918770 0.3918770 0.3918770
0.3906805 0.3906805 0.3906805
0.3896807 0.3896807 0.3896807
0.3887803 0.3887803 0.3887803
0.3801559 0.3801559 0.3801559
0.3668320 0.3668320 0.3668320
0.3547159 0.3547159 0.3547159
0.3437279 0.3437279 0.3437279
0.3337613 0.3337613 0.3337613
0.3319050 0.3319050 0.3319050
0.3329435 0.3329435 0.3329435
0.3344038 0.3344038 0.3344038
0.3360819 0.3360819 0.3360819
0.3380136 0.3380136 0.3380136
0.3401665 0.3401665 0.3401665
0.3424575 0.3424575 0.3424575
0.3448627 0.3448627 0.3448627
0.3474787 0.3474787 0.3474787
0.4255582 0.4255582 0.4255582
0.4268538 0.4268538 0.4268538
0.4276454 0.4276454 0.4276454
0.4278261 0.4278261 0.4278261
0.4274297 0.4274297 0.4274297
0.4263616 0.4263616 0.4263616
0.4249080 0.4249080 0.4249080
0.4229183 0.4229183 0.4229183
0.4204523 0.4204523 0.4204523
0.4179392 0.4179392 0.4179392
0.4161553 0.4161553 0.4161553
0.4143224 0.4143224 0.4143224
0.4124783 0.4124783 0.4124783
0.4107895 0.4107895 0.4107895
0.4092135 0.4092135 0.4092135
0.4077330 0.4077330 0.4077330
0.4063817 0.4063817 0.4063817
0.4051895 0.4051895 0.4051895
0.4040694 0.4040694 0.4040694
0.4031718 0.4031718 0.4031718
0.3925139 0.3925139 0.3925139
0.3791171 0.3791171 0.3791171
0.3669419 0.3669419 0.3669419
0.3557585 0.3557585 0.3557585
0.3455453 0.3455453 0.3455453
0.3426670 0.3426670 0.3426670
0.3436695 0.3436695 0.3436695
0.3450080 0.3450080 0.3450080
0.3466667 0.3466667 0.3466667
0.3486058 0.3486058 0.3486058
0.3507227 0.3507227 0.3507227
0.3529853 0.3529853 0.3529853
0.3554600 0.3554600 0.3554600
0.4406459 0.4406459 0.4406459
0.4419330 0.4419330 0.4419330
0.4428251 0.4428251 0.4428251
0.4431624 0.4431624 0.4431624
0.4429477 0.4429477 0.4429477
0.4421004 0.4421004 0.4421004
0.4407201 0.4407201 0.4407201
0.4388247 0.4388247 0.4388247
0.4365267 0.4365267 0.4365267
0.4341930 0.4341930 0.4341930
0.4324970 0.4324970 0.4324970
0.4307267 0.4307267 0.4307267
0.4289235 0.4289235 0.4289235
0.4271971 0.4271971 0.4271971
0.4255064 0.4255064 0.4255064
0.4238853 0.4238853 0.4238853
0.4223666 0.4223666 0.4223666
0.4209800 0.4209800 0.4209800
0.4196779 0.4196779 0.4196779
0.4184412 0.4184412 0.4184412
0.4176367 0.4176367 0.4176367
0.4050329 0.4050329 0.4050329
0.3915327 0.3915327 0.3915327
0.3793019 0.3793019 0.3793019
0.3680484 0.3680484 0.3680484
0.3576257 0.3576257 0.3576257
0.3535389 0.3535389 0.3535389
0.3544412 0.3544412 0.3544412
0.3557563 0.3557563 0.3557563
0.3574200 0.3574200 0.3574200
0.3593127 0.3593127 0.3593127
0.3613915 0.3613915 0.3613915
0.3636942 0.3636942 0.3636942
0.4559635 0.4559635 0.4559635
0.4572403 0.4572403 0.4572403
0.4580728 0.4580728 0.4580728
