presets/experimental/experimental-forge/look.cube
# Approximate v0 colour conversion; calibrate before claiming visual parity.
LUT_3D_SIZE 9
DOMAIN_MIN 0 0 0
DOMAIN_MAX 1 1 1
0.2852191 0.2852191 0.2852191
0.2334617 0.2334617 0.2334617
0.2096319 0.2096319 0.2096319
0.2079130 0.2079130 0.2079130
0.2125305 0.2125305 0.2125305
0.2232960 0.2232960 0.2232960
0.2413443 0.2413443 0.2413443
0.2619777 0.2619777 0.2619777
0.2830973 0.2830973 0.2830973
0.2528598 0.2528598 0.2528598
0.2316705 0.2316705 0.2316705
0.2189136 0.2189136 0.2189136
0.2133958 0.2133958 0.2133958
0.2115153 0.2115153 0.2115153
0.2133910 0.2133910 0.2133910
0.2231862 0.2231862 0.2231862
0.2422069 0.2422069 0.2422069
0.2625005 0.2625005 0.2625005
0.2771605 0.2771605 0.2771605
0.2688114 0.2688114 0.2688114
0.2480394 0.2480394 0.2480394
0.2390136 0.2390136 0.2390136
0.2392431 0.2392431 0.2392431
0.2429364 0.2429364 0.2429364
0.2505829 0.2505829 0.2505829
0.2603950 0.2603950 0.2603950
0.2712752 0.2712752 0.2712752
0.3052984 0.3052984 0.3052984
0.3020229 0.3020229 0.3020229
0.2891245 0.2891245 0.2891245
0.2660073 0.2660073 0.2660073
0.2582538 0.2582538 0.2582538
0.2616190 0.2616190 0.2616190
0.2694678 0.2694678 0.2694678
0.2795045 0.2795045 0.2795045
0.2904961 0.2904961 0.2904961
0.3399325 0.3399325 0.3399325
0.3393439 0.3393439 0.3393439
0.3275155 0.3275155 0.3275155
0.3211564 0.3211564 0.3211564
0.2931012 0.2931012 0.2931012
0.2827189 0.2827189 0.2827189
0.2895313 0.2895313 0.2895313
0.2993112 0.2993112 0.2993112
0.3102396 0.3102396 0.3102396
0.3958315 0.3958315 0.3958315
0.3971669 0.3971669 0.3971669
0.3886147 0.3886147 0.3886147
0.3804984 0.3804984 0.3804984
0.3753898 0.3753898 0.3753898
0.3428253 0.3428253 0.3428253
0.3223311 0.3223311 0.3223311
0.3297237 0.3297237 0.3297237
0.3397124 0.3397124 0.3397124
0.4559635 0.4559635 0.4559635
0.4582487 0.4582487 0.4582487
0.4526167 0.4526167 0.4526167
0.4451917 0.4451917 0.4451917
0.4384913 0.4384913 0.4384913
0.4327296 0.4327296 0.4327296
0.3914257 0.3914257 0.3914257
0.3653280 0.3653280 0.3653280
0.3721244 0.3721244 0.3721244
0.5132010 0.5132010 0.5132010
0.5161828 0.5161828 0.5161828
0.5122900 0.5122900 0.5122900
0.5060639 0.5060639 0.5060639
0.4992383 0.4992383 0.4992383
0.4913592 0.4913592 0.4913592
0.4864733 0.4864733 0.4864733
0.4354388 0.4354388 0.4354388
0.4067868 0.4067868 0.4067868
0.5692440 0.5692440 0.5692440
0.5721831 0.5721831 0.5721831
0.5696668 0.5696668 0.5696668
0.5644392 0.5644392 0.5644392
0.5582075 0.5582075 0.5582075
0.5496275 0.5496275 0.5496275
0.5419154 0.5419154 0.5419154
0.5272319 0.5272319 0.5272319
0.4785575 0.4785575 0.4785575
0.2944181 0.2944181 0.2944181
0.2296754 0.2296754 0.2296754
0.2013289 0.2013289 0.2013289
0.2075781 0.2075781 0.2075781
0.2187581 0.2187581 0.2187581
0.2356592 0.2356592 0.2356592
0.2580814 0.2580814 0.2580814
0.2812969 0.2812969 0.2812969
0.3039087 0.3039087 0.3039087
0.2792951 0.2792951 0.2792951
0.2430696 0.2430696 0.2430696
0.2304631 0.2304631 0.2304631
0.2312602 0.2312602 0.2312602
0.2365189 0.2365189 0.2365189
0.2486386 0.2486386 0.2486386
0.2669873 0.2669873 0.2669873
0.2871918 0.2871918 0.2871918
0.3078680 0.3078680 0.3078680
0.2994309 0.2994309 0.2994309
0.2912703 0.2912703 0.2912703
0.2568552 0.2568552 0.2568552
0.2418953 0.2418953 0.2418953
0.2415587 0.2415587 0.2415587
0.2435393 0.2435393 0.2435393
0.2491527 0.2491527 0.2491527
0.2680850 0.2680850 0.2680850
0.2882609 0.2882609 0.2882609
0.3310713 0.3310713 0.3310713
0.3231709 0.3231709 0.3231709
0.3013842 0.3013842 0.3013842
0.2764070 0.2764070 0.2764070
0.2619934 0.2619934 0.2619934
0.2635431 0.2635431 0.2635431
0.2696068 0.2696068 0.2696068
0.2780922 0.2780922 0.2780922
0.2878182 0.2878182 0.2878182
0.3679125 0.3679125 0.3679125
0.3586478 0.3586478 0.3586478
0.3456114 0.3456114 0.3456114
0.3283399 0.3283399 0.3283399
0.3048716 0.3048716 0.3048716
0.2867729 0.2867729 0.2867729
0.2910905 0.2910905 0.2910905
0.2992393 0.2992393 0.2992393
0.3088550 0.3088550 0.3088550
0.4257722 0.4257722 0.4257722
0.4142395 0.4142395 0.4142395
0.4070781 0.4070781 0.4070781
0.3955820 0.3955820 0.3955820
0.3830667 0.3830667 0.3830667
0.3575754 0.3575754 0.3575754
0.3273444 0.3273444 0.3273444
0.3317738 0.3317738 0.3317738
0.3400813 0.3400813 0.3400813
0.4868542 0.4868542 0.4868542
0.4738474 0.4738474 0.4738474
0.4690644 0.4690644 0.4690644
0.4620806 0.4620806 0.4620806
0.4516369 0.4516369 0.4516369
0.4387288 0.4387288 0.4387288
0.4057990 0.4057990 0.4057990
0.3712089 0.3712089 0.3712089
0.3747008 0.3747008 0.3747008
0.5446621 0.5446621 0.5446621
0.5303306 0.5303306 0.5303306
0.5268915 0.5268915 0.5268915
0.5223989 0.5223989 0.5223989
0.5144680 0.5144680 0.5144680
0.5016460 0.5016460 0.5016460
0.4902010 0.4902010 0.4902010
0.4487082 0.4487082 0.4487082
0.4130059 0.4130059 0.4130059
0.6007367 0.6007367 0.6007367
0.5854598 0.5854598 0.5854598
0.5826966 0.5826966 0.5826966
0.5798612 0.5798612 0.5798612
0.5737833 0.5737833 0.5737833
0.5625569 0.5625569 0.5625569
0.5491822 0.5491822 0.5491822
0.5412520 0.5412520 0.5412520
0.4910852 0.4910852 0.4910852
0.2250864 0.2250864 0.2250864
0.2099050 0.2099050 0.2099050
0.1965597 0.1965597 0.1965597
0.1981086 0.1981086 0.1981086
0.2109806 0.2109806 0.2109806
0.2337287 0.2337287 0.2337287
0.2617219 0.2617219 0.2617219
0.2888357 0.2888357 0.2888357
0.3142175 0.3142175 0.3142175
0.2550550 0.2550550 0.2550550
0.2659837 0.2659837 0.2659837
0.2474368 0.2474368 0.2474368
0.2405129 0.2405129 0.2405129
0.2477917 0.2477917 0.2477917
0.2645408 0.2645408 0.2645408
0.2860939 0.2860939 0.2860939
0.3079492 0.3079492 0.3079492
0.3294800 0.3294800 0.3294800
0.2961497 0.2961497 0.2961497
0.3067800 0.3067800 0.3067800
0.3418950 0.3418950 0.3418950
0.2836530 0.2836530 0.2836530
0.2815837 0.2815837 0.2815837
0.2917954 0.2917954 0.2917954
0.3073130 0.3073130 0.3073130
0.3247948 0.3247948 0.3247948
0.3431685 0.3431685 0.3431685
0.3483012 0.3483012 0.3483012
0.3600616 0.3600616 0.3600616
0.3494679 0.3494679 0.3494679
0.2864391 0.2864391 0.2864391
0.2695092 0.2695092 0.2695092
0.2783900 0.2783900 0.2783900
0.2962118 0.2962118 0.2962118
0.3148438 0.3148438 0.3148438
0.3337388 0.3337388 0.3337388
0.3972525 0.3972525 0.3972525
0.3943514 0.3943514 0.3943514
0.3843134 0.3843134 0.3843134
0.3596005 0.3596005 0.3596005
0.3198480 0.3198480 0.3198480
0.2952691 0.2952691 0.2952691
0.3024091 0.3024091 0.3024091
0.3101447 0.3101447 0.3101447
0.3183590 0.3183590 0.3183590
0.4568961 0.4568961 0.4568961
0.4495916 0.4495916 0.4495916
0.4394390 0.4394390 0.4394390
0.4264200 0.4264200 0.4264200
0.4054165 0.4054165 0.4054165
0.3780171 0.3780171 0.3780171
0.3362257 0.3362257 0.3362257
0.3406030 0.3406030 0.3406030
0.3483960 0.3483960 0.3483960
0.5185053 0.5185053 0.5185053
0.5087889 0.5087889 0.5087889
0.4976931 0.4976931 0.4976931
0.4882845 0.4882845 0.4882845
0.4773654 0.4773654 0.4773654
0.4538999 0.4538999 0.4538999
0.4255185 0.4255185 0.4255185
0.3806273 0.3806273 0.3806273
0.3824913 0.3824913 0.3824913
0.5762510 0.5762510 0.5762510
0.5651021 0.5651021 0.5651021
0.5529847 0.5529847 0.5529847
0.5450734 0.5450734 0.5450734
0.5386521 0.5386521 0.5386521
0.5219905 0.5219905 0.5219905
0.4995943 0.4995943 0.4995943
0.4663084 0.4663084 0.4663084
0.4226384 0.4226384 0.4226384
0.6322635 0.6322635 0.6322635
0.6199604 0.6199604 0.6199604
0.6069583 0.6069583 0.6069583
0.5999070 0.5999070 0.5999070
0.5958891 0.5958891 0.5958891
0.5839649 0.5839649 0.5839649
0.5638738 0.5638738 0.5638738
0.5473621 0.5473621 0.5473621
0.5073700 0.5073700 0.5073700
0.2305612 0.2305612 0.2305612
0.2187607 0.2187607 0.2187607
0.2075397 0.2075397 0.2075397
0.2056663 0.2056663 0.2056663
0.2110261 0.2110261 0.2110261
0.2308944 0.2308944 0.2308944
0.2595763 0.2595763 0.2595763
0.2884663 0.2884663 0.2884663
0.3156421 0.3156421 0.3156421
0.2542886 0.2542886 0.2542886
0.2724963 0.2724963 0.2724963
0.2607543 0.2607543 0.2607543
0.2510066 0.2510066 0.2510066
0.2520047 0.2520047 0.2520047
0.2663966 0.2663966 0.2663966
0.2902044 0.2902044 0.2902044
0.3142208 0.3142208 0.3142208
0.3372176 0.3372176 0.3372176
0.3054461 0.3054461 0.3054461
0.3163027 0.3163027 0.3163027
0.3632818 0.3632818 0.3632818
0.3543957 0.3543957 0.3543957
0.3247952 0.3247952 0.3247952
0.3177401 0.3177401 0.3177401
0.3275129 0.3275129 0.3275129
0.3429164 0.3429164 0.3429164
0.3601370 0.3601370 0.3601370
0.3345397 0.3345397 0.3345397
0.3470174 0.3470174 0.3470174
0.3781665 0.3781665 0.3781665
0.4179325 0.4179325 0.4179325
0.3440094 0.3440094 0.3440094
0.3283186 0.3283186 0.3283186
0.3393080 0.3393080 0.3393080
0.3538072 0.3538072 0.3538072
0.3696675 0.3696675 0.3696675
0.3981214 0.3981214 0.3981214
0.4154458 0.4154458 0.4154458
0.4202244 0.4202244 0.4202244
0.4017038 0.4017038 0.4017038
0.3405158 0.3405158 0.3405158
0.3053614 0.3053614 0.3053614
0.3184338 0.3184338 0.3184338
0.3377262 0.3377262 0.3377262
0.3559776 0.3559776 0.3559776
0.4757430 0.4757430 0.4757430
0.4724643 0.4724643 0.4724643
0.4665791 0.4665791 0.4665791
0.4557999 0.4557999 0.4557999
0.4344814 0.4344814 0.4344814
0.3832908 0.3832908 0.3832908
0.3431435 0.3431435 0.3431435
0.3499151 0.3499151 0.3499151
0.3578830 0.3578830 0.3578830
0.5377926 0.5377926 0.5377926
0.5306098 0.5306098 0.5306098
0.5219934 0.5219934 0.5219934
0.5127768 0.5127768 0.5127768
0.4998637 0.4998637 0.4998637
0.4720057 0.4720057 0.4720057
0.4379129 0.4379129 0.4379129
0.3872720 0.3872720 0.3872720
0.3895033 0.3895033 0.3895033
0.5954239 0.5954239 0.5954239
0.5860471 0.5860471 0.5860471
0.5760598 0.5760598 0.5760598
0.5669097 0.5669097 0.5669097
0.5571908 0.5571908 0.5571908
0.5406296 0.5406296 0.5406296
0.5098759 0.5098759 0.5098759
0.4789286 0.4789286 0.4789286
0.4293085 0.4293085 0.4293085
0.6511245 0.6511245 0.6511245
0.6403799 0.6403799 0.6403799
0.6293176 0.6293176 0.6293176
0.6198848 0.6198848 0.6198848
0.6118293 0.6118293 0.6118293
0.6011456 0.6011456 0.6011456
0.5776392 0.5776392 0.5776392
0.5536769 0.5536769 0.5536769
0.5186848 0.5186848 0.5186848
0.2478461 0.2478461 0.2478461
0.2376677 0.2376677 0.2376677
0.2269224 0.2269224 0.2269224
0.2232293 0.2232293 0.2232293
0.2238620 0.2238620 0.2238620
0.2326154 0.2326154 0.2326154
0.2573804 0.2573804 0.2573804
0.2859464 0.2859464 0.2859464
0.3142901 0.3142901 0.3142901
0.2610337 0.2610337 0.2610337
0.2889731 0.2889731 0.2889731
0.2806207 0.2806207 0.2806207
0.2697848 0.2697848 0.2697848
0.2657585 0.2657585 0.2657585
0.2707237 0.2707237 0.2707237
0.2908799 0.2908799 0.2908799
0.3162771 0.3162771 0.3162771
0.3412723 0.3412723 0.3412723
0.3204197 0.3204197 0.3204197
0.3259111 0.3259111 0.3259111
0.3686338 0.3686338 0.3686338
0.3758455 0.3758455 0.3758455
0.3514694 0.3514694 0.3514694
0.3391624 0.3391624 0.3391624
0.3435662 0.3435662 0.3435662
0.3583063 0.3583063 0.3583063
0.3754470 0.3754470 0.3754470
0.3510897 0.3510897 0.3510897
0.3619726 0.3619726 0.3619726
0.3992675 0.3992675 0.3992675
0.4681040 0.4681040 0.4681040
0.4572373 0.4572373 0.4572373
0.3918420 0.3918420 0.3918420
0.3760919 0.3760919 0.3760919
0.3817830 0.3817830 0.3817830
0.3939147 0.3939147 0.3939147
0.3830165 0.3830165 0.3830165
0.3956177 0.3956177 0.3956177
0.4233724 0.4233724 0.4233724
0.4574413 0.4574413 0.4574413
0.4999532 0.4999532 0.4999532
0.4134975 0.4134975 0.4134975
0.3871929 0.3871929 0.3871929
0.3932677 0.3932677 0.3932677
0.4047661 0.4047661 0.4047661
0.4858377 0.4858377 0.4858377
0.4998688 0.4998688 0.4998688
0.5036013 0.5036013 0.5036013
0.5015797 0.5015797 0.5015797
0.4868714 0.4868714 0.4868714
0.4204670 0.4204670 0.4204670
0.3560304 0.3560304 0.3560304
0.3689726 0.3689726 0.3689726
0.3763859 0.3763859 0.3763859
0.5600574 0.5600574 0.5600574
0.5573093 0.5573093 0.5573093
0.5537834 0.5537834 0.5537834
0.5477914 0.5477914 0.5477914
0.5374157 0.5374157 0.5374157
0.5087404 0.5087404 0.5087404
0.4462262 0.4462262 0.4462262
0.3961730 0.3961730 0.3961730
0.4010495 0.4010495 0.4010495
0.6180435 0.6180435 0.6180435
0.6119168 0.6119168 0.6119168
0.6049786 0.6049786 0.6049786
0.5981499 0.5981499 0.5981499
0.5891175 0.5891175 0.5891175
0.5702017 0.5702017 0.5702017
0.5313528 0.5313528 0.5313528
0.4942654 0.4942654 0.4942654
0.4379557 0.4379557 0.4379557
0.6736326 0.6736326 0.6736326
0.6653518 0.6653518 0.6653518
0.6565403 0.6565403 0.6565403
0.6491348 0.6491348 0.6491348
0.6403966 0.6403966 0.6403966
0.6259164 0.6259164 0.6259164
0.6010206 0.6010206 0.6010206
0.5659006 0.5659006 0.5659006
0.5342241 0.5342241 0.5342241
0.2834458 0.2834458 0.2834458
0.2743859 0.2743859 0.2743859
0.2633842 0.2633842 0.2633842
0.2576486 0.2576486 0.2576486
0.2550742 0.2550742 0.2550742
0.2559543 0.2559543 0.2559543
0.2630940 0.2630940 0.2630940
0.2850966 0.2850966 0.2850966
0.3111877 0.3111877 0.3111877
0.2815382 0.2815382 0.2815382
0.3218871 0.3218871 0.3218871
0.3155336 0.3155336 0.3155336
0.3049742 0.3049742 0.3049742
0.2976911 0.2976911 0.2976911
0.2941548 0.2941548 0.2941548
0.2991927 0.2991927 0.2991927
0.3174100 0.3174100 0.3174100
0.3414220 0.3414220 0.3414220
0.3461925 0.3461925 0.3461925
0.3407150 0.3407150 0.3407150
0.3885666 0.3885666 0.3885666
0.3958005 0.3958005 0.3958005
0.3801554 0.3801554 0.3801554
0.3651447 0.3651447 0.3651447
0.3621745 0.3621745 0.3621745
0.3700833 0.3700833 0.3700833
0.3872805 0.3872805 0.3872805
0.3807392 0.3807392 0.3807392
0.3851049 0.3851049 0.3851049
0.4019015 0.4019015 0.4019015
0.4528832 0.4528832 0.4528832
0.4605875 0.4605875 0.4605875
0.4305469 0.4305469 0.4305469
0.4145779 0.4145779 0.4145779
0.4107915 0.4107915 0.4107915
0.4204666 0.4204666 0.4204666
0.4129749 0.4129749 0.4129749
0.4215986 0.4215986 0.4215986
0.4480984 0.4480984 0.4480984
0.4787675 0.4787675 0.4787675
0.5231225 0.5231225 0.5231225
0.5236642 0.5236642 0.5236642
0.4771778 0.4771778 0.4771778
0.4534724 0.4534724 0.4534724
0.4525562 0.4525562 0.4525562
0.4605127 0.4605127 0.4605127
0.4720616 0.4720616 0.4720616
0.4958667 0.4958667 0.4958667
0.5221149 0.5221149 0.5221149
0.5552931 0.5552931 0.5552931
0.6165338 0.6165338 0.6165338
0.5621182 0.5621182 0.5621182
0.4819551 0.4819551 0.4819551
0.4742465 0.4742465 0.4742465
0.5527371 0.5527371 0.5527371
0.5689321 0.5689321 0.5689321
0.5924277 0.5924277 0.5924277
0.6118600 0.6118600 0.6118600
0.6159661 0.6159661 0.6159661
0.6115478 0.6115478 0.6115478
0.5369534 0.5369534 0.5369534
0.4185665 0.4185665 0.4185665
0.4370153 0.4370153 0.4370153
0.6526221 0.6526221 0.6526221
0.6527883 0.6527883 0.6527883
0.6541898 0.6541898 0.6541898
0.6543998 0.6543998 0.6543998
0.6521976 0.6521976 0.6521976
0.6416403 0.6416403 0.6416403
0.6053265 0.6053265 0.6053265
0.5153787 0.5153787 0.5153787
0.4526450 0.4526450 0.4526450
0.7089772 0.7089772 0.7089772
0.7059293 0.7059293 0.7059293
0.7031239 0.7031239 0.7031239
0.7000786 0.7000786 0.7000786
0.6955019 0.6955019 0.6955019
0.6848651 0.6848651 0.6848651
0.6590512 0.6590512 0.6590512
0.6097699 0.6097699 0.6097699
0.5535428 0.5535428 0.5535428
0.3207525 0.3207525 0.3207525
0.3119459 0.3119459 0.3119459
0.3007133 0.3007133 0.3007133
0.2939214 0.2939214 0.2939214
0.2895060 0.2895060 0.2895060
0.2869908 0.2869908 0.2869908
0.2890912 0.2890912 0.2890912
0.2963409 0.2963409 0.2963409
0.3138083 0.3138083 0.3138083
0.3206449 0.3206449 0.3206449
0.3565989 0.3565989 0.3565989
0.3506641 0.3506641 0.3506641
0.3405810 0.3405810 0.3405810
0.3325230 0.3325230 0.3325230
0.3255866 0.3255866 0.3255866
0.3241207 0.3241207 0.3241207
0.3299512 0.3299512 0.3299512
0.3452434 0.3452434 0.3452434
0.3701029 0.3701029 0.3701029
0.3560807 0.3560807 0.3560807
0.4145982 0.4145982 0.4145982
0.4203037 0.4203037 0.4203037
0.4081306 0.4081306 0.4081306
0.3935838 0.3935838 0.3935838
0.3844218 0.3844218 0.3844218
0.3859613 0.3859613 0.3859613
0.3955801 0.3955801 0.3955801
0.4082192 0.4082192 0.4082192
0.4047743 0.4047743 0.4047743
0.4123318 0.4123318 0.4123318
0.4671436 0.4671436 0.4671436
0.4735594 0.4735594 0.4735594
0.4534547 0.4534547 0.4534547
0.4358620 0.4358620 0.4358620
0.4319323 0.4319323 0.4319323
0.4355620 0.4355620 0.4355620
0.4426197 0.4426197 0.4426197
0.4458662 0.4458662 0.4458662
0.4601773 0.4601773 0.4601773
0.4734090 0.4734090 0.4734090
0.5227880 0.5227880 0.5227880
0.5307368 0.5307368 0.5307368
0.5009541 0.5009541 0.5009541
0.4872405 0.4872405 0.4872405
0.4816934 0.4816934 0.4816934
0.4895978 0.4895978 0.4895978
0.4971245 0.4971245 0.4971245
0.5172398 0.5172398 0.5172398
0.5399504 0.5399504 0.5399504
0.5664520 0.5664520 0.5664520
0.6023673 0.6023673 0.6023673
0.6290747 0.6290747 0.6290747
0.5832663 0.5832663 0.5832663
0.5528667 0.5528667 0.5528667
0.5386141 0.5386141 0.5386141
0.5490487 0.5490487 0.5490487
0.5689596 0.5689596 0.5689596
0.5890016 0.5890016 0.5890016
0.6120544 0.6120544 0.6120544
0.6513827 0.6513827 0.6513827
0.7235699 0.7235699 0.7235699
0.7198214 0.7198214 0.7198214
0.5939571 0.5939571 0.5939571
0.6122190 0.6122190 0.6122190
0.6265331 0.6265331 0.6265331
0.6478864 0.6478864 0.6478864
0.6665161 0.6665161 0.6665161
0.6853944 0.6853944 0.6853944
0.7117804 0.7117804 0.7117804
0.7340451 0.7340451 0.7340451
0.7109644 0.7109644 0.7109644
0.4676506 0.4676506 0.4676506
0.7299612 0.7299612 0.7299612
0.7427349 0.7427349 0.7427349
0.7468150 0.7468150 0.7468150
0.7501946 0.7501946 0.7501946
0.7529259 0.7529259 0.7529259
0.7542517 0.7542517 0.7542517
0.7471829 0.7471829 0.7471829
0.7134446 0.7134446 0.7134446
0.5984747 0.5984747 0.5984747
0.3410361 0.3410361 0.3410361
0.3366011 0.3366011 0.3366011
0.3304324 0.3304324 0.3304324
0.3265873 0.3265873 0.3265873
0.3225815 0.3225815 0.3225815
0.3179920 0.3179920 0.3179920
0.3168388 0.3168388 0.3168388
0.3202973 0.3202973 0.3202973
0.3277696 0.3277696 0.3277696
0.3400515 0.3400515 0.3400515
0.3729742 0.3729742 0.3729742
0.3724827 0.3724827 0.3724827
0.3676232 0.3676232 0.3676232
0.3636388 0.3636388 0.3636388
0.3572842 0.3572842 0.3572842
0.3522454 0.3522454 0.3522454
0.3532630 0.3532630 0.3532630
0.3597544 0.3597544 0.3597544
0.3739786 0.3739786 0.3739786
0.3700016 0.3700016 0.3700016
0.4224613 0.4224613 0.4224613
0.4318100 0.4318100 0.4318100
0.4270408 0.4270408 0.4270408
0.4212455 0.4212455 0.4212455
0.4112454 0.4112454 0.4112454
0.4073523 0.4073523 0.4073523
0.4111620 0.4111620 0.4111620
0.4158916 0.4158916 0.4158916
0.4034474 0.4034474 0.4034474
0.4206432 0.4206432 0.4206432
0.4667639 0.4667639 0.4667639
0.4777873 0.4777873 0.4777873
0.4711032 0.4711032 0.4711032
0.4612223 0.4612223 0.4612223
0.4521297 0.4521297 0.4521297
0.4528266 0.4528266 0.4528266
0.4567701 0.4567701 0.4567701
0.4499629 0.4499629 0.4499629
0.4501354 0.4501354 0.4501354
0.4642142 0.4642142 0.4642142
0.5130588 0.5130588 0.5130588
0.5306534 0.5306534 0.5306534
0.5226970 0.5226970 0.5226970
0.5071083 0.5071083 0.5071083
0.5026547 0.5026547 0.5026547
0.5156958 0.5156958 0.5156958
0.5144060 0.5144060 0.5144060
0.5218463 0.5218463 0.5218463
0.5318000 0.5318000 0.5318000
0.5430948 0.5430948 0.5430948
0.5798824 0.5798824 0.5798824
0.6214067 0.6214067 0.6214067
0.6073430 0.6073430 0.6073430
0.5886571 0.5886571 0.5886571
0.5641440 0.5641440 0.5641440
0.5712822 0.5712822 0.5712822
0.5882911 0.5882911 0.5882911
0.6061155 0.6061155 0.6061155
0.6212102 0.6212102 0.6212102
0.6449356 0.6449356 0.6449356
0.6758146 0.6758146 0.6758146
0.7291794 0.7291794 0.7291794
0.6974066 0.6974066 0.6974066
0.6100274 0.6100274 0.6100274
0.6198221 0.6198221 0.6198221
0.6375676 0.6375676 0.6375676
0.6548697 0.6548697 0.6548697
0.6741179 0.6741179 0.6741179
0.7049800 0.7049800 0.7049800
0.7530559 0.7530559 0.7530559
0.8003184 0.8003184 0.8003184
0.8495266 0.8495266 0.8495266
0.6727693 0.6727693 0.6727693
0.6860333 0.6860333 0.6860333
0.7057397 0.7057397 0.7057397
0.7230163 0.7230163 0.7230163
0.7407520 0.7407520 0.7407520
0.7662574 0.7662574 0.7662574
0.7987420 0.7987420 0.7987420
0.8307275 0.8307275 0.8307275
0.8336309 0.8336309 0.8336309
0.3410361 0.3410361 0.3410361
0.3368740 0.3368740 0.3368740
0.3310105 0.3310105 0.3310105
0.3272235 0.3272235 0.3272235
0.3247048 0.3247048 0.3247048
0.3233914 0.3233914 0.3233914
0.3253808 0.3253808 0.3253808
0.3301162 0.3301162 0.3301162
0.3363665 0.3363665 0.3363665
0.3403025 0.3403025 0.3403025
0.3710445 0.3710445 0.3710445
0.3705907 0.3705907 0.3705907
0.3660193 0.3660193 0.3660193
0.3621178 0.3621178 0.3621178
0.3586553 0.3586553 0.3586553
0.3584354 0.3584354 0.3584354
0.3630709 0.3630709 0.3630709
0.3680414 0.3680414 0.3680414
0.3672767 0.3672767 0.3672767
0.3686185 0.3686185 0.3686185
0.4169525 0.4169525 0.4169525
0.4255828 0.4255828 0.4255828
0.4211864 0.4211864 0.4211864
0.4155523 0.4155523 0.4155523
0.4120865 0.4120865 0.4120865
0.4145886 0.4145886 0.4145886
0.4187172 0.4187172 0.4187172
0.4075575 0.4075575 0.4075575
0.3943032 0.3943032 0.3943032
0.4155553 0.4155553 0.4155553
0.4578768 0.4578768 0.4578768
0.4680620 0.4680620 0.4680620
0.4618732 0.4618732 0.4618732
0.4560913 0.4560913 0.4560913
0.4562950 0.4562950 0.4562950
0.4598607 0.4598607 0.4598607
0.4466751 0.4466751 0.4466751
0.4388877 0.4388877 0.4388877
0.4369547 0.4369547 0.4369547
0.4559086 0.4559086 0.4559086
0.5005985 0.5005985 0.5005985
0.5168477 0.5168477 0.5168477
0.5092157 0.5092157 0.5092157
0.5063825 0.5063825 0.5063825
0.5093204 0.5093204 0.5093204
0.5024798 0.5024798 0.5024798
0.5000349 0.5000349 0.5000349
0.5054054 0.5054054 0.5054054
0.5132804 0.5132804 0.5132804
0.5221806 0.5221806 0.5221806
0.5623224 0.5623224 0.5623224
0.6004229 0.6004229 0.6004229
0.5929086 0.5929086 0.5929086
0.5945526 0.5945526 0.5945526
0.5607788 0.5607788 0.5607788
0.5625346 0.5625346 0.5625346
0.5719633 0.5719633 0.5719633
0.5831156 0.5831156 0.5831156
0.5962186 0.5962186 0.5962186
0.6167919 0.6167919 0.6167919
0.6425984 0.6425984 0.6425984
0.6987450 0.6987450 0.6987450
0.6931179 0.6931179 0.6931179
0.6182513 0.6182513 0.6182513
0.6244038 0.6244038 0.6244038
0.6375867 0.6375867 0.6375867
0.6508783 0.6508783 0.6508783
0.6656086 0.6656086 0.6656086
0.6883904 0.6883904 0.6883904
0.7201570 0.7201570 0.7201570
0.7562359 0.7562359 0.7562359
0.8062257 0.8062257 0.8062257
0.6648972 0.6648972 0.6648972
0.6764885 0.6764885 0.6764885
0.6947949 0.6947949 0.6947949
0.7114668 0.7114668 0.7114668
0.7290655 0.7290655 0.7290655
0.7552886 0.7552886 0.7552886
0.7909491 0.7909491 0.7909491
0.8334179 0.8334179 0.8334179
0.8820633 0.8820633 0.8820633
