catalog/styles/experimental/experimental-lightning/look.cube
# experimental-lightning iteration 19
LUT_3D_SIZE 33
DOMAIN_MIN 0 0 0
DOMAIN_MAX 1 1 1
0.2687124 0.2517870 0.2275899
0.2473711 0.2315822 0.2107953
0.2256574 0.2112959 0.1943669
0.2119429 0.1983206 0.1845079
0.2102596 0.1960611 0.1843578
0.2209974 0.2052946 0.1950793
0.2434289 0.2265619 0.2182220
0.2761188 0.2599479 0.2548272
0.3146191 0.3019239 0.3020436
0.3464053 0.3395124 0.3465079
0.3581125 0.3581929 0.3729074
0.3504691 0.3577906 0.3805299
0.3425201 0.3566215 0.3874291
0.3508377 0.3705445 0.4092874
0.3785332 0.4020444 0.4479361
0.4161476 0.4413865 0.4929380
0.4554687 0.4809911 0.5362251
0.4902716 0.5158678 0.5724795
0.5173690 0.5432881 0.6001574
0.5356575 0.5620474 0.6190300
0.5470461 0.5740256 0.6313485
0.5536357 0.5815029 0.6396118
0.5630885 0.5923214 0.6519872
0.5845535 0.6154287 0.6778593
0.6178407 0.6506454 0.7166536
0.6567997 0.6915960 0.7613947
0.6984539 0.7352677 0.8089209
0.7413268 0.7802852 0.8578917
0.7845837 0.8259405 0.9075847
0.8278162 0.8718961 0.9576421
0.8709236 0.9178867 1.0000000
0.9137919 0.9639153 1.0000000
0.9564761 1.0000000 1.0000000
0.2200691 0.2071359 0.1866922
0.2009991 0.1899392 0.1743943
0.1796811 0.1707846 0.1600755
0.1672411 0.1600267 0.1530656
0.1669786 0.1599184 0.1547098
0.1777725 0.1693823 0.1642021
0.1987180 0.1887061 0.1835391
0.2279995 0.2178246 0.2143376
0.2625743 0.2547967 0.2556236
0.2956066 0.2924922 0.2999759
0.3195504 0.3223417 0.3377710
0.3322702 0.3413470 0.3651704
0.3425284 0.3574224 0.3896855
0.3608467 0.3805565 0.4208528
0.3895689 0.4127373 0.4598128
0.4229925 0.4480462 0.5002959
0.4580054 0.4839459 0.5396752
0.4909194 0.5174237 0.5749160
0.5181949 0.5451722 0.6033878
0.5394983 0.5669758 0.6254345
0.5561464 0.5842235 0.6428323
0.5709796 0.5998646 0.6589192
0.5887252 0.6186630 0.6787122
0.6132273 0.6443920 0.7062296
0.6444757 0.6770657 0.7413605
0.6802067 0.7143540 0.7815676
0.7183743 0.7541775 0.8246936
0.7576945 0.7953600 0.8693917
0.7974303 0.8372353 0.9149202
0.8372235 0.8794583 0.9608490
0.8769224 0.9217395 1.0000000
0.9164479 0.9640192 1.0000000
0.9559288 1.0000000 1.0000000
0.1689769 0.1610313 0.1449327
0.1442176 0.1379102 0.1274599
0.1240271 0.1197110 0.1143275
0.1171617 0.1148261 0.1130707
0.1247577 0.1231717 0.1223695
0.1449987 0.1425270 0.1408216
0.1722675 0.1682530 0.1661188
0.2001017 0.1955611 0.1948382
0.2289365 0.2259220 0.2291575
0.2593453 0.2600124 0.2694117
0.2892722 0.2948584 0.3120617
0.3161743 0.3271537 0.3530123
0.3430110 0.3590641 0.3936062
0.3732943 0.3935821 0.4359635
0.4059709 0.4293155 0.4779983
0.4377858 0.4630251 0.5163669
0.4693014 0.4958023 0.5523064
0.4992609 0.5266568 0.5850624
0.5257308 0.5537825 0.6130893
0.5484964 0.5770879 0.6366234
0.5687674 0.5979291 0.6573461
0.5890376 0.6188277 0.6782666
0.6121127 0.6425978 0.7024472
0.6392478 0.6705669 0.7313698
0.6699102 0.7022549 0.7646126
0.7031951 0.7366916 0.8012464
0.7381403 0.7729528 0.8402555
0.7739621 0.8103624 0.8807568
0.8101830 0.8484547 0.9221636
0.8465368 0.8869232 0.9640297
0.8828386 0.9254962 1.0000000
0.9190759 0.9640796 1.0000000
0.9553529 1.0000000 1.0000000
0.1344580 0.1317602 0.1197166
0.0991894 0.0970359 0.0904791
0.0704632 0.0687358 0.0664492
0.0630748 0.0617737 0.0612209
0.0856149 0.0851629 0.0841130
0.1305568 0.1309718 0.1298271
0.1787842 0.1798834 0.1813778
0.2087934 0.2101991 0.2163328
0.2247085 0.2270768 0.2372184
0.2421540 0.2469603 0.2613446
0.2695672 0.2781945 0.2992546
0.3032777 0.3166682 0.3462310
0.3443652 0.3623437 0.4002952
0.3868215 0.4083449 0.4534285
0.4253971 0.4494051 0.5000125
0.4589923 0.4848413 0.5394975
0.4889218 0.5162116 0.5736838
0.5163034 0.5446770 0.6039022
0.5413150 0.5704346 0.6304172
0.5642845 0.5939102 0.6538287
0.5862524 0.6162767 0.6757239
0.6091793 0.6395506 0.6985529
0.6348987 0.6656453 0.7244907
0.6635171 0.6947749 0.7539078
0.6939404 0.7258590 0.7859214
0.7253599 0.7581013 0.8198041
0.7574096 0.7912045 0.8552118
0.7899114 0.8250514 0.8917924
0.8226724 0.8594296 0.9292148
0.8555742 0.8941717 0.9670918
0.8885514 0.9290808 1.0000000
0.9216035 0.9640861 1.0000000
0.9547555 0.9991007 1.0000000
0.1305764 0.1325681 0.1230338
0.0965590 0.0977927 0.0934722
0.0699078 0.0698373 0.0690656
0.0664752 0.0647996 0.0640472
0.0922768 0.0905861 0.0873500
0.1483011 0.1492779 0.1474489
0.2225898 0.2284219 0.2361410
0.2657794 0.2748900 0.2956188
0.2687706 0.2789315 0.3040037
0.2650967 0.2754860 0.2998983
0.2793605 0.2919551 0.3200319
0.3099322 0.3267199 0.3621670
0.3560227 0.3767727 0.4194564
0.4066585 0.4298098 0.4781950
0.4496722 0.4746208 0.5274713
0.4847075 0.5114354 0.5676436
0.5146601 0.5429058 0.6015030
0.5406831 0.5700200 0.6299288
0.5643075 0.5943839 0.6544377
0.5867902 0.6172048 0.6766258
0.6090959 0.6396410 0.6980695
0.6327842 0.6633629 0.7208599
0.6590864 0.6897473 0.7466361
0.6876754 0.7185002 0.7752972
0.7171117 0.7482968 0.8056890
0.7465323 0.7783494 0.8370098
0.7758462 0.8085895 0.8691986
0.8051831 0.8390875 0.9022047
0.8346388 0.8699082 0.9358425
0.8642595 0.9010456 0.9698726
0.8940459 0.9324634 1.0000000
0.9239832 0.9640168 1.0000000
0.9540169 0.9956644 1.0000000
0.1629333 0.1682446 0.1597491
0.1452267 0.1494155 0.1466091
0.1375707 0.1404815 0.1422725
0.1510218 0.1526203 0.1565014
0.1681118 0.1690407 0.1711136
0.1914739 0.1941328 0.1968719
0.2535640 0.2622807 0.2779897
0.3277413 0.3447067 0.3815423
0.3633278 0.3852281 0.4300197
0.3508158 0.3694110 0.4087332
0.3317521 0.3493781 0.3867585
0.3520118 0.3726077 0.4148167
0.3964445 0.4198152 0.4676054
0.4470558 0.4716395 0.5237222
0.4853976 0.5116195 0.5670263
0.5157623 0.5437621 0.6019306
0.5447652 0.5741827 0.6340946
0.5699913 0.6003630 0.6605353
0.5924924 0.6233709 0.6826110
0.6144108 0.6453247 0.7030911
0.6369316 0.6676212 0.7237737
0.6605091 0.6909082 0.7456838
0.6858170 0.7159651 0.7699241
0.7126293 0.7426737 0.7964657
0.7398249 0.7700181 0.8243407
0.7667098 0.7974317 0.8529067
0.7932358 0.8248086 0.8820283
0.8195968 0.8521962 0.9117134
0.8459639 0.8797157 0.9418256
0.8724862 0.9074962 0.9722317
0.8992258 0.9355891 1.0000000
0.9261193 0.9638868 1.0000000
0.9530594 0.9922497 1.0000000
0.2218372 0.2292649 0.2218232
0.2223765 0.2291786 0.2286574
0.2307657 0.2374176 0.2436704
0.2548649 0.2624746 0.2754523
0.2768178 0.2860607 0.3043252
0.2745912 0.2844163 0.3046028
0.2802799 0.2924268 0.3177224
0.3319607 0.3508541 0.3885489
0.4299767 0.4553953 0.5059619
0.4813655 0.5071918 0.5595675
0.4091459 0.4322034 0.4790058
0.4083060 0.4316985 0.4796865
0.4496539 0.4744891 0.5265264
0.4963336 0.5226488 0.5781618
0.5286285 0.5570865 0.6156056
0.5488227 0.5786703 0.6394806
0.5751712 0.6059181 0.6673588
0.6019061 0.6333565 0.6931909
0.6234163 0.6548689 0.7121896
0.6455638 0.6765068 0.7312489
0.6688018 0.6990442 0.7515563
0.6916536 0.7212472 0.7722383
0.7145116 0.7436392 0.7939514
0.7381013 0.7670168 0.8173647
0.7620498 0.7910633 0.8420739
0.7859264 0.8153899 0.8675936
0.8095808 0.8398264 0.8936927
0.8330990 0.8642643 0.9202236
0.8566003 0.8887696 0.9470465
0.8802284 0.9135062 0.9741234
0.9040312 0.9384609 1.0000000
0.9279022 0.9635990 1.0000000
0.9518174 0.9888078 1.0000000
0.2912311 0.3006259 0.2957860
0.3020603 0.3116166 0.3149433
0.3136214 0.3238588 0.3355974
0.3295430 0.3415380 0.3623279
0.3441721 0.3588302 0.3887598
0.3494484 0.3662057 0.4025895
0.3444707 0.3622526 0.4003240
0.3519454 0.3715503 0.4113827
0.3972000 0.4199348 0.4648600
0.4402000 0.4650948 0.5142250
0.4383563 0.4632583 0.5133964
0.4597960 0.4851302 0.5382211
0.4959801 0.5230336 0.5795141
0.5309837 0.5603378 0.6195514
0.5592233 0.5904541 0.6525678
0.5729670 0.6047854 0.6684073
0.5905125 0.6226766 0.6854165
0.6280351 0.6606731 0.7195071
0.6547013 0.6865059 0.7408994
0.6800272 0.7104918 0.7608491
0.7035488 0.7327425 0.7804433
0.7240714 0.7523386 0.7988019
0.7434516 0.7711684 0.8174315
0.7632267 0.7907570 0.8374358
0.7835877 0.8112352 0.8588044
0.8042222 0.8322930 0.8811912
0.8249275 0.8536999 0.9042638
0.8456853 0.8752927 0.9277855
0.8665075 0.8970429 0.9515588
0.8874285 0.9189762 0.9755866
0.9084025 0.9410458 0.9998529
0.9293702 0.9631824 1.0000000
0.9503090 0.9853300 1.0000000
0.3571330 0.3686778 0.3690708
0.3690827 0.3814431 0.3906436
0.3785424 0.3920526 0.4102015
0.3862294 0.4014730 0.4287042
0.3917546 0.4091564 0.4448901
0.3957511 0.4152307 0.4571907
0.3969021 0.4176450 0.4619026
0.3983741 0.4196212 0.4638580
0.4131924 0.4354826 0.4811060
0.4378949 0.4617853 0.5106296
0.4649422 0.4903231 0.5428002
0.4962443 0.5233892 0.5800190
0.5280791 0.5578648 0.6186913
0.5586431 0.5909119 0.6547568
0.5847205 0.6183668 0.6832705
0.6008584 0.6349483 0.6990400
0.6011455 0.6351396 0.6974012
0.6302122 0.6637492 0.7216439
0.6800924 0.7117663 0.7623787
0.7160202 0.7453463 0.7902972
0.7384608 0.7659592 0.8081627
0.7553162 0.7817908 0.8234593
0.7710092 0.7969891 0.8391399
0.7871065 0.8130390 0.8560599
0.8040110 0.8301575 0.8743510
0.8215029 0.8480894 0.8937407
0.8393165 0.8665638 0.9138488
0.8574124 0.8854379 0.9344711
0.8756937 0.9045781 0.9554238
0.8940527 0.9238775 0.9766449
0.9123602 0.9432676 0.9981258
0.9305477 0.9626263 1.0000000
0.9486640 0.9819320 1.0000000
0.4148262 0.4286883 0.4369185
0.4229283 0.4381138 0.4547969
0.4288078 0.4453659 0.4704803
0.4318230 0.4499037 0.4830672
0.4332770 0.4529809 0.4930572
0.4372302 0.4585107 0.5036090
0.4445283 0.4671322 0.5150752
0.4542492 0.4777358 0.5271928
0.4684680 0.4927024 0.5438434
0.4888075 0.5139199 0.5674937
0.5131050 0.5394421 0.5955874
0.5367132 0.5649746 0.6235864
0.5594409 0.5904801 0.6519777
0.5837980 0.6175528 0.6816584
0.6082330 0.6435956 0.7076246
0.6287296 0.6644089 0.7250822
0.6365122 0.6717875 0.7280642
0.6486306 0.6827134 0.7347041
0.6992830 0.7298632 0.7746701
0.7418520 0.7691888 0.8086073
0.7664278 0.7917556 0.8289882
0.7821017 0.8064793 0.8438286
0.7956151 0.8196709 0.8579371
0.8090786 0.8332392 0.8726899
0.8230726 0.8476013 0.8884361
0.8377067 0.8627536 0.9051387
0.8528356 0.8785233 0.9225143
0.8683640 0.8947997 0.9404221
0.8841649 0.9114110 0.9587181
0.9000462 0.9282305 0.9773807
0.9158617 0.9451251 0.9963534
0.9315400 0.9619862 1.0000000
0.9471251 0.9787505 1.0000000
0.4660918 0.4826840 0.5006043
0.4700600 0.4881136 0.5134171
0.4728846 0.4923570 0.5248265
0.4743577 0.4951894 0.5343010
0.4762664 0.4984648 0.5432822
0.4823951 0.5060138 0.5552937
0.4954057 0.5204741 0.5728856
0.5106950 0.5368232 0.5914536
0.5276221 0.5543759 0.6108126
0.5475866 0.5746635 0.6323594
0.5677132 0.5952699 0.6531834
0.5852114 0.6139579 0.6715403
0.6012820 0.6321406 0.6898162
0.6196743 0.6528706 0.7110185
0.6422933 0.6769933 0.7337679
0.6634152 0.6976178 0.7500159
0.6792861 0.7117084 0.7585621
0.6904034 0.7211880 0.7633090
0.7230287 0.7508580 0.7887766
0.7593115 0.7843207 0.8193464
0.7853425 0.8085188 0.8422505
0.8028321 0.8251048 0.8589958
0.8163805 0.8383920 0.8731812
0.8285448 0.8507596 0.8867546
0.8404841 0.8632222 0.9006516
0.8527063 0.8760894 0.9151203
0.8653905 0.8894640 0.9301362
0.8785170 0.9033513 0.9456317
0.8919316 0.9176176 0.9615420
0.9054882 0.9321051 0.9778886
0.9190126 0.9467105 0.9945790
0.9324687 0.9613444 1.0000000
0.9458367 0.9759605 1.0000000
0.5136235 0.5334301 0.5622204
0.5153955 0.5365679 0.5711992
0.5169637 0.5394899 0.5796697
0.5188327 0.5425731 0.5878870
0.5227771 0.5476885 0.5975490
0.5317942 0.5579786 0.6116843
0.5469463 0.5743873 0.6310629
0.5592864 0.5876838 0.6457390
0.5707612 0.5995025 0.6578205
0.5869659 0.6156051 0.6733018
0.6050132 0.6335366 0.6894558
0.6211512 0.6500130 0.7035568
0.6376356 0.6673760 0.7186607
0.6581814 0.6888083 0.7378340
0.6851338 0.7156458 0.7610593
0.7063977 0.7350888 0.7757527
0.7179756 0.7446820 0.7815627
0.7295334 0.7555419 0.7900843
0.7513114 0.7756904 0.8089148
0.7774986 0.7999713 0.8320839
0.8009327 0.8219753 0.8531823
0.8192456 0.8394884 0.8705706
0.8334636 0.8534572 0.8850891
0.8452700 0.8654634 0.8980912
0.8559473 0.8767208 0.9107058
0.8663335 0.8878568 0.9234384
0.8769212 0.8992283 0.9365131
0.8878356 0.9110190 0.9500070
0.8990740 0.9231681 0.9639213
0.9104953 0.9355711 0.9782469
0.9219729 0.9481493 0.9928664
0.9334318 0.9608572 1.0000000
0.9448434 0.9736295 1.0000000
0.5596852 0.5830514 0.6232192
0.5611112 0.5857141 0.6299893
0.5629110 0.5886500 0.6368697
0.5657796 0.5925541 0.6443915
0.5707790 0.5985179 0.6535280
0.5784627 0.6071520 0.6647843
0.5875833 0.6171234 0.6764266
0.5954086 0.6255203 0.6850411
0.6036405 0.6338015 0.6922650
0.6161858 0.6459300 0.7022056
0.6324205 0.6616091 0.7147690
0.6490980 0.6778210 0.7273407
0.6671935 0.6955460 0.7412403
0.6891734 0.7168347 0.7584399
0.7148168 0.7407616 0.7778832
0.7373867 0.7607062 0.7938375
0.7508546 0.7722543 0.8040349
0.7623854 0.7835813 0.8155005
0.7781242 0.7989440 0.8304829
0.7974996 0.8173365 0.8475075
0.8168776 0.8356750 0.8646535
0.8339248 0.8520373 0.8804881
0.8479690 0.8658403 0.8945076
0.8595273 0.8775898 0.9070204
0.8694056 0.8880560 0.9187064
0.8784694 0.8979161 0.9301135
0.8873561 0.9077423 0.9416589
0.8963681 0.9177811 0.9535124
0.9056529 0.9281280 0.9657732
0.9151688 0.9387283 0.9783866
0.9248159 0.9495618 0.9912246
0.9345057 0.9605995 1.0000000
0.9442199 0.9717524 1.0000000
0.6057734 0.6328806 0.6845491
0.6078681 0.6359705 0.6900302
0.6104130 0.6394090 0.6957851
0.6139298 0.6437088 0.7021669
0.6186408 0.6490823 0.7092704
0.6240970 0.6550806 0.7164315
0.6293810 0.6607592 0.7223485
0.6343742 0.6658996 0.7265085
0.6405137 0.6717535 0.7301182
0.6499406 0.6804639 0.7355439
0.6633320 0.6928695 0.7439025
0.6792937 0.7076727 0.7542193
0.6973049 0.7243147 0.7662356
0.7175636 0.7428456 0.7802992
0.7389678 0.7620418 0.7958091
0.7592446 0.7799750 0.8117171
0.7756235 0.7948044 0.8266440
0.7886862 0.8073482 0.8394595
0.8025597 0.8206463 0.8511193
0.8180052 0.8352334 0.8635695
0.8335802 0.8499621 0.8767176
0.8481752 0.8639884 0.8899122
0.8609970 0.8766026 0.9024630
0.8718826 0.8877152 0.9141244
0.8810378 0.8974604 0.9249266
0.8890630 0.9063620 0.9352888
0.8966051 0.9150147 0.9456449
0.9040855 0.9236760 0.9562273
0.9117427 0.9325462 0.9671354
0.9196138 0.9416392 0.9783097
0.9276208 0.9510243 0.9895851
0.9357718 0.9606066 1.0000000
0.9440053 0.9702970 1.0000000
0.6526037 0.6834602 0.7465093
0.6554827 0.6870087 0.7507977
0.6585960 0.6907203 0.7552040
0.6621631 0.6947424 0.7597470
0.6660626 0.6989347 0.7641596
0.6698457 0.7028658 0.7677579
0.6732924 0.7062836 0.7700378
0.6769750 0.7096319 0.7712778
0.6819409 0.7138726 0.7723601
0.6893020 0.7201859 0.7745569
0.6998667 0.7293666 0.7789964
0.7134662 0.7412171 0.7858390
0.7292694 0.7550032 0.7948084
0.7464037 0.7700454 0.8056892
0.7639139 0.7855329 0.8184320
0.7810899 0.8010319 0.8330370
0.7971798 0.8158179 0.8481894
0.8113304 0.8286211 0.8600166
0.8246705 0.8406363 0.8694396
0.8376906 0.8524977 0.8787817
0.8502778 0.8642094 0.8886854
0.8622065 0.8755999 0.8990926
0.8731496 0.8863756 0.9096465
0.8828051 0.8963039 0.9199392
0.8910909 0.9052869 0.9297836
0.8982189 0.9134220 0.9392470
0.9047423 0.9211415 0.9486685
0.9110527 0.9287738 0.9582253
0.9174010 0.9364996 0.9679967
0.9238802 0.9444361 0.9779141
0.9304901 0.9525695 0.9878664
0.9372735 0.9608431 0.9977595
0.9441791 0.9692033 1.0000000
0.7005064 0.7350685 0.8088305
0.7036668 0.7384830 0.8115527
0.7068579 0.7418791 0.8141372
0.7100771 0.7451769 0.8164278
0.7131402 0.7481689 0.8181285
0.7158942 0.7506840 0.8188812
0.7184517 0.7527940 0.8185933
0.7213928 0.7549603 0.8176216
0.7254660 0.7578439 0.8165568
0.7313341 0.7622221 0.8162225
0.7395578 0.7686270 0.8174412
0.7502607 0.7771869 0.8207438
0.7628678 0.7875252 0.8262674
0.7765507 0.7990193 0.8339357
0.7906462 0.8113116 0.8438147
0.8048390 0.8241285 0.8556238
0.8190840 0.8368479 0.8676992
0.8325768 0.8483633 0.8773320
0.8448379 0.8588692 0.8852901
0.8559884 0.8686110 0.8926314
0.8662723 0.8778798 0.9001290
0.8758807 0.8868744 0.9081139
0.8848009 0.8956596 0.9165179
0.8928804 0.9041037 0.9251560
0.9000235 0.9120056 0.9338165
0.9062859 0.9193647 0.9423954
0.9119646 0.9263454 0.9509646
0.9173594 0.9331962 0.9596061
0.9226585 0.9400774 0.9683597
0.9280192 0.9470739 0.9772084
0.9334807 0.9541682 0.9860429
0.9390525 0.9613130 0.9948007
0.9446735 0.9684842 1.0000000
0.7494567 0.7877349 0.8710750
0.7522708 0.7903440 0.8716979
0.7550169 0.7928224 0.8720666
0.7576032 0.7950478 0.8719501
0.7599208 0.7968797 0.8711316
0.7619825 0.7982740 0.8694661
0.7639809 0.7993873 0.8670174
0.7663506 0.8005204 0.8640724
0.7695886 0.8021353 0.8610621
0.7741307 0.8047580 0.8585474
0.7803569 0.8087780 0.8571363
0.7883038 0.8143648 0.8573705
0.7976853 0.8213920 0.8595881
0.8080816 0.8295375 0.8639458
0.8191206 0.8386163 0.8703311
0.8305589 0.8483593 0.8781856
0.8422261 0.8581833 0.8862708
0.8535658 0.8674993 0.8935008
0.8639469 0.8760074 0.8997842
0.8732112 0.8837557 0.9054647
0.8815228 0.8909693 0.9110763
0.8891491 0.8979504 0.9170240
0.8961865 0.9048943 0.9234944
0.9026392 0.9117232 0.9304429
0.9084987 0.9183579 0.9377640
0.9137580 0.9247450 0.9452771
0.9185777 0.9309827 0.9528608
0.9231435 0.9371490 0.9605535
0.9276024 0.9433157 0.9683439
0.9320622 0.9495354 0.9762003
0.9365483 0.9557713 0.9840671
0.9410261 0.9619742 0.9919171
0.9455056 0.9681425 0.9997161
0.7991544 0.8408875 0.9328566
0.8011876 0.8422888 0.9309333
0.8031286 0.8435349 0.9287860
0.8048849 0.8444939 0.9261967
0.8064483 0.8451188 0.9229788
0.8078908 0.8454010 0.9190852
0.8093674 0.8454410 0.9146112
0.8111428 0.8454755 0.9097799
0.8134954 0.8458469 0.9049455
0.8167782 0.8468794 0.9004627
0.8211280 0.8488138 0.8967959
0.8266187 0.8517913 0.8944164
0.8331854 0.8558507 0.8936679
0.8406218 0.8608994 0.8947082
0.8487410 0.8668176 0.8973956
0.8573193 0.8733137 0.9012263
0.8661090 0.8800674 0.9055395
0.8747216 0.8866899 0.9099227
0.8827382 0.8928605 0.9140797
0.8899017 0.8985141 0.9179833
0.8963279 0.9038248 0.9218687
0.9021380 0.9090460 0.9260633
0.9074290 0.9142901 0.9308074
0.9123180 0.9195242 0.9361714
0.9168460 0.9247876 0.9420151
0.9210081 0.9300999 0.9482260
0.9249268 0.9354716 0.9546853
0.9286845 0.9409066 0.9613469
0.9323820 0.9463606 0.9681508
0.9360170 0.9518656 0.9750301
0.9396105 0.9573219 0.9819772
0.9431344 0.9627230 0.9889921
0.9466345 0.9680614 0.9960265
0.8492034 0.8941394 0.9937631
0.8502383 0.8940904 0.9890948
0.8511950 0.8938864 0.9843012
0.8520151 0.8934360 0.9791996
0.8527521 0.8927078 0.9736036
0.8534672 0.8917473 0.9674882
0.8542757 0.8906142 0.9609910
0.8553203 0.8894975 0.9542956
0.8567403 0.8885806 0.9476717
0.8586996 0.8880490 0.9413565
0.8613261 0.8880613 0.9356704
0.8646441 0.8887704 0.9309697
0.8687059 0.8902229 0.9275134
0.8734256 0.8924573 0.9254635
0.8787070 0.8953559 0.9247108
0.8844025 0.8987658 0.9249217
0.8902870 0.9024938 0.9258160
0.8961174 0.9062800 0.9271923
0.9016043 0.9099473 0.9289061
0.9065914 0.9134396 0.9307907
0.9110637 0.9168811 0.9329256
0.9150679 0.9203970 0.9355045
0.9186951 0.9240166 0.9386787
0.9220669 0.9277449 0.9424845
0.9252538 0.9316531 0.9467909
0.9283159 0.9357915 0.9515617
0.9312897 0.9401674 0.9567391
0.9342206 0.9447229 0.9622246
0.9370986 0.9494142 0.9679463
0.9399227 0.9541135 0.9738370
0.9426715 0.9588033 0.9798672
0.9453446 0.9634549 0.9859945
0.9479428 0.9680812 0.9921821
0.8992511 0.9472429 1.0000000
0.8992230 0.9455526 1.0000000
0.8991197 0.9437178 1.0000000
0.8989179 0.9417201 1.0000000
0.8986983 0.9395248 1.0000000
0.8985303 0.9371744 1.0000000
0.8984939 0.9347599 1.0000000
0.8986108 0.9324053 0.9974665
0.8989369 0.9301519 0.9890454
0.8995225 0.9280386 0.9809456
0.9004719 0.9262591 0.9733532
0.9018662 0.9249045 0.9665033
0.9036982 0.9240602 0.9606127
0.9059415 0.9237249 0.9557685
0.9085619 0.9238567 0.9519289
0.9114718 0.9244202 0.9489626
0.9145637 0.9253046 0.9467848
0.9176878 0.9263798 0.9453606
0.9206989 0.9275831 0.9446035
0.9234928 0.9289777 0.9443832
0.9259700 0.9305552 0.9447057
0.9281525 0.9323399 0.9456598
0.9301567 0.9343105 0.9472393
0.9320746 0.9365507 0.9494222
0.9339673 0.9391131 0.9521570
0.9358880 0.9420273 0.9554122
0.9378548 0.9452696 0.9591967
0.9398369 0.9487870 0.9633935
0.9418199 0.9525186 0.9679338
0.9437757 0.9563521 0.9727417
0.9457227 0.9602397 0.9777522
0.9476219 0.9641422 0.9828915
0.9494427 0.9680689 0.9880856
0.9492743 0.9997090 1.0000000
0.9480690 0.9963583 1.0000000
0.9467913 0.9928827 1.0000000
0.9454806 0.9892706 1.0000000
0.9441633 0.9855150 1.0000000
0.9429396 0.9817212 1.0000000
0.9418381 0.9779389 1.0000000
0.9408507 0.9741981 1.0000000
0.9399309 0.9705014 1.0000000
0.9391140 0.9668540 1.0000000
0.9384638 0.9633461 1.0000000
0.9380087 0.9600853 1.0000000
0.9377604 0.9570922 0.9927639
0.9377324 0.9544323 0.9854010
0.9379217 0.9520989 0.9788203
0.9383151 0.9500932 0.9730779
0.9388484 0.9483726 0.9682159
0.9394804 0.9469444 0.9642604
0.9401268 0.9459094 0.9611700
0.9407296 0.9452671 0.9589123
0.9412256 0.9449966 0.9574496
0.9416278 0.9450363 0.9567089
0.9420333 0.9453768 0.9566130
0.9425157 0.9461131 0.9570848
0.9431003 0.9472787 0.9581665
0.9438325 0.9488567 0.9598445
0.9446869 0.9508380 0.9621112
0.9456453 0.9531693 0.9649227
0.9466397 0.9558064 0.9681855
0.9476643 0.9586521 0.9717907
0.9487631 0.9616442 0.9756484
0.9499023 0.9647316 0.9796191
0.9510501 0.9678534 0.9836682
0.9993053 1.0000000 1.0000000
0.9967835 1.0000000 1.0000000
0.9942230 1.0000000 1.0000000
0.9916629 1.0000000 1.0000000
0.9891153 1.0000000 1.0000000
0.9866396 1.0000000 1.0000000
0.9842900 1.0000000 1.0000000
0.9819915 1.0000000 1.0000000
0.9797312 1.0000000 1.0000000
0.9774895 1.0000000 1.0000000
0.9752336 0.9993746 1.0000000
0.9729769 0.9942666 1.0000000
0.9707454 0.9892631 1.0000000
0.9686406 0.9844504 1.0000000
0.9666794 0.9798693 1.0000000
0.9648475 0.9755581 0.9971965
0.9630926 0.9715926 0.9900102
0.9614075 0.9680246 0.9838062
0.9598259 0.9649384 0.9786056
0.9583621 0.9623455 0.9744277
0.9569859 0.9602207 0.9711511
0.9556756 0.9585261 0.9686496
0.9545014 0.9572669 0.9667845
0.9535021 0.9564732 0.9655055
0.9527285 0.9561537 0.9648552
0.9521861 0.9563173 0.9648801
0.9518505 0.9569387 0.9655615
0.9516700 0.9579601 0.9668510
0.9515991 0.9593352 0.9687120
0.9516588 0.9610549 0.9709967
0.9518521 0.9630232 0.9735408
0.9521795 0.9651419 0.9762031
0.9525843 0.9673181 0.9788764
1.0000000 1.0000000 1.0000000
1.0000000 1.0000000 1.0000000
1.0000000 1.0000000 1.0000000
1.0000000 1.0000000 1.0000000
1.0000000 1.0000000 1.0000000
1.0000000 1.0000000 1.0000000
1.0000000 1.0000000 1.0000000
1.0000000 1.0000000 1.0000000
1.0000000 1.0000000 1.0000000
1.0000000 1.0000000 1.0000000
1.0000000 1.0000000 1.0000000
1.0000000 1.0000000 1.0000000
1.0000000 1.0000000 1.0000000
0.9986946 1.0000000 1.0000000
0.9947824 1.0000000 1.0000000
0.9909204 1.0000000 1.0000000
0.9871134 0.9950145 1.0000000
0.9833524 0.9895618 1.0000000
0.9797547 0.9846081 0.9968650
0.9763668 0.9801776 0.9908266
0.9731980 0.9762715 0.9857215
0.9702467 0.9728686 0.9813852
0.9675045 0.9699601 0.9777052
0.9650411 0.9675671 0.9746514
0.9628797 0.9657126 0.9722390
0.9610134 0.9643813 0.9705297
0.9593881 0.9635305 0.9695369
0.9579978 0.9631362 0.9692396
0.9567895 0.9631701 0.9695505
0.9558090 0.9636052 0.9703470
0.9550266 0.9643691 0.9714334
0.9544061 0.9653433 0.9726090
0.9538822 0.9663860 0.9737768
1.0000000 1.0000000 1.0000000
1.0000000 1.0000000 1.0000000
1.0000000 1.0000000 1.0000000
1.0000000 1.0000000 1.0000000
1.0000000 1.0000000 1.0000000
1.0000000 1.0000000 1.0000000
1.0000000 1.0000000 1.0000000
1.0000000 1.0000000 1.0000000
1.0000000 1.0000000 1.0000000
1.0000000 1.0000000 1.0000000
1.0000000 1.0000000 1.0000000
1.0000000 1.0000000 1.0000000
1.0000000 1.0000000 1.0000000
1.0000000 1.0000000 1.0000000
1.0000000 1.0000000 1.0000000
1.0000000 1.0000000 1.0000000
1.0000000 1.0000000 1.0000000
1.0000000 1.0000000 1.0000000
0.9998052 1.0000000 1.0000000
0.9947142 0.9986648 1.0000000
0.9898590 0.9930485 1.0000000
0.9852990 0.9879246 0.9947622
0.9810319 0.9833563 0.9892726
0.9770922 0.9793328 0.9844308
0.9735026 0.9758739 0.9802515
0.9702439 0.9729700 0.9767764
0.9673070 0.9705854 0.9740666
0.9646515 0.9687122 0.9720728
0.9622732 0.9673115 0.9707139
0.9601543 0.9663278 0.9698574
0.9582573 0.9657114 0.9693084
0.9565293 0.9653143 0.9688776
0.9548952 0.9649839 0.9684328
1.0000000 1.0000000 1.0000000
1.0000000 1.0000000 1.0000000
1.0000000 1.0000000 1.0000000
1.0000000 1.0000000 1.0000000
1.0000000 1.0000000 1.0000000
