catalog/styles/experimental/experimental-lightning/look.cube
# experimental-lightning iteration 19
LUT_3D_SIZE 9
DOMAIN_MIN 0 0 0
DOMAIN_MAX 1 1 1
0.2687124 0.2517870 0.2275899
0.2102596 0.1960611 0.1843578
0.3146191 0.3019239 0.3020436
0.3425201 0.3566215 0.3874291
0.4554687 0.4809911 0.5362251
0.5470461 0.5740256 0.6313485
0.6178407 0.6506454 0.7166536
0.7845837 0.8259405 0.9075847
0.9564761 1.0000000 1.0000000
0.1305764 0.1325681 0.1230338
0.0922768 0.0905861 0.0873500
0.2687706 0.2789315 0.3040037
0.3560227 0.3767727 0.4194564
0.5146601 0.5429058 0.6015030
0.6090959 0.6396410 0.6980695
0.7171117 0.7482968 0.8056890
0.8346388 0.8699082 0.9358425
0.9540169 0.9956644 1.0000000
0.3571330 0.3686778 0.3690708
0.3917546 0.4091564 0.4448901
0.4131924 0.4354826 0.4811060
0.5280791 0.5578648 0.6186913
0.6011455 0.6351396 0.6974012
0.7384608 0.7659592 0.8081627
0.8040110 0.8301575 0.8743510
0.8756937 0.9045781 0.9554238
0.9486640 0.9819320 1.0000000
0.5596852 0.5830514 0.6232192
0.5707790 0.5985179 0.6535280
0.6036405 0.6338015 0.6922650
0.6671935 0.6955460 0.7412403
0.7508546 0.7722543 0.8040349
0.8168776 0.8356750 0.8646535
0.8694056 0.8880560 0.9187064
0.9056529 0.9281280 0.9657732
0.9442199 0.9717524 1.0000000
0.7494567 0.7877349 0.8710750
0.7599208 0.7968797 0.8711316
0.7695886 0.8021353 0.8610621
0.7976853 0.8213920 0.8595881
0.8422261 0.8581833 0.8862708
0.8815228 0.8909693 0.9110763
0.9084987 0.9183579 0.9377640
0.9276024 0.9433157 0.9683439
0.9455056 0.9681425 0.9997161
0.9492743 0.9997090 1.0000000
0.9441633 0.9855150 1.0000000
0.9399309 0.9705014 1.0000000
0.9377604 0.9570922 0.9927639
0.9388484 0.9483726 0.9682159
0.9412256 0.9449966 0.9574496
0.9431003 0.9472787 0.9581665
0.9466397 0.9558064 0.9681855
0.9510501 0.9678534 0.9836682
1.0000000 1.0000000 1.0000000
1.0000000 1.0000000 1.0000000
1.0000000 1.0000000 1.0000000
1.0000000 1.0000000 1.0000000
1.0000000 1.0000000 1.0000000
1.0000000 1.0000000 1.0000000
0.9845595 0.9865576 0.9887851
0.9679829 0.9717494 0.9722403
0.9556257 0.9630507 0.9628569
1.0000000 1.0000000 1.0000000
1.0000000 1.0000000 1.0000000
1.0000000 1.0000000 1.0000000
1.0000000 1.0000000 1.0000000
1.0000000 1.0000000 1.0000000
1.0000000 1.0000000 1.0000000
1.0000000 1.0000000 1.0000000
0.9923891 0.9909384 0.9801301
0.9563785 0.9517690 0.9393929
1.0000000 1.0000000 1.0000000
1.0000000 1.0000000 1.0000000
1.0000000 1.0000000 1.0000000
1.0000000 1.0000000 1.0000000
1.0000000 1.0000000 1.0000000
1.0000000 1.0000000 1.0000000
1.0000000 1.0000000 1.0000000
1.0000000 1.0000000 0.9880344
0.9556402 0.9397943 0.9182810
0.1174135 0.1070846 0.0911083
0.0265383 0.0225685 0.0189416
0.0616548 0.0607572 0.0599354
0.2804374 0.2923440 0.3189085
0.4871150 0.5128589 0.5674779
0.6298248 0.6636532 0.7309789
0.7455297 0.7858427 0.8623619
0.8714032 0.9199895 1.0000000
1.0000000 1.0000000 1.0000000
0.1184675 0.1197753 0.1176445
0.1082886 0.1059278 0.1076035
0.1830632 0.1851154 0.1899614
0.3249693 0.3414624 0.3760970
0.5337123 0.5635493 0.6241090
0.6722386 0.7061772 0.7679206
0.7841570 0.8210955 0.8845042
0.8960816 0.9395851 1.0000000
1.0000000 1.0000000 1.0000000
0.2768529 0.2893934 0.3091797
0.3415743 0.3578320 0.3887969
0.3915668 0.4125404 0.4560528
0.5322636 0.5602067 0.6184569
0.6302059 0.6610356 0.7185418
0.7333270 0.7631423 0.8114400
0.8274864 0.8595204 0.9097825
0.9182444 0.9570447 1.0000000
1.0000000 1.0000000 1.0000000
0.5502053 0.5778681 0.6324015
0.5885719 0.6190035 0.6796264
0.6455966 0.6765333 0.7354294
0.7022754 0.7295965 0.7743540
0.7606647 0.7787795 0.8077405
0.8052523 0.8261184 0.8596615
0.8701183 0.8970850 0.9350361
0.9383352 0.9717417 1.0000000
1.0000000 1.0000000 1.0000000
0.7678465 0.8052495 0.8836131
0.7935669 0.8282137 0.8956581
0.8189536 0.8489262 0.9006553
0.8379853 0.8597396 0.8932372
0.8545276 0.8694717 0.8928120
0.8797824 0.8955699 0.9180759
0.9162412 0.9380596 0.9629640
0.9566351 0.9837500 1.0000000
0.9951022 1.0000000 1.0000000
0.9603371 1.0000000 1.0000000
0.9620282 0.9958152 1.0000000
0.9596433 0.9857844 1.0000000
0.9547450 0.9738453 1.0000000
0.9521596 0.9668376 0.9838233
0.9556427 0.9694899 0.9817248
0.9642356 0.9800311 0.9918729
0.9746780 0.9936284 1.0000000
0.9860613 1.0000000 1.0000000
1.0000000 1.0000000 1.0000000
1.0000000 1.0000000 1.0000000
1.0000000 1.0000000 1.0000000
1.0000000 1.0000000 1.0000000
1.0000000 1.0000000 1.0000000
1.0000000 1.0000000 1.0000000
1.0000000 1.0000000 1.0000000
0.9929404 1.0000000 1.0000000
0.9771661 0.9879116 0.9896171
1.0000000 1.0000000 1.0000000
1.0000000 1.0000000 1.0000000
1.0000000 1.0000000 1.0000000
1.0000000 1.0000000 1.0000000
1.0000000 1.0000000 1.0000000
1.0000000 1.0000000 1.0000000
1.0000000 1.0000000 1.0000000
1.0000000 1.0000000 0.9986027
0.9704513 0.9688806 0.9577821
1.0000000 1.0000000 1.0000000
1.0000000 1.0000000 1.0000000
1.0000000 1.0000000 1.0000000
1.0000000 1.0000000 1.0000000
1.0000000 1.0000000 1.0000000
1.0000000 1.0000000 1.0000000
1.0000000 1.0000000 1.0000000
1.0000000 1.0000000 0.9929662
0.9649187 0.9517282 0.9296208
0.1287685 0.1291678 0.1196697
0.0227221 0.0183441 0.0146031
0.0434272 0.0312544 0.0250279
0.2547616 0.2555964 0.2697521
0.4849419 0.5091308 0.5613798
0.6688243 0.7055063 0.7752429
0.8092640 0.8547338 0.9369032
0.9399393 0.9937250 1.0000000
1.0000000 1.0000000 1.0000000
0.1616353 0.1673575 0.1734280
0.1769392 0.1791766 0.1849910
0.2006675 0.2013274 0.2062420
0.3630500 0.3791099 0.4175157
0.5486862 0.5782871 0.6378656
0.7002709 0.7362831 0.8000888
0.8298882 0.8715870 0.9398687
0.9500068 0.9998868 1.0000000
1.0000000 1.0000000 1.0000000
0.3323607 0.3502991 0.3867440
0.3608237 0.3811099 0.4227626
0.4403766 0.4647116 0.5157546
0.5298927 0.5601590 0.6212637
0.6295086 0.6615685 0.7181745
0.7450235 0.7769540 0.8287342
0.8547066 0.8925016 0.9476715
0.9614288 1.0000000 1.0000000
1.0000000 1.0000000 1.0000000
0.5681074 0.5981239 0.6585859
0.6207926 0.6508235 0.7111862
0.6803825 0.7104213 0.7655003
0.7475612 0.7734083 0.8119576
0.7619479 0.7792718 0.8139290
0.8001292 0.8265880 0.8692583
0.8889142 0.9244141 0.9671293
0.9755288 1.0000000 1.0000000
1.0000000 1.0000000 1.0000000
0.7819023 0.8164361 0.8861102
0.8166557 0.8469642 0.9026787
0.8441911 0.8687554 0.9091972
0.8651540 0.8841882 0.9135717
0.8653128 0.8842755 0.9105883
0.8864361 0.9115224 0.9387704
0.9375105 0.9694754 0.9969925
0.9913843 1.0000000 1.0000000
1.0000000 1.0000000 1.0000000
0.9662824 0.9981845 1.0000000
0.9682285 0.9943947 1.0000000
0.9670369 0.9881123 1.0000000
0.9631827 0.9818449 1.0000000
0.9645689 0.9847081 0.9979217
0.9745057 0.9973343 1.0000000
0.9898994 1.0000000 1.0000000
1.0000000 1.0000000 1.0000000
1.0000000 1.0000000 1.0000000
1.0000000 1.0000000 1.0000000
1.0000000 1.0000000 1.0000000
1.0000000 1.0000000 1.0000000
1.0000000 1.0000000 1.0000000
1.0000000 1.0000000 1.0000000
1.0000000 1.0000000 1.0000000
1.0000000 1.0000000 1.0000000
1.0000000 1.0000000 1.0000000
1.0000000 1.0000000 1.0000000
1.0000000 1.0000000 1.0000000
1.0000000 1.0000000 1.0000000
1.0000000 1.0000000 1.0000000
1.0000000 1.0000000 1.0000000
1.0000000 1.0000000 1.0000000
1.0000000 1.0000000 1.0000000
1.0000000 1.0000000 1.0000000
1.0000000 1.0000000 1.0000000
0.9852906 0.9864756 0.9761850
1.0000000 1.0000000 1.0000000
1.0000000 1.0000000 1.0000000
1.0000000 1.0000000 1.0000000
1.0000000 1.0000000 1.0000000
1.0000000 1.0000000 1.0000000
1.0000000 1.0000000 1.0000000
1.0000000 1.0000000 1.0000000
1.0000000 1.0000000 0.9973575
0.9711268 0.9594900 0.9373585
0.1761083 0.1815936 0.1771733
0.1145895 0.1086976 0.1089131
0.1345673 0.1196916 0.1212051
0.2758366 0.2762814 0.2996740
0.4744193 0.4982908 0.5531824
0.6634065 0.7011724 0.7738696
0.8279422 0.8740417 0.9570693
0.9786757 1.0000000 1.0000000
1.0000000 1.0000000 1.0000000
0.2158168 0.2280995 0.2440783
0.2922561 0.3028355 0.3265759
0.2982411 0.3064766 0.3321405
0.4150958 0.4332519 0.4769570
0.5669620 0.5965563 0.6555073
0.7166199 0.7533084 0.8184504
0.8576329 0.9014616 0.9710297
0.9900011 1.0000000 1.0000000
1.0000000 1.0000000 1.0000000
0.4268859 0.4504316 0.4972669
0.4523296 0.4760038 0.5264552
0.5472670 0.5751496 0.6323685
0.5864627 0.6159377 0.6693853
0.6633224 0.6931843 0.7472800
0.7739881 0.8080911 0.8635088
0.8914530 0.9334112 0.9895745
1.0000000 1.0000000 1.0000000
1.0000000 1.0000000 1.0000000
0.5822123 0.6094726 0.6647517
0.6606773 0.6894390 0.7425969
0.7309949 0.7563724 0.7980448
0.7432522 0.7649583 0.8028909
0.7714520 0.7939018 0.8385828
0.8429954 0.8762995 0.9198129
0.9337654 0.9742356 1.0000000
1.0000000 1.0000000 1.0000000
1.0000000 1.0000000 1.0000000
0.7970810 0.8259128 0.8783508
0.8176643 0.8421100 0.8825095
0.8320776 0.8501170 0.8803452
0.8514496 0.8687452 0.8975699
0.8761739 0.9025916 0.9276059
0.9257777 0.9593416 0.9835130
0.9814183 1.0000000 1.0000000
1.0000000 1.0000000 1.0000000
1.0000000 1.0000000 1.0000000
0.9640737 0.9867389 1.0000000
0.9589214 0.9775551 1.0000000
0.9569850 0.9734688 0.9925277
0.9646556 0.9832260 0.9945368
0.9825120 1.0000000 1.0000000
1.0000000 1.0000000 1.0000000
1.0000000 1.0000000 1.0000000
1.0000000 1.0000000 1.0000000
1.0000000 1.0000000 1.0000000
1.0000000 1.0000000 1.0000000
1.0000000 1.0000000 1.0000000
1.0000000 1.0000000 1.0000000
1.0000000 1.0000000 1.0000000
1.0000000 1.0000000 1.0000000
1.0000000 1.0000000 1.0000000
1.0000000 1.0000000 1.0000000
1.0000000 1.0000000 1.0000000
1.0000000 1.0000000 1.0000000
1.0000000 1.0000000 1.0000000
1.0000000 1.0000000 1.0000000
1.0000000 1.0000000 1.0000000
1.0000000 1.0000000 1.0000000
1.0000000 1.0000000 1.0000000
1.0000000 1.0000000 1.0000000
1.0000000 1.0000000 1.0000000
1.0000000 1.0000000 1.0000000
1.0000000 1.0000000 0.9950856
1.0000000 1.0000000 1.0000000
1.0000000 1.0000000 1.0000000
1.0000000 1.0000000 1.0000000
1.0000000 1.0000000 1.0000000
1.0000000 1.0000000 1.0000000
1.0000000 1.0000000 1.0000000
1.0000000 1.0000000 1.0000000
1.0000000 1.0000000 1.0000000
0.9729731 0.9609649 0.9401263
0.2546705 0.2624497 0.2766479
0.2463824 0.2518292 0.2720732
0.2722912 0.2782287 0.3075728
0.3663588 0.3820435 0.4285038
0.5103050 0.5387720 0.6016698
0.6698212 0.7078232 0.7818053
0.8326978 0.8761264 0.9541414
0.9942572 1.0000000 1.0000000
1.0000000 1.0000000 1.0000000
0.3162394 0.3325452 0.3644520
0.4146749 0.4327225 0.4745621
0.4679684 0.4874687 0.5340151
0.5245439 0.5487112 0.5998638
0.6171341 0.6476989 0.7070723
0.7436779 0.7804460 0.8451308
0.8819103 0.9247284 0.9899386
1.0000000 1.0000000 1.0000000
1.0000000 1.0000000 1.0000000
0.4153882 0.4389432 0.4883678
0.5889815 0.6164069 0.6736892
0.6559411 0.6835792 0.7300486
0.6662583 0.6939985 0.7434170
0.7218815 0.7524927 0.8070907
0.8250066 0.8606445 0.9140441
0.9354530 0.9768135 1.0000000
1.0000000 1.0000000 1.0000000
1.0000000 1.0000000 1.0000000
0.6374306 0.6646309 0.7200015
0.6864221 0.7165391 0.7645252
0.7001772 0.7292484 0.7665683
0.7412791 0.7625678 0.8044803
0.8285501 0.8582649 0.9017262
0.9200476 0.9534561 0.9877701
0.9907623 1.0000000 1.0000000
1.0000000 1.0000000 1.0000000
1.0000000 1.0000000 1.0000000
0.8145960 0.8379996 0.8673086
0.8118445 0.8303776 0.8591124
0.8184581 0.8324124 0.8590004
0.8433837 0.8624989 0.8889264
0.9323856 0.9620119 0.9721287
0.9991117 1.0000000 1.0000000
1.0000000 1.0000000 1.0000000
1.0000000 1.0000000 1.0000000
1.0000000 1.0000000 1.0000000
0.9473471 0.9612534 0.9760024
0.9406093 0.9532468 0.9673224
0.9460626 0.9598475 0.9717717
0.9725323 0.9902547 0.9951062
1.0000000 1.0000000 1.0000000
1.0000000 1.0000000 1.0000000
1.0000000 1.0000000 1.0000000
1.0000000 1.0000000 1.0000000
1.0000000 1.0000000 1.0000000
1.0000000 1.0000000 1.0000000
1.0000000 1.0000000 1.0000000
1.0000000 1.0000000 1.0000000
1.0000000 1.0000000 1.0000000
1.0000000 1.0000000 1.0000000
1.0000000 1.0000000 1.0000000
1.0000000 1.0000000 1.0000000
1.0000000 1.0000000 1.0000000
1.0000000 1.0000000 1.0000000
1.0000000 1.0000000 1.0000000
1.0000000 1.0000000 1.0000000
1.0000000 1.0000000 1.0000000
1.0000000 1.0000000 1.0000000
1.0000000 1.0000000 1.0000000
1.0000000 1.0000000 1.0000000
1.0000000 1.0000000 1.0000000
1.0000000 1.0000000 1.0000000
1.0000000 1.0000000 1.0000000
1.0000000 1.0000000 1.0000000
1.0000000 1.0000000 1.0000000
1.0000000 1.0000000 1.0000000
1.0000000 1.0000000 1.0000000
1.0000000 1.0000000 1.0000000
1.0000000 1.0000000 1.0000000
1.0000000 1.0000000 1.0000000
1.0000000 1.0000000 1.0000000
0.9726541 0.9599598 0.9435328
0.4121021 0.4328547 0.4769228
0.4154574 0.4381456 0.4853737
0.4469812 0.4732447 0.5283398
0.5037697 0.5339438 0.5962406
0.5928201 0.6262295 0.6931172
0.7083395 0.7439700 0.8128251
0.8479210 0.8848570 0.9501332
0.9986291 1.0000000 1.0000000
1.0000000 1.0000000 1.0000000
0.4250683 0.4473530 0.4966848
0.5218598 0.5472188 0.5991427
0.5869087 0.6142961 0.6676688
0.6352048 0.6644516 0.7200974
0.6976838 0.7297181 0.7876840
0.7934376 0.8286332 0.8865755
0.9111966 0.9484523 1.0000000
1.0000000 1.0000000 1.0000000
1.0000000 1.0000000 1.0000000
0.5180123 0.5461015 0.6048184
0.6239234 0.6503009 0.7002308
0.6985187 0.7246499 0.7696755
0.7417229 0.7692899 0.8158561
0.8026435 0.8329828 0.8803590
0.8859396 0.9192249 0.9638770
0.9767416 1.0000000 1.0000000
1.0000000 1.0000000 1.0000000
1.0000000 1.0000000 1.0000000
0.6212822 0.6495253 0.7043161
0.7180516 0.7409664 0.7804344
0.7739284 0.7941708 0.8299141
0.8222884 0.8464290 0.8808123
0.9145554 0.9408641 0.9709619
0.9861470 1.0000000 1.0000000
1.0000000 1.0000000 1.0000000
1.0000000 1.0000000 1.0000000
1.0000000 1.0000000 1.0000000
0.8119783 0.8295704 0.8447444
0.8146140 0.8302937 0.8540864
0.8456539 0.8624888 0.8870411
0.9047309 0.9241903 0.9421041
1.0000000 1.0000000 1.0000000
1.0000000 1.0000000 1.0000000
1.0000000 1.0000000 1.0000000
1.0000000 1.0000000 1.0000000
1.0000000 1.0000000 1.0000000
0.9189154 0.9272297 0.9305822
0.9253401 0.9356120 0.9416081
0.9448399 0.9576664 0.9635886
0.9829503 0.9982926 0.9992517
1.0000000 1.0000000 1.0000000
1.0000000 1.0000000 1.0000000
1.0000000 1.0000000 1.0000000
1.0000000 1.0000000 1.0000000
1.0000000 1.0000000 1.0000000
1.0000000 1.0000000 1.0000000
1.0000000 1.0000000 1.0000000
1.0000000 1.0000000 1.0000000
1.0000000 1.0000000 1.0000000
1.0000000 1.0000000 1.0000000
1.0000000 1.0000000 1.0000000
1.0000000 1.0000000 1.0000000
1.0000000 1.0000000 1.0000000
1.0000000 1.0000000 1.0000000
1.0000000 1.0000000 1.0000000
1.0000000 1.0000000 1.0000000
1.0000000 1.0000000 1.0000000
1.0000000 1.0000000 1.0000000
1.0000000 1.0000000 1.0000000
1.0000000 1.0000000 1.0000000
1.0000000 1.0000000 1.0000000
1.0000000 1.0000000 1.0000000
1.0000000 1.0000000 1.0000000
1.0000000 1.0000000 1.0000000
1.0000000 1.0000000 1.0000000
1.0000000 1.0000000 1.0000000
1.0000000 1.0000000 1.0000000
1.0000000 1.0000000 1.0000000
1.0000000 1.0000000 1.0000000
1.0000000 1.0000000 1.0000000
1.0000000 1.0000000 1.0000000
0.9754476 0.9642953 0.9566436
0.5764019 0.6097120 0.6770484
0.5813495 0.6184062 0.6874610
0.6102258 0.6486928 0.7173222
0.6462563 0.6833598 0.7503466
0.6953303 0.7289536 0.7918763
0.7729880 0.8035280 0.8590615
0.8792031 0.9066579 0.9522405
1.0000000 1.0000000 1.0000000
1.0000000 1.0000000 1.0000000
0.5704808 0.6029004 0.6681520
0.6317989 0.6644147 0.7247136
0.6855606 0.7179498 0.7751396
0.7331883 0.7647721 0.8197054
0.7870102 0.8175204 0.8680794
0.8579191 0.8871469 0.9308254
0.9459704 0.9733082 1.0000000
1.0000000 1.0000000 1.0000000
1.0000000 1.0000000 1.0000000
0.6068762 0.6370241 0.6960585
0.6886433 0.7161512 0.7665176
0.7567233 0.7833292 0.8292082
0.8162772 0.8430599 0.8851204
0.8769813 0.9039539 0.9407317
0.9419595 0.9689537 0.9996979
1.0000000 1.0000000 1.0000000
1.0000000 1.0000000 1.0000000
1.0000000 1.0000000 1.0000000
0.6810734 0.7049712 0.7480317
0.7570674 0.7790638 0.8167253
0.8260969 0.8482789 0.8822001
0.8904149 0.9129252 0.9407470
0.9569736 0.9786596 0.9994493
1.0000000 1.0000000 1.0000000
1.0000000 1.0000000 1.0000000
1.0000000 1.0000000 1.0000000
1.0000000 1.0000000 1.0000000
0.7879508 0.8038981 0.8242912
0.8344927 0.8510600 0.8721962
0.8879442 0.9061757 0.9254610
0.9455197 0.9635347 0.9765072
0.9997766 1.0000000 1.0000000
1.0000000 1.0000000 1.0000000
1.0000000 1.0000000 1.0000000
1.0000000 1.0000000 1.0000000
1.0000000 1.0000000 1.0000000
0.8868660 0.8943539 0.8969539
0.9153860 0.9250677 0.9281764
0.9498412 0.9619407 0.9637545
0.9909009 1.0000000 1.0000000
1.0000000 1.0000000 1.0000000
1.0000000 1.0000000 1.0000000
1.0000000 1.0000000 1.0000000
1.0000000 1.0000000 1.0000000
1.0000000 1.0000000 1.0000000
0.9765293 0.9760011 0.9630598
0.9954210 0.9983051 0.9845199
1.0000000 1.0000000 1.0000000
1.0000000 1.0000000 1.0000000
1.0000000 1.0000000 1.0000000
1.0000000 1.0000000 1.0000000
1.0000000 1.0000000 1.0000000
1.0000000 1.0000000 1.0000000
1.0000000 1.0000000 1.0000000
1.0000000 1.0000000 1.0000000
1.0000000 1.0000000 1.0000000
1.0000000 1.0000000 1.0000000
1.0000000 1.0000000 1.0000000
1.0000000 1.0000000 1.0000000
1.0000000 1.0000000 1.0000000
1.0000000 1.0000000 1.0000000
1.0000000 1.0000000 1.0000000
1.0000000 1.0000000 1.0000000
1.0000000 1.0000000 1.0000000
1.0000000 1.0000000 1.0000000
1.0000000 1.0000000 1.0000000
1.0000000 1.0000000 1.0000000
1.0000000 1.0000000 1.0000000
1.0000000 1.0000000 1.0000000
1.0000000 1.0000000 1.0000000
1.0000000 1.0000000 1.0000000
0.9880919 0.9789959 0.9794432
0.7088882 0.7580284 0.8535368
0.7302238 0.7760725 0.8606881
0.7527319 0.7945455 0.8670338
0.7773685 0.8124395 0.8739419
0.8075796 0.8358302 0.8860345
0.8557145 0.8773664 0.9141819
0.9239795 0.9393879 0.9604737
1.0000000 1.0000000 1.0000000
1.0000000 1.0000000 1.0000000
0.7085525 0.7504682 0.8284278
0.7474811 0.7859777 0.8543655
0.7874409 0.8220059 0.8803471
0.8284821 0.8586579 0.9069939
0.8726407 0.8979070 0.9360481
0.9239055 0.9442394 0.9702886
0.9845016 0.9992271 1.0000000
1.0000000 1.0000000 1.0000000
1.0000000 1.0000000 1.0000000
0.7170171 0.7503236 0.8101066
0.7718290 0.8026148 0.8550217
0.8265176 0.8546229 0.8990167
0.8803377 0.9060127 0.9418567
0.9330350 0.9555930 0.9819953
0.9857398 1.0000000 1.0000000
1.0000000 1.0000000 1.0000000
1.0000000 1.0000000 1.0000000
1.0000000 1.0000000 1.0000000
0.7469462 0.7710951 0.8122281
0.8086559 0.8321156 0.8683188
0.8696192 0.8925874 0.9228324
0.9275241 0.9490898 0.9722110
0.9801655 0.9996313 1.0000000
1.0000000 1.0000000 1.0000000
1.0000000 1.0000000 1.0000000
1.0000000 1.0000000 1.0000000
1.0000000 1.0000000 1.0000000
0.7952942 0.8111430 0.8356659
0.8552732 0.8723664 0.8923318
0.9126910 0.9302384 0.9455369
0.9645278 0.9816160 0.9914321
1.0000000 1.0000000 1.0000000
1.0000000 1.0000000 1.0000000
1.0000000 1.0000000 1.0000000
1.0000000 1.0000000 1.0000000
1.0000000 1.0000000 1.0000000
0.8604809 0.8688115 0.8751078
0.9072015 0.9171408 0.9205083
0.9522686 0.9635867 0.9639303
0.9937962 1.0000000 1.0000000
1.0000000 1.0000000 1.0000000
1.0000000 1.0000000 1.0000000
1.0000000 1.0000000 1.0000000
1.0000000 1.0000000 1.0000000
1.0000000 1.0000000 1.0000000
0.9310042 0.9319004 0.9209064
0.9621856 0.9646743 0.9515948
0.9922452 0.9964668 0.9816476
1.0000000 1.0000000 1.0000000
1.0000000 1.0000000 1.0000000
1.0000000 1.0000000 1.0000000
1.0000000 1.0000000 1.0000000
1.0000000 1.0000000 1.0000000
1.0000000 1.0000000 1.0000000
1.0000000 0.9971862 0.9683033
1.0000000 1.0000000 0.9856820
1.0000000 1.0000000 1.0000000
1.0000000 1.0000000 1.0000000
1.0000000 1.0000000 1.0000000
1.0000000 1.0000000 1.0000000
1.0000000 1.0000000 1.0000000
1.0000000 1.0000000 1.0000000
1.0000000 1.0000000 1.0000000
1.0000000 1.0000000 1.0000000
1.0000000 1.0000000 1.0000000
1.0000000 1.0000000 1.0000000
1.0000000 1.0000000 1.0000000
1.0000000 1.0000000 1.0000000
1.0000000 1.0000000 1.0000000
1.0000000 1.0000000 1.0000000
1.0000000 1.0000000 1.0000000
1.0000000 1.0000000 1.0000000
0.8493996 0.9108059 1.0000000
0.8699977 0.9216053 1.0000000
0.8874832 0.9281749 1.0000000
0.9051957 0.9344267 0.9862325
0.9267579 0.9445662 0.9762255
0.9496628 0.9589565 0.9717758
0.9771169 0.9789214 0.9732669
1.0000000 1.0000000 0.9752487
1.0000000 1.0000000 0.9805531
0.8431571 0.8919610 0.9813334
0.8634164 0.9056382 0.9801619
0.8901595 0.9246550 0.9828209
0.9219636 0.9485545 0.9896400
0.9552704 0.9737612 0.9977940
0.9895320 0.9993470 1.0000000
1.0000000 1.0000000 1.0000000
1.0000000 1.0000000 1.0000000
1.0000000 1.0000000 1.0000000
0.8295579 0.8675501 0.9296462
0.8599280 0.8937015 0.9471696
0.8969382 0.9261719 0.9692169
0.9393199 0.9633959 0.9933346
0.9817842 0.9998287 1.0000000
1.0000000 1.0000000 1.0000000
1.0000000 1.0000000 1.0000000
1.0000000 1.0000000 1.0000000
1.0000000 1.0000000 1.0000000
0.8143503 0.8414257 0.8843449
0.8639291 0.8897788 0.9252009
0.9128419 0.9364304 0.9639487
0.9605687 0.9813312 0.9992497
1.0000000 1.0000000 1.0000000
1.0000000 1.0000000 1.0000000
1.0000000 1.0000000 1.0000000
1.0000000 1.0000000 1.0000000
1.0000000 1.0000000 1.0000000
0.8173928 0.8342032 0.8595577
0.8769550 0.8946015 0.9143301
0.9330971 0.9506735 0.9636129
0.9812191 0.9977687 1.0000000
1.0000000 1.0000000 1.0000000
1.0000000 1.0000000 1.0000000
1.0000000 1.0000000 1.0000000
1.0000000 1.0000000 1.0000000
1.0000000 1.0000000 1.0000000
0.8418251 0.8511514 0.8620043
0.8986974 0.9089500 0.9140772
0.9506853 0.9613868 0.9615350
0.9945370 1.0000000 1.0000000
1.0000000 1.0000000 1.0000000
1.0000000 1.0000000 1.0000000
1.0000000 1.0000000 1.0000000
1.0000000 1.0000000 1.0000000
1.0000000 1.0000000 1.0000000
0.8880945 0.8906543 0.8837079
0.9290370 0.9317878 0.9216047
0.9669110 0.9695256 0.9569541
1.0000000 1.0000000 0.9898349
1.0000000 1.0000000 1.0000000
1.0000000 1.0000000 1.0000000
1.0000000 1.0000000 1.0000000
1.0000000 1.0000000 1.0000000
1.0000000 1.0000000 1.0000000
0.9435310 0.9368545 0.9102123
0.9655104 0.9594193 0.9333079
0.9862940 0.9809803 0.9550471
1.0000000 1.0000000 0.9758883
1.0000000 1.0000000 0.9977723
1.0000000 1.0000000 1.0000000
1.0000000 1.0000000 1.0000000
1.0000000 1.0000000 1.0000000
1.0000000 1.0000000 1.0000000
1.0000000 0.9834160 0.9379614
1.0000000 0.9881725 0.9451279
1.0000000 0.9945733 0.9546268
1.0000000 1.0000000 0.9646958
1.0000000 1.0000000 0.9711267
1.0000000 0.9992192 0.9799912
1.0000000 1.0000000 0.9971349
1.0000000 1.0000000 1.0000000
1.0000000 1.0000000 1.0000000
