catalog/styles/experimental/experimental-lightning/look.cube
# experimental-lightning iteration 19
LUT_3D_SIZE 5
DOMAIN_MIN 0 0 0
DOMAIN_MAX 1 1 1
0.2687124 0.2517870 0.2275899
0.3146191 0.3019239 0.3020436
0.4554687 0.4809911 0.5362251
0.6178407 0.6506454 0.7166536
0.9564761 1.0000000 1.0000000
0.3571330 0.3686778 0.3690708
0.4131924 0.4354826 0.4811060
0.6011455 0.6351396 0.6974012
0.8040110 0.8301575 0.8743510
0.9486640 0.9819320 1.0000000
0.7494567 0.7877349 0.8710750
0.7695886 0.8021353 0.8610621
0.8422261 0.8581833 0.8862708
0.9084987 0.9183579 0.9377640
0.9455056 0.9681425 0.9997161
1.0000000 1.0000000 1.0000000
1.0000000 1.0000000 1.0000000
1.0000000 1.0000000 1.0000000
0.9845595 0.9865576 0.9887851
0.9556257 0.9630507 0.9628569
1.0000000 1.0000000 1.0000000
1.0000000 1.0000000 1.0000000
1.0000000 1.0000000 1.0000000
1.0000000 1.0000000 1.0000000
0.9556402 0.9397943 0.9182810
0.1287685 0.1291678 0.1196697
0.0434272 0.0312544 0.0250279
0.4849419 0.5091308 0.5613798
0.8092640 0.8547338 0.9369032
1.0000000 1.0000000 1.0000000
0.3323607 0.3502991 0.3867440
0.4403766 0.4647116 0.5157546
0.6295086 0.6615685 0.7181745
0.8547066 0.8925016 0.9476715
1.0000000 1.0000000 1.0000000
0.7819023 0.8164361 0.8861102
0.8441911 0.8687554 0.9091972
0.8653128 0.8842755 0.9105883
0.9375105 0.9694754 0.9969925
1.0000000 1.0000000 1.0000000
1.0000000 1.0000000 1.0000000
1.0000000 1.0000000 1.0000000
1.0000000 1.0000000 1.0000000
1.0000000 1.0000000 1.0000000
1.0000000 1.0000000 1.0000000
1.0000000 1.0000000 1.0000000
1.0000000 1.0000000 1.0000000
1.0000000 1.0000000 1.0000000
1.0000000 1.0000000 1.0000000
0.9711268 0.9594900 0.9373585
0.2546705 0.2624497 0.2766479
0.2722912 0.2782287 0.3075728
0.5103050 0.5387720 0.6016698
0.8326978 0.8761264 0.9541414
1.0000000 1.0000000 1.0000000
0.4153882 0.4389432 0.4883678
0.6559411 0.6835792 0.7300486
0.7218815 0.7524927 0.8070907
0.9354530 0.9768135 1.0000000
1.0000000 1.0000000 1.0000000
0.8145960 0.8379996 0.8673086
0.8184581 0.8324124 0.8590004
0.9323856 0.9620119 0.9721287
1.0000000 1.0000000 1.0000000
1.0000000 1.0000000 1.0000000
1.0000000 1.0000000 1.0000000
1.0000000 1.0000000 1.0000000
1.0000000 1.0000000 1.0000000
1.0000000 1.0000000 1.0000000
1.0000000 1.0000000 1.0000000
1.0000000 1.0000000 1.0000000
1.0000000 1.0000000 1.0000000
1.0000000 1.0000000 1.0000000
1.0000000 1.0000000 1.0000000
0.9726541 0.9599598 0.9435328
0.5764019 0.6097120 0.6770484
0.6102258 0.6486928 0.7173222
0.6953303 0.7289536 0.7918763
0.8792031 0.9066579 0.9522405
1.0000000 1.0000000 1.0000000
0.6068762 0.6370241 0.6960585
0.7567233 0.7833292 0.8292082
0.8769813 0.9039539 0.9407317
1.0000000 1.0000000 1.0000000
1.0000000 1.0000000 1.0000000
0.7879508 0.8038981 0.8242912
0.8879442 0.9061757 0.9254610
0.9997766 1.0000000 1.0000000
1.0000000 1.0000000 1.0000000
1.0000000 1.0000000 1.0000000
0.9765293 0.9760011 0.9630598
1.0000000 1.0000000 1.0000000
1.0000000 1.0000000 1.0000000
1.0000000 1.0000000 1.0000000
1.0000000 1.0000000 1.0000000
1.0000000 1.0000000 1.0000000
1.0000000 1.0000000 1.0000000
1.0000000 1.0000000 1.0000000
1.0000000 1.0000000 1.0000000
0.9880919 0.9789959 0.9794432
0.8493996 0.9108059 1.0000000
0.8874832 0.9281749 1.0000000
0.9267579 0.9445662 0.9762255
0.9771169 0.9789214 0.9732669
1.0000000 1.0000000 0.9805531
0.8295579 0.8675501 0.9296462
0.8969382 0.9261719 0.9692169
0.9817842 0.9998287 1.0000000
1.0000000 1.0000000 1.0000000
1.0000000 1.0000000 1.0000000
0.8173928 0.8342032 0.8595577
0.9330971 0.9506735 0.9636129
1.0000000 1.0000000 1.0000000
1.0000000 1.0000000 1.0000000
1.0000000 1.0000000 1.0000000
0.8880945 0.8906543 0.8837079
0.9669110 0.9695256 0.9569541
1.0000000 1.0000000 1.0000000
1.0000000 1.0000000 1.0000000
1.0000000 1.0000000 1.0000000
1.0000000 0.9834160 0.9379614
1.0000000 0.9945733 0.9546268
1.0000000 1.0000000 0.9711267
1.0000000 1.0000000 0.9971349
1.0000000 1.0000000 1.0000000
