presets/experimental/experimental-church/look.cube
# Approximate v0 colour conversion; calibrate before claiming visual parity.
LUT_3D_SIZE 33
DOMAIN_MIN 0 0 0
DOMAIN_MAX 1 1 1
0.0655160 0.0577490 0.0411060
0.0844006 0.0500469 0.0362506
0.1046442 0.0434874 0.0322565
0.1518773 0.0596216 0.0453683
0.1989181 0.0750590 0.0580126
0.2441456 0.0839250 0.0662479
0.2899822 0.0922717 0.0736607
0.3394447 0.0975267 0.0761760
0.3891622 0.1022056 0.0780433
0.4399546 0.1044566 0.0771791
0.4897504 0.1063923 0.0763201
0.5363846 0.1073283 0.0754780
0.5802123 0.1079468 0.0740924
0.6170887 0.1077793 0.0713609
0.6516829 0.1073555 0.0683145
0.6817583 0.1064242 0.0646446
0.7059962 0.1045375 0.0596161
0.7208497 0.1011150 0.0524037
0.7332155 0.0974398 0.0448890
0.7423028 0.0934317 0.0369759
0.7525229 0.0898608 0.0298235
0.7639734 0.0867646 0.0234974
0.7764314 0.0845233 0.0183981
0.7897926 0.0830485 0.0143988
0.8042872 0.0819169 0.0111096
0.8196187 0.0810389 0.0083448
0.8360049 0.0805845 0.0065608
0.8530290 0.0803862 0.0053697
0.8730891 0.0795825 0.0036437
0.8946370 0.0784822 0.0016556
0.9200085 0.0766826 0.0006929
0.9468739 0.0746100 0.0001309
0.9531340 0.0741270 0.0000000
0.0609202 0.0801205 0.0384833
0.0791298 0.0720498 0.0321290
0.0982374 0.0646947 0.0263720
0.1351769 0.0715524 0.0324768
0.1725439 0.0784289 0.0388255
0.2139407 0.0854834 0.0474737
0.2576611 0.0932212 0.0561012
0.3152159 0.1050262 0.0646053
0.3727695 0.1160012 0.0722303
0.4303180 0.1234773 0.0761500
0.4858041 0.1293058 0.0788672
0.5347482 0.1299077 0.0777698
0.5807900 0.1302861 0.0762782
0.6196437 0.1301109 0.0738104
0.6549321 0.1295936 0.0706248
0.6831607 0.1283989 0.0660177
0.7061444 0.1266208 0.0604879
0.7206964 0.1239047 0.0534747
0.7333714 0.1209278 0.0463021
0.7435730 0.1176073 0.0389196
0.7545021 0.1146135 0.0320945
0.7662216 0.1119747 0.0258748
0.7786926 0.1099553 0.0205811
0.7918373 0.1084912 0.0161174
0.8061716 0.1073582 0.0124236
0.8213843 0.1064697 0.0092982
0.8376002 0.1059890 0.0074320
0.8544228 0.1057549 0.0063272
0.8741585 0.1051521 0.0047649
0.8953217 0.1043686 0.0029785
0.9204611 0.1030203 0.0015643
0.9471540 0.1014514 0.0002956
0.9533738 0.1010858 0.0000000
0.0563244 0.1024920 0.0358606
0.0738591 0.0940527 0.0280074
0.0918305 0.0859020 0.0204874
0.1184766 0.0834831 0.0195853
0.1461696 0.0817988 0.0196384
0.1837357 0.0870419 0.0286995
0.2253401 0.0941706 0.0385417
0.2909871 0.1125257 0.0530345
0.3563767 0.1297967 0.0664172
0.4206813 0.1424980 0.0751209
0.4818579 0.1522193 0.0814142
0.5331117 0.1524872 0.0800616
0.5813677 0.1526254 0.0784641
0.6221987 0.1524425 0.0762599
0.6581812 0.1518318 0.0729350
0.6845630 0.1503737 0.0673909
0.7062926 0.1487041 0.0613597
0.7205430 0.1466945 0.0545457
0.7335274 0.1444159 0.0477152
0.7448431 0.1417828 0.0408633
0.7564813 0.1393663 0.0343655
0.7684698 0.1371849 0.0282523
0.7809537 0.1353874 0.0227641
0.7938819 0.1339340 0.0178361
0.8080559 0.1327996 0.0137376
0.8231498 0.1319005 0.0102515
0.8391955 0.1313935 0.0083031
0.8558166 0.1311236 0.0072846
0.8752279 0.1307217 0.0058861
0.8960064 0.1302551 0.0043013
0.9209136 0.1293580 0.0024357
0.9474340 0.1282928 0.0004603
0.9536137 0.1280446 0.0000000
0.0489968 0.1218777 0.0288207
0.0691970 0.1144018 0.0251241
0.0898090 0.1073270 0.0216465
0.1185986 0.1082181 0.0225175
0.1481464 0.1094110 0.0238979
0.1848437 0.1134503 0.0300825
0.2239205 0.1181847 0.0366209
0.2771634 0.1270576 0.0452658
0.3323654 0.1361636 0.0536554
0.3958256 0.1462520 0.0609693
0.4569587 0.1548941 0.0673077
0.5107094 0.1589483 0.0705516
0.5627325 0.1629417 0.0731259
0.6104763 0.1667844 0.0740418
0.6508859 0.1690440 0.0727912
0.6767728 0.1681691 0.0672509
0.6988755 0.1670043 0.0610644
0.7148943 0.1653735 0.0538391
0.7300943 0.1637930 0.0471792
0.7442150 0.1622789 0.0412645
0.7580576 0.1608448 0.0355386
0.7715979 0.1594976 0.0300175
0.7845345 0.1581231 0.0244452
0.7969296 0.1567242 0.0188270
0.8106913 0.1556291 0.0142219
0.8254620 0.1547581 0.0103650
0.8415443 0.1542040 0.0081068
0.8584197 0.1538415 0.0068154
0.8780918 0.1535297 0.0050388
0.8991344 0.1532427 0.0030244
0.9244495 0.1527357 0.0015529
0.9514341 0.1521428 0.0002935
0.9577219 0.1520047 0.0000000
0.0416653 0.1412592 0.0217745
0.0645358 0.1347486 0.0222425
0.0877935 0.1287522 0.0228153
0.1187440 0.1329708 0.0254717
0.1501626 0.1370569 0.0281900
0.1859953 0.1398932 0.0314935
0.2225438 0.1422307 0.0347218
0.2633541 0.1415993 0.0375023
0.3083435 0.1425203 0.0408840
0.3709488 0.1499848 0.0467995
0.4320304 0.1575408 0.0531781
0.4882783 0.1653871 0.0610252
0.5440705 0.1732413 0.0677773
0.5987340 0.1811151 0.0718171
0.6435759 0.1862493 0.0726441
0.6689699 0.1859588 0.0671089
0.6914478 0.1852993 0.0607675
0.7092379 0.1840468 0.0531300
0.7266562 0.1831644 0.0466405
0.7435843 0.1827699 0.0416636
0.7596333 0.1823189 0.0367101
0.7747273 0.1818063 0.0317819
0.7881170 0.1808551 0.0261257
0.7999787 0.1795108 0.0198168
0.8133277 0.1784549 0.0147051
0.8277749 0.1776122 0.0104772
0.8438941 0.1770109 0.0079090
0.8610245 0.1765558 0.0063442
0.8809582 0.1763339 0.0041887
0.9022657 0.1762263 0.0017438
0.9279897 0.1761093 0.0006676
0.9554394 0.1759887 0.0001262
0.9618356 0.1759606 0.0000000
0.0354735 0.1647545 0.0165197
0.0593197 0.1576924 0.0170094
0.0833265 0.1509424 0.0175998
0.1105219 0.1503924 0.0201893
0.1383898 0.1502547 0.0229045
0.1726005 0.1540050 0.0268039
0.2077853 0.1573269 0.0304319
0.2487694 0.1580986 0.0324439
0.2931629 0.1598490 0.0351134
0.3519277 0.1657249 0.0405544
0.4114222 0.1721714 0.0464401
0.4732318 0.1804277 0.0537364
0.5326768 0.1883840 0.0607075
0.5862649 0.1955974 0.0668731
0.6315976 0.2005961 0.0698616
0.6605834 0.2012092 0.0665591
0.6858233 0.2014381 0.0615737
0.7050414 0.2010494 0.0538828
0.7233599 0.2009456 0.0471970
0.7404929 0.2012174 0.0418358
0.7574451 0.2016460 0.0371723
0.7742011 0.2022451 0.0332665
0.7887938 0.2021617 0.0278726
0.8014471 0.2014663 0.0211447
0.8151798 0.2009539 0.0151536
0.8297095 0.2005765 0.0097064
0.8463014 0.2004182 0.0061439
0.8641404 0.2003924 0.0037210
0.8848682 0.2003476 0.0021004
0.9070119 0.2002937 0.0008731
0.9330859 0.2002639 0.0003337
0.9606956 0.2002436 0.0000631
0.9671291 0.2002388 0.0000000
0.0292847 0.1882612 0.0112698
0.0541021 0.1806434 0.0117698
0.0788527 0.1731347 0.0123664
0.1022765 0.1677936 0.0148841
0.1265787 0.1634124 0.0175923
0.1591653 0.1680826 0.0220973
0.1929896 0.1723983 0.0261353
0.2341826 0.1746033 0.0273930
0.2780069 0.1772082 0.0293623
0.3329227 0.1814984 0.0343314
0.3908260 0.1868353 0.0397227
0.4582059 0.1954922 0.0464538
0.5213033 0.2035402 0.0536329
0.5737938 0.2100801 0.0619215
0.6196063 0.2149349 0.0670718
0.6521953 0.2164526 0.0660083
0.6802039 0.2175710 0.0623830
0.7008489 0.2180474 0.0546396
0.7200640 0.2187224 0.0477566
0.7373946 0.2196591 0.0420074
0.7552465 0.2209673 0.0376325
0.7736647 0.2226788 0.0347502
0.7894624 0.2234642 0.0296197
0.8029110 0.2234195 0.0224736
0.8170297 0.2234519 0.0156020
0.8316431 0.2235411 0.0089331
0.8487089 0.2238271 0.0043744
0.8672576 0.2242320 0.0010918
0.8887811 0.2243647 0.0000087
0.9117626 0.2243640 0.0000036
0.9381864 0.2244206 0.0000014
0.9659553 0.2244996 0.0000003
0.9724260 0.2245180 0.0000000
0.0260198 0.2165496 0.0077212
0.0525322 0.2109016 0.0086127
0.0789552 0.2052365 0.0096448
0.1036031 0.1992324 0.0134692
0.1288413 0.1941074 0.0173596
0.1596471 0.1972722 0.0218715
0.1911470 0.1999647 0.0257882
0.2267790 0.1998457 0.0261616
0.2648070 0.1997487 0.0267425
0.3129348 0.1997445 0.0281984
0.3638827 0.2011610 0.0305984
0.4237767 0.2070842 0.0359936
0.4849665 0.2145610 0.0428979
0.5493659 0.2258856 0.0535400
0.6052425 0.2342967 0.0611103
0.6442428 0.2369384 0.0625979
0.6756054 0.2376411 0.0607977
0.6946892 0.2352265 0.0537119
0.7138383 0.2344787 0.0476172
0.7330733 0.2359275 0.0428283
0.7520605 0.2381288 0.0384203
0.7707788 0.2411475 0.0344258
0.7879902 0.2432735 0.0296444
0.8038509 0.2445992 0.0241575
0.8187861 0.2456204 0.0173807
0.8330380 0.2464166 0.0096515
0.8503995 0.2473066 0.0045876
0.8696414 0.2482532 0.0011354
0.8918123 0.2490043 0.0000000
0.9154187 0.2496597 0.0000000
0.9423520 0.2500198 0.0000000
0.9705852 0.2502647 0.0000000
0.9771640 0.2503217 0.0000000
0.0227670 0.2448580 0.0041796
0.0509775 0.2411903 0.0054643
0.0790769 0.2373798 0.0069336
0.1049697 0.2307299 0.0120707
0.1311628 0.2248756 0.0171482
0.1601871 0.2265249 0.0216644
0.1893585 0.2275833 0.0254576
0.2194054 0.2251246 0.0249461
0.2516153 0.2223108 0.0241358
0.2929427 0.2180009 0.0220658
0.3369128 0.2154852 0.0214640
0.3892665 0.2186617 0.0255200
0.4485255 0.2255645 0.0321475
0.5248880 0.2416967 0.0451443
0.5908688 0.2536795 0.0551355
0.6362922 0.2574462 0.0591756
0.6710112 0.2577277 0.0592023
0.6885214 0.2524064 0.0527772
0.7076004 0.2502266 0.0474748
0.7287469 0.2521868 0.0436520
0.7488705 0.2552814 0.0392094
0.7678831 0.2596080 0.0340939
0.7865091 0.2630765 0.0296620
0.8047886 0.2657758 0.0258429
0.8205422 0.2677876 0.0191650
0.8344305 0.2692918 0.0103761
0.8520870 0.2707864 0.0048090
0.8720221 0.2722751 0.0011902
0.8948398 0.2736465 0.0000000
0.9190702 0.2749605 0.0000000
0.9465136 0.2756251 0.0000000
0.9752124 0.2760361 0.0000000
0.9818997 0.2761318 0.0000000
0.0209826 0.2751275 0.0020930
0.0501461 0.2725593 0.0028198
0.0792319 0.2699013 0.0037183
0.1067763 0.2654590 0.0080246
0.1345094 0.2614774 0.0125169
0.1640225 0.2618404 0.0187622
0.1934422 0.2618316 0.0242029
0.2223060 0.2596088 0.0248531
0.2528015 0.2567747 0.0248062
0.2901745 0.2513639 0.0218206
0.3299452 0.2470514 0.0200425
0.3773220 0.2462232 0.0220946
0.4304011 0.2489398 0.0265802
0.4976038 0.2604359 0.0370930
0.5595590 0.2701903 0.0460224
0.6111233 0.2764959 0.0518166
0.6543375 0.2799129 0.0544813
0.6841280 0.2786861 0.0521147
0.7102175 0.2786568 0.0494759
0.7314296 0.2802057 0.0464783
0.7510152 0.2821759 0.0423160
0.7688344 0.2846038 0.0368888
0.7869393 0.2871306 0.0319822
0.8053005 0.2897461 0.0275424
0.8216023 0.2919352 0.0203759
0.8363833 0.2938093 0.0111960
0.8545810 0.2959625 0.0052669
0.8748447 0.2982843 0.0013035
0.8981681 0.3003006 0.0000000
0.9229909 0.3021672 0.0000000
0.9507586 0.3031903 0.0000000
0.9796769 0.3038837 0.0000000
0.9864153 0.3040452 0.0000000
0.0192063 0.3054080 0.0000144
0.0493186 0.3039343 0.0001781
0.0793871 0.3024249 0.0005001
0.1085853 0.3002061 0.0039638
0.1378617 0.2981117 0.0078609
0.1678762 0.2971898 0.0158450
0.1975586 0.2961169 0.0229431
0.2252640 0.2941444 0.0247664
0.2540679 0.2913050 0.0254948
0.2875024 0.2848112 0.0216082
0.3230892 0.2787138 0.0186639
0.3655034 0.2738739 0.0187086
0.4123788 0.2723840 0.0210419
0.4703040 0.2791914 0.0290436
0.5281548 0.2866850 0.0368918
0.5858583 0.2955375 0.0444358
0.6375964 0.3021098 0.0497428
0.6797445 0.3050165 0.0514537
0.7128840 0.3071577 0.0514889
0.7341514 0.3082902 0.0493158
0.7531897 0.3091248 0.0454355
0.7698072 0.3096361 0.0397011
0.7873802 0.3112084 0.0343153
0.8058100 0.3137320 0.0292420
0.8226584 0.3160938 0.0215837
0.8383392 0.3183360 0.0120165
0.8570794 0.3211480 0.0057261
0.8776697 0.3243045 0.0014172
0.9014980 0.3269659 0.0000000
0.9269132 0.3293847 0.0000000
0.9550041 0.3307663 0.0000000
0.9841404 0.3317428 0.0000000
0.9909297 0.3319704 0.0000000
0.0180156 0.3363093 0.0000000
0.0485897 0.3353116 0.0000805
0.0791314 0.3342919 0.0002407
0.1090283 0.3328344 0.0019828
0.1389781 0.3314544 0.0040553
0.1694267 0.3308060 0.0092437
0.1997146 0.3300584 0.0141455
0.2290461 0.3287201 0.0173406
0.2589048 0.3265647 0.0195090
0.2909854 0.3209655 0.0173495
0.3249051 0.3156110 0.0156033
0.3646589 0.3110329 0.0151684
0.4079412 0.3086846 0.0168216
0.4599631 0.3118595 0.0236466
0.5135607 0.3166125 0.0310695
0.5702783 0.3244905 0.0396761
0.6225979 0.3311165 0.0464319
0.6678471 0.3357297 0.0502122
0.7055354 0.3395320 0.0522630
0.7332595 0.3422655 0.0520345
0.7556420 0.3437047 0.0487092
0.7722228 0.3437382 0.0420205
0.7894787 0.3446519 0.0361896
0.8073395 0.3463546 0.0311277
0.8243502 0.3477834 0.0235599
0.8407332 0.3490100 0.0141418
0.8602419 0.3516046 0.0072112
0.8816408 0.3550264 0.0017847
0.9059164 0.3577764 0.0000000
0.9316017 0.3601972 0.0000000
0.9596772 0.3615728 0.0000000
0.9886864 0.3625401 0.0000000
0.9954461 0.3627655 0.0000000
0.0168289 0.3672148 0.0000000
0.0478614 0.3666889 0.0000007
0.0788728 0.3661543 0.0000020
0.1094618 0.3654478 0.0000164
0.1400790 0.3647741 0.0002557
0.1709611 0.3644100 0.0026168
0.2018569 0.3639975 0.0052953
0.2328340 0.3632960 0.0098636
0.2637666 0.3618296 0.0134766
0.2945113 0.3571388 0.0130625
0.3267816 0.3525448 0.0125310
0.3638910 0.3482582 0.0116271
0.4035984 0.3450750 0.0126105
0.4497406 0.3446246 0.0182681
0.4990840 0.3466337 0.0252702
0.5547660 0.3535127 0.0349347
0.6076115 0.3601707 0.0431310
0.6558972 0.3664736 0.0489666
0.6981169 0.3719333 0.0530284
0.7323425 0.3762819 0.0547524
0.7580961 0.3783379 0.0519840
0.7746486 0.3779038 0.0443365
0.7915887 0.3781609 0.0380607
0.8088762 0.3790376 0.0330146
0.8260465 0.3795257 0.0255415
0.8431303 0.3797268 0.0162762
0.8634090 0.3820979 0.0087034
0.8856198 0.3857810 0.0021540
0.9103423 0.3886158 0.0000000
0.9362956 0.3910348 0.0000000
0.9643532 0.3924018 0.0000000
0.9932330 0.3933578 0.0000000
0.9999624 0.3935806 0.0000000
0.0159192 0.3983127 0.0000000
0.0471815 0.3979747 0.0000000
0.0784276 0.3976313 0.0000000
0.1093529 0.3971813 0.0000000
0.1403002 0.3967479 0.0001131
0.1714553 0.3964705 0.0012924
0.2026413 0.3961367 0.0026343
0.2340114 0.3954674 0.0049448
0.2654065 0.3942846 0.0067737
0.2969074 0.3909370 0.0065721
0.3295466 0.3876025 0.0063090
0.3657961 0.3843096 0.0058511
0.4039194 0.3817346 0.0066624
0.4466840 0.3809381 0.0106178
0.4917360 0.3818458 0.0158534
0.5413177 0.3861281 0.0236243
0.5912953 0.3916232 0.0315534
0.6419095 0.3990679 0.0397369
0.6872745 0.4066766 0.0468810
0.7257215 0.4145014 0.0526553
0.7559836 0.4192414 0.0537318
0.7773561 0.4206310 0.0497058
0.7975807 0.4230052 0.0454332
0.8167763 0.4262621 0.0409393
0.8340561 0.4260917 0.0323219
0.8499213 0.4233907 0.0206597
0.8694847 0.4230478 0.0110726
0.8912844 0.4241308 0.0027404
0.9157636 0.4251842 0.0000000
0.9415560 0.4262231 0.0000000
0.9676612 0.4268076 0.0000000
0.9938886 0.4272144 0.0000000
1.0000000 0.4273092 0.0000000
0.0150118 0.4294121 0.0000000
0.0465019 0.4292597 0.0000000
0.0779809 0.4291051 0.0000000
0.1092395 0.4289075 0.0000000
0.1405141 0.4287104 0.0000011
0.1719408 0.4285179 0.0000124
0.2034143 0.4282608 0.0000253
0.2351668 0.4276187 0.0000475
0.2670193 0.4267161 0.0000651
0.2992941 0.4247153 0.0000632
0.3323190 0.4226445 0.0000607
0.3677236 0.4203510 0.0000563
0.4042796 0.4183965 0.0006998
0.4436874 0.4172813 0.0029484
0.4844479 0.4171014 0.0064063
0.5278867 0.4187737 0.0122587
0.5749680 0.4230958 0.0199064
0.6279048 0.4316777 0.0304401
0.6764033 0.4414395 0.0406755
0.7190527 0.4527561 0.0505179
0.7538328 0.4601976 0.0554668
0.7800660 0.4634301 0.0551008
0.8036054 0.4679447 0.0528518
0.8247299 0.4736086 0.0489146
0.8421188 0.4727822 0.0391426
0.8567491 0.4671632 0.0250620
0.8755847 0.4640854 0.0134492
0.8969631 0.4625443 0.0033286
0.9211933 0.4618007 0.0000000
0.9468211 0.4614480 0.0000000
0.9709577 0.4612433 0.0000000
0.9945116 0.4610965 0.0000000
1.0000000 0.4610623 0.0000000
0.0142999 0.4606288 0.0000000
0.0459227 0.4605629 0.0000000
0.0775382 0.4604968 0.0000000
0.1090063 0.4604289 0.0000000
0.1404922 0.4603617 0.0000000
0.1721461 0.4603017 0.0000000
0.2038581 0.4601968 0.0000000
0.2359162 0.4598248 0.0000000
0.2681100 0.4592904 0.0000000
0.3008764 0.4580711 0.0000000
0.3342453 0.4568348 0.0000000
0.3695253 0.4555450 0.0000000
0.4057501 0.4545858 0.0003243
0.4443150 0.4544457 0.0014519
0.4840850 0.4552125 0.0032012
0.5262412 0.4577753 0.0061813
0.5711529 0.4628482 0.0119803
0.6204943 0.4719565 0.0223107
0.6682758 0.4835786 0.0339343
0.7140014 0.4985135 0.0472622
0.7513296 0.5078429 0.0550302
0.7795375 0.5110839 0.0567598
0.8056113 0.5172052 0.0586660
0.8297722 0.5259087 0.0607305
0.8481595 0.5247579 0.0515361
0.8622833 0.5163307 0.0340278
0.8807803 0.5099262 0.0195324
0.9019216 0.5047448 0.0068589
0.9260092 0.5014767 0.0017657
0.9515406 0.4991462 0.0003873
0.9739216 0.4978037 0.0000000
0.9950717 0.4968473 0.0000000
1.0000000 0.4966244 0.0000000
0.0135899 0.4918467 0.0000000
0.0453446 0.4918662 0.0000000
0.0770955 0.4918877 0.0000000
0.1087720 0.4919483 0.0000000
0.1404680 0.4920100 0.0000000
0.1723487 0.4920828 0.0000000
0.2042987 0.4921309 0.0000000
0.2366616 0.4920315 0.0000000
0.2691956 0.4918662 0.0000000
0.3024508 0.4914227 0.0000000
0.3361633 0.4910168 0.0000000
0.3713258 0.4907306 0.0000000
0.4072316 0.4907705 0.0000036
0.4449782 0.4916181 0.0000159
0.4837900 0.4933516 0.0000572
0.5247112 0.4968392 0.0001558
0.5674604 0.5026818 0.0040906
0.6131486 0.5123104 0.0141927
0.6601752 0.5257900 0.0271878
0.7089660 0.5443445 0.0439955
0.7488230 0.5555537 0.0545724
0.7789772 0.5587853 0.0583822
0.8075779 0.5665082 0.0644645
0.8347860 0.5782573 0.0725841
0.8541803 0.5767854 0.0639841
0.8678048 0.5655511 0.0430383
0.8859670 0.5558140 0.0256520
0.9068731 0.5469824 0.0104181
0.9308191 0.5411826 0.0035487
0.9562548 0.5368687 0.0007783
0.9768823 0.5343850 0.0000000
0.9956312 0.5326164 0.0000000
1.0000000 0.5322043 0.0000000
0.0130385 0.5231698 0.0000000
0.0448809 0.5232449 0.0000000
0.0767225 0.5233243 0.0000000
0.1085468 0.5234873 0.0000000
0.1403936 0.5236568 0.0000000
0.1724514 0.5238875 0.0000000
0.2045825 0.5241124 0.0000000
0.2371500 0.5243026 0.0000000
0.2698892 0.5244739 0.0000000
0.3033522 0.5245655 0.0000000
0.3372133 0.5247369 0.0000000
0.3723376 0.5251617 0.0000000
0.4081022 0.5259248 0.0000000
0.4454527 0.5275261 0.0000000
0.4837148 0.5299724 0.0000113
0.5237822 0.5340922 0.0000450
0.5652445 0.5401694 0.0023340
0.6089494 0.5493935 0.0082487
0.6538138 0.5617185 0.0179484
0.7002063 0.5781300 0.0326363
0.7406075 0.5908085 0.0443597
0.7745016 0.5994328 0.0528635
0.8039407 0.6088226 0.0604124
0.8293859 0.6188987 0.0671055
0.8505354 0.6199179 0.0633412
0.8685129 0.6142494 0.0518552
0.8885314 0.6033305 0.0349614
0.9097843 0.5892367 0.0147976
0.9339764 0.5804693 0.0053586
0.9596089 0.5743121 0.0011753
0.9790359 0.5708289 0.0000000
0.9960382 0.5683904 0.0000000
1.0000000 0.5678221 0.0000000
0.0124889 0.5544940 0.0000000
0.0444186 0.5546245 0.0000000
0.0763503 0.5547614 0.0000000
0.1083218 0.5550265 0.0000000
0.1403186 0.5553035 0.0000000
0.1725530 0.5556924 0.0000000
0.2048646 0.5560944 0.0000000
0.2376356 0.5565744 0.0000000
0.2705785 0.5570819 0.0000000
0.3042459 0.5577059 0.0000000
0.3382536 0.5584518 0.0000000
0.3733405 0.5595843 0.0000000
0.4089660 0.5610676 0.0000000
0.4459251 0.5634199 0.0000000
0.4836421 0.5665762 0.0000001
0.5228599 0.5713249 0.0000006
0.5630451 0.5776307 0.0006462
0.6047855 0.5864399 0.0023291
0.6474718 0.5975765 0.0086811
0.6914048 0.6117803 0.0211864
0.7323279 0.6259236 0.0340376
0.7699821 0.6400011 0.0472646
0.8002405 0.6510585 0.0562498
0.8238690 0.6594087 0.0614324
0.8467821 0.6629506 0.0625514
0.8691669 0.6629419 0.0606698
0.8910664 0.6508652 0.0443065
0.9126725 0.6314912 0.0191863
0.9371151 0.6197512 0.0071688
0.9629478 0.6117524 0.0015723
0.9811805 0.6072712 0.0000000
0.9964435 0.6041644 0.0000000
1.0000000 0.6034404 0.0000000
0.0120596 0.5858978 0.0000000
0.0440491 0.5860706 0.0000000
0.0760426 0.5862520 0.0000000
0.1081163 0.5866033 0.0000000
0.1402169 0.5869718 0.0000000
0.1725714 0.5875022 0.0000000
0.2050018 0.5880583 0.0000000
0.2378845 0.5887676 0.0000000
0.2709285 0.5895269 0.0000000
0.3046523 0.5904967 0.0000000
0.3386758 0.5916059 0.0000000
0.3736495 0.5931573 0.0000000
0.4090813 0.5950480 0.0000000
0.4456478 0.5977791 0.0000000
0.4828309 0.6012232 0.0000000
0.5212351 0.6060791 0.0000000
0.5603631 0.6122262 0.0003167
0.6006546 0.6204494 0.0011424
0.6415602 0.6305531 0.0052601
0.6832750 0.6431352 0.0137162
0.7233563 0.6566272 0.0244949
0.7616636 0.6711074 0.0377963
0.7939331 0.6831337 0.0482452
0.8207899 0.6929602 0.0561371
0.8450747 0.6950493 0.0557648
0.8674602 0.6914249 0.0492903
0.8901502 0.6799726 0.0342463
0.9130242 0.6637867 0.0140205
0.9382480 0.6533722 0.0048352
0.9646234 0.6457859 0.0010605
0.9823351 0.6414070 0.0000000
0.9966617 0.6382812 0.0000000
1.0000000 0.6375528 0.0000000
0.0116319 0.6173025 0.0000000
0.0436808 0.6175176 0.0000000
0.0757357 0.6177433 0.0000000
0.1079110 0.6181806 0.0000000
0.1401149 0.6186404 0.0000000
0.1725886 0.6193121 0.0000000
0.2051371 0.6200221 0.0000000
0.2381304 0.6209600 0.0000000
0.2712742 0.6219698 0.0000000
0.3050526 0.6232832 0.0000000
0.3390901 0.6247530 0.0000000
0.3739497 0.6267196 0.0000000
0.4091872 0.6290136 0.0000000
0.4453611 0.6321190 0.0000000
0.4820105 0.6358455 0.0000000
0.5196015 0.6408019 0.0000000
0.5576749 0.6467856 0.0000043
0.5965241 0.6544205 0.0000156
0.6356540 0.6634933 0.0019131
0.6751537 0.6744611 0.0062963
0.7143760 0.6872750 0.0149620
0.7532971 0.7020941 0.0282790
0.7875926 0.7150804 0.0401920
0.8177417 0.7264238 0.0508465
0.8433932 0.7270098 0.0489024
0.8657237 0.7196525 0.0376554
0.8891903 0.7088470 0.0239407
0.9133439 0.6959564 0.0087338
0.9393556 0.6869216 0.0024492
0.9662780 0.6797764 0.0005372
0.9834773 0.6755136 0.0000000
0.9968775 0.6723771 0.0000000
1.0000000 0.6716462 0.0000000
0.0112880 0.6487437 0.0000000
0.0433755 0.6489906 0.0000000
0.0754704 0.6492499 0.0000000
0.1077102 0.6497522 0.0000000
0.1399789 0.6502807 0.0000000
0.1725199 0.6510559 0.0000000
0.2051318 0.6518760 0.0000000
0.2381657 0.6529639 0.0000000
0.2713367 0.6541322 0.0000000
0.3050850 0.6556388 0.0000000
0.3390591 0.6573019 0.0000000
0.3737492 0.6594615 0.0000000
0.4087564 0.6619209 0.0000000
0.4445490 0.6651228 0.0000000
0.4807200 0.6688559 0.0000000
0.5176407 0.6736408 0.0000000
0.5549105 0.6792552 0.0000000
0.5927417 0.6862030 0.0000000
0.6307054 0.6942427 0.0009469
0.6688440 0.7037213 0.0031417
0.7065966 0.7144315 0.0084565
0.7439302 0.7264796 0.0171599
0.7781552 0.7373548 0.0262590
0.8095936 0.7471787 0.0357130
0.8371144 0.7483798 0.0348227
0.8617426 0.7432136 0.0262942
0.8868290 0.7349010 0.0163085
0.9121925 0.7246858 0.0054417
0.9390201 0.7172154 0.0012257
0.9665652 0.7110903 0.0002688
0.9837692 0.7073524 0.0000000
0.9969327 0.7045474 0.0000000
1.0000000 0.7038938 0.0000000
0.0109452 0.6801854 0.0000000
0.0430712 0.6804641 0.0000000
0.0752056 0.6807566 0.0000000
0.1075094 0.6813237 0.0000000
0.1398424 0.6819207 0.0000000
0.1724499 0.6827987 0.0000000
0.2051245 0.6837283 0.0000000
0.2381981 0.6849652 0.0000000
0.2713951 0.6862906 0.0000000
0.3051122 0.6879884 0.0000000
0.3390218 0.6898424 0.0000000
0.3735417 0.6921919 0.0000000
0.4083180 0.6948132 0.0000000
0.4437294 0.6981078 0.0000000
0.4794230 0.7018437 0.0000000
0.5156754 0.7064533 0.0000000
0.5521451 0.7116955 0.0000000
0.5889641 0.7179548 0.0000000
0.6257704 0.7249612 0.0000142
0.6625597 0.7329524 0.0000472
0.6988342 0.7415390 0.0019936
0.7345493 0.7507722 0.0060183
0.7686742 0.7594932 0.0122433
0.8013737 0.7677549 0.0204410
0.8307710 0.7696008 0.0206415
0.8577300 0.7667092 0.0149367
0.8844480 0.7609154 0.0087139
0.9110204 0.7533668 0.0021777
0.9386642 0.7474635 0.0000184
0.9668331 0.7423665 0.0000040
0.9840492 0.7391594 0.0000000
0.9969856 0.7366907 0.0000000
1.0000000 0.7361155 0.0000000
0.0106625 0.7116251 0.0000000
0.0428109 0.7119250 0.0000000
0.0749685 0.7122397 0.0000000
0.1073068 0.7128489 0.0000000
0.1396736 0.7134899 0.0000000
0.1723089 0.7144310 0.0000000
0.2050064 0.7154262 0.0000000
0.2380749 0.7167441 0.0000000
0.2712537 0.7181508 0.0000000
0.3048980 0.7199322 0.0000000
0.3387085 0.7218612 0.0000000
0.3730464 0.7242585 0.0000000
0.4075973 0.7268967 0.0000000
0.4426757 0.7301317 0.0000000
0.4779765 0.7337349 0.0000000
0.5137176 0.7380674 0.0000000
0.5496098 0.7428968 0.0000000
0.5857449 0.7485253 0.0000000
0.6218262 0.7546921 0.0000000
0.6578366 0.7615684 0.0000000
0.6933911 0.7687715 0.0009626
0.7284507 0.7763295 0.0029708
0.7623400 0.7832829 0.0061106
0.7951802 0.7896945 0.0102651
0.8254054 0.7915300 0.0103753
0.8536998 0.7899864 0.0074994
0.8815166 0.7859907 0.0043675
0.9090446 0.7805120 0.0010809
0.9373930 0.7760058 0.0000000
0.9661436 0.7719761 0.0000000
0.9837168 0.7693804 0.0000000
0.9969228 0.7673451 0.0000000
1.0000000 0.7668709 0.0000000
0.0103807 0.7430648 0.0000000
0.0425514 0.7433857 0.0000000
0.0747318 0.7437223 0.0000000
