presets/experimental/experimental-church/look.cube
# Approximate v0 colour conversion; calibrate before claiming visual parity.
LUT_3D_SIZE 5
DOMAIN_MIN 0 0 0
DOMAIN_MAX 1 1 1
0.0655160 0.0577490 0.0411060
0.3891622 0.1022056 0.0780433
0.7059962 0.1045375 0.0596161
0.8042872 0.0819169 0.0111096
0.9531340 0.0741270 0.0000000
0.0227670 0.2448580 0.0041796
0.2516153 0.2223108 0.0241358
0.6710112 0.2577277 0.0592023
0.8205422 0.2677876 0.0191650
0.9818997 0.2761318 0.0000000
0.0135899 0.4918467 0.0000000
0.2691956 0.4918662 0.0000000
0.5674604 0.5026818 0.0040906
0.8541803 0.5767854 0.0639841
1.0000000 0.5322043 0.0000000
0.0103807 0.7430648 0.0000000
0.2711092 0.7500064 0.0000000
0.5470780 0.7740790 0.0000000
0.8200550 0.8134700 0.0001698
1.0000000 0.7976036 0.0000000
0.0091545 0.9938071 0.0000000
0.2693789 0.9993273 0.0000000
0.5360502 0.9995341 0.0000000
0.7989150 0.9997385 0.0000000
1.0000000 0.9997535 0.0000000
0.1050315 0.0777695 0.2718219
0.3118055 0.0299023 0.2328185
0.5888853 0.0366800 0.2163359
0.7845242 0.0567120 0.1902583
0.9451286 0.0560654 0.1779404
0.0512798 0.2454756 0.2391720
0.2319701 0.2184569 0.1907994
0.5974039 0.2467067 0.1964063
0.8134381 0.2686092 0.1996225
0.9583030 0.2553033 0.1733992
0.0163074 0.4872309 0.2221289
0.2577864 0.4902375 0.2070592
0.5422801 0.4919614 0.1647795
0.8295751 0.5510320 0.1763152
0.9808960 0.5082686 0.1844346
0.0069766 0.7372968 0.2083572
0.2700682 0.7461904 0.2130633
0.5413539 0.7703998 0.2102533
0.8178201 0.8118328 0.2017018
1.0000000 0.7842996 0.2008373
0.0046086 0.9878366 0.2038128
0.2698555 0.9950972 0.2111123
0.5312790 0.9994538 0.2110496
0.7895136 0.9996205 0.2079665
1.0000000 0.9995980 0.2036369
0.1430234 0.0699901 0.5245239
0.2982009 0.0028780 0.4522001
0.5266894 0.0000197 0.4253580
0.7666514 0.0012920 0.4182223
0.9804199 0.0016235 0.4119794
0.1347160 0.2459496 0.5190925
0.2562185 0.2259179 0.4510095
0.5081509 0.2263348 0.4160926
0.7721893 0.2480918 0.4190678
0.9769956 0.2426892 0.4058743
0.0380932 0.4650803 0.4599820
0.2296660 0.4963093 0.4931053
0.4493276 0.4379879 0.4061824
0.7944044 0.5178112 0.4312993
0.9690621 0.4790120 0.3946605
0.0018797 0.7203141 0.4407328
0.2521184 0.7313039 0.4485685
0.5187785 0.7589008 0.4617261
0.7952930 0.7907234 0.4885906
0.9691501 0.7358999 0.4144693
0.0000000 0.9727595 0.4370412
0.2539612 0.9776899 0.4427362
0.5091823 0.9869840 0.4469774
0.7569481 0.9893391 0.4387219
0.9747996 0.9825917 0.4252767
0.0758125 0.0019607 0.6900764
0.2860666 0.0000000 0.6715401
0.5098501 0.0000000 0.6577850
0.7532162 0.0000000 0.6536403
0.9786103 0.0000000 0.6514653
0.1006210 0.2238515 0.6633977
0.2701597 0.2078560 0.6563444
0.4927736 0.2129674 0.6496268
0.7463736 0.2267902 0.6527413
0.9729007 0.2295916 0.6511646
0.0810745 0.4265936 0.6277893
0.2156890 0.3982754 0.6230675
0.4230693 0.4142762 0.6295365
0.7358721 0.4750924 0.6644973
0.9613866 0.4715992 0.6518379
0.0000595 0.6985061 0.6606698
0.2289563 0.6946311 0.6606422
0.4264962 0.6747514 0.6519564
0.7366249 0.7264732 0.7203153
0.9309693 0.6950099 0.6385236
0.0000000 0.9546511 0.6654725
0.2357033 0.9539793 0.6672271
0.4752991 0.9514961 0.6666839
0.7138801 0.9408355 0.6572896
0.9298633 0.9349254 0.6417136
0.0441911 0.0000000 0.9069223
0.2760394 0.0000000 0.9018481
0.5044530 0.0000000 0.8954975
0.7482079 0.0000000 0.8948661
0.9761522 0.0000000 0.8945750
0.0468802 0.2053537 0.8910764
0.2712905 0.2065011 0.8903629
0.4941866 0.2084389 0.8888980
0.7409358 0.2176613 0.8924736
0.9694341 0.2217115 0.8936634
0.0352002 0.4377893 0.8758658
0.2450208 0.4333425 0.8774721
0.4650113 0.4374936 0.8777574
0.7233463 0.4573910 0.8909086
0.9541396 0.4631651 0.8927175
0.0000043 0.6905720 0.8926209
0.2287155 0.6862867 0.8892462
0.4531020 0.6815791 0.8835170
0.7069475 0.6910930 0.8876773
0.9332975 0.6938834 0.8885841
0.0000000 0.9452172 0.9001483
0.2283004 0.9419798 0.8981510
0.4644438 0.9365896 0.8940906
0.7049617 0.9302495 0.8893678
0.9237654 0.9269844 0.8856110
