presets/experimental/experimental-church/look.cube
# Approximate v0 colour conversion; calibrate before claiming visual parity.
LUT_3D_SIZE 9
DOMAIN_MIN 0 0 0
DOMAIN_MAX 1 1 1
0.0655160 0.0577490 0.0411060
0.1989181 0.0750590 0.0580126
0.3891622 0.1022056 0.0780433
0.5802123 0.1079468 0.0740924
0.7059962 0.1045375 0.0596161
0.7525229 0.0898608 0.0298235
0.8042872 0.0819169 0.0111096
0.8730891 0.0795825 0.0036437
0.9531340 0.0741270 0.0000000
0.0416653 0.1412592 0.0217745
0.1501626 0.1370569 0.0281900
0.3083435 0.1425203 0.0408840
0.5440705 0.1732413 0.0677773
0.6914478 0.1852993 0.0607675
0.7596333 0.1823189 0.0367101
0.8133277 0.1784549 0.0147051
0.8809582 0.1763339 0.0041887
0.9618356 0.1759606 0.0000000
0.0227670 0.2448580 0.0041796
0.1311628 0.2248756 0.0171482
0.2516153 0.2223108 0.0241358
0.4485255 0.2255645 0.0321475
0.6710112 0.2577277 0.0592023
0.7488705 0.2552814 0.0392094
0.8205422 0.2677876 0.0191650
0.8948398 0.2736465 0.0000000
0.9818997 0.2761318 0.0000000
0.0168289 0.3672148 0.0000000
0.1400790 0.3647741 0.0002557
0.2637666 0.3618296 0.0134766
0.4035984 0.3450750 0.0126105
0.6076115 0.3601707 0.0431310
0.7580961 0.3783379 0.0519840
0.8260465 0.3795257 0.0255415
0.9103423 0.3886158 0.0000000
0.9999624 0.3935806 0.0000000
0.0135899 0.4918467 0.0000000
0.1404680 0.4920100 0.0000000
0.2691956 0.4918662 0.0000000
0.4072316 0.4907705 0.0000036
0.5674604 0.5026818 0.0040906
0.7488230 0.5555537 0.0545724
0.8541803 0.5767854 0.0639841
0.9308191 0.5411826 0.0035487
1.0000000 0.5322043 0.0000000
0.0116319 0.6173025 0.0000000
0.1401149 0.6186404 0.0000000
0.2712742 0.6219698 0.0000000
0.4091872 0.6290136 0.0000000
0.5576749 0.6467856 0.0000043
0.7143760 0.6872750 0.0149620
0.8433932 0.7270098 0.0489024
0.9393556 0.6869216 0.0024492
1.0000000 0.6716462 0.0000000
0.0103807 0.7430648 0.0000000
0.1395043 0.7450580 0.0000000
0.2711092 0.7500064 0.0000000
0.4068721 0.7589676 0.0000000
0.5470780 0.7740790 0.0000000
0.6879841 0.7960060 0.0000158
0.8200550 0.8134700 0.0001698
0.9361076 0.8045217 0.0000000
1.0000000 0.7976036 0.0000000
0.0095466 0.8686200 0.0000000
0.1387955 0.8708164 0.0000000
0.2700663 0.8760491 0.0000000
0.4038347 0.8845293 0.0000000
0.5394629 0.8961751 0.0000000
0.6743696 0.9091826 0.0000000
0.8046349 0.9180964 0.0000000
0.9294319 0.9185409 0.0000000
1.0000000 0.9170409 0.0000000
0.0091545 0.9938071 0.0000000
0.1383863 0.9960218 0.0000000
0.2693789 0.9993273 0.0000000
0.4021993 0.9994174 0.0000000
0.5360502 0.9995341 0.0000000
0.6689964 0.9996555 0.0000000
0.7989150 0.9997385 0.0000000
0.9258710 0.9997580 0.0000000
1.0000000 0.9997535 0.0000000
0.0868866 0.0739183 0.1608121
0.1685617 0.0463939 0.1285320
0.3442773 0.0585978 0.1412974
0.5157506 0.0710888 0.1381555
0.6534548 0.0847310 0.1237250
0.7315275 0.0943878 0.1057201
0.7923679 0.0938473 0.0940479
0.8563452 0.0929573 0.0894697
0.9283081 0.0819610 0.0878955
0.0581959 0.1453082 0.1252314
0.1429083 0.1324849 0.1128015
0.2899512 0.1329070 0.1142257
0.4993047 0.1583438 0.1275501
0.6545515 0.1695150 0.1271993
0.7504399 0.1759128 0.1205131
0.8079949 0.1771949 0.1094456
0.8701968 0.1765519 0.0984287
0.9418539 0.1744701 0.0923173
0.0340788 0.2512928 0.1190594
0.1449083 0.2461467 0.1130109
0.2463830 0.2237559 0.0918200
0.4367009 0.2288470 0.0956263
0.6244147 0.2169965 0.0796446
0.7479530 0.2530535 0.1079918
0.8117692 0.2622596 0.1089920
0.8824553 0.2672033 0.0966419
0.9671244 0.2683119 0.0882770
0.0205020 0.3682395 0.1105130
0.1450377 0.3689992 0.1111896
0.2733208 0.3794035 0.1102081
0.3804687 0.3438138 0.0874785
0.5657536 0.3271471 0.0648591
0.7500691 0.3581203 0.0822043
0.8018505 0.3430578 0.1096015
0.8931356 0.3753186 0.0973640
0.9838033 0.3855519 0.0881100
0.0141550 0.4908938 0.1015708
0.1427643 0.4915470 0.1031261
0.2677230 0.4925774 0.0988325
0.4001682 0.4913229 0.0923811
0.5532488 0.4928323 0.0789439
0.7232991 0.5294578 0.0925128
0.8285471 0.5403621 0.1043568
0.9191342 0.5290456 0.0978313
0.9999067 0.5250456 0.0906249
0.0109943 0.6157967 0.0941891
0.1423931 0.6174156 0.0968907
0.2712055 0.6213946 0.0946039
0.4071252 0.6286940 0.0922057
0.5538576 0.6446040 0.0925492
0.7061531 0.6787356 0.1028956
0.8365329 0.7148501 0.1119417
0.9329625 0.6799743 0.0993967
1.0000000 0.6667797 0.0926995
0.0092529 0.7413927 0.0890193
0.1419608 0.7435883 0.0926049
0.2720720 0.7489204 0.0919067
0.4065514 0.7580971 0.0917038
0.5457564 0.7727267 0.0933784
0.6860624 0.7938338 0.0981948
0.8199549 0.8131717 0.1027913
0.9326252 0.8018690 0.0954893
1.0000000 0.7941458 0.0912823
0.0082029 0.8668651 0.0858954
0.1413421 0.8691598 0.0899431
0.2714694 0.8745340 0.0899026
0.4041212 0.8830167 0.0902384
0.5387779 0.8943621 0.0912769
0.6729333 0.9069131 0.0927648
0.8025703 0.9154748 0.0929183
0.9258213 0.9150803 0.0902455
1.0000000 0.9134530 0.0885065
0.0077327 0.9920170 0.0845910
0.1409965 0.9942778 0.0888317
0.2709959 0.9989924 0.0889673
0.4027813 0.9993985 0.0893471
0.5356525 0.9995118 0.0899593
0.6676963 0.9996279 0.0903630
0.7966720 0.9997049 0.0897096
0.9225051 0.9997163 0.0879843
1.0000000 0.9997089 0.0869434
0.1050315 0.0777695 0.2718219
0.1892328 0.0411721 0.2481597
0.3118055 0.0299023 0.2328185
0.4549795 0.0302644 0.2242225
0.5888853 0.0366800 0.2163359
0.6981536 0.0458766 0.2054542
0.7845242 0.0567120 0.1902583
0.8631844 0.0639408 0.1764830
0.9451286 0.0560654 0.1779404
0.0546411 0.1187233 0.2190728
0.1580548 0.1367311 0.2337091
0.2846587 0.1359612 0.2194459
0.4419421 0.1385232 0.2136350
0.5909500 0.1477245 0.2124816
0.7075329 0.1558358 0.2081362
0.7934631 0.1605843 0.1992098
0.8715355 0.1608480 0.1859559
0.9434865 0.1592218 0.1726869
0.0512798 0.2454756 0.2391720
0.1361454 0.2388444 0.2222642
0.2319701 0.2184569 0.1907994
0.3923058 0.2196729 0.1805975
0.5974039 0.2467067 0.1964063
0.7402973 0.2640678 0.2010890
0.8134381 0.2686092 0.1996225
0.8796901 0.2610681 0.1861257
0.9583030 0.2553033 0.1733992
0.0294016 0.3654804 0.2325539
0.1399334 0.3640925 0.2222710
0.2445343 0.3640269 0.1951959
0.3695236 0.3317799 0.1722159
0.5666556 0.3499480 0.1694307
0.7421980 0.3782771 0.1741366
0.8506527 0.4084859 0.1975520
0.8949739 0.3793488 0.1862514
0.9710625 0.3717522 0.1775735
0.0163074 0.4872309 0.2221289
0.1392298 0.4874950 0.2189570
0.2577864 0.4902375 0.2070592
0.3871647 0.4893824 0.1878432
0.5422801 0.4919614 0.1647795
0.7169604 0.5263191 0.1638807
0.8295751 0.5510320 0.1763152
0.9084714 0.5241654 0.1890955
0.9808960 0.5082686 0.1844346
0.0101025 0.6117895 0.2138847
0.1392107 0.6139505 0.2148852
0.2672738 0.6201666 0.2129358
0.4016761 0.6302277 0.2069793
0.5488673 0.6449061 0.1996682
0.7015645 0.6757214 0.1934409
0.8265173 0.7069427 0.1863986
0.9209700 0.6711991 0.1951635
0.9999707 0.6551544 0.1948778
0.0069766 0.7372968 0.2083572
0.1387003 0.7398153 0.2111601
0.2700682 0.7461904 0.2130633
0.4028652 0.7563635 0.2117331
0.5413539 0.7703998 0.2102533
0.6816487 0.7901492 0.2082149
0.8178201 0.8118328 0.2017018
0.9240296 0.7948605 0.2016100
1.0000000 0.7842996 0.2008373
0.0052994 0.8627087 0.2051393
0.1379246 0.8650432 0.2086467
0.2700810 0.8706312 0.2117780
0.4010012 0.8791069 0.2116777
0.5343137 0.8897779 0.2114219
0.6675433 0.9012601 0.2104747
0.7963021 0.9089023 0.2078727
0.9168372 0.9063048 0.2046856
1.0000000 0.9037327 0.2032083
0.0046086 0.9878366 0.2038128
0.1375007 0.9900130 0.2076109
0.2698555 0.9950972 0.2111123
0.3999484 0.9993216 0.2112069
0.5312790 0.9994538 0.2110496
0.6619667 0.9995574 0.2101381
0.7895136 0.9996205 0.2079665
0.9135908 0.9996131 0.2051153
1.0000000 0.9995980 0.2036369
0.1378073 0.0849602 0.4180847
0.2062856 0.0374284 0.3700804
0.3013541 0.0152405 0.3404480
0.4226678 0.0083638 0.3252184
0.5503163 0.0101143 0.3176161
0.6690011 0.0154670 0.3114283
0.7763218 0.0205016 0.3041655
0.8801695 0.0228818 0.2967694
0.9720022 0.0224151 0.2937580
0.1383019 0.1779560 0.4178929
0.1914899 0.1455988 0.3659169
0.2813633 0.1263151 0.3317075
0.4091583 0.1225427 0.3172553
0.5466664 0.1279917 0.3131632
0.6732389 0.1358114 0.3111360
0.7809928 0.1407172 0.3058270
0.8817987 0.1408970 0.2970051
0.9709236 0.1398052 0.2903350
0.1080898 0.2561500 0.4053636
0.1514649 0.2361115 0.3611380
0.2247088 0.2077889 0.3131329
0.3725208 0.2192125 0.2980195
0.5354862 0.2346676 0.2987356
0.6862845 0.2523242 0.3056839
0.7956572 0.2607197 0.3055009
0.8838193 0.2537637 0.2920105
0.9661075 0.2458797 0.2759572
0.0541129 0.3601088 0.3659525
0.1414688 0.3583646 0.3617630
0.1687265 0.2755588 0.2504913
0.3149391 0.2969437 0.2643834
0.5315565 0.3386379 0.2774593
0.7146950 0.3745351 0.3007854
0.8444674 0.4053937 0.3206879
0.8916429 0.3745891 0.2892487
0.9648619 0.3566725 0.2705857
0.0233895 0.4800597 0.3454039
0.1367244 0.4821850 0.3441364
0.2382888 0.4879100 0.3250773
0.3728713 0.5222234 0.3129703
0.5304126 0.4894210 0.2944817
0.7266372 0.5403374 0.3060785
0.8422707 0.5689084 0.3228080
0.8992936 0.5140268 0.2946111
0.9759060 0.4960144 0.2836815
0.0104252 0.6045174 0.3329306
0.1355182 0.6080578 0.3345261
0.2576433 0.6185906 0.3338006
0.3935829 0.6399177 0.3330855
0.5483040 0.6561951 0.3297842
0.6979123 0.6714226 0.3203224
0.8229426 0.7047230 0.3192005
0.9041955 0.6569746 0.3053488
0.9865644 0.6347053 0.2968792
0.0042691 0.7303596 0.3261236
0.1340574 0.7331616 0.3286980
0.2625284 0.7410228 0.3314412
0.3956043 0.7536950 0.3341310
0.5336864 0.7673344 0.3336087
0.6731014 0.7830693 0.3308143
0.8114439 0.8057307 0.3252932
0.9078036 0.7798592 0.3155404
0.9962055 0.7648704 0.3093427
0.0012809 0.8560419 0.3226603
0.1327325 0.8583066 0.3256783
0.2630787 0.8638421 0.3289119
0.3942804 0.8721196 0.3318398
0.5254454 0.8815056 0.3316051
0.6569658 0.8907491 0.3301060
0.7842504 0.8964133 0.3265627
0.9010632 0.8903001 0.3190072
0.9983307 0.8861979 0.3151064
0.0003102 0.9812901 0.3213261
0.1321223 0.9832440 0.3245822
0.2630394 0.9878449 0.3279795
0.3936398 0.9943969 0.3308329
0.5225284 0.9992947 0.3303577
0.6510520 0.9994296 0.3285728
0.7765075 0.9994684 0.3247786
0.8983420 0.9994126 0.3194637
0.9975737 0.9993595 0.3166581
0.1430234 0.0699901 0.5245239
0.2122988 0.0272967 0.4831022
0.2982009 0.0028780 0.4522001
0.4057200 0.0000000 0.4333666
0.5266894 0.0000197 0.4253580
0.6500605 0.0005783 0.4227911
0.7666514 0.0012920 0.4182223
0.8824741 0.0016018 0.4138788
0.9804199 0.0016235 0.4119794
0.1901600 0.2101789 0.5542269
0.2075228 0.1432904 0.4813153
0.2856922 0.1194824 0.4468346
0.3951708 0.1118399 0.4282464
0.5219849 0.1143221 0.4229736
0.6495899 0.1204184 0.4220352
0.7675143 0.1247108 0.4185675
0.8826530 0.1255146 0.4138964
0.9796831 0.1251231 0.4111949
0.1347160 0.2459496 0.5190925
0.1804062 0.2406890 0.4817963
0.2562185 0.2259179 0.4510095
0.3673500 0.2169407 0.4207810
0.5081509 0.2263348 0.4160926
0.6500940 0.2412638 0.4204824
0.7721893 0.2480918 0.4190678
0.8824144 0.2455852 0.4111685
0.9769956 0.2426892 0.4058743
0.0824796 0.3454221 0.4855601
0.1404941 0.3526494 0.5154125
0.2090031 0.3373719 0.4804705
0.3060340 0.2995811 0.4092963
0.4878850 0.3365482 0.4121677
0.6541970 0.3677475 0.4235007
0.7825234 0.3794275 0.4247172
0.8812475 0.3658384 0.4066463
0.9705821 0.3567703 0.3962329
0.0380932 0.4650803 0.4599820
0.1395848 0.4744770 0.4779821
0.2296660 0.4963093 0.4931053
0.3347520 0.4958691 0.4769375
0.4493276 0.4379879 0.4061824
0.6763474 0.5142935 0.4449390
0.7944044 0.5178112 0.4312993
0.8802855 0.4918413 0.4065759
0.9690621 0.4790120 0.3946605
0.0134573 0.5923684 0.4466677
0.1334035 0.5970523 0.4520087
0.2459211 0.6117780 0.4608711
0.3725306 0.6427447 0.4710519
0.5396665 0.6780968 0.4855771
0.6762415 0.6525857 0.4598622
0.8063465 0.6824780 0.4761704
0.8822317 0.6272228 0.4187316
0.9714684 0.6128330 0.4066699
0.0018797 0.7203141 0.4407328
0.1289281 0.7231717 0.4437954
0.2521184 0.7313039 0.4485685
0.3805679 0.7450023 0.4556335
0.5187785 0.7589008 0.4617261
0.6545937 0.7664132 0.4610001
0.7952930 0.7907234 0.4885906
0.8797674 0.7494983 0.4327973
0.9691501 0.7358999 0.4144693
0.0000005 0.8470933 0.4380214
0.1265350 0.8489558 0.4406715
0.2535851 0.8535821 0.4439787
0.3813174 0.8603370 0.4476439
0.5106541 0.8671894 0.4501137
0.6388012 0.8724913 0.4491953
0.7634953 0.8744416 0.4467974
0.8763505 0.8639320 0.4297961
0.9731642 0.8598929 0.4219780
0.0000000 0.9727595 0.4370412
0.1256365 0.9742287 0.4397698
0.2539612 0.9776899 0.4427362
0.3817296 0.9823939 0.4455487
0.5091823 0.9869840 0.4469774
0.6343821 0.9900087 0.4444828
0.7569481 0.9893391 0.4387219
0.8764630 0.9849926 0.4297786
0.9747996 0.9825917 0.4252767
0.1110098 0.0317135 0.6027042
0.2014399 0.0077649 0.5826891
0.2932612 0.0000000 0.5620614
0.3988917 0.0000000 0.5478348
0.5161446 0.0000000 0.5410335
0.6378567 0.0000000 0.5379196
0.7583525 0.0000000 0.5346757
0.8795350 0.0000000 0.5320109
0.9803469 0.0000000 0.5310278
0.1575718 0.1774481 0.6141254
0.2026396 0.1276097 0.5791093
0.2864376 0.1089575 0.5577689
0.3906573 0.1022723 0.5428754
0.5106004 0.1039335 0.5381419
0.6351068 0.1085598 0.5367909
0.7575074 0.1123769 0.5349524
0.8782058 0.1138408 0.5319998
0.9785565 0.1140406 0.5308665
0.1187630 0.2337517 0.5768778
0.1868934 0.2272921 0.5706235
0.2649992 0.2146849 0.5510252
0.3680517 0.2106863 0.5340211
0.4975663 0.2203153 0.5347113
0.6300959 0.2305261 0.5364490
0.7565462 0.2366035 0.5359226
0.8769673 0.2370726 0.5318308
0.9768840 0.2364430 0.5299259
0.1224120 0.3076156 0.5493726
0.1562799 0.3269312 0.5750714
0.2174904 0.2923934 0.5341371
0.3279203 0.3060005 0.5284320
0.4785550 0.3367390 0.5391142
0.6250574 0.3551375 0.5428121
0.7563535 0.3633475 0.5409477
0.8748422 0.3596800 0.5319869
0.9726250 0.3564357 0.5271962
0.0597995 0.4427140 0.5497018
0.1494726 0.4479784 0.5624947
0.2026562 0.4343722 0.5668081
0.2892757 0.4406935 0.5639691
0.4674476 0.4758519 0.5834787
0.6330666 0.4951045 0.5718967
0.7603756 0.4975195 0.5560743
0.8703711 0.4822428 0.5326269
0.9654471 0.4747743 0.5233964
0.0187868 0.5766519 0.5502970
0.1342018 0.5767299 0.5543027
0.2318042 0.5852863 0.5664693
0.3475674 0.6241464 0.6052532
0.5074900 0.6573628 0.6406977
0.6943426 0.6823275 0.6630711
0.7811217 0.6479949 0.5984296
0.8591676 0.5981914 0.5260214
0.9572021 0.5947685 0.5231178
0.0002056 0.7084523 0.5511459
0.1240109 0.7094351 0.5533973
0.2399436 0.7138943 0.5584581
0.3581843 0.7234494 0.5676499
0.4849740 0.7307003 0.5756406
0.6195853 0.7351668 0.5783657
0.7502673 0.7369030 0.5760001
0.8288625 0.6919369 0.4962625
0.9436243 0.7077167 0.5159253
0.0000000 0.8370002 0.5513046
0.1201225 0.8378404 0.5531888
0.2429786 0.8400862 0.5556914
0.3646525 0.8431022 0.5583767
0.4878055 0.8453005 0.5601810
0.6117552 0.8450793 0.5588003
0.7306287 0.8382883 0.5487656
0.8390462 0.8224811 0.5205903
0.9421042 0.8274676 0.5197360
0.0000000 0.9633142 0.5513210
0.1189140 0.9639828 0.5533309
0.2441639 0.9655703 0.5554120
0.3677371 0.9674755 0.5571699
0.4912458 0.9685645 0.5578261
0.6138744 0.9675490 0.5555780
0.7329378 0.9627066 0.5470002
0.8504913 0.9563518 0.5347159
0.9491417 0.9551620 0.5301004
0.0758125 0.0019607 0.6900764
0.1840269 0.0000000 0.6823342
0.2860666 0.0000000 0.6715401
0.3939939 0.0000000 0.6626940
0.5098501 0.0000000 0.6577850
0.6306700 0.0000000 0.6554354
0.7532162 0.0000000 0.6536403
0.8769595 0.0000000 0.6521649
0.9786103 0.0000000 0.6514653
0.0865179 0.1189586 0.6852104
0.1867641 0.1086468 0.6768898
0.2829098 0.0984884 0.6669092
0.3887582 0.0944083 0.6584377
0.5051779 0.0958390 0.6547687
0.6275343 0.0996729 0.6540312
0.7509814 0.1031263 0.6531512
0.8748573 0.1050344 0.6519082
0.9756304 0.1055978 0.6510151
0.1006210 0.2238515 0.6633977
0.1821510 0.2151488 0.6639606
0.2701597 0.2078560 0.6563444
0.3728097 0.2060288 0.6490117
0.4927736 0.2129674 0.6496268
0.6199002 0.2211669 0.6522267
0.7463736 0.2267902 0.6527413
0.8713968 0.2290651 0.6517815
0.9729007 0.2295916 0.6511646
0.1152194 0.3024031 0.6244758
0.1734124 0.3154092 0.6471011
0.2431659 0.3006024 0.6372964
0.3408397 0.3011464 0.6314456
0.4712464 0.3232506 0.6445907
0.6085563 0.3405695 0.6534306
0.7406273 0.3497472 0.6553274
0.8671666 0.3518127 0.6532685
0.9689071 0.3517608 0.6520113
0.0810745 0.4265936 0.6277893
0.1567952 0.4310242 0.6429532
0.2156890 0.3982754 0.6230675
0.2707368 0.3562654 0.5809362
0.4230693 0.4142762 0.6295365
0.5955678 0.4621218 0.6624022
0.7358721 0.4750924 0.6644973
0.8606412 0.4732618 0.6556815
0.9613866 0.4715992 0.6518379
0.0219106 0.5657407 0.6519628
0.1333216 0.5627279 0.6529884
0.2210457 0.5544421 0.6497923
0.2954499 0.5355026 0.6393679
0.3139580 0.4410135 0.5723326
0.5831599 0.5896962 0.6909520
0.7358078 0.6051647 0.6866419
0.8499666 0.5907015 0.6574878
0.9495112 0.5873594 0.6493633
0.0000595 0.6985061 0.6606698
0.1196716 0.6973236 0.6609754
0.2289563 0.6946311 0.6606422
0.3297027 0.6891827 0.6588242
0.4264962 0.6747514 0.6519564
0.5453106 0.6855700 0.6718606
0.7366249 0.7264732 0.7203153
0.8252678 0.6912401 0.6467023
0.9309693 0.6950099 0.6385236
0.0000000 0.8279091 0.6642368
0.1146024 0.8275028 0.6648929
0.2337430 0.8264288 0.6649587
0.3491248 0.8247577 0.6646205
0.4649684 0.8222688 0.6637503
0.5861076 0.8203360 0.6639210
0.7030554 0.8070015 0.6549881
0.8059064 0.7831704 0.6132366
0.9209149 0.8077457 0.6242260
0.0000000 0.9546511 0.6654725
0.1130931 0.9544386 0.6665515
0.2357033 0.9539793 0.6672271
0.3555369 0.9531233 0.6673662
0.4752991 0.9514961 0.6666839
0.5959407 0.9483233 0.6645262
0.7138801 0.9408355 0.6572896
0.8304440 0.9340047 0.6455155
0.9298633 0.9349254 0.6417136
0.0540325 0.0000000 0.7928489
0.1703566 0.0000000 0.7896999
0.2795885 0.0000000 0.7842623
0.3902817 0.0000000 0.7788878
0.5061489 0.0000000 0.7756670
0.6266262 0.0000000 0.7744346
0.7498093 0.0000000 0.7737364
0.8747663 0.0000000 0.7731008
0.9770801 0.0000000 0.7728040
0.0571237 0.0972214 0.7870440
0.1733671 0.0965948 0.7843728
0.2785990 0.0916248 0.7799501
0.3873989 0.0895151 0.7755207
0.5029581 0.0907992 0.7732665
0.6239539 0.0939549 0.7729673
0.7475033 0.0970760 0.7728799
0.8724424 0.0991519 0.7725385
0.9749398 0.0999357 0.7728238
0.0669845 0.2109014 0.7707927
0.1717473 0.2087360 0.7726816
0.2716077 0.2064031 0.7705240
0.3769086 0.2052270 0.7678989
0.4929366 0.2092670 0.7680705
0.6163084 0.2153521 0.7702353
0.7417348 0.2202690 0.7712799
0.8678611 0.2232330 0.7718603
0.9707886 0.2244363 0.7727346
0.0805547 0.3150257 0.7436119
0.1675850 0.3170078 0.7568091
0.2557305 0.3123221 0.7570899
0.3575613 0.3126233 0.7557188
0.4751791 0.3211073 0.7601413
0.6040694 0.3330174 0.7673689
0.7337911 0.3411167 0.7712759
0.8615398 0.3451367 0.7721934
0.9648958 0.3465948 0.7731206
0.0697481 0.4323448 0.7398245
0.1542392 0.4329967 0.7530632
0.2376738 0.4232489 0.7500050
0.3280887 0.4122072 0.7401033
0.4463998 0.4238713 0.7476644
0.5878220 0.4481951 0.7660679
0.7241681 0.4609373 0.7733959
0.8531801 0.4649779 0.7730525
0.9565827 0.4662572 0.7732411
0.0186227 0.5627726 0.7635194
0.1317210 0.5611711 0.7644005
0.2276147 0.5525033 0.7594307
0.3146775 0.5341858 0.7431151
0.4162091 0.5268740 0.7367674
0.5701764 0.5639298 0.7650482
0.7143556 0.5796394 0.7763678
0.8425120 0.5814037 0.7733801
0.9454245 0.5822656 0.7718323
0.0000365 0.6928048 0.7740872
0.1169977 0.6913848 0.7734948
0.2269957 0.6866830 0.7704148
0.3287943 0.6788296 0.7642628
0.4351202 0.6731517 0.7596327
0.5649399 0.6815873 0.7629215
0.7020268 0.6885798 0.7693920
0.8279012 0.6910214 0.7705966
0.9313814 0.6935443 0.7672415
0.0000000 0.8216317 0.7793013
0.1109856 0.8204715 0.7787955
0.2289588 0.8176724 0.7770479
0.3427305 0.8141277 0.7746392
0.4577757 0.8108411 0.7723410
0.5787514 0.8091088 0.7707159
0.7003676 0.8033333 0.7686353
0.8120704 0.7947050 0.7699357
0.9206754 0.8052929 0.7630400
0.0000000 0.9483527 0.7813027
0.1091284 0.9475414 0.7814774
0.2304282 0.9457846 0.7808915
0.3485698 0.9434482 0.7797352
0.4669446 0.9408375 0.7782355
0.5869373 0.9375439 0.7761398
0.7059589 0.9315303 0.7723117
0.8231056 0.9257234 0.7672910
0.9228024 0.9269551 0.7647489
0.0441911 0.0000000 0.9069223
0.1634741 0.0000000 0.9051985
0.2760394 0.0000000 0.9018481
0.3883515 0.0000000 0.8979902
0.5044530 0.0000000 0.8954975
0.6248573 0.0000000 0.8949997
0.7482079 0.0000000 0.8948661
0.8735883 0.0000000 0.8946749
0.9761522 0.0000000 0.8945750
0.0449960 0.0896331 0.9020364
0.1662590 0.0914502 0.9005811
0.2759989 0.0885652 0.8980807
0.3867244 0.0873662 0.8952245
0.5022889 0.0885965 0.8935867
0.6227697 0.0913287 0.8936767
0.7463367 0.0942539 0.8940350
0.8716408 0.0963448 0.8941004
0.9740179 0.0971414 0.8942214
0.0468802 0.2053537 0.8910764
0.1636410 0.2063815 0.8914334
0.2712905 0.2065011 0.8903629
0.3790529 0.2057343 0.8888855
0.4941866 0.2084389 0.8888980
0.6158616 0.2131445 0.8907105
0.7409358 0.2176613 0.8924736
0.8670011 0.2206110 0.8932493
0.9694341 0.2217115 0.8936634
0.0466052 0.3188130 0.8782991
0.1575974 0.3195353 0.8813026
0.2594005 0.3183052 0.8817584
0.3658905 0.3195222 0.8807617
0.4808253 0.3237617 0.8826499
0.6052632 0.3315308 0.8873279
0.7328760 0.3382553 0.8912052
0.8601943 0.3422777 0.8927135
0.9627599 0.3436819 0.8932598
0.0352002 0.4377893 0.8758658
0.1453226 0.4372494 0.8784283
0.2450208 0.4333425 0.8774721
0.3485861 0.4312626 0.8750844
0.4650113 0.4374936 0.8777574
0.5926705 0.4483175 0.8852918
0.7233463 0.4573910 0.8909086
0.8516152 0.4617763 0.8923873
0.9541396 0.4631651 0.8927175
0.0108688 0.5626701 0.8843661
0.1284423 0.5617201 0.8843771
0.2336683 0.5571120 0.8816871
0.3377487 0.5520617 0.8768918
0.4525539 0.5545788 0.8770977
0.5825726 0.5667854 0.8847697
0.7140199 0.5752108 0.8903564
0.8418964 0.5786976 0.8913961
0.9439285 0.5798002 0.8912769
0.0000043 0.6905720 0.8926209
0.1157050 0.6896825 0.8918456
0.2287155 0.6862867 0.8892462
0.3383083 0.6822453 0.8854888
0.4531020 0.6815791 0.8835170
0.5786194 0.6866007 0.8854304
0.7069475 0.6910930 0.8876773
0.8322233 0.6929372 0.8890449
0.9332975 0.6938834 0.8885841
0.0000000 0.8186652 0.8979158
0.1094119 0.8178294 0.8971523
0.2279782 0.8154196 0.8952342
0.3432213 0.8124984 0.8926959
0.4601281 0.8104810 0.8905087
0.5812208 0.8095639 0.8888232
0.7045325 0.8087480 0.8879314
0.8254484 0.8072872 0.8870624
0.9255670 0.8084349 0.8862475
0.0000000 0.9452172 0.9001483
0.1072760 0.9441720 0.8995800
0.2283004 0.9419798 0.8981510
0.3462110 0.9392570 0.8961859
0.4644438 0.9365896 0.8940906
0.5844862 0.9338438 0.8918855
0.7049617 0.9302495 0.8893678
0.8250420 0.9271585 0.8868357
0.9237654 0.9269844 0.8856110
