presets/series/movie/series-movie-studio-cut/look.cube
# Approximate v0 colour conversion; calibrate before claiming visual parity.
LUT_3D_SIZE 9
DOMAIN_MIN 0 0 0
DOMAIN_MAX 1 1 1
0.0056675 0.0039610 0.0042275
0.1441069 0.0145022 0.0088224
0.2952429 0.0153506 0.0082204
0.3826539 0.0131255 0.0077788
0.4631621 0.0103281 0.0071448
0.5767274 0.0058668 0.0065579
0.6852307 0.0019630 0.0057027
0.7833030 0.0005873 0.0053260
0.8879091 0.0039481 0.0051454
0.0300546 0.1349836 0.0348613
0.1410128 0.1399894 0.0144080
0.2895946 0.1441250 0.0142031
0.3729446 0.1371692 0.0134190
0.4579371 0.1342616 0.0113396
0.5733583 0.1255738 0.0080265
0.6814844 0.1177505 0.0081570
0.7801697 0.1123661 0.0046787
0.8841479 0.1196197 0.0043375
0.0436877 0.2611414 0.0570773
0.1293576 0.2701511 0.0222010
0.2700213 0.2686594 0.0216184
0.3736770 0.2795945 0.0240392
0.4484949 0.2667971 0.0192846
0.5685896 0.2599242 0.0130067
0.6933212 0.2616705 0.0106145
0.7913505 0.2585334 0.0086597
0.8905046 0.2627232 0.0144967
0.0471983 0.3386180 0.0671836
0.1246767 0.3449505 0.0276020
0.2515450 0.3506480 0.0177244
0.3440536 0.3469829 0.0240554
0.4465887 0.3564815 0.0200369
0.5678797 0.3506637 0.0175139
0.6887326 0.3486798 0.0234798
0.7990419 0.3550188 0.0115833
0.8997808 0.3608105 0.0167356
0.0534301 0.4188759 0.0783379
0.1249390 0.4244930 0.0340746
0.2434145 0.4313941 0.0153174
0.3312834 0.4323365 0.0154081
0.4213975 0.4273392 0.0172274
0.5690448 0.4427232 0.0162150
0.6913406 0.4415457 0.0140695
0.8043530 0.4433649 0.0183599
0.9095400 0.4571929 0.0207403
0.0674655 0.5411086 0.0981294
0.1298991 0.5462872 0.0456016
0.2408352 0.5513571 0.0253314
0.3196703 0.5533417 0.0110923
0.4051173 0.5522605 0.0001347
0.5401260 0.5516209 0.0040457
0.6951300 0.5781166 0.0098484
0.8091624 0.5803412 0.0063855
0.9176951 0.5834659 0.0053585
0.0854386 0.6662600 0.1215853
0.1381062 0.6709243 0.0593985
0.2462602 0.6752147 0.0407310
0.3198153 0.6772857 0.0274366
0.3994825 0.6782727 0.0143904
0.5261489 0.6783748 0.0000000
0.6596814 0.6799360 0.0000400
0.8056680 0.7105123 0.0000841
0.9119669 0.7073996 0.0006460
0.1047185 0.7840518 0.1460310
0.1479814 0.7885544 0.0756498
0.2551437 0.7927917 0.0576504
0.3260657 0.7952155 0.0435388
0.4017046 0.7970120 0.0307051
0.5217220 0.7982913 0.0131819
0.6487934 0.7981089 0.0000000
0.7691077 0.7975545 0.0000000
0.9110714 0.8245870 0.0000000
0.1254901 0.9025245 0.1722692
0.1593481 0.9069980 0.0936001
0.2662574 0.9114695 0.0781119
0.3357158 0.9142285 0.0640948
0.4087005 0.9166336 0.0484242
0.5235165 0.9188903 0.0302310
0.6458539 0.9191808 0.0143548
0.7627346 0.9171194 0.0034787
0.8774758 0.9121792 0.0000000
0.0188320 0.0102561 0.1125435
0.1168141 0.0254426 0.1198868
0.2643217 0.0214548 0.1383110
0.3580296 0.0133745 0.1394496
0.4459594 0.0089408 0.1393224
0.5649219 0.0052656 0.1367556
0.6786735 0.0044830 0.1305061
0.7800362 0.0053023 0.1194798
0.8820911 0.0070282 0.1156144
0.0182431 0.1262573 0.1290553
0.1404605 0.1375139 0.1378112
0.2751411 0.1300155 0.1304792
0.3713428 0.1293874 0.1333006
0.4541936 0.1265767 0.1323710
0.5662177 0.1248628 0.1306129
0.6784698 0.1237999 0.1281146
0.7830593 0.1253195 0.1269095
0.8881889 0.1343654 0.1316303
0.0274991 0.2481958 0.1450296
0.1530844 0.2555437 0.1566640
0.2603492 0.2602141 0.1251139
0.3509621 0.2579156 0.1208812
0.4375507 0.2553412 0.1210896
0.5574833 0.2467373 0.1191230
0.6793671 0.2476444 0.1193141
0.7879293 0.2508112 0.1194445
0.8927973 0.2596377 0.1253335
0.0326716 0.3277016 0.1575506
0.1551705 0.3318827 0.1642164
0.2478926 0.3425374 0.1235664
0.3375542 0.3403041 0.1205951
0.4452095 0.3556729 0.1273456
0.5621588 0.3459046 0.1257629
0.6823295 0.3390661 0.1181520
0.7954002 0.3420034 0.1171810
0.8985396 0.3568658 0.1318073
0.0406342 0.4099732 0.1710130
0.1624445 0.4147914 0.1756806
0.2438248 0.4243147 0.1310117
0.3263836 0.4275529 0.1172843
0.4173271 0.4226058 0.1187921
0.5687598 0.4455724 0.1353222
0.6856899 0.4334151 0.1218311
0.8039078 0.4381684 0.1224741
0.9054796 0.4607327 0.1514426
0.0573939 0.5336821 0.1938502
0.1796478 0.5387456 0.1981839
0.2536721 0.5472989 0.1523456
0.3260410 0.5520536 0.1344107
0.4075226 0.5519157 0.1190154
0.5377076 0.5468823 0.1162378
0.6896475 0.5703647 0.1149397
0.8026081 0.5727102 0.1211020
0.9101019 0.5777138 0.1310036
0.0778169 0.6600307 0.2196594
0.2000874 0.6646009 0.2235033
0.2639499 0.6711086 0.1715191
0.3328377 0.6745048 0.1573087
0.4076640 0.6766339 0.1407387
0.5301824 0.6768991 0.1223629
0.6627340 0.6783418 0.1137701
0.8004285 0.7024533 0.1154820
0.9072984 0.7001629 0.1169631
0.0992192 0.7784686 0.2457335
0.2211111 0.7831822 0.2493261
0.2754459 0.7890010 0.1901613
0.3432264 0.7924249 0.1787184
0.4146543 0.7953501 0.1636391
0.5296385 0.7977996 0.1414086
0.6543973 0.7979010 0.1258230
0.7736234 0.7971786 0.1177547
0.9100873 0.8198240 0.1115862
0.1216497 0.8972981 0.2729527
0.2432367 0.9023911 0.2765800
0.2880663 0.9079836 0.2095708
0.3555201 0.9115659 0.2002242
0.4251398 0.9149456 0.1869896
0.5347824 0.9186345 0.1644913
0.6538215 0.9197490 0.1443447
0.7693709 0.9178405 0.1304142
0.8838875 0.9128871 0.1187769
0.0272758 0.0073812 0.2305402
0.1195452 0.0219400 0.2260658
0.2273875 0.0309177 0.2310028
0.3177685 0.0302754 0.2462790
0.4085545 0.0250061 0.2557913
0.5374363 0.0182321 0.2637776
0.6600942 0.0131204 0.2662884
0.7718176 0.0105616 0.2656813
0.8833764 0.0103748 0.2671660
0.0115164 0.1002992 0.2395791
0.1304248 0.1202766 0.2257775
0.2230776 0.1336231 0.2270244
0.3279048 0.1440393 0.2533732
0.4297994 0.1395713 0.2620453
0.5549758 0.1317826 0.2610951
0.6710315 0.1290766 0.2610090
0.7820569 0.1304517 0.2624343
0.8930675 0.1359983 0.2673835
0.0114126 0.2329852 0.2406356
0.1315907 0.2362723 0.2450113
0.2576456 0.2540019 0.2541441
0.3454187 0.2552080 0.2531173
0.4367522 0.2537544 0.2519003
0.5626952 0.2474430 0.2479082
0.6789947 0.2483583 0.2492785
0.7911457 0.2523331 0.2526447
0.9011937 0.2611330 0.2609533
0.0061949 0.3157839 0.2457084
0.1340460 0.3169672 0.2519732
0.2621169 0.3318489 0.2653545
0.3313810 0.3299096 0.2431891
0.4211783 0.3307405 0.2412755
0.5549699 0.3312583 0.2380736
0.6778581 0.3275070 0.2361195
0.7938885 0.3283725 0.2397326
0.9047966 0.3386913 0.2506234
0.0136653 0.3992712 0.2550361
0.1444394 0.4024537 0.2671900
0.2682029 0.4134681 0.2768465
0.3264133 0.4175422 0.2491061
0.4081207 0.4090864 0.2335902
0.5461164 0.4185821 0.2406829
0.6845038 0.4261163 0.2391170
0.8001545 0.4238762 0.2355937
0.9119776 0.4296969 0.2472080
0.0332359 0.5252149 0.2771783
0.1665664 0.5290877 0.2924398
0.2882556 0.5369930 0.2985665
0.3341944 0.5430036 0.2659770
0.4055954 0.5457063 0.2411719
0.5325287 0.5387374 0.2319848
0.6801786 0.5583620 0.2408510
0.8061797 0.5714049 0.2516112
0.9165062 0.5711777 0.2522117
0.0577398 0.6529308 0.3047205
0.1914334 0.6567539 0.3202125
0.3125725 0.6631060 0.3258297
0.3487579 0.6680145 0.2889388
0.4174152 0.6717151 0.2746216
0.5323941 0.6731972 0.2512789
0.6621221 0.6731477 0.2430499
0.7981950 0.6962783 0.2483952
0.9065292 0.6957481 0.2514672
0.0825373 0.7723291 0.3325178
0.2153734 0.7766100 0.3477909
0.3364807 0.7829032 0.3537049
0.3632200 0.7873609 0.3096678
0.4311124 0.7916412 0.3000826
0.5389579 0.7962044 0.2787969
0.6596424 0.7969325 0.2612838
0.7778348 0.7963904 0.2531763
0.9086892 0.8143668 0.2496690
0.1078781 0.8916232 0.3614790
0.2398285 0.8964312 0.3763404
0.3605651 0.9031343 0.3823943
0.3775583 0.9072137 0.3299462
0.4452696 0.9117253 0.3230633
0.5490017 0.9174728 0.3045801
0.6630407 0.9201956 0.2839162
0.7764897 0.9188389 0.2689711
0.8906850 0.9141116 0.2571739
0.0311184 0.0057824 0.2987611
0.1212188 0.0176332 0.2910107
0.2231874 0.0296622 0.2917947
0.2975647 0.0314128 0.2982917
0.3856128 0.0320072 0.3142316
0.5146993 0.0284279 0.3306104
0.6410292 0.0225552 0.3404137
0.7576064 0.0186950 0.3465081
0.8730084 0.0167963 0.3519130
0.0070612 0.0872033 0.3115141
0.1308122 0.1164362 0.2947682
0.2234206 0.1310315 0.2886882
0.2983300 0.1388167 0.2998068
0.3955263 0.1438347 0.3208801
0.5297020 0.1389025 0.3332322
0.6555240 0.1352391 0.3398199
0.7714900 0.1345538 0.3445491
0.8858954 0.1364919 0.3496629
0.0031740 0.2176072 0.3131858
0.1177816 0.2175610 0.3111347
0.2293387 0.2238293 0.2943483
0.2932159 0.2309848 0.2933986
0.4160356 0.2610627 0.3340044
0.5570302 0.2596160 0.3385544
0.6743346 0.2568162 0.3385024
0.7870751 0.2573648 0.3408055
0.8992419 0.2628856 0.3467974
0.0028947 0.3059182 0.3134629
0.1200079 0.3070172 0.3161093
0.2424796 0.3209202 0.3273400
0.3412229 0.3384765 0.3369935
0.4329949 0.3427975 0.3384627
0.5599792 0.3392263 0.3314180
0.6798395 0.3335731 0.3292200
0.7938844 0.3337345 0.3313093
0.9060924 0.3422761 0.3397038
0.0014427 0.3911619 0.3167928
0.1265469 0.3941310 0.3232993
0.2553041 0.4049016 0.3383008
0.3410832 0.4140691 0.3456996
0.4125900 0.4113409 0.3237287
0.5514726 0.4211706 0.3275540
0.6873108 0.4247975 0.3226978
0.7969851 0.4158779 0.3209750
0.9125046 0.4221289 0.3288454
0.0159539 0.5185635 0.3322450
0.1495077 0.5226006 0.3452471
0.2798536 0.5298104 0.3619502
0.3553723 0.5350096 0.3644173
0.4084731 0.5388141 0.3342632
0.5281906 0.5313173 0.3127343
0.6756804 0.5518639 0.3273229
0.8115922 0.5714433 0.3397596
0.9222263 0.5694517 0.3351116
0.0413747 0.6479453 0.3576966
0.1774621 0.6514153 0.3732603
0.3080414 0.6574244 0.3897417
0.3834867 0.6625244 0.3926835
0.4268912 0.6677070 0.3613537
0.5343040 0.6706303 0.3360152
0.6602432 0.6680733 0.3264651
0.7953965 0.6897298 0.3349160
0.9093564 0.6962784 0.3418332
0.0681543 0.7679770 0.3850048
0.2043629 0.7719787 0.4020103
0.3345998 0.7782725 0.4184228
0.4098580 0.7836029 0.4219200
0.4440035 0.7885960 0.3846564
0.5473941 0.7953054 0.3681357
0.6640057 0.7967588 0.3495674
0.7802070 0.7952189 0.3411170
0.9075515 0.8110529 0.3408871
0.0952689 0.8876815 0.4143296
0.2311212 0.8922874 0.4318319
0.3604381 0.8990621 0.4478278
0.4352266 0.9043666 0.4513121
0.4595546 0.9089614 0.4060313
0.5606781 0.9164114 0.3939495
0.6705073 0.9207874 0.3746412
0.7818166 0.9200027 0.3597243
0.8955543 0.9155580 0.3502778
0.0391574 0.0069335 0.3658393
0.1278715 0.0172265 0.3562615
0.2257298 0.0277992 0.3554286
0.2922139 0.0321691 0.3573353
0.3669464 0.0334627 0.3649542
0.4934842 0.0354057 0.3882010
0.6197355 0.0313659 0.4046719
0.7383437 0.0274761 0.4168483
0.8562149 0.0245522 0.4266410
0.0107677 0.0803475 0.3827803
0.1348393 0.1155398 0.3650943
0.2285104 0.1274984 0.3572298
0.2921775 0.1350134 0.3579274
0.3680069 0.1388741 0.3661576
0.4996794 0.1423382 0.3896801
0.6312989 0.1411312 0.4065916
0.7525699 0.1400004 0.4179961
0.8709815 0.1401081 0.4264961
0.0002788 0.1996363 0.3851632
0.1101999 0.2025862 0.3803308
0.2280017 0.2200514 0.3635789
0.2897833 0.2284701 0.3563559
0.3699754 0.2430259 0.3696597
0.5222975 0.2606909 0.4037671
0.6544012 0.2611805 0.4145948
0.7734418 0.2610920 0.4214298
0.8892608 0.2639759 0.4279162
0.0005563 0.2929724 0.3874121
0.1119137 0.2924368 0.3877465
0.2218375 0.2941224 0.3949492
0.2956974 0.2913702 0.3636570
0.3672338 0.3018943 0.3650067
0.5442888 0.3455623 0.4169980
0.6711496 0.3435224 0.4191104
0.7866197 0.3417829 0.4218080
0.9000034 0.3460733 0.4276037
0.0016954 0.3819154 0.3871722
0.1158051 0.3845791 0.3909989
0.2368017 0.3958954 0.4052477
0.3235755 0.4038370 0.4075587
0.4255216 0.4210512 0.4174489
0.5604713 0.4283147 0.4206577
0.6820594 0.4257824 0.4140908
0.7965603 0.4208964 0.4155402
0.9103682 0.4251996 0.4218326
0.0024858 0.5114214 0.3939202
0.1327728 0.5150654 0.4018827
0.2614612 0.5226764 0.4162632
0.3437157 0.5271184 0.4257660
0.4244930 0.5354503 0.4319997
0.5341069 0.5346773 0.4045977
0.6867002 0.5579153 0.4215608
0.8119209 0.5723078 0.4318959
0.9197806 0.5626624 0.4238973
0.0257456 0.6425129 0.4136510
0.1607753 0.6454614 0.4256534
0.2938131 0.6514903 0.4429156
0.3773202 0.6564260 0.4551748
0.4548641 0.6644559 0.4612226
0.5427753 0.6733427 0.4302343
0.6630793 0.6673433 0.4136314
0.7865862 0.6789239 0.4180335
0.9126385 0.6962285 0.4310822
0.0530018 0.7634078 0.4382500
0.1901313 0.7669542 0.4535683
0.3242359 0.7732454 0.4728613
0.4072754 0.7788724 0.4854825
0.4836082 0.7859531 0.4909936
0.5592245 0.7949371 0.4580297
0.6710543 0.7985090 0.4402163
0.7828468 0.7941545 0.4296699
0.9049848 0.8065461 0.4324417
0.0813409 0.8835036 0.4663676
0.2190345 0.8878238 0.4838097
0.3528117 0.8946280 0.5037261
0.4346833 0.9000484 0.5155808
0.5097069 0.9064339 0.5203784
0.5743346 0.9148409 0.4811497
0.6800541 0.9217912 0.4661980
0.7883785 0.9220721 0.4520459
0.9007127 0.9177675 0.4446147
0.0654550 0.0191546 0.4685859
0.1463753 0.0232311 0.4559696
0.2364017 0.0285702 0.4512442
0.2975513 0.0327610 0.4511589
0.3618390 0.0366992 0.4528030
0.4682904 0.0385955 0.4642516
0.5910114 0.0397965 0.4877972
0.7083223 0.0384843 0.5070330
0.8262158 0.0362587 0.5233223
0.0318967 0.0802723 0.4910515
0.1502553 0.1203617 0.4682775
0.2374811 0.1258059 0.4555770
0.2958919 0.1311139 0.4522193
0.3584435 0.1360707 0.4507171
0.4658944 0.1399947 0.4612627
0.5935457 0.1455139 0.4872302
0.7165034 0.1469795 0.5088117
0.8384684 0.1474178 0.5257860
0.0090668 0.1880382 0.4993734
0.1170175 0.1915407 0.4819271
0.2378189 0.2234471 0.4663727
0.2950654 0.2266562 0.4576658
0.3573343 0.2343144 0.4542353
0.4703081 0.2468449 0.4661193
0.6055315 0.2583930 0.4947720
0.7341592 0.2627748 0.5171980
0.8588912 0.2660032 0.5333234
0.0002167 0.2656790 0.4947457
0.1082702 0.2680078 0.4885299
0.2221192 0.2762633 0.4853458
0.2917882 0.2861976 0.4650850
0.3597847 0.2970599 0.4603602
0.4760000 0.3173939 0.4720907
0.6216946 0.3369082 0.5062890
0.7518537 0.3420571 0.5265078
0.8758010 0.3467635 0.5405319
0.0039154 0.3613271 0.4984705
0.1052913 0.3600273 0.4960118
0.2303341 0.3737009 0.5107170
0.2931845 0.3665211 0.5026575
0.3738579 0.3697385 0.4769513
0.4810549 0.3849180 0.4750866
0.6467007 0.4220456 0.5228672
0.7750455 0.4286088 0.5388056
0.8942958 0.4321262 0.5484152
0.0069524 0.4999156 0.5004947
0.1145972 0.5005219 0.5021420
0.2371077 0.5084056 0.5105523
0.3218276 0.5183829 0.5199963
0.4107157 0.5265427 0.5246983
0.5582207 0.5481356 0.5406789
0.6962935 0.5612927 0.5528131
0.8040284 0.5595477 0.5476310
0.9161296 0.5590895 0.5534665
0.0123658 0.6336138 0.5069527
0.1406258 0.6354344 0.5125830
0.2676373 0.6408755 0.5224025
0.3510958 0.6456039 0.5318233
0.4391588 0.6544678 0.5463333
0.5654990 0.6759609 0.5689669
0.6864291 0.6843728 0.5577281
0.8084633 0.6938145 0.5588741
0.9114394 0.7018481 0.5699894
0.0343498 0.7560458 0.5234438
0.1690993 0.7587961 0.5332345
0.3018253 0.7646947 0.5482188
0.3870247 0.7702121 0.5613701
0.4742029 0.7778301 0.5777460
0.5929758 0.7919352 0.5952590
0.6873144 0.8047411 0.5782000
0.7967731 0.8011152 0.5706003
0.9063154 0.8049239 0.5624473
0.0617357 0.8770193 0.5467235
0.1990926 0.8806686 0.5602182
0.3338978 0.8872150 0.5787664
0.4191436 0.8927352 0.5932461
0.5043895 0.8992876 0.6090515
0.6192314 0.9111268 0.6237851
0.6979437 0.9221306 0.5994651
0.8017296 0.9271962 0.5919555
0.9100390 0.9228935 0.5886557
0.1035693 0.0423132 0.5835932
0.1715126 0.0354166 0.5623599
0.2523641 0.0330771 0.5506140
0.3093402 0.0350678 0.5492426
0.3691276 0.0382393 0.5489746
0.4615956 0.0417967 0.5509538
0.5672871 0.0417960 0.5633240
0.6826447 0.0445514 0.5888098
0.7977179 0.0450929 0.6100988
0.0838786 0.1031864 0.6239416
0.1686747 0.1279542 0.5714935
0.2508830 0.1282017 0.5541217
0.3062574 0.1309638 0.5492035
0.3647815 0.1347937 0.5457195
0.4558560 0.1397286 0.5448791
0.5646911 0.1431230 0.5595286
0.6831018 0.1492761 0.5868496
0.8030652 0.1527433 0.6108315
0.0372202 0.1896869 0.6109345
0.1283949 0.1880146 0.5852242
0.2468073 0.2238585 0.5636981
0.3046255 0.2266082 0.5549793
0.3625404 0.2313867 0.5491866
0.4540014 0.2398680 0.5447220
0.5657077 0.2477002 0.5597590
0.6893332 0.2582915 0.5901743
0.8158042 0.2656015 0.6174012
0.0120603 0.2519121 0.6089194
0.1142855 0.2555280 0.5921181
0.2203798 0.2621759 0.5770172
0.3048727 0.2924060 0.5682058
0.3621901 0.2947743 0.5592489
0.4566657 0.3054304 0.5501316
0.5700346 0.3170364 0.5637753
0.6980302 0.3311398 0.5964225
0.8291109 0.3413490 0.6256190
0.0037243 0.3395754 0.6086147
0.1010679 0.3370656 0.5990584
0.2153411 0.3404738 0.5933726
0.2846489 0.3430141 0.5868654
0.3632977 0.3612500 0.5722407
0.4623666 0.3717067 0.5571938
0.5767421 0.3884749 0.5695420
0.7127036 0.4091359 0.6075085
0.8480274 0.4225063 0.6380865
0.0146049 0.4907574 0.6192372
0.0995134 0.4826488 0.6140138
0.2040574 0.4790467 0.6131652
0.2834538 0.4785368 0.6134167
0.3897112 0.4997197 0.6298308
0.4890272 0.4807873 0.5803182
0.5859951 0.4865842 0.5732253
0.7535843 0.5400002 0.6392439
0.8875543 0.5575525 0.6665150
0.0254124 0.6239527 0.6148211
0.1357561 0.6222751 0.6159885
0.2473207 0.6263092 0.6208888
0.3258439 0.6320015 0.6281308
0.4126831 0.6415333 0.6379662
0.5485666 0.6584175 0.6533308
0.6943459 0.6805816 0.6718785
0.8138081 0.6944967 0.6855191
0.9191041 0.6969054 0.6881911
0.0296293 0.7480256 0.6212143
0.1589554 0.7488536 0.6258064
0.2836840 0.7545398 0.6340542
0.3636956 0.7595624 0.6419444
0.4473000 0.7661858 0.6525263
0.5774688 0.7791794 0.6751784
0.7031716 0.7974188 0.6993066
0.8031660 0.8019951 0.6910410
0.9096280 0.8075506 0.6929705
0.0476533 0.8702174 0.6367200
0.1826765 0.8729403 0.6448624
0.3134776 0.8787638 0.6572161
0.3966161 0.8837273 0.6677858
0.4818509 0.8897292 0.6812005
0.6106853 0.9010112 0.7069018
0.7300581 0.9157311 0.7289467
0.8169644 0.9299483 0.7234843
0.9198830 0.9296791 0.7298512
0.1399437 0.0689532 0.6916693
0.1936213 0.0470257 0.6609291
0.2690522 0.0382597 0.6465699
0.3232515 0.0383468 0.6431514
0.3804229 0.0405251 0.6415593
0.4673918 0.0434155 0.6404186
0.5603864 0.0454334 0.6433932
0.6623700 0.0457568 0.6592876
0.7766883 0.0493012 0.6860745
0.1122723 0.1261067 0.7160191
0.1843037 0.1349445 0.6657006
0.2660385 0.1322659 0.6485266
0.3202390 0.1333980 0.6423517
0.3762874 0.1357795 0.6379962
0.4623331 0.1401281 0.6346131
0.5556148 0.1444017 0.6372935
0.6595370 0.1474394 0.6549342
0.7761486 0.1540352 0.6832327
0.0546227 0.1927890 0.7064590
0.1388759 0.1874188 0.6787325
0.2583337 0.2266728 0.6559149
0.3164667 0.2287817 0.6468014
0.3733830 0.2316864 0.6396024
0.4592134 0.2376881 0.6326610
0.5529910 0.2445196 0.6339413
0.6594746 0.2510737 0.6535350
0.7796726 0.2617603 0.6842012
0.0310458 0.2522562 0.7047274
0.1255418 0.2509489 0.6853357
0.2244974 0.2564245 0.6676562
0.3145613 0.2933141 0.6570066
0.3730886 0.2947987 0.6462568
0.4597135 0.3008757 0.6357501
0.5538595 0.3093511 0.6347306
0.6616182 0.3183854 0.6547913
0.7851868 0.3324523 0.6878513
0.0168364 0.3273488 0.7024378
0.1146745 0.3277556 0.6931503
0.2173011 0.3278519 0.6821317
0.2858089 0.3321432 0.6722188
0.3735675 0.3627561 0.6611689
0.4621988 0.3661209 0.6434089
0.5576322 0.3764627 0.6386734
0.6652205 0.3875098 0.6573538
0.7940692 0.4061935 0.6944116
0.0322835 0.4782805 0.7126901
0.1084847 0.4656454 0.7069262
0.1863631 0.4544514 0.7082627
0.2744899 0.4528935 0.7014529
0.3481301 0.4470254 0.6907095
0.4758556 0.4730656 0.6727263
0.5670130 0.4740468 0.6473492
0.6726566 0.4903099 0.6622738
0.8171987 0.5243316 0.7130958
0.0452443 0.6198261 0.7225592
0.1496637 0.6110324 0.7175121
0.2438666 0.6089390 0.7196437
0.3058006 0.6107761 0.7281887
0.3710159 0.6140142 0.7402266
0.5075410 0.6149837 0.7321810
0.5949137 0.5858672 0.6781028
0.6799727 0.5869291 0.6659472
0.8643806 0.6645546 0.7548872
0.0464756 0.7405749 0.7222915
0.1668537 0.7371976 0.7234484
0.2795070 0.7419508 0.7263487
0.3527462 0.7461704 0.7313138
0.4296812 0.7509967 0.7376552
0.5470158 0.7601961 0.7490266
0.6799974 0.7747734 0.7658161
0.8100307 0.7988218 0.7899624
0.9241830 0.8148402 0.8072229
0.0438630 0.8640851 0.7305445
0.1770029 0.8652397 0.7346472
0.3022803 0.8700732 0.7412611
0.3807897 0.8741765 0.7472892
0.4615301 0.8792558 0.7551073
0.5848649 0.8887415 0.7706025
0.7171290 0.9003355 0.7944552
0.8323239 0.9191025 0.8200104
0.9245513 0.9272118 0.8167942
0.1282869 0.0538567 0.7705308
0.2031470 0.0468755 0.7534747
0.2830365 0.0411542 0.7422079
0.3369386 0.0410486 0.7382616
0.3924177 0.0423687 0.7353875
0.4766323 0.0448261 0.7326993
0.5660047 0.0478177 0.7337907
0.6552102 0.0497794 0.7393820
0.7544713 0.0501832 0.7541711
0.0703687 0.0940619 0.7850913
0.1950884 0.1380449 0.7576872
0.2800692 0.1357856 0.7435200
0.3340747 0.1361079 0.7370422
0.3890252 0.1375794 0.7319726
0.4727042 0.1412461 0.7274629
0.5614884 0.1459110 0.7274950
0.6508889 0.1495168 0.7332543
0.7519412 0.1523736 0.7498077
0.0456693 0.1857412 0.7924545
0.1457101 0.1859074 0.7704497
0.2736190 0.2316902 0.7498487
0.3304717 0.2321232 0.7404765
0.3865466 0.2336126 0.7326879
0.4701340 0.2378831 0.7249982
0.5583299 0.2440140 0.7229578
0.6483686 0.2504614 0.7290932
0.7513685 0.2560214 0.7473952
0.0372747 0.2516294 0.7948019
0.1370324 0.2492224 0.7769558
0.2351402 0.2550891 0.7602836
0.3280729 0.2960783 0.7480735
0.3859773 0.2962431 0.7373543
0.4700823 0.2999864 0.7264116
0.5584372 0.3070908 0.7225836
0.6482953 0.3147421 0.7278761
0.7525637 0.3227814 0.7475201
0.0430663 0.3312187 0.7970883
0.1328434 0.3241967 0.7851083
0.2301364 0.3228105 0.7710831
0.2938794 0.3265359 0.7605047
0.3863392 0.3622475 0.7473707
0.4718423 0.3640577 0.7315057
0.5604022 0.3715381 0.7243110
0.6498112 0.3804194 0.7279813
0.7553441 0.3907212 0.7486211
0.0720857 0.4777009 0.8067741
0.1399465 0.4576272 0.7976984
0.2288067 0.4443077 0.7917973
0.2928708 0.4393491 0.7834566
0.3592242 0.4347821 0.7701500
0.4760643 0.4639603 0.7458420
0.5699078 0.4714126 0.7333090
0.6551136 0.4790048 0.7301758
0.7616928 0.4936653 0.7521674
0.0630755 0.6101682 0.8215332
0.1608644 0.5996086 0.8148244
0.2581432 0.5887303 0.8096833
0.3192579 0.5820536 0.8060080
0.3870884 0.5755772 0.8000559
0.4255443 0.5366694 0.7671413
0.6001054 0.5898787 0.7642578
0.6677847 0.5794299 0.7373238
0.7687806 0.5969878 0.7566324
0.0623292 0.7400273 0.8342299
0.1833157 0.7326250 0.8300058
0.2916768 0.7302280 0.8272953
0.3546180 0.7283192 0.8257168
0.4243101 0.7266792 0.8245838
0.5239959 0.7224032 0.8234537
0.6311624 0.7222406 0.8268123
0.6945040 0.6847323 0.7704794
0.7703462 0.6819562 0.7593093
0.0562181 0.8583481 0.8340933
0.1804802 0.8577118 0.8356760
0.3025213 0.8604375 0.8385197
0.3743255 0.8632415 0.8414064
0.4507517 0.8669519 0.8455262
0.5654107 0.8737061 0.8522712
0.6943389 0.8815472 0.8596806
0.8086500 0.8913249 0.8751921
0.9396562 0.9289254 0.9187478
