presets/series/movie/series-movie-studio-cut/look.cube
# Approximate v0 colour conversion; calibrate before claiming visual parity.
LUT_3D_SIZE 5
DOMAIN_MIN 0 0 0
DOMAIN_MAX 1 1 1
0.0056675 0.0039610 0.0042275
0.2952429 0.0153506 0.0082204
0.4631621 0.0103281 0.0071448
0.6852307 0.0019630 0.0057027
0.8879091 0.0039481 0.0051454
0.0436877 0.2611414 0.0570773
0.2700213 0.2686594 0.0216184
0.4484949 0.2667971 0.0192846
0.6933212 0.2616705 0.0106145
0.8905046 0.2627232 0.0144967
0.0534301 0.4188759 0.0783379
0.2434145 0.4313941 0.0153174
0.4213975 0.4273392 0.0172274
0.6913406 0.4415457 0.0140695
0.9095400 0.4571929 0.0207403
0.0854386 0.6662600 0.1215853
0.2462602 0.6752147 0.0407310
0.3994825 0.6782727 0.0143904
0.6596814 0.6799360 0.0000400
0.9119669 0.7073996 0.0006460
0.1254901 0.9025245 0.1722692
0.2662574 0.9114695 0.0781119
0.4087005 0.9166336 0.0484242
0.6458539 0.9191808 0.0143548
0.8774758 0.9121792 0.0000000
0.0272758 0.0073812 0.2305402
0.2273875 0.0309177 0.2310028
0.4085545 0.0250061 0.2557913
0.6600942 0.0131204 0.2662884
0.8833764 0.0103748 0.2671660
0.0114126 0.2329852 0.2406356
0.2576456 0.2540019 0.2541441
0.4367522 0.2537544 0.2519003
0.6789947 0.2483583 0.2492785
0.9011937 0.2611330 0.2609533
0.0136653 0.3992712 0.2550361
0.2682029 0.4134681 0.2768465
0.4081207 0.4090864 0.2335902
0.6845038 0.4261163 0.2391170
0.9119776 0.4296969 0.2472080
0.0577398 0.6529308 0.3047205
0.3125725 0.6631060 0.3258297
0.4174152 0.6717151 0.2746216
0.6621221 0.6731477 0.2430499
0.9065292 0.6957481 0.2514672
0.1078781 0.8916232 0.3614790
0.3605651 0.9031343 0.3823943
0.4452696 0.9117253 0.3230633
0.6630407 0.9201956 0.2839162
0.8906850 0.9141116 0.2571739
0.0391574 0.0069335 0.3658393
0.2257298 0.0277992 0.3554286
0.3669464 0.0334627 0.3649542
0.6197355 0.0313659 0.4046719
0.8562149 0.0245522 0.4266410
0.0002788 0.1996363 0.3851632
0.2280017 0.2200514 0.3635789
0.3699754 0.2430259 0.3696597
0.6544012 0.2611805 0.4145948
0.8892608 0.2639759 0.4279162
0.0016954 0.3819154 0.3871722
0.2368017 0.3958954 0.4052477
0.4255216 0.4210512 0.4174489
0.6820594 0.4257824 0.4140908
0.9103682 0.4251996 0.4218326
0.0257456 0.6425129 0.4136510
0.2938131 0.6514903 0.4429156
0.4548641 0.6644559 0.4612226
0.6630793 0.6673433 0.4136314
0.9126385 0.6962285 0.4310822
0.0813409 0.8835036 0.4663676
0.3528117 0.8946280 0.5037261
0.5097069 0.9064339 0.5203784
0.6800541 0.9217912 0.4661980
0.9007127 0.9177675 0.4446147
0.1035693 0.0423132 0.5835932
0.2523641 0.0330771 0.5506140
0.3691276 0.0382393 0.5489746
0.5672871 0.0417960 0.5633240
0.7977179 0.0450929 0.6100988
0.0372202 0.1896869 0.6109345
0.2468073 0.2238585 0.5636981
0.3625404 0.2313867 0.5491866
0.5657077 0.2477002 0.5597590
0.8158042 0.2656015 0.6174012
0.0037243 0.3395754 0.6086147
0.2153411 0.3404738 0.5933726
0.3632977 0.3612500 0.5722407
0.5767421 0.3884749 0.5695420
0.8480274 0.4225063 0.6380865
0.0254124 0.6239527 0.6148211
0.2473207 0.6263092 0.6208888
0.4126831 0.6415333 0.6379662
0.6943459 0.6805816 0.6718785
0.9191041 0.6969054 0.6881911
0.0476533 0.8702174 0.6367200
0.3134776 0.8787638 0.6572161
0.4818509 0.8897292 0.6812005
0.7300581 0.9157311 0.7289467
0.9198830 0.9296791 0.7298512
0.1282869 0.0538567 0.7705308
0.2830365 0.0411542 0.7422079
0.3924177 0.0423687 0.7353875
0.5660047 0.0478177 0.7337907
0.7544713 0.0501832 0.7541711
0.0456693 0.1857412 0.7924545
0.2736190 0.2316902 0.7498487
0.3865466 0.2336126 0.7326879
0.5583299 0.2440140 0.7229578
0.7513685 0.2560214 0.7473952
0.0430663 0.3312187 0.7970883
0.2301364 0.3228105 0.7710831
0.3863392 0.3622475 0.7473707
0.5604022 0.3715381 0.7243110
0.7553441 0.3907212 0.7486211
0.0630755 0.6101682 0.8215332
0.2581432 0.5887303 0.8096833
0.3870884 0.5755772 0.8000559
0.6001054 0.5898787 0.7642578
0.7687806 0.5969878 0.7566324
0.0562181 0.8583481 0.8340933
0.3025213 0.8604375 0.8385197
0.4507517 0.8669519 0.8455262
0.6943389 0.8815472 0.8596806
0.9396562 0.9289254 0.9187478
