presets/series/movie/series-movie-studio-cut/look.cube
# Approximate v0 colour conversion; calibrate before claiming visual parity.
LUT_3D_SIZE 33
DOMAIN_MIN 0 0 0
DOMAIN_MAX 1 1 1
0.0056675 0.0039610 0.0042275
0.0362498 0.0053080 0.0053814
0.0707960 0.0070466 0.0066713
0.1069769 0.0110232 0.0078882
0.1441069 0.0145022 0.0088224
0.1835310 0.0167783 0.0090732
0.2219084 0.0174011 0.0089976
0.2592151 0.0163321 0.0085881
0.2952429 0.0153506 0.0082204
0.3179231 0.0147475 0.0079969
0.3402493 0.0141658 0.0077874
0.3614642 0.0136515 0.0076212
0.3826539 0.0131255 0.0077788
0.4033468 0.0124766 0.0077833
0.4232818 0.0116514 0.0074858
0.4432263 0.0108326 0.0071886
0.4631621 0.0103281 0.0071448
0.4915536 0.0099665 0.0073682
0.5199879 0.0089419 0.0072696
0.5484537 0.0071671 0.0068050
0.5767274 0.0058668 0.0065579
0.6048578 0.0049611 0.0064870
0.6319703 0.0039564 0.0061643
0.6584556 0.0029018 0.0056930
0.6852307 0.0019630 0.0057027
0.7102220 0.0011403 0.0058547
0.7344065 0.0006948 0.0056344
0.7584028 0.0004392 0.0054613
0.7833030 0.0005873 0.0053260
0.8089598 0.0010735 0.0052228
0.8352651 0.0018181 0.0051507
0.8624435 0.0029112 0.0051184
0.8879091 0.0039481 0.0051454
0.0093379 0.0328673 0.0090875
0.0355969 0.0328621 0.0067854
0.0695270 0.0339049 0.0062243
0.1051701 0.0362054 0.0073457
0.1417103 0.0383332 0.0084610
0.1803002 0.0400218 0.0095280
0.2184606 0.0407648 0.0100698
0.2561502 0.0405042 0.0100855
0.2927731 0.0402014 0.0100958
0.3158874 0.0399887 0.0100978
0.3386347 0.0396118 0.0099787
0.3603197 0.0387857 0.0095198
0.3819919 0.0379617 0.0090675
0.4030074 0.0369930 0.0084711
0.4230851 0.0358150 0.0076613
0.4431586 0.0346398 0.0068546
0.4632105 0.0336865 0.0063477
0.4917874 0.0325790 0.0059540
0.5203881 0.0310739 0.0053641
0.5490181 0.0291126 0.0045508
0.5770961 0.0274254 0.0039031
0.6047495 0.0259671 0.0033908
0.6317250 0.0244404 0.0026305
0.6579938 0.0225168 0.0017141
0.6846253 0.0204372 0.0011082
0.7096137 0.0185272 0.0006960
0.7343153 0.0170616 0.0004017
0.7588183 0.0158578 0.0001837
0.7837738 0.0151744 0.0000631
0.8091987 0.0149611 0.0000223
0.8353945 0.0150690 0.0000000
0.8627157 0.0156450 0.0000000
0.8882199 0.0161222 0.0000154
0.0168161 0.0669693 0.0195689
0.0362878 0.0661694 0.0087009
0.0661595 0.0641521 0.0057738
0.1035173 0.0678534 0.0070689
0.1389781 0.0689977 0.0083340
0.1763049 0.0704448 0.0101752
0.2138350 0.0717184 0.0114398
0.2516080 0.0728444 0.0120301
0.2887678 0.0738624 0.0125708
0.3123549 0.0745006 0.0129081
0.3356540 0.0748153 0.0129833
0.3579589 0.0739884 0.0121768
0.3802657 0.0731597 0.0113670
0.4017612 0.0721356 0.0104776
0.4220253 0.0708485 0.0094848
0.4422833 0.0695647 0.0084954
0.4625305 0.0683424 0.0078491
0.4913778 0.0666798 0.0073196
0.5201877 0.0650634 0.0067805
0.5486341 0.0631433 0.0062116
0.5758997 0.0609606 0.0056708
0.6023498 0.0587520 0.0051673
0.6286735 0.0565889 0.0044908
0.6548821 0.0544564 0.0036849
0.6817461 0.0522016 0.0027862
0.7071225 0.0500471 0.0019214
0.7325761 0.0483565 0.0011979
0.7580619 0.0470276 0.0005874
0.7834042 0.0463503 0.0002033
0.8086276 0.0464501 0.0000795
0.8346036 0.0469502 0.0000000
0.8620196 0.0482258 0.0000000
0.8874308 0.0492834 0.0000397
0.0234736 0.1009167 0.0267668
0.0397529 0.1004399 0.0152557
0.0655274 0.0982257 0.0078386
0.1019379 0.1005559 0.0095295
0.1434014 0.1074490 0.0117552
0.1814503 0.1088146 0.0120257
0.2181240 0.1094408 0.0125307
0.2530771 0.1091131 0.0132604
0.2881523 0.1082242 0.0135489
0.3106328 0.1074872 0.0135970
0.3330273 0.1067794 0.0135143
0.3549950 0.1061202 0.0128969
0.3769701 0.1054547 0.0122760
0.3986634 0.1048424 0.0116330
0.4197178 0.1041911 0.0109516
0.4405054 0.1032825 0.0102578
0.4610669 0.1020288 0.0095747
0.4899386 0.0997878 0.0086504
0.5185700 0.0975454 0.0078737
0.5468776 0.0953038 0.0072917
0.5745691 0.0931390 0.0069646
0.6014814 0.0910495 0.0069225
0.6281296 0.0889923 0.0066370
0.6545324 0.0869676 0.0061180
0.6812080 0.0847932 0.0053414
0.7063226 0.0826527 0.0044285
0.7314866 0.0809237 0.0035303
0.7567179 0.0796300 0.0026584
0.7820804 0.0789437 0.0019814
0.8075804 0.0792570 0.0016251
0.8335595 0.0800472 0.0013962
0.8608876 0.0821052 0.0014757
0.8859751 0.0839565 0.0015912
0.0300546 0.1349836 0.0348613
0.0440725 0.1352330 0.0217228
0.0687231 0.1344935 0.0158033
0.1028831 0.1369509 0.0124077
0.1410128 0.1399894 0.0144080
0.1855877 0.1467539 0.0140417
0.2217987 0.1467398 0.0137776
0.2560659 0.1459739 0.0139202
0.2895946 0.1441250 0.0142031
0.3104898 0.1422310 0.0143874
0.3314061 0.1403448 0.0144451
0.3521332 0.1387173 0.0139320
0.3729446 0.1371692 0.0134190
0.3939348 0.1359415 0.0129193
0.4152721 0.1354870 0.0124585
0.4366358 0.1350518 0.0119954
0.4579371 0.1342616 0.0113396
0.4874648 0.1322084 0.0099785
0.5166782 0.1300678 0.0088635
0.5452192 0.1277833 0.0082247
0.5733583 0.1255738 0.0080265
0.6009189 0.1235807 0.0085450
0.6281323 0.1216267 0.0087932
0.6548792 0.1197476 0.0086422
0.6814844 0.1177505 0.0081570
0.7062133 0.1157506 0.0073886
0.7308156 0.1141071 0.0065264
0.7552356 0.1129845 0.0055397
0.7801697 0.1123661 0.0046787
0.8061841 0.1129102 0.0041031
0.8323967 0.1139433 0.0037169
0.8594863 0.1169263 0.0040425
0.8841479 0.1196197 0.0043375
0.0362261 0.1688341 0.0421356
0.0489462 0.1707433 0.0269277
0.0752774 0.1728986 0.0222472
0.1066079 0.1754342 0.0188325
0.1415975 0.1773311 0.0175662
0.1792857 0.1766078 0.0159426
0.2226478 0.1823151 0.0152842
0.2594452 0.1822431 0.0136064
0.2928197 0.1810319 0.0140578
0.3128160 0.1797437 0.0151957
0.3328786 0.1784045 0.0162711
0.3519023 0.1747560 0.0157465
0.3710216 0.1711832 0.0152217
0.3904232 0.1679918 0.0147111
0.4112953 0.1670850 0.0143040
0.4322027 0.1661946 0.0138946
0.4534856 0.1653212 0.0132123
0.4838501 0.1641189 0.0111048
0.5141452 0.1628793 0.0092623
0.5442417 0.1616227 0.0082135
0.5736305 0.1600851 0.0077142
0.6013907 0.1579628 0.0085448
0.6289287 0.1557600 0.0091513
0.6560317 0.1534022 0.0093410
0.6828147 0.1512275 0.0093400
0.7074563 0.1494097 0.0090724
0.7321595 0.1480771 0.0085854
0.7569594 0.1477261 0.0076852
0.7819221 0.1476222 0.0068910
0.8075310 0.1484630 0.0064640
0.8333048 0.1496083 0.0061911
0.8600265 0.1528930 0.0070175
0.8843436 0.1558805 0.0077455
0.0411808 0.2015171 0.0489249
0.0517498 0.2040260 0.0313886
0.0781102 0.2064977 0.0271377
0.1070008 0.2091393 0.0231606
0.1387197 0.2109950 0.0202486
0.1740880 0.2096917 0.0169031
0.2113273 0.2085109 0.0174878
0.2568491 0.2157352 0.0160644
0.2921865 0.2153237 0.0161320
0.3136468 0.2151823 0.0171781
0.3350368 0.2150212 0.0182694
0.3535396 0.2113486 0.0180693
0.3718260 0.2073284 0.0177376
0.3901534 0.2032816 0.0173850
0.4098498 0.2012028 0.0167278
0.4296408 0.1991928 0.0160913
0.4500503 0.1973763 0.0153192
0.4805991 0.1963429 0.0128935
0.5113047 0.1954205 0.0105774
0.5425202 0.1948888 0.0090574
0.5732196 0.1941345 0.0079814
0.6017880 0.1924421 0.0086083
0.6300735 0.1904903 0.0092352
0.6577949 0.1880069 0.0096672
0.6849041 0.1856286 0.0100394
0.7093382 0.1837575 0.0102528
0.7339931 0.1824766 0.0102326
0.7592401 0.1828616 0.0095097
0.7844944 0.1833697 0.0088586
0.8096271 0.1845323 0.0086966
0.8348418 0.1858386 0.0086120
0.8612107 0.1893059 0.0100564
0.8852280 0.1924657 0.0113180
0.0425132 0.2312469 0.0530881
0.0505157 0.2335986 0.0332798
0.0766708 0.2357259 0.0295767
0.1038694 0.2385667 0.0250530
0.1331080 0.2410667 0.0204562
0.1675855 0.2419621 0.0185522
0.2041308 0.2418940 0.0199568
0.2416164 0.2394626 0.0194215
0.2876503 0.2473527 0.0204239
0.3125359 0.2486923 0.0205572
0.3373462 0.2500317 0.0207398
0.3568682 0.2480698 0.0209099
0.3754632 0.2454800 0.0210588
0.3940997 0.2428634 0.0211929
0.4119982 0.2390129 0.0200589
0.4299311 0.2351312 0.0188366
0.4484366 0.2313390 0.0176032
0.4781842 0.2294243 0.0156718
0.5081300 0.2276564 0.0137181
0.5393896 0.2270617 0.0118248
0.5706458 0.2265885 0.0100687
0.6016296 0.2268140 0.0091381
0.6322885 0.2267634 0.0084910
0.6619196 0.2258741 0.0087338
0.6903841 0.2244405 0.0090060
0.7142468 0.2218074 0.0093172
0.7382822 0.2197388 0.0095164
0.7629879 0.2201441 0.0092006
0.7877465 0.2206046 0.0089114
0.8127421 0.2216349 0.0091112
0.8377519 0.2226780 0.0092947
0.8639318 0.2250645 0.0112642
0.8877612 0.2272953 0.0130525
0.0436877 0.2611414 0.0570773
0.0491790 0.2633877 0.0349376
0.0752176 0.2651565 0.0316561
0.1015320 0.2677064 0.0272361
0.1293576 0.2701511 0.0222010
0.1616466 0.2720542 0.0196985
0.1963322 0.2732256 0.0192295
0.2326489 0.2707456 0.0203072
0.2700213 0.2686594 0.0216184
0.3054363 0.2800840 0.0223476
0.3299485 0.2804820 0.0227678
0.3521855 0.2801668 0.0233825
0.3736770 0.2795945 0.0240392
0.3950618 0.2789777 0.0246806
0.4131020 0.2753042 0.0231245
0.4305957 0.2711012 0.0212126
0.4484949 0.2667971 0.0192846
0.4773320 0.2641128 0.0180500
0.5063881 0.2615922 0.0167995
0.5374416 0.2606941 0.0148853
0.5685896 0.2599242 0.0130067
0.6002042 0.2605271 0.0117679
0.6318557 0.2611773 0.0106546
0.6631045 0.2616934 0.0107484
0.6933212 0.2616705 0.0106145
0.7179151 0.2595871 0.0097195
0.7424096 0.2576818 0.0090150
0.7668801 0.2581063 0.0088206
0.7913505 0.2585334 0.0086597
0.8161400 0.2592649 0.0093051
0.8409528 0.2600265 0.0099247
0.8668562 0.2614038 0.0122581
0.8905046 0.2627232 0.0144967
0.0443464 0.2803058 0.0595688
0.0482766 0.2824641 0.0359103
0.0742581 0.2840024 0.0328494
0.1002682 0.2861932 0.0286726
0.1275930 0.2883474 0.0237653
0.1580317 0.2901888 0.0201698
0.1907610 0.2915062 0.0181782
0.2270897 0.2905265 0.0187929
0.2641815 0.2890337 0.0215856
0.2890464 0.2889027 0.0222849
0.3226784 0.2986978 0.0238842
0.3465692 0.2991309 0.0248411
0.3705608 0.2999177 0.0258216
0.3944386 0.3006631 0.0267867
0.4132982 0.2976874 0.0249728
0.4310799 0.2938940 0.0225661
0.4492783 0.2900186 0.0201324
0.4775974 0.2870199 0.0193498
0.5061396 0.2842215 0.0186821
0.5369465 0.2830572 0.0169851
0.5678441 0.2819752 0.0153091
0.5985313 0.2817140 0.0148847
0.6294154 0.2816422 0.0144790
0.6611916 0.2827306 0.0147756
0.6922986 0.2835645 0.0145287
0.7185705 0.2831669 0.0116457
0.7446488 0.2827365 0.0090470
0.7693582 0.2832681 0.0085647
0.7940652 0.2837968 0.0081012
0.8186542 0.2841762 0.0090972
0.8432647 0.2845802 0.0101009
0.8689527 0.2856076 0.0125561
0.8924488 0.2866330 0.0149476
0.0450211 0.2995227 0.0620704
0.0474050 0.3015988 0.0368981
0.0733241 0.3029033 0.0340205
0.0990487 0.3047172 0.0300519
0.1259334 0.3065530 0.0252959
0.1546526 0.3082375 0.0207725
0.1854830 0.3096267 0.0174331
0.2217467 0.3101490 0.0171363
0.2590463 0.3099427 0.0214754
0.2821636 0.3082891 0.0225888
0.3057721 0.3069704 0.0236977
0.3414885 0.3186978 0.0256166
0.3670610 0.3202211 0.0268815
0.3928075 0.3218886 0.0281746
0.4128281 0.3197261 0.0263679
0.4312356 0.3164961 0.0236916
0.4499735 0.3131594 0.0209092
0.4779941 0.3099905 0.0205540
0.5060878 0.3069559 0.0205211
0.5365981 0.3054906 0.0190702
0.5672832 0.3041316 0.0175625
0.5970355 0.3029998 0.0179514
0.6270501 0.3021084 0.0182976
0.6593466 0.3037657 0.0187962
0.6912390 0.3053638 0.0185879
0.7191848 0.3066520 0.0137157
0.7469488 0.3078203 0.0090993
0.7718930 0.3084589 0.0083288
0.7968382 0.3090947 0.0075761
0.8212503 0.3091508 0.0088634
0.8456548 0.3091973 0.0102519
0.8711244 0.3098741 0.0128485
0.8944651 0.3106056 0.0153930
0.0460599 0.3190180 0.0646078
0.0468674 0.3211505 0.0380029
0.0728305 0.3223523 0.0352177
0.0985329 0.3240023 0.0312909
0.1251956 0.3256786 0.0264378
0.1533482 0.3273307 0.0219051
0.1834759 0.3287880 0.0183733
0.2185643 0.3298890 0.0172711
0.2550094 0.3303828 0.0197780
0.2776475 0.3288634 0.0214034
0.3004028 0.3271118 0.0229194
0.3237896 0.3258176 0.0243987
0.3621513 0.3403620 0.0251429
0.3862603 0.3407315 0.0260445
0.4074546 0.3391945 0.0247054
0.4276742 0.3370342 0.0226476
0.4482605 0.3347957 0.0204963
0.4775514 0.3323497 0.0199097
0.5067894 0.3299986 0.0196165
0.5370579 0.3286172 0.0186642
0.5674877 0.3273260 0.0176341
0.5972838 0.3261774 0.0179473
0.6271634 0.3251065 0.0183543
0.6586297 0.3259986 0.0201287
0.6899688 0.3270056 0.0212839
0.7184350 0.3284381 0.0172999
0.7469171 0.3298983 0.0132072
0.7726157 0.3312433 0.0110705
0.7982821 0.3325447 0.0090301
0.8231471 0.3332057 0.0097405
0.8479095 0.3337514 0.0107651
0.8735013 0.3345800 0.0133466
0.8969331 0.3353785 0.0159947
0.0471983 0.3386180 0.0671836
0.0465667 0.3407987 0.0392794
0.0724299 0.3419153 0.0364162
0.0981585 0.3434198 0.0325274
0.1246767 0.3449505 0.0276020
0.1524366 0.3465687 0.0231743
0.1821154 0.3480965 0.0196566
0.2160247 0.3495807 0.0177478
0.2515450 0.3506480 0.0177244
0.2740020 0.3496652 0.0196336
0.2966429 0.3483189 0.0214534
0.3194651 0.3468981 0.0232645
0.3440536 0.3469829 0.0240554
0.3798755 0.3597135 0.0239228
0.4021082 0.3587145 0.0229973
0.4241483 0.3576259 0.0215574
0.4465887 0.3564815 0.0200369
0.4772006 0.3547819 0.0192710
0.5075837 0.3531015 0.0187068
0.5376948 0.3518451 0.0181276
0.5678797 0.3506637 0.0175139
0.5978491 0.3496378 0.0175707
0.6278610 0.3486419 0.0177037
0.6583092 0.3485903 0.0208072
0.6887326 0.3486798 0.0234798
0.7173247 0.3497407 0.0212544
0.7459404 0.3508302 0.0189236
0.7725339 0.3529297 0.0152278
0.7990419 0.3550188 0.0115833
0.8246235 0.3566705 0.0113293
0.8500604 0.3582153 0.0115754
0.8760345 0.3595994 0.0140077
0.8997808 0.3608105 0.0167356
0.0483757 0.3583116 0.0697978
0.0478322 0.3604529 0.0420435
0.0720791 0.3615405 0.0376169
0.0978565 0.3629030 0.0337765
0.1242811 0.3642887 0.0288177
0.1516850 0.3658430 0.0245133
0.1809382 0.3673971 0.0210340
0.2136844 0.3691762 0.0183707
0.2482107 0.3707763 0.0169029
0.2705833 0.3704011 0.0178316
0.2930657 0.3694706 0.0199458
0.3157901 0.3684498 0.0220624
0.3384512 0.3670481 0.0226552
0.3616140 0.3660205 0.0230256
0.3982985 0.3793118 0.0212853
0.4212484 0.3787746 0.0203519
0.4447887 0.3782836 0.0193735
0.4766343 0.3772264 0.0185571
0.5081729 0.3761666 0.0178104
0.5383144 0.3750571 0.0175735
0.5683623 0.3739927 0.0173656
0.5984916 0.3731102 0.0172393
0.6286888 0.3722563 0.0171000
0.6581668 0.3712928 0.0213921
0.6876008 0.3704262 0.0255788
0.7163140 0.3711107 0.0251124
0.7450560 0.3718257 0.0245462
0.7724971 0.3746174 0.0194695
0.7998433 0.3774926 0.0142195
0.8261449 0.3801212 0.0129655
0.8522535 0.3826651 0.0124320
0.8786280 0.3846353 0.0146736
0.9026863 0.3862590 0.0174811
0.0499576 0.3783171 0.0725706
0.0494866 0.3804464 0.0450571
0.0721391 0.3815569 0.0392051
0.0979954 0.3828632 0.0354691
0.1243673 0.3841883 0.0305712
0.1515895 0.3857272 0.0257942
0.1804466 0.3872474 0.0213667
0.2124141 0.3890913 0.0180831
0.2461424 0.3908283 0.0160895
0.2684106 0.3910146 0.0156108
0.2907151 0.3905826 0.0173280
0.3132369 0.3900131 0.0195972
0.3353863 0.3884966 0.0205045
0.3575214 0.3867039 0.0210219
0.3801590 0.3853064 0.0214889
0.4196765 0.4010641 0.0189511
0.4426043 0.4002979 0.0182563
0.4751452 0.3995215 0.0175876
0.5075844 0.3988405 0.0169551
0.5381659 0.3977966 0.0170197
0.5685852 0.3967712 0.0171416
0.5987829 0.3960632 0.0173000
0.6290311 0.3954072 0.0174440
0.6589400 0.3946747 0.0193956
0.6887346 0.3939800 0.0215182
0.7172698 0.3944903 0.0228039
0.7458533 0.3950203 0.0240027
0.7735653 0.3970711 0.0202183
0.8012194 0.3993000 0.0159551
0.8278045 0.4021545 0.0144260
0.8541817 0.4051261 0.0134824
0.8807684 0.4078127 0.0156081
0.9050167 0.4101393 0.0185129
0.0516574 0.3984459 0.0754136
0.0512401 0.4005406 0.0480033
0.0722947 0.4016685 0.0407725
0.0982439 0.4029249 0.0371449
0.1245976 0.4041943 0.0323287
0.1517352 0.4057366 0.0271540
0.1802930 0.4072344 0.0218764
0.2115949 0.4091333 0.0180165
0.2446107 0.4109579 0.0155202
0.2665405 0.4115054 0.0147090
0.2888706 0.4116421 0.0144312
0.3112002 0.4115403 0.0167287
0.3332524 0.4103018 0.0179908
0.3552735 0.4085783 0.0188147
0.3774267 0.4068194 0.0196216
0.4008686 0.4062594 0.0191695
0.4405317 0.4224044 0.0171276
0.4737630 0.4219206 0.0166096
0.5071119 0.4216204 0.0160912
0.5381372 0.4206398 0.0164576
0.5689290 0.4196446 0.0169096
0.5992001 0.4190995 0.0173542
0.6294967 0.4186317 0.0177815
0.6598205 0.4181204 0.0174758
0.6900272 0.4176332 0.0173018
0.7184323 0.4180252 0.0201556
0.7468904 0.4184418 0.0229261
0.7748429 0.4196963 0.0205118
0.8027607 0.4210906 0.0174920
0.8295639 0.4239654 0.0158623
0.8561196 0.4271776 0.0145830
0.8828516 0.4305032 0.0166193
0.9072287 0.4335442 0.0196373
0.0534301 0.4188759 0.0783379
0.0530714 0.4209180 0.0508716
0.0725123 0.4220570 0.0422945
0.0985714 0.4232675 0.0387852
0.1249390 0.4244930 0.0340746
0.1520770 0.4260485 0.0286111
0.1804229 0.4275345 0.0226542
0.2111102 0.4294909 0.0182948
0.2434145 0.4313941 0.0153174
0.2649491 0.4322311 0.0141401
0.2870197 0.4328066 0.0134549
0.3093636 0.4332466 0.0138439
0.3312834 0.4323365 0.0154081
0.3531599 0.4306969 0.0165358
0.3752073 0.4290044 0.0176534
0.3976220 0.4277548 0.0176506
0.4213975 0.4273392 0.0172274
0.4722601 0.4443433 0.0147048
0.5060285 0.4442410 0.0146912
0.5376683 0.4435054 0.0154145
0.5690448 0.4427232 0.0162150
0.5996078 0.4423906 0.0171042
0.6301288 0.4421422 0.0179566
0.6607780 0.4418283 0.0160917
0.6913406 0.4415457 0.0140695
0.7196508 0.4418275 0.0175611
0.7480105 0.4421397 0.0212305
0.7761786 0.4427311 0.0201047
0.8043530 0.4433649 0.0183599
0.8313945 0.4461411 0.0168928
0.8581491 0.4495144 0.0154649
0.8850289 0.4534228 0.0175279
0.9095400 0.4571929 0.0207403
0.0565634 0.4491341 0.0829569
0.0562539 0.4511449 0.0551040
0.0732929 0.4523181 0.0446329
0.0994665 0.4534833 0.0414299
0.1258366 0.4546779 0.0371035
0.1528050 0.4561756 0.0319252
0.1807544 0.4576053 0.0261229
0.2105612 0.4593925 0.0208261
0.2417040 0.4610913 0.0161277
0.2624884 0.4619660 0.0136618
0.2838814 0.4626547 0.0116360
0.3056896 0.4632257 0.0099966
0.3275219 0.4628319 0.0088502
0.3492075 0.4616649 0.0101249
0.3711224 0.4604174 0.0114221
0.3932637 0.4592455 0.0120700
0.4160520 0.4580899 0.0123621
0.4503600 0.4574818 0.0126749
0.5032410 0.4765925 0.0116274
0.5358910 0.4764535 0.0127904
0.5684542 0.4763570 0.0139353
0.5999671 0.4764428 0.0157497
0.6314153 0.4765990 0.0175821
0.6621886 0.4764526 0.0163742
0.6928352 0.4763359 0.0149713
0.7211356 0.4764937 0.0146225
0.7494888 0.4766922 0.0144278
0.7777850 0.4773791 0.0132687
0.8061079 0.4781488 0.0119436
0.8335951 0.4801219 0.0114250
0.8608538 0.4824817 0.0111078
0.8877151 0.4856361 0.0139451
0.9119946 0.4888484 0.0178474
0.0598710 0.4795688 0.0877259
0.0595879 0.4814165 0.0598449
0.0742213 0.4827130 0.0468672
0.1005229 0.4838344 0.0439358
0.1269362 0.4850006 0.0399542
0.1538212 0.4864430 0.0350810
0.1814906 0.4878172 0.0295009
0.2105787 0.4894317 0.0235352
0.2407090 0.4909146 0.0174889
0.2607797 0.4918133 0.0139073
0.2814686 0.4926048 0.0106326
0.3025913 0.4932379 0.0076110
0.3239551 0.4931347 0.0052811
0.3454885 0.4923612 0.0036346
0.3672049 0.4915703 0.0045936
0.3891193 0.4906080 0.0056638
0.4116840 0.4894908 0.0065370
0.4448362 0.4880092 0.0078420
0.4801526 0.4884918 0.0094712
0.5341472 0.5094375 0.0093794
0.5674300 0.5097501 0.0108692
0.5999085 0.5102707 0.0133245
0.6323407 0.5108602 0.0158658
0.6634071 0.5108706 0.0155779
0.6942916 0.5109096 0.0150717
0.7226202 0.5109832 0.0120804
0.7509990 0.5110992 0.0090245
0.7793797 0.5118972 0.0078341
0.8078078 0.5128161 0.0068967
0.8356901 0.5141285 0.0069136
0.8634279 0.5155855 0.0072505
0.8903662 0.5179647 0.0104302
0.9145144 0.5205595 0.0146180
0.0635789 0.5102595 0.0928491
0.0633061 0.5119923 0.0649475
0.0755093 0.5133757 0.0492215
0.1019019 0.5144523 0.0465249
0.1283361 0.5155879 0.0428456
0.1551123 0.5169524 0.0383072
0.1825279 0.5182569 0.0330553
0.2111019 0.5197424 0.0273568
0.2405451 0.5210942 0.0214658
0.2600676 0.5218971 0.0178087
0.2801510 0.5226095 0.0142962
0.3006723 0.5231997 0.0109246
0.3215392 0.5232917 0.0079443
0.3426897 0.5228554 0.0054197
0.3641461 0.5223509 0.0031450
0.3858240 0.5217047 0.0026341
0.4081798 0.5208855 0.0031203
0.4409775 0.5196649 0.0039205
0.4749577 0.5192205 0.0053855
0.5100257 0.5197684 0.0068295
0.5655319 0.5425920 0.0065552
0.5988859 0.5435062 0.0089635
0.6322646 0.5445061 0.0114254
0.6638499 0.5445695 0.0123801
0.6952483 0.5446608 0.0131971
0.7236381 0.5446685 0.0104856
0.7520796 0.5447268 0.0077173
0.7803572 0.5456289 0.0072241
0.8086621 0.5466803 0.0070356
0.8367051 0.5476870 0.0064816
0.8646929 0.5487099 0.0058470
0.8919477 0.5502545 0.0072923
0.9164107 0.5519170 0.0095755
0.0674655 0.5411086 0.0981294
0.0671824 0.5427355 0.0701904
0.0769371 0.5441549 0.0515110
0.1034259 0.5451863 0.0490103
0.1298991 0.5462872 0.0456016
0.1566119 0.5475737 0.0413736
0.1838410 0.5488068 0.0364396
0.2119825 0.5501477 0.0310199
0.2408352 0.5513571 0.0253314
0.2598584 0.5520339 0.0216784
0.2793702 0.5526219 0.0180561
0.2993115 0.5531214 0.0145026
0.3196703 0.5533417 0.0110923
0.3404160 0.5532408 0.0078516
0.3615115 0.5530675 0.0047987
0.3829372 0.5527489 0.0019666
0.4051173 0.5522605 0.0001347
0.4376008 0.5514453 0.0002808
0.4709847 0.5509233 0.0012339
0.5047035 0.5504451 0.0023091
0.5401260 0.5516209 0.0040457
0.5973996 0.5765288 0.0050184
0.6310232 0.5775500 0.0068896
0.6631587 0.5778184 0.0083825
0.6951300 0.5781166 0.0098484
0.7237328 0.5781905 0.0079708
0.7523832 0.5783108 0.0060204
0.7807711 0.5792511 0.0060724
0.8091624 0.5803412 0.0063855
0.8373254 0.5810918 0.0056434
0.8654623 0.5817700 0.0045779
0.8929596 0.5826112 0.0047000
0.9176951 0.5834659 0.0053585
0.0716598 0.5722121 0.1037234
0.0713677 0.5737420 0.0757667
0.0786404 0.5751339 0.0546562
0.1052023 0.5761718 0.0518465
0.1317019 0.5772643 0.0484711
0.1583603 0.5784798 0.0445185
0.1854403 0.5796531 0.0398726
0.2132641 0.5809124 0.0347197
0.2416793 0.5820512 0.0292402
0.2603493 0.5826948 0.0256750
0.2794562 0.5832646 0.0220985
0.2989729 0.5837595 0.0185503
0.3189086 0.5840481 0.0151034
0.3392489 0.5841007 0.0117904
0.3599491 0.5840796 0.0086121
0.3810027 0.5839383 0.0056086
0.4028645 0.5836502 0.0027311
0.4349961 0.5831263 0.0000000
0.4678835 0.5827280 0.0004004
0.5011276 0.5822893 0.0008617
0.5352023 0.5824349 0.0018419
0.5704490 0.5836794 0.0029241
0.6285254 0.6099227 0.0022215
0.6611358 0.6105251 0.0034474
0.6935732 0.6111491 0.0046325
0.7224714 0.6114264 0.0042533
0.7514148 0.6117527 0.0038006
0.7801416 0.6125900 0.0040515
0.8088854 0.6135323 0.0043767
0.8370153 0.6140822 0.0040753
0.8650273 0.6145614 0.0035909
0.8925345 0.6149406 0.0032146
0.9173540 0.6152653 0.0029422
0.0760189 0.6034648 0.1094585
0.0757094 0.6048913 0.0814724
0.0804784 0.6062387 0.0579044
0.1071113 0.6072400 0.0552321
0.1336462 0.6083293 0.0515794
0.1602793 0.6094951 0.0475597
0.1872513 0.6106138 0.0431920
0.2148085 0.6117796 0.0383027
0.2428535 0.6128431 0.0330478
0.2612102 0.6134447 0.0295878
0.2799529 0.6139850 0.0260817
0.2990798 0.6144626 0.0225704
0.3186176 0.6148025 0.0191210
0.3385627 0.6149936 0.0157675
0.3588730 0.6151155 0.0125199
0.3795528 0.6151383 0.0094235
0.4010603 0.6150420 0.0064373
0.4327563 0.6147973 0.0024166
0.4651939 0.6145769 0.0000032
0.4979890 0.6142555 0.0000294
0.5315085 0.6143061 0.0001136
0.5652858 0.6143790 0.0002850
0.6005399 0.6159389 0.0007822
0.6592576 0.6433141 0.0011141
0.6915907 0.6438886 0.0017600
0.7207133 0.6442080 0.0018604
0.7498821 0.6445843 0.0019609
0.7791008 0.6454141 0.0022073
0.8083525 0.6463245 0.0024666
0.8364151 0.6465614 0.0025055
0.8642612 0.6466956 0.0024823
0.8915058 0.6466227 0.0020490
0.9160885 0.6464984 0.0014936
0.0806503 0.6348431 0.1154659
0.0803100 0.6362434 0.0874904
0.0825569 0.6375651 0.0614640
0.1092486 0.6385410 0.0589272
0.1358072 0.6396067 0.0554465
0.1624208 0.6407540 0.0510938
0.1893094 0.6418593 0.0466126
0.2166704 0.6429791 0.0419654
0.2444296 0.6440107 0.0369245
0.2625439 0.6446084 0.0335797
0.2810023 0.6451560 0.0301607
0.2998175 0.6456488 0.0267056
0.3190216 0.6460324 0.0232802
0.3386152 0.6463064 0.0199142
0.3585696 0.6465163 0.0166200
0.3788940 0.6466407 0.0134461
0.4000436 0.6466665 0.0103559
0.4312546 0.6465956 0.0061411
0.4632190 0.6465096 0.0023012
0.4956319 0.6463284 0.0000000
0.5286391 0.6463414 0.0000000
0.5619382 0.6463350 0.0000047
0.5956862 0.6466507 0.0002055
0.6305598 0.6480811 0.0004684
0.6894153 0.6764919 0.0002659
0.7186810 0.6767298 0.0003133
0.7479854 0.6770099 0.0003615
0.7777957 0.6778777 0.0004946
0.8076500 0.6788145 0.0006328
0.8355547 0.6785759 0.0009375
0.8631661 0.6781840 0.0012586
0.8898124 0.6776336 0.0012542
0.9137682 0.6771070 0.0011362
0.0854386 0.6662600 0.1215853
0.0850513 0.6676416 0.0936192
0.0847634 0.6689291 0.0651189
