catalog/styles/series/movie/series-movie-roseglass/look.cube
# series-movie-roseglass iteration 6
LUT_3D_SIZE 9
DOMAIN_MIN 0 0 0
DOMAIN_MAX 1 1 1
0.0000000 0.0000000 0.0000000
0.0000000 0.0000000 0.0000000
0.2559620 0.0000000 0.0000000
0.5194913 0.0000000 0.0000000
0.7472224 0.0000000 0.0000000
0.9249896 0.0000000 0.0000000
1.0000000 0.0000000 0.0000000
1.0000000 0.0000000 0.0000000
1.0000000 0.0000000 0.0000000
0.0000000 0.0000000 0.0000000
0.0000000 0.0000000 0.0000000
0.2800441 0.0000000 0.0000000
0.5290514 0.0000000 0.0000000
0.7318373 0.0000000 0.0000000
0.8862667 0.0000000 0.0000000
0.9970797 0.0000000 0.0000000
1.0000000 0.0000000 0.0000000
1.0000000 0.0000000 0.0000000
0.0000000 0.0000000 0.0000000
0.0139941 0.0350816 0.0000000
0.2873498 0.0820459 0.0000000
0.5144266 0.1099370 0.0000000
0.6995831 0.1237291 0.0000000
0.8402165 0.1193997 0.0000000
0.9400626 0.1031481 0.0000000
1.0000000 0.0899758 0.0000000
1.0000000 0.0829336 0.0000000
0.0000000 0.1454830 0.0000000
0.0180953 0.2071437 0.0000000
0.2681998 0.2521673 0.0000000
0.4762956 0.2816158 0.0000000
0.6482095 0.3031996 0.0000000
0.7775857 0.3052844 0.0000000
0.8697358 0.2884245 0.0000000
0.9442246 0.2734086 0.0000000
1.0000000 0.2625691 0.0000000
0.0000000 0.3202095 0.0000000
0.0057943 0.3678514 0.0000000
0.2278751 0.4096867 0.0000000
0.4208324 0.4438409 0.0000000
0.5787871 0.4667432 0.0000000
0.6953879 0.4703195 0.0000000
0.7860222 0.4597171 0.0000000
0.8708549 0.4496173 0.0000000
0.9562770 0.4427170 0.0000000
0.0000000 0.4846217 0.0000000
0.0000000 0.5163703 0.0000000
0.1687448 0.5509693 0.0000000
0.3369728 0.5847798 0.0000000
0.4812992 0.6073689 0.0000000
0.5962240 0.6151609 0.0000000
0.6969937 0.6145419 0.0000000
0.7986956 0.6138082 0.0000000
0.9074898 0.6153231 0.0000000
0.0000000 0.6352591 0.0000000
0.0000000 0.6555911 0.0000000
0.1051606 0.6779347 0.0000000
0.2349335 0.7031153 0.0000000
0.3650863 0.7263610 0.0000000
0.4868716 0.7422600 0.0000000
0.6041977 0.7524817 0.0000000
0.7276435 0.7610174 0.0000000
0.8620636 0.7706084 0.0000000
0.0000000 0.7772822 0.0196338
0.0000000 0.7881735 0.0000000
0.0507733 0.8004185 0.0000000
0.1388308 0.8164408 0.0000000
0.2468245 0.8366538 0.0000000
0.3713602 0.8576754 0.0000000
0.5094014 0.8768752 0.0000000
0.6589479 0.8942753 0.0000000
0.8160837 0.9119835 0.0000000
0.0000000 0.9221446 0.1242898
0.0000000 0.9212595 0.1157242
0.0038969 0.9239655 0.0977871
0.0495939 0.9317181 0.0597296
0.1302553 0.9467618 0.0000000
0.2533242 0.9694386 0.0000000
0.4138351 0.9957185 0.0000000
0.5917459 1.0000000 0.0000000
0.7720880 1.0000000 0.0000000
0.0000000 0.0000000 0.0000000
0.0792225 0.0000000 0.0000000
0.3105954 0.0000000 0.0000000
0.5286285 0.0000000 0.0000000
0.7271150 0.0000000 0.0000000
0.8905439 0.0000000 0.0000000
1.0000000 0.0000000 0.0000000
1.0000000 0.0000000 0.0000000
1.0000000 0.0000000 0.0054213
0.0000000 0.0000000 0.0000000
0.0267618 0.0000000 0.0000000
0.2863335 0.0000000 0.0000000
0.5293692 0.0000000 0.0000000
0.7295474 0.0000000 0.0000000
0.8712858 0.0000000 0.0000000
0.9620880 0.0000000 0.0000000
1.0000000 0.0000000 0.0000000
1.0000000 0.0000000 0.0000000
0.0000000 0.0131518 0.0000000
0.0000000 0.0424950 0.0000000
0.2666430 0.0834014 0.0000000
0.5325723 0.1188789 0.0000000
0.7233754 0.1253875 0.0000000
0.8402885 0.1207532 0.0000000
0.9118109 0.1260830 0.0000000
0.9613795 0.1373552 0.0000000
1.0000000 0.1487655 0.0000000
0.0000000 0.1832110 0.0000000
0.0000000 0.2262791 0.0000000
0.2339155 0.2833136 0.0000000
0.4898101 0.3247871 0.0000000
0.6734538 0.3316453 0.0000000
0.7823686 0.3167982 0.0000000
0.8553682 0.3149408 0.0000000
0.9070043 0.3171970 0.0000000
0.9538915 0.3213597 0.0000000
0.0000000 0.3596252 0.0085721
0.0000000 0.4036422 0.0000000
0.1764751 0.4479769 0.0000000
0.3970165 0.4807954 0.0000000
0.5664905 0.4887529 0.0000000
0.6932894 0.4869456 0.0000000
0.7877203 0.4895368 0.0000000
0.8583231 0.4914986 0.0000000
0.9206885 0.4920331 0.0000000
0.0000000 0.5306914 0.0359803
0.0000000 0.5606953 0.0000000
0.1192776 0.5841861 0.0000000
0.2911722 0.5997697 0.0000000
0.4495964 0.6129582 0.0000000
0.5915800 0.6251788 0.0000000
0.7095050 0.6346778 0.0000000
0.8088349 0.6411071 0.0000000
0.8987766 0.6448997 0.0000000
0.0000000 0.6870325 0.0723010
0.0000000 0.6980090 0.0145364
0.0799971 0.7064310 0.0000000
0.2148851 0.7126062 0.0000000
0.3522509 0.7219435 0.0000000
0.4922355 0.7362639 0.0000000
0.6282246 0.7508560 0.0000000
0.7568524 0.7632957 0.0000000
0.8791605 0.7740850 0.0000000
0.0000000 0.8319164 0.1117749
0.0000000 0.8270487 0.0816905
0.0549409 0.8232137 0.0500460
0.1560431 0.8220840 0.0144974
0.2705877 0.8261078 0.0000000
0.4019789 0.8367543 0.0000000
0.5479008 0.8526708 0.0000000
0.7015719 0.8701437 0.0000000
0.8576721 0.8870754 0.0000000
0.0000000 0.9722611 0.1522800
0.0000000 0.9539692 0.1526189
0.0348868 0.9387159 0.1501516
0.1024974 0.9308239 0.1379514
0.1950696 0.9312977 0.1062780
0.3181079 0.9390801 0.0507546
0.4699765 0.9535698 0.0000000
0.6454079 0.9732656 0.0000000
0.8319127 0.9958507 0.0000000
0.0000000 0.0000000 0.2556407
0.1838915 0.0000000 0.2152700
0.3798330 0.0000000 0.1702590
0.5553958 0.0000000 0.1197998
0.7147112 0.0000000 0.0761402
0.8557279 0.0000000 0.0527237
0.9643004 0.0000000 0.0500146
1.0000000 0.0000000 0.0615609
1.0000000 0.0000000 0.0753260
0.0000000 0.0000000 0.2671783
0.0692465 0.0000000 0.1814285
0.2953693 0.0000000 0.1095813
0.5204741 0.0000000 0.0616779
0.7210772 0.0000000 0.0395295
0.8545579 0.0000000 0.0305872
0.9289365 0.0000000 0.0336557
0.9738030 0.0198809 0.0490073
1.0000000 0.0703454 0.0731341
0.0000000 0.0618823 0.2805146
0.0000000 0.0550179 0.1437466
0.2105384 0.0612233 0.0262274
0.5209284 0.0981422 0.0154702
0.7276346 0.1015338 0.0090327
0.8337080 0.1164973 0.0064473
0.8842051 0.1523982 0.0186188
0.9123259 0.1888879 0.0408357
0.9358498 0.2145300 0.0674070
0.0000000 0.2311772 0.2750837
0.0000000 0.2505770 0.1350338
0.1604310 0.2910319 0.0210133
0.5539409 0.4176257 0.0157011
0.6675923 0.3279148 0.0000000
0.7791368 0.3191292 0.0000000
0.8377474 0.3446063 0.0091310
0.8717479 0.3711326 0.0349464
0.9011134 0.3813978 0.0603684
0.0000000 0.4025664 0.2508108
0.0000000 0.4455977 0.1534614
0.1153935 0.4897807 0.0615534
0.3262194 0.5015352 0.0000000
0.5325454 0.4980060 0.0000000
0.6968617 0.5089713 0.0000000
0.7915066 0.5248219 0.0054828
0.8459320 0.5342203 0.0260884
0.8903726 0.5407440 0.0486833
0.0000000 0.5755847 0.2301150
0.0000000 0.6059489 0.1637250
0.0735844 0.6206282 0.0893733
0.2427112 0.6134313 0.0135535
0.4182728 0.6122581 0.0000000
0.5919017 0.6325548 0.0000000
0.7279654 0.6578085 0.0096571
0.8178441 0.6666817 0.0291284
0.8848136 0.6670145 0.0393052
0.0000000 0.7361637 0.2157644
0.0000000 0.7392737 0.1715473
0.0643325 0.7361485 0.1235454
0.2083853 0.7256359 0.0730173
0.3503259 0.7170682 0.0343154
0.4999199 0.7226982 0.0221947
0.6484407 0.7434745 0.0335515
0.7774815 0.7638618 0.0477549
0.8837334 0.7732307 0.0556374
0.0000000 0.8821486 0.2012928
0.0000000 0.8633726 0.1836900
0.0654830 0.8453252 0.1636352
0.1806091 0.8295071 0.1422516
0.3013602 0.8180904 0.1194877
0.4351115 0.8165727 0.0989565
0.5826595 0.8269934 0.0854935
0.7355037 0.8456967 0.0795790
0.8856656 0.8656816 0.0741169
0.0000000 1.0000000 0.1869386
0.0000000 0.9848988 0.1974082
0.0677926 0.9523696 0.2085817
0.1538874 0.9289765 0.2162037
0.2566104 0.9163611 0.2105583
0.3812348 0.9127609 0.1869492
0.5276375 0.9177069 0.1519525
0.6975474 0.9307795 0.1181558
0.8855048 0.9489091 0.0900050
0.1091688 0.0000000 0.5241989
0.2894903 0.0000000 0.4564491
0.4558089 0.0000000 0.3881422
0.5940703 0.0000000 0.3215904
0.7127900 0.0000000 0.2617238
0.8229564 0.0000000 0.2170395
0.9170482 0.0000000 0.1908116
0.9902929 0.0000000 0.1785558
1.0000000 0.0206697 0.1688829
0.0000000 0.0000000 0.5337151
0.1423773 0.0000000 0.4560015
0.3332959 0.0000000 0.3800259
0.5281529 0.0000000 0.3106843
0.7034898 0.0000000 0.2580407
0.8276440 0.0000000 0.2244354
0.8978992 0.0233911 0.2058747
0.9369448 0.0897050 0.2001161
0.9665541 0.1649506 0.2053253
0.0000000 0.1194162 0.5338300
0.0027436 0.0946412 0.4548833
0.1945563 0.0597175 0.3702249
0.4436147 0.0521989 0.2923096
0.6884633 0.0953234 0.2544166
0.8180240 0.1476547 0.2290414
0.8660918 0.2029542 0.2202115
0.8863573 0.2566103 0.2249344
0.8995723 0.3056817 0.2385918
0.0000000 0.2864241 0.5146123
0.0000000 0.3020570 0.4314578
0.1098964 0.3312139 0.3392570
0.3472784 0.2722563 0.2586168
0.6046243 0.2854338 0.2445164
0.7548622 0.3305950 0.2371120
0.8164145 0.3818409 0.2442846
0.8514819 0.4395491 0.2577711
0.8719817 0.4453702 0.2625639
0.0000000 0.4529244 0.4691092
0.0000000 0.4922532 0.3904095
0.0525275 0.5327428 0.3125902
0.2668229 0.5313018 0.2260130
0.5375754 0.5209080 0.2161730
0.7128618 0.5473770 0.2564073
0.7875959 0.5548775 0.2689925
0.8315028 0.5684273 0.2752749
0.8714913 0.5712279 0.2782249
0.0000000 0.6207167 0.4068362
0.0000000 0.6480789 0.3542479
0.0475063 0.6632168 0.2986548
0.2372467 0.6486205 0.2341489
0.4258660 0.6207886 0.1895350
0.6030392 0.6327006 0.2121056
0.7372467 0.6648187 0.2529074
0.8212929 0.6759424 0.2829446
0.8726033 0.6708433 0.2909475
0.0000000 0.7796814 0.3449171
0.0000000 0.7766053 0.3195573
0.0650497 0.7664251 0.2881041
0.2265084 0.7456885 0.2532454
0.3783264 0.7217646 0.2272092
0.5273353 0.7138572 0.2254085
0.6663574 0.7286359 0.2487227
0.7853777 0.7545244 0.2846198
0.8773476 0.7674513 0.3186495
0.0000000 0.9240133 0.2891923
0.0000000 0.8947937 0.2877812
0.0842329 0.8655306 0.2826376
0.2175655 0.8381124 0.2768976
0.3475795 0.8160571 0.2710906
0.4805542 0.8041561 0.2688106
0.6187169 0.8078182 0.2778693
0.7569444 0.8256114 0.2994185
0.8913805 0.8495470 0.3335860
0.0000000 1.0000000 0.2385787
0.0020394 1.0000000 0.2565513
0.1014542 0.9639275 0.2794988
0.2045416 0.9273897 0.3008966
0.3138726 0.9028144 0.3126617
0.4369641 0.8909454 0.3163941
0.5795085 0.8904393 0.3174588
0.7404727 0.9015558 0.3239997
0.9139223 0.9199734 0.3336314
0.2447048 0.0000000 0.7721112
0.3931199 0.0000000 0.6808453
0.5257903 0.0000000 0.5939400
0.6321208 0.0000000 0.5169955
0.7168192 0.0000000 0.4497579
0.7948851 0.0000000 0.3938366
0.8721127 0.0000000 0.3531582
0.9432847 0.0110735 0.3223349
1.0000000 0.1111536 0.2931158
0.0952428 0.0082619 0.7572636
0.2521542 0.0000000 0.6984686
0.4080643 0.0000000 0.6296656
0.5523524 0.0000000 0.5474760
0.6841928 0.0000000 0.4726281
0.7945557 0.0333561 0.4212396
0.8686442 0.0970093 0.3854770
0.9165915 0.1695052 0.3602983
0.9551236 0.2481433 0.3420569
0.0000000 0.1847765 0.7313659
0.1114263 0.1600743 0.7172537
0.2806846 0.1442004 0.6762859
0.4738575 0.1499545 0.5750690
0.6657532 0.1859308 0.5017691
0.7982031 0.2341376 0.4526233
0.8606844 0.2813286 0.4197452
0.8900777 0.3306351 0.4006240
0.9111606 0.3817229 0.3896184
0.0000000 0.3506527 0.6963401
0.0000000 0.3567457 0.6834860
0.0703615 0.3310183 0.5860770
0.4402439 0.4195857 0.6121584
0.7077570 0.4381964 0.5542123
0.8049739 0.4424918 0.4831209
0.8460102 0.4612397 0.4505437
0.8666805 0.4835772 0.4387454
0.8844004 0.4985360 0.4296605
0.0000000 0.5098623 0.6375636
0.0000000 0.5392276 0.5910629
0.0225390 0.5710044 0.5373976
0.3235206 0.6061606 0.5601569
0.6904077 0.6515256 0.5632640
0.7444373 0.5944596 0.4904451
0.8294748 0.6146534 0.4588008
0.8565681 0.6120767 0.4636155
0.8758434 0.5856408 0.4524551
0.0000000 0.6677523 0.5515050
0.0000000 0.6867436 0.5173932
0.0499918 0.6994145 0.4909319
0.2762556 0.6919920 0.4685981
0.5190685 0.6865242 0.4724637
0.6855237 0.6981424 0.4978449
0.7401839 0.6648576 0.4718727
0.8358587 0.6930290 0.4823618
0.8789711 0.6792606 0.4796123
0.0000000 0.8180332 0.4622992
0.0000000 0.8073346 0.4548953
0.0817784 0.7916348 0.4442380
0.2704426 0.7714945 0.4350563
0.4507839 0.7523046 0.4398004
0.6089531 0.7499877 0.4665379
0.7151770 0.7482557 0.4848756
0.7913062 0.7448374 0.4869160
0.8745015 0.7701405 0.5095825
0.0000000 0.9550878 0.3822342
0.0000000 0.9188850 0.3954235
0.1093848 0.8829465 0.4060336
0.2632971 0.8497454 0.4150595
0.4076922 0.8231222 0.4262520
0.5421884 0.8081771 0.4457092
0.6672206 0.8082764 0.4727194
0.7760670 0.8194607 0.4982746
0.8712921 0.8392932 0.5248992
0.0000000 1.0000000 0.3086240
0.0070664 1.0000000 0.3371138
0.1337138 0.9744654 0.3682588
0.2513623 0.9274687 0.3958597
0.3615631 0.8911045 0.4147777
0.4795370 0.8704204 0.4336974
0.6159330 0.8677275 0.4622580
0.7645618 0.8844999 0.5025539
0.9125850 0.9097094 0.5434120
0.3903161 0.0000000 0.9747571
0.4991483 0.0000000 0.8832975
0.5946294 0.0000000 0.7940132
0.6685826 0.0000000 0.7108479
0.7239770 0.0000000 0.6377236
0.7772958 0.0000000 0.5777424
0.8385698 0.0135865 0.5290002
0.9054847 0.1004919 0.4842477
0.9713061 0.1942834 0.4372995
0.2553500 0.0965003 0.9279363
0.3784975 0.0845414 0.8768455
0.4954212 0.0771946 0.8180887
0.5961334 0.0794688 0.7459018
0.6870202 0.0980065 0.6730975
0.7733711 0.1354175 0.6136058
0.8464428 0.1879880 0.5658170
0.9050451 0.2491602 0.5251542
0.9564267 0.3145791 0.4889339
0.1252315 0.2614852 0.8779417
0.2516481 0.2580465 0.8606065
0.3788143 0.2625166 0.8266403
0.5207345 0.2820290 0.7735259
0.6666216 0.3048486 0.7110068
0.7835412 0.3313165 0.6521590
0.8571520 0.3605258 0.6033558
0.9022695 0.3936127 0.5656269
0.9395362 0.4300486 0.5334995
0.0050148 0.4224193 0.8201231
0.1070468 0.4267756 0.8179299
0.2096441 0.4447722 0.7913551
0.4200382 0.4754666 0.7744246
0.6795596 0.5181696 0.7622171
0.8098325 0.5227402 0.6943753
0.8655301 0.5226735 0.6316972
0.8976749 0.5262365 0.5949927
0.9242696 0.5322468 0.5668040
0.0000000 0.5738935 0.7465006
0.0000000 0.5894071 0.7351526
0.0790494 0.6066594 0.7141924
0.3102036 0.6122804 0.7458224
0.7102266 0.7101918 0.8032173
0.8181832 0.6840056 0.7324304
0.8524141 0.6529597 0.6518389
0.8884325 0.6427488 0.6115290
0.9135621 0.6228784 0.5887533
0.0000000 0.7190267 0.6584130
0.0000000 0.7220164 0.6503579
0.0823767 0.7192881 0.6499336
0.3124988 0.7059701 0.6555398
0.6361530 0.7726463 0.7323315
0.7936536 0.7931900 0.7564667
0.8119949 0.7379211 0.6771958
0.8638030 0.7317449 0.6242744
0.9034875 0.7039684 0.6030473
0.0000000 0.8531656 0.5682836
0.0000000 0.8319416 0.5779562
0.1098655 0.8090811 0.5885636
0.3232170 0.7940238 0.6053511
0.5377315 0.7939125 0.6374041
0.7020016 0.8048028 0.6834339
0.7988423 0.8165298 0.7213816
0.8239281 0.7784284 0.6490886
0.8846912 0.7785367 0.6263646
0.0000000 0.9759489 0.4833148
0.0000000 0.9358394 0.5092021
0.1383187 0.8978438 0.5318018
0.3095138 0.8647129 0.5519841
0.4644670 0.8382361 0.5749888
0.6053684 0.8258649 0.6112418
0.7266721 0.8307759 0.6550539
0.8040605 0.8315818 0.6688669
0.8743286 0.8487406 0.6700356
0.0000000 1.0000000 0.4055937
0.0035180 1.0000000 0.4404989
0.1601271 0.9857861 0.4725486
0.2908515 0.9344486 0.4990126
0.4015209 0.8902708 0.5213115
0.5130635 0.8599776 0.5459057
0.6397384 0.8515289 0.5841067
0.7747499 0.8733519 0.6430067
0.9016253 0.9082701 0.7071909
0.5456551 0.0569697 1.0000000
0.6102218 0.0532216 1.0000000
0.6671245 0.0502646 0.9752659
0.7101980 0.0513513 0.8995253
0.7430057 0.0645501 0.8293965
0.7773182 0.0958876 0.7677060
0.8230989 0.1429878 0.7131981
0.8788271 0.1996767 0.6607370
0.9375987 0.2599364 0.6046387
0.4227766 0.2102001 1.0000000
0.5022575 0.2140367 1.0000000
0.5759617 0.2181153 0.9564243
0.6411355 0.2244981 0.9054634
0.7027360 0.2355315 0.8496523
0.7664894 0.2554504 0.7942539
0.8321474 0.2864295 0.7423034
0.8954198 0.3254250 0.6929563
0.9572034 0.3678009 0.6468004
0.2963662 0.3594331 0.9737908
0.3900561 0.3734353 0.9469258
0.4749405 0.3834306 0.9266161
0.5627423 0.3925762 0.9039352
0.6639306 0.4026869 0.8677295
0.7628601 0.4134502 0.8200922
0.8447148 0.4286669 0.7699944
0.9105392 0.4493626 0.7246511
0.9696572 0.4736157 0.6823919
0.1661377 0.5049781 0.8979702
0.2577931 0.5192690 0.8848417
0.3486647 0.5318607 0.8851722
0.4695854 0.5374512 0.8875713
0.6309884 0.5517894 0.8765213
0.7691009 0.5617432 0.8413703
0.8567563 0.5622166 0.7909262
0.9192567 0.5650098 0.7450406
0.9748847 0.5704862 0.7054799
0.0328658 0.6446470 0.8199657
0.1174041 0.6472504 0.8175416
0.1937074 0.6429536 0.8288812
0.3895659 0.6461618 0.8552110
0.6078580 0.6602599 0.8558203
0.7762650 0.6870181 0.8472875
0.8617703 0.6817532 0.8052374
0.9158833 0.6683469 0.7566428
0.9669010 0.6559591 0.7161674
0.0000000 0.7727756 0.7423391
0.0120210 0.7557768 0.7542558
0.1262186 0.7316867 0.7747136
0.3547865 0.7251217 0.8018341
0.6145664 0.7431697 0.8150104
0.7655683 0.7772283 0.8290342
0.8581080 0.7838822 0.8155243
0.8988724 0.7549301 0.7674218
0.9394910 0.7265785 0.7200110
0.0000000 0.8854295 0.6684385
0.0000000 0.8529943 0.6904178
0.1542305 0.8230973 0.7151194
0.3602494 0.8031955 0.7413584
0.5717901 0.8073983 0.7711137
0.7469397 0.8363664 0.8075736
0.8439739 0.8549890 0.8267888
0.8700207 0.8181983 0.7788082
0.8969634 0.7797424 0.7255212
0.0000000 0.9886985 0.5974237
0.0000000 0.9482015 0.6255144
0.1690153 0.9106094 0.6522476
0.3473914 0.8802757 0.6773480
0.5041353 0.8575758 0.7050020
0.6401977 0.8464362 0.7391879
0.7677781 0.8558504 0.7797126
0.8371599 0.8535039 0.7809231
0.8819734 0.8442172 0.7621179
0.0000000 1.0000000 0.5296569
0.0000000 1.0000000 0.5604461
0.1745606 0.9968641 0.5885167
0.3229348 0.9526418 0.6133797
0.4424709 0.9111963 0.6367506
0.5522832 0.8773926 0.6649200
0.6634112 0.8581733 0.6968741
0.7818088 0.8726777 0.7463131
0.9010075 0.9121914 0.8094366
0.7085956 0.2053651 1.0000000
0.7240472 0.2198719 1.0000000
0.7398729 0.2340191 1.0000000
0.7553381 0.2472694 1.0000000
0.7712079 0.2603423 1.0000000
0.7911763 0.2736329 0.9618354
0.8204961 0.2875580 0.9051954
0.8591620 0.3009830 0.8480317
0.9036903 0.3123377 0.7888730
0.5868565 0.3429695 1.0000000
0.6197213 0.3540749 1.0000000
0.6510308 0.3637302 1.0000000
0.6822671 0.3717193 1.0000000
0.7193357 0.3774018 1.0000000
0.7658122 0.3830056 0.9647012
0.8228565 0.3906698 0.9160658
0.8865980 0.4012170 0.8653733
0.9521965 0.4141104 0.8147814
0.4616150 0.4765141 1.0000000
0.5118317 0.4844408 1.0000000
0.5567921 0.4876760 1.0000000
0.6045505 0.4876521 1.0000000
0.6658545 0.4872785 0.9900669
0.7422944 0.4885672 0.9623058
0.8267776 0.4928586 0.9245989
0.9118749 0.5019268 0.8818037
0.9954172 0.5138613 0.8380226
0.3270781 0.6024087 0.9578970
0.3913456 0.6032389 0.9503116
0.4520562 0.5968911 0.9546414
0.5205413 0.5853131 0.9624023
0.6130075 0.5801652 0.9605111
0.7231334 0.5839150 0.9482278
0.8305696 0.5910070 0.9240387
0.9296223 0.5990994 0.8892193
1.0000000 0.6077711 0.8514644
0.1847001 0.7189305 0.8871604
0.2604865 0.7060556 0.8880999
0.3392678 0.6890868 0.8978398
0.4359794 0.6610344 0.9160495
0.5668522 0.6500877 0.9152865
0.7077302 0.6646197 0.9159778
0.8331490 0.6830983 0.9113252
0.9348047 0.6885135 0.8882885
1.0000000 0.6887788 0.8578986
0.0452790 0.8235520 0.8258256
0.1411809 0.7924163 0.8413645
0.2446284 0.7589353 0.8613525
0.3898184 0.7303730 0.8738599
0.5405099 0.7117287 0.8662268
0.6960781 0.7364246 0.8737684
0.8349906 0.7705045 0.8885766
0.9239890 0.7664561 0.8796291
1.0000000 0.7533523 0.8565662
0.0000000 0.9149640 0.7700789
0.0624224 0.8749857 0.7952778
0.2148933 0.8379328 0.8178086
0.3859592 0.8105842 0.8316063
0.5461734 0.7973854 0.8373169
0.6623329 0.7932586 0.8379017
0.8127232 0.8323965 0.8562735
0.8968380 0.8280589 0.8639383
0.9625712 0.8014627 0.8458598
0.0000000 0.9973621 0.7194992
0.0125270 0.9578414 0.7441814
0.1987355 0.9222935 0.7666024
0.3722219 0.8951206 0.7859246
0.5214527 0.8787328 0.8055856
0.6391410 0.8675086 0.8223112
0.7416736 0.8612132 0.8283857
0.8659442 0.8766163 0.8442820
0.9207408 0.8460133 0.8387239
0.0000000 1.0000000 0.6715576
0.0000000 1.0000000 0.6915190
0.1789586 1.0000000 0.7140044
0.3494613 0.9770704 0.7392914
0.4820253 0.9485119 0.7639431
0.5952482 0.9208650 0.7854086
0.7013555 0.8982280 0.8009424
0.7984904 0.8925024 0.8165572
0.8996939 0.9099133 0.8529933
0.8742766 0.3644423 1.0000000
0.8392439 0.3946112 1.0000000
0.8126145 0.4267251 1.0000000
0.8018101 0.4539618 1.0000000
0.8013717 0.4653727 1.0000000
0.8096615 0.4565157 1.0000000
0.8219369 0.4314589 1.0000000
0.8411903 0.3989819 1.0000000
0.8673888 0.3661309 0.9815941
0.7479974 0.4825989 1.0000000
0.7333790 0.4970095 1.0000000
0.7229154 0.5091982 1.0000000
0.7220183 0.5175915 1.0000000
0.7357359 0.5204588 1.0000000
0.7665875 0.5139438 1.0000000
0.8157745 0.4986926 1.0000000
0.8783839 0.4783293 1.0000000
0.9446514 0.4554783 0.9870393
0.6197224 0.5988446 1.0000000
0.6259452 0.5928986 1.0000000
0.6324493 0.5853939 1.0000000
0.6430861 0.5764170 1.0000000
0.6703291 0.5686615 1.0000000
0.7253817 0.5636354 1.0000000
0.8087567 0.5600658 1.0000000
0.9101402 0.5545746 1.0000000
1.0000000 0.5469698 0.9937883
0.4852730 0.7040474 1.0000000
0.5165750 0.6807949 1.0000000
0.5429430 0.6555154 1.0000000
0.5673540 0.6284962 1.0000000
0.6078529 0.6079689 1.0000000
0.6856170 0.6058290 1.0000000
0.8006625 0.6172671 1.0000000
0.9336113 0.6294772 1.0000000
1.0000000 0.6389276 1.0000000
0.3412912 0.7942514 0.9579687
0.4038117 0.7599247 0.9663922
0.4588403 0.7215701 0.9703000
0.4996367 0.6811464 0.9708435
0.5520260 0.6523261 0.9767750
0.6506141 0.6504419 0.9856490
0.7897184 0.6726435 0.9984652
0.9422920 0.7005088 1.0000000
1.0000000 0.7246626 1.0000000
0.1868563 0.8727177 0.9128800
0.2840204 0.8307748 0.9267887
0.3739549 0.7872705 0.9315119
0.4434112 0.7438716 0.9263493
0.5177873 0.7151763 0.9235819
0.6227159 0.7062919 0.9266428
0.7639213 0.7248901 0.9421260
0.9274191 0.7611026 0.9702091
1.0000000 0.7932563 0.9996382
0.0272396 0.9423624 0.8788675
0.1609817 0.8978047 0.8945364
0.2901712 0.8559869 0.9033111
0.4066332 0.8210953 0.8996946
0.5126172 0.8001261 0.8914411
0.6146818 0.7900307 0.8894277
0.7295518 0.7879951 0.8937727
0.8889802 0.8113646 0.9226115
1.0000000 0.8390112 0.9690239
0.0000000 1.0000000 0.8481404
0.0486040 0.9672519 0.8617511
0.2274515 0.9340139 0.8760467
0.3885012 0.9100160 0.8857126
0.5191220 0.8960510 0.8875945
0.6217068 0.8838762 0.8847953
0.7242280 0.8697281 0.8775903
0.8516582 0.8633043 0.8897392
0.9952816 0.8695602 0.9290605
0.0000000 1.0000000 0.8156902
0.0000000 1.0000000 0.8293367
0.1790293 1.0000000 0.8483643
0.3728183 1.0000000 0.8717909
0.5172376 0.9901440 0.8915582
0.6333998 0.9733718 0.8958510
0.7380128 0.9504186 0.8870441
0.8283979 0.9270610 0.8829249
0.9089548 0.9055309 0.8879928
