catalog/styles/series/movie/series-movie-roseglass/look.cube
# series-movie-roseglass iteration 6
LUT_3D_SIZE 5
DOMAIN_MIN 0 0 0
DOMAIN_MAX 1 1 1
0.0000000 0.0000000 0.0000000
0.2559620 0.0000000 0.0000000
0.7472224 0.0000000 0.0000000
1.0000000 0.0000000 0.0000000
1.0000000 0.0000000 0.0000000
0.0000000 0.0000000 0.0000000
0.2873498 0.0820459 0.0000000
0.6995831 0.1237291 0.0000000
0.9400626 0.1031481 0.0000000
1.0000000 0.0829336 0.0000000
0.0000000 0.3202095 0.0000000
0.2278751 0.4096867 0.0000000
0.5787871 0.4667432 0.0000000
0.7860222 0.4597171 0.0000000
0.9562770 0.4427170 0.0000000
0.0000000 0.6352591 0.0000000
0.1051606 0.6779347 0.0000000
0.3650863 0.7263610 0.0000000
0.6041977 0.7524817 0.0000000
0.8620636 0.7706084 0.0000000
0.0000000 0.9221446 0.1242898
0.0038969 0.9239655 0.0977871
0.1302553 0.9467618 0.0000000
0.4138351 0.9957185 0.0000000
0.7720880 1.0000000 0.0000000
0.0000000 0.0000000 0.2556407
0.3798330 0.0000000 0.1702590
0.7147112 0.0000000 0.0761402
0.9643004 0.0000000 0.0500146
1.0000000 0.0000000 0.0753260
0.0000000 0.0618823 0.2805146
0.2105384 0.0612233 0.0262274
0.7276346 0.1015338 0.0090327
0.8842051 0.1523982 0.0186188
0.9358498 0.2145300 0.0674070
0.0000000 0.4025664 0.2508108
0.1153935 0.4897807 0.0615534
0.5325454 0.4980060 0.0000000
0.7915066 0.5248219 0.0054828
0.8903726 0.5407440 0.0486833
0.0000000 0.7361637 0.2157644
0.0643325 0.7361485 0.1235454
0.3503259 0.7170682 0.0343154
0.6484407 0.7434745 0.0335515
0.8837334 0.7732307 0.0556374
0.0000000 1.0000000 0.1869386
0.0677926 0.9523696 0.2085817
0.2566104 0.9163611 0.2105583
0.5276375 0.9177069 0.1519525
0.8855048 0.9489091 0.0900050
0.2447048 0.0000000 0.7721112
0.5257903 0.0000000 0.5939400
0.7168192 0.0000000 0.4497579
0.8721127 0.0000000 0.3531582
1.0000000 0.1111536 0.2931158
0.0000000 0.1847765 0.7313659
0.2806846 0.1442004 0.6762859
0.6657532 0.1859308 0.5017691
0.8606844 0.2813286 0.4197452
0.9111606 0.3817229 0.3896184
0.0000000 0.5098623 0.6375636
0.0225390 0.5710044 0.5373976
0.6904077 0.6515256 0.5632640
0.8294748 0.6146534 0.4588008
0.8758434 0.5856408 0.4524551
0.0000000 0.8180332 0.4622992
0.0817784 0.7916348 0.4442380
0.4507839 0.7523046 0.4398004
0.7151770 0.7482557 0.4848756
0.8745015 0.7701405 0.5095825
0.0000000 1.0000000 0.3086240
0.1337138 0.9744654 0.3682588
0.3615631 0.8911045 0.4147777
0.6159330 0.8677275 0.4622580
0.9125850 0.9097094 0.5434120
0.5456551 0.0569697 1.0000000
0.6671245 0.0502646 0.9752659
0.7430057 0.0645501 0.8293965
0.8230989 0.1429878 0.7131981
0.9375987 0.2599364 0.6046387
0.2963662 0.3594331 0.9737908
0.4749405 0.3834306 0.9266161
0.6639306 0.4026869 0.8677295
0.8447148 0.4286669 0.7699944
0.9696572 0.4736157 0.6823919
0.0328658 0.6446470 0.8199657
0.1937074 0.6429536 0.8288812
0.6078580 0.6602599 0.8558203
0.8617703 0.6817532 0.8052374
0.9669010 0.6559591 0.7161674
0.0000000 0.8854295 0.6684385
0.1542305 0.8230973 0.7151194
0.5717901 0.8073983 0.7711137
0.8439739 0.8549890 0.8267888
0.8969634 0.7797424 0.7255212
0.0000000 1.0000000 0.5296569
0.1745606 0.9968641 0.5885167
0.4424709 0.9111963 0.6367506
0.6634112 0.8581733 0.6968741
0.9010075 0.9121914 0.8094366
0.8742766 0.3644423 1.0000000
0.8126145 0.4267251 1.0000000
0.8013717 0.4653727 1.0000000
0.8219369 0.4314589 1.0000000
0.8673888 0.3661309 0.9815941
0.6197224 0.5988446 1.0000000
0.6324493 0.5853939 1.0000000
0.6703291 0.5686615 1.0000000
0.8087567 0.5600658 1.0000000
1.0000000 0.5469698 0.9937883
0.3412912 0.7942514 0.9579687
0.4588403 0.7215701 0.9703000
0.5520260 0.6523261 0.9767750
0.7897184 0.6726435 0.9984652
1.0000000 0.7246626 1.0000000
0.0272396 0.9423624 0.8788675
0.2901712 0.8559869 0.9033111
0.5126172 0.8001261 0.8914411
0.7295518 0.7879951 0.8937727
1.0000000 0.8390112 0.9690239
0.0000000 1.0000000 0.8156902
0.1790293 1.0000000 0.8483643
0.5172376 0.9901440 0.8915582
0.7380128 0.9504186 0.8870441
0.9089548 0.9055309 0.8879928
