catalog/styles/series/movie/series-movie-roseglass/look.cube
# series-movie-roseglass iteration 6
LUT_3D_SIZE 33
DOMAIN_MIN 0 0 0
DOMAIN_MAX 1 1 1
0.0000000 0.0000000 0.0000000
0.0000000 0.0000000 0.0000000
0.0000000 0.0000000 0.0000000
0.0000000 0.0000000 0.0000000
0.0000000 0.0000000 0.0000000
0.0472095 0.0000000 0.0000000
0.1172791 0.0000000 0.0000000
0.1869182 0.0000000 0.0000000
0.2559620 0.0000000 0.0000000
0.3241666 0.0000000 0.0000000
0.3911078 0.0000000 0.0000000
0.4563378 0.0000000 0.0000000
0.5194913 0.0000000 0.0000000
0.5803546 0.0000000 0.0000000
0.6387722 0.0000000 0.0000000
0.6944779 0.0000000 0.0000000
0.7472224 0.0000000 0.0000000
0.7968437 0.0000000 0.0000000
0.8431094 0.0000000 0.0000000
0.8858476 0.0000000 0.0000000
0.9249896 0.0000000 0.0000000
0.9606581 0.0000000 0.0000000
0.9931638 0.0000000 0.0000000
1.0000000 0.0000000 0.0000000
1.0000000 0.0000000 0.0000000
1.0000000 0.0000000 0.0000000
1.0000000 0.0000000 0.0000000
1.0000000 0.0000000 0.0000000
1.0000000 0.0000000 0.0000000
1.0000000 0.0000000 0.0000000
1.0000000 0.0000000 0.0000000
1.0000000 0.0000000 0.0000000
1.0000000 0.0000000 0.0000000
0.0000000 0.0000000 0.0000000
0.0000000 0.0000000 0.0000000
0.0000000 0.0000000 0.0000000
0.0000000 0.0000000 0.0000000
0.0000000 0.0000000 0.0000000
0.0530428 0.0000000 0.0000000
0.1235960 0.0000000 0.0000000
0.1934967 0.0000000 0.0000000
0.2624517 0.0000000 0.0000000
0.3302156 0.0000000 0.0000000
0.3964510 0.0000000 0.0000000
0.4607543 0.0000000 0.0000000
0.5227380 0.0000000 0.0000000
0.5822378 0.0000000 0.0000000
0.6390720 0.0000000 0.0000000
0.6930457 0.0000000 0.0000000
0.7439931 0.0000000 0.0000000
0.7918357 0.0000000 0.0000000
0.8364223 0.0000000 0.0000000
0.8776429 0.0000000 0.0000000
0.9154836 0.0000000 0.0000000
0.9500253 0.0000000 0.0000000
0.9814945 0.0000000 0.0000000
1.0000000 0.0000000 0.0000000
1.0000000 0.0000000 0.0000000
1.0000000 0.0000000 0.0000000
1.0000000 0.0000000 0.0000000
1.0000000 0.0000000 0.0000000
1.0000000 0.0000000 0.0000000
1.0000000 0.0000000 0.0000000
1.0000000 0.0000000 0.0000000
1.0000000 0.0000000 0.0000000
1.0000000 0.0000000 0.0000000
0.0000000 0.0000000 0.0000000
0.0000000 0.0000000 0.0000000
0.0000000 0.0000000 0.0000000
0.0000000 0.0000000 0.0000000
0.0000000 0.0000000 0.0000000
0.0588877 0.0000000 0.0000000
0.1298698 0.0000000 0.0000000
0.1999915 0.0000000 0.0000000
0.2688043 0.0000000 0.0000000
0.3360952 0.0000000 0.0000000
0.4015980 0.0000000 0.0000000
0.4649388 0.0000000 0.0000000
0.5257370 0.0000000 0.0000000
0.5838351 0.0000000 0.0000000
0.6390915 0.0000000 0.0000000
0.6913634 0.0000000 0.0000000
0.7405637 0.0000000 0.0000000
0.7866530 0.0000000 0.0000000
0.8296135 0.0000000 0.0000000
0.8693641 0.0000000 0.0000000
0.9059299 0.0000000 0.0000000
0.9393362 0.0000000 0.0000000
0.9697909 0.0000000 0.0000000
0.9977794 0.0000000 0.0000000
1.0000000 0.0000000 0.0000000
1.0000000 0.0000000 0.0000000
1.0000000 0.0000000 0.0000000
1.0000000 0.0000000 0.0000000
1.0000000 0.0000000 0.0000000
1.0000000 0.0000000 0.0000000
1.0000000 0.0000000 0.0000000
1.0000000 0.0000000 0.0000000
1.0000000 0.0000000 0.0000000
0.0000000 0.0000000 0.0000000
0.0000000 0.0000000 0.0000000
0.0000000 0.0000000 0.0000000
0.0000000 0.0000000 0.0000000
0.0000000 0.0000000 0.0000000
0.0646243 0.0000000 0.0000000
0.1360060 0.0000000 0.0000000
0.2062052 0.0000000 0.0000000
0.2747852 0.0000000 0.0000000
0.3415184 0.0000000 0.0000000
0.4061870 0.0000000 0.0000000
0.4684694 0.0000000 0.0000000
0.5280121 0.0000000 0.0000000
0.5846989 0.0000000 0.0000000
0.6384061 0.0000000 0.0000000
0.6890509 0.0000000 0.0000000
0.7366187 0.0000000 0.0000000
0.7810918 0.0000000 0.0000000
0.8225381 0.0000000 0.0000000
0.8608995 0.0000000 0.0000000
0.8962403 0.0000000 0.0000000
0.9285228 0.0000000 0.0000000
0.9580155 0.0000000 0.0000000
0.9851803 0.0000000 0.0000000
1.0000000 0.0000000 0.0000000
1.0000000 0.0000000 0.0000000
1.0000000 0.0000000 0.0000000
1.0000000 0.0000000 0.0000000
1.0000000 0.0000000 0.0000000
1.0000000 0.0000000 0.0000000
1.0000000 0.0000000 0.0000000
1.0000000 0.0000000 0.0000000
1.0000000 0.0000000 0.0000000
0.0000000 0.0000000 0.0000000
0.0000000 0.0000000 0.0000000
0.0000000 0.0000000 0.0000000
0.0000000 0.0000000 0.0000000
0.0000000 0.0000000 0.0000000
0.0701474 0.0000000 0.0000000
0.1418045 0.0000000 0.0000000
0.2118965 0.0000000 0.0000000
0.2800441 0.0000000 0.0000000
0.3460716 0.0000000 0.0000000
0.4097398 0.0000000 0.0000000
0.4708398 0.0000000 0.0000000
0.5290514 0.0000000 0.0000000
0.5842952 0.0000000 0.0000000
0.6365342 0.0000000 0.0000000
0.6857100 0.0000000 0.0000000
0.7318373 0.0000000 0.0000000
0.7749022 0.0000000 0.0000000
0.8149898 0.0000000 0.0000000
0.8520987 0.0000000 0.0000000
0.8862667 0.0000000 0.0000000
0.9175089 0.0000000 0.0000000
0.9461252 0.0000000 0.0000000
0.9725062 0.0000000 0.0000000
0.9970797 0.0000000 0.0000000
1.0000000 0.0000000 0.0000000
1.0000000 0.0000000 0.0000000
1.0000000 0.0000000 0.0000000
1.0000000 0.0000000 0.0000000
1.0000000 0.0000000 0.0000000
1.0000000 0.0000000 0.0000000
1.0000000 0.0000000 0.0000000
1.0000000 0.0000000 0.0000000
0.0000000 0.0000000 0.0000000
0.0000000 0.0000000 0.0000000
0.0000000 0.0000000 0.0000000
0.0000000 0.0000000 0.0000000
0.0020807 0.0000000 0.0000000
0.0752950 0.0000000 0.0000000
0.1469925 0.0000000 0.0000000
0.2167378 0.0000000 0.0000000
0.2842299 0.0000000 0.0000000
0.3493219 0.0000000 0.0000000
0.4118188 0.0000000 0.0000000
0.4715804 0.0000000 0.0000000
0.5283646 0.0000000 0.0000000
0.5821860 0.0000000 0.0000000
0.6330707 0.0000000 0.0000000
0.6809841 0.0000000 0.0000000
0.7258931 0.0000000 0.0000000
0.7677952 0.0000000 0.0000000
0.8067254 0.0000000 0.0000000
0.8427442 0.0000000 0.0000000
0.8758669 0.0000000 0.0000000
0.9061786 0.0000000 0.0000000
0.9340012 0.0000000 0.0000000
0.9596749 0.0000000 0.0000000
0.9835063 0.0000000 0.0000000
1.0000000 0.0000000 0.0000000
1.0000000 0.0000000 0.0000000
1.0000000 0.0000000 0.0000000
1.0000000 0.0000000 0.0000000
1.0000000 0.0000000 0.0000000
1.0000000 0.0000000 0.0000000
1.0000000 0.0000000 0.0000000
1.0000000 0.0000000 0.0000000
0.0000000 0.0000000 0.0000000
0.0000000 0.0000000 0.0000000
0.0000000 0.0000000 0.0000000
0.0000000 0.0000000 0.0000000
0.0065376 0.0000000 0.0000000
0.0798685 0.0000000 0.0000000
0.1512678 0.0000000 0.0000000
0.2203874 0.0000000 0.0000000
0.2869726 0.0000000 0.0000000
0.3509221 0.0000000 0.0000000
0.4120830 0.0047828 0.0000000
0.4703753 0.0108251 0.0000000
0.5256756 0.0157737 0.0000000
0.5781130 0.0196350 0.0000000
0.6277816 0.0224193 0.0000000
0.6746281 0.0241330 0.0000000
0.7185679 0.0247972 0.0000000
0.7595415 0.0245071 0.0000000
0.7975532 0.0233333 0.0000000
0.8326255 0.0213979 0.0000000
0.8648378 0.0188475 0.0000000
0.8943776 0.0158868 0.0000000
0.9214905 0.0127080 0.0000000
0.9464688 0.0095426 0.0000000
0.9696098 0.0065315 0.0000000
0.9912354 0.0037775 0.0000000
1.0000000 0.0013543 0.0000000
1.0000000 0.0000000 0.0000000
1.0000000 0.0000000 0.0000000
1.0000000 0.0000000 0.0000000
1.0000000 0.0000000 0.0000000
1.0000000 0.0000000 0.0000000
1.0000000 0.0000000 0.0000000
0.0000000 0.0000000 0.0000000
0.0000000 0.0000000 0.0000000
0.0000000 0.0000000 0.0000000
0.0000000 0.0000000 0.0000000
0.0105896 0.0000000 0.0000000
0.0836300 0.0039497 0.0000000
0.1543876 0.0158905 0.0000000
0.2226084 0.0267977 0.0000000
0.2880424 0.0364762 0.0000000
0.3506512 0.0449494 0.0000000
0.4103501 0.0522942 0.0000000
0.4671253 0.0585847 0.0000000
0.5209679 0.0638668 0.0000000
0.5721164 0.0682025 0.0000000
0.6206829 0.0715800 0.0000000
0.6666208 0.0739363 0.0000000
0.7097745 0.0751861 0.0000000
0.7500201 0.0753171 0.0000000
0.7872788 0.0743525 0.0000000
0.8215450 0.0723993 0.0000000
0.8530102 0.0696270 0.0000000
0.8818542 0.0662406 0.0000000
0.9083192 0.0625127 0.0000000
0.9326563 0.0587127 0.0000000
0.9551978 0.0550494 0.0000000
0.9762127 0.0516505 0.0000000
0.9960680 0.0486056 0.0000000
1.0000000 0.0459898 0.0000000
1.0000000 0.0438411 0.0000000
1.0000000 0.0421514 0.0000000
1.0000000 0.0408121 0.0000000
1.0000000 0.0396731 0.0000000
1.0000000 0.0386150 0.0000000
0.0000000 0.0000000 0.0000000
0.0000000 0.0000000 0.0000000
0.0000000 0.0057398 0.0000000
0.0000000 0.0206377 0.0000000
0.0139941 0.0350816 0.0000000
0.0863563 0.0486508 0.0000000
0.1561938 0.0610821 0.0000000
0.2232808 0.0722309 0.0000000
0.2873498 0.0820459 0.0000000
0.3484496 0.0905903 0.0000000
0.4066257 0.0979882 0.0000000
0.4619308 0.1043909 0.0000000
0.5144266 0.1099370 0.0000000
0.5644192 0.1147154 0.0000000
0.6119916 0.1187004 0.0000000
0.6571015 0.1217559 0.0000000
0.6995831 0.1237291 0.0000000
0.7392016 0.1244762 0.0000000
0.7758136 0.1239615 0.0000000
0.8094080 0.1222187 0.0000000
0.8402165 0.1193997 0.0000000
0.8684189 0.1157771 0.0000000
0.8942513 0.1116597 0.0000000
0.9180199 0.1073647 0.0000000
0.9400626 0.1031481 0.0000000
0.9605522 0.0992103 0.0000000
0.9798641 0.0956707 0.0000000
0.9982899 0.0925812 0.0000000
1.0000000 0.0899758 0.0000000
1.0000000 0.0878370 0.0000000
1.0000000 0.0860420 0.0000000
1.0000000 0.0844504 0.0000000
1.0000000 0.0829336 0.0000000
0.0000000 0.0164351 0.0000000
0.0000000 0.0325618 0.0000000
0.0000000 0.0485651 0.0000000
0.0000000 0.0641528 0.0000000
0.0165603 0.0790054 0.0000000
0.0879333 0.0927887 0.0000000
0.1566015 0.1052964 0.0000000
0.2223323 0.1164367 0.0000000
0.2849217 0.1262000 0.0000000
0.3444743 0.1346891 0.0000000
0.4011496 0.1420903 0.0000000
0.4550995 0.1485979 0.0000000
0.5063902 0.1544016 0.0000000
0.5553527 0.1595970 0.0000000
0.6020213 0.1641579 0.0000000
0.6463312 0.1679027 0.0000000
0.6881505 0.1706087 0.0000000
0.7271617 0.1720520 0.0000000
0.7631527 0.1720760 0.0000000
0.7961412 0.1706717 0.0000000
0.8263314 0.1679623 0.0000000
0.8539280 0.1642474 0.0000000
0.8791600 0.1598974 0.0000000
0.9024121 0.1552645 0.0000000
0.9239897 0.1506514 0.0000000
0.9440899 0.1463045 0.0000000
0.9630257 0.1424093 0.0000000
0.9810732 0.1390311 0.0000000
0.9984503 0.1361378 0.0000000
1.0000000 0.1336501 0.0000000
1.0000000 0.1314574 0.0000000
1.0000000 0.1294354 0.0000000
1.0000000 0.1274744 0.0000000
0.0000000 0.0588878 0.0000000
0.0000000 0.0753318 0.0000000
0.0000000 0.0916111 0.0000000
0.0000000 0.1074220 0.0000000
0.0181618 0.1223903 0.0000000
0.0882484 0.1361489 0.0000000
0.1555149 0.1485383 0.0000000
0.2197453 0.1595112 0.0000000
0.2808295 0.1691162 0.0000000
0.3389183 0.1774988 0.0000000
0.3942564 0.1848643 0.0000000
0.4470034 0.1914898 0.0000000
0.4972470 0.1975644 0.0000000
0.5452432 0.2031661 0.0000000
0.5910633 0.2082384 0.0000000
0.6346047 0.2125897 0.0000000
0.6756878 0.2159306 0.0000000
0.7140353 0.2180047 0.0000000
0.7493555 0.2185896 0.0000000
0.7817176 0.2175903 0.0000000
0.8112781 0.2151192 0.0000000
0.8382832 0.2114615 0.0000000
0.8629513 0.2070448 0.0000000
0.8857210 0.2022417 0.0000000
0.9069302 0.1974041 0.0000000
0.9267542 0.1928311 0.0000000
0.9454820 0.1887496 0.0000000
0.9633423 0.1852286 0.0000000
0.9805815 0.1821813 0.0000000
0.9975531 0.1794599 0.0000000
1.0000000 0.1769541 0.0000000
1.0000000 0.1745742 0.0000000
1.0000000 0.1722659 0.0000000
0.0000000 0.1019987 0.0000000
0.0000000 0.1184141 0.0000000
0.0000000 0.1346245 0.0000000
0.0000000 0.1503109 0.0000000
0.0187016 0.1650978 0.0000000
0.0872283 0.1786624 0.0000000
0.1529200 0.1908280 0.0000000
0.2155600 0.2015786 0.0000000
0.2751996 0.2110097 0.0000000
0.3319989 0.2193080 0.0000000
0.3861604 0.2267046 0.0000000
0.4378893 0.2334893 0.0000000
0.4872050 0.2398332 0.0000000
0.5343007 0.2457812 0.0000000
0.5792983 0.2512852 0.0000000
0.6220542 0.2561251 0.0000000
0.6623750 0.2600019 0.0000000
0.6999453 0.2625733 0.0000000
0.7344989 0.2636074 0.0000000
0.7661419 0.2630054 0.0000000
0.7950417 0.2608403 0.0000000
0.8214098 0.2573833 0.0000000
0.8455571 0.2530300 0.0000000
0.8679378 0.2482240 0.0000000
0.8888403 0.2433416 0.0000000
0.9084999 0.2387375 0.0000000
0.9271992 0.2346509 0.0000000
0.9450980 0.2310919 0.0000000
0.9624755 0.2279573 0.0000000
0.9796529 0.2251047 0.0000000
0.9965718 0.2224139 0.0000000
1.0000000 0.2198426 0.0000000
1.0000000 0.2173410 0.0000000
0.0000000 0.1454830 0.0000000
0.0000000 0.1615965 0.0000000
0.0000000 0.1774509 0.0000000
0.0000000 0.1927368 0.0000000
0.0180953 0.2071437 0.0000000
0.0848494 0.2203923 0.0000000
0.1488659 0.2322962 0.0000000
0.2099310 0.2428434 0.0000000
0.2681998 0.2521673 0.0000000
0.3238482 0.2604464 0.0000000
0.3769809 0.2679661 0.0000000
0.4277913 0.2749716 0.0000000
0.4762956 0.2816158 0.0000000
0.5225733 0.2878964 0.0000000
0.5667409 0.2937550 0.0000000
0.6087050 0.2989597 0.0000000
0.6482095 0.3031996 0.0000000
0.6848755 0.3061283 0.0000000
0.7185728 0.3075043 0.0000000
0.7494062 0.3072060 0.0000000
0.7775857 0.3052844 0.0000000
0.8033153 0.3020307 0.0000000
0.8269923 0.2978532 0.0000000
0.8490276 0.2931894 0.0000000
0.8697358 0.2884245 0.0000000
0.8893698 0.2839545 0.0000000
0.9082274 0.2799937 0.0000000
0.9264351 0.2765171 0.0000000
0.9442246 0.2734086 0.0000000
0.9618870 0.2705249 0.0000000
0.9792398 0.2677713 0.0000000
0.9962946 0.2651364 0.0000000
1.0000000 0.2625691 0.0000000
0.0000000 0.1892915 0.0000000
0.0000000 0.2047518 0.0000000
0.0000000 0.2199736 0.0000000
0.0000000 0.2346861 0.0000000
0.0163368 0.2485840 0.0000000
0.0811358 0.2614145 0.0000000
0.1434099 0.2730303 0.0000000
0.2029808 0.2834211 0.0000000
0.2599722 0.2927064 0.0000000
0.3145346 0.3011014 0.0000000
0.3667195 0.3088549 0.0000000
0.4166655 0.3161523 0.0000000
0.4643956 0.3230891 0.0000000
0.5099380 0.3296646 0.0000000
0.5533153 0.3357836 0.0000000
0.5944216 0.3412165 0.0000000
0.6330012 0.3456372 0.0000000
0.6687071 0.3487523 0.0000000
0.7014636 0.3503040 0.0000000
0.7314637 0.3501832 0.0000000
0.7588810 0.3484560 0.0000000
0.7840308 0.3454112 0.0000000
0.8072916 0.3414818 0.0000000
0.8290632 0.3370869 0.0000000
0.8496886 0.3326234 0.0000000
0.8694688 0.3284228 0.0000000
0.8886983 0.3246677 0.0000000
0.9074590 0.3213457 0.0000000
0.9259211 0.3183448 0.0000000
0.9442407 0.3155584 0.0000000
0.9622667 0.3129087 0.0000000
0.9800305 0.3103539 0.0000000
0.9975701 0.3078399 0.0000000
0.0000000 0.2333605 0.0000000
0.0000000 0.2478121 0.0000000
0.0000000 0.2621090 0.0000000
0.0000000 0.2759983 0.0000000
0.0135476 0.2892246 0.0000000
0.0761587 0.3015665 0.0000000
0.1366377 0.3128969 0.0000000
0.1947554 0.3232198 0.0000000
0.2505325 0.3326120 0.0000000
0.3040397 0.3412443 0.0000000
0.3552959 0.3493033 0.0000000
0.4043734 0.3569190 0.0000000
0.4513268 0.3641286 0.0000000
0.4961612 0.3709318 0.0000000
0.5387675 0.3771985 0.0000000
0.5789537 0.3826739 0.0000000
0.6165375 0.3871036 0.0000000
0.6512272 0.3902328 0.0000000
0.6830591 0.3918386 0.0000000
0.7122324 0.3918366 0.0000000
0.7389238 0.3903168 0.0000000
0.7635857 0.3875618 0.0000000
0.7865519 0.3839774 0.0000000
0.8082055 0.3799926 0.0000000
0.8289122 0.3759647 0.0000000
0.8490094 0.3721202 0.0000000
0.8687828 0.3686176 0.0000000
0.8882521 0.3654919 0.0000000
0.9075701 0.3627039 0.0000000
0.9267300 0.3601421 0.0000000
0.9456542 0.3577110 0.0000000
0.9644134 0.3553554 0.0000000
0.9830267 0.3530162 0.0000000
0.0000000 0.2770970 0.0000000
0.0000000 0.2904124 0.0000000
0.0000000 0.3036150 0.0000000
0.0000000 0.3165353 0.0000000
0.0099243 0.3289664 0.0000000
0.0701568 0.3407507 0.0000000
0.1286953 0.3517899 0.0000000
0.1853063 0.3620700 0.0000000
0.2398518 0.3716416 0.0000000
0.2922702 0.3805998 0.0000000
0.3425624 0.3890443 0.0000000
0.3907502 0.3970174 0.0000000
0.4368883 0.4045043 0.0000000
0.4809534 0.4114697 0.0000000
0.5227358 0.4177872 0.0000000
0.5619876 0.4232279 0.0000000
0.5985386 0.4275651 0.0000000
0.6322700 0.4305896 0.0000000
0.6632470 0.4321603 0.0000000
0.6916308 0.4322322 0.0000000
0.7177451 0.4309282 0.0000000
0.7420566 0.4285426 0.0000000
0.7649164 0.4254161 0.0000000
0.7866520 0.4219113 0.0000000
0.8076447 0.4183513 0.0000000
0.8282088 0.4149310 0.0000000
0.8485918 0.4117821 0.0000000
0.8689057 0.4089745 0.0000000
0.8891841 0.4065108 0.0000000
0.9093844 0.4042678 0.0000000
0.9294313 0.4021508 0.0000000
0.9494294 0.4000771 0.0000000
0.9693070 0.3979878 0.0000000
0.0000000 0.3202095 0.0000000
0.0000000 0.3323394 0.0000000
0.0000000 0.3443949 0.0000000
0.0000000 0.3562676 0.0000000
0.0057943 0.3678514 0.0000000
0.0633978 0.3790386 0.0000000
0.1197981 0.3897399 0.0000000
0.1746838 0.3999457 0.0000000
0.2278751 0.4096867 0.0000000
0.2791123 0.4189817 0.0000000
0.3283574 0.4278061 0.0000000
0.3755804 0.4361100 0.0000000
0.4208324 0.4438409 0.0000000
0.4640278 0.4509191 0.0000000
0.5049043 0.4572222 0.0000000
0.5431995 0.4625592 0.0000000
0.5787871 0.4667432 0.0000000
0.6116517 0.4696396 0.0000000
0.6418831 0.4711624 0.0000000
0.6696626 0.4713346 0.0000000
0.6953879 0.4703195 0.0000000
0.7195798 0.4683488 0.0000000
0.7425458 0.4657288 0.0000000
0.7645762 0.4627649 0.0000000
0.7860222 0.4597171 0.0000000
0.8071662 0.4567831 0.0000000
0.8282605 0.4540861 0.0000000
0.8494843 0.4516940 0.0000000
0.8708549 0.4496173 0.0000000
0.8922258 0.4477809 0.0000000
0.9135827 0.4460623 0.0000000
0.9349756 0.4443872 0.0000000
0.9562770 0.4427170 0.0000000
0.0000000 0.3626869 0.0000000
0.0000000 0.3736102 0.0000000
0.0000000 0.3844915 0.0000000
0.0000000 0.3952743 0.0000000
0.0014492 0.4059496 0.0000000
0.0561836 0.4164594 0.0000000
0.1101459 0.4267756 0.0000000
0.1630465 0.4368781 0.0000000
0.2146058 0.4467405 0.0000000
0.2644946 0.4562706 0.0000000
0.3125228 0.4653590 0.0000000
0.3586370 0.4738937 0.0000000
0.4028882 0.4817691 0.0000000
0.4450904 0.4888945 0.0000000
0.4850119 0.4951366 0.0000000
0.5223772 0.5003448 0.0000000
0.5571192 0.5043853 0.0000000
0.5892899 0.5071673 0.0000000
0.6189158 0.5086866 0.0000000
0.6463458 0.5090454 0.0000000
0.6719563 0.5084034 0.0000000
0.6962540 0.5069317 0.0000000
0.7195362 0.5048702 0.0000000
0.7420704 0.5024861 0.0000000
0.7641160 0.5000197 0.0000000
0.7859792 0.4976419 0.0000000
0.8079120 0.4954509 0.0000000
0.8301051 0.4935405 0.0000000
0.8526207 0.4919511 0.0000000
0.8752590 0.4905939 0.0000000
0.8980404 0.4893502 0.0000000
0.9209001 0.4881772 0.0000000
0.9437380 0.4870309 0.0000000
0.0000000 0.4042766 0.0000000
0.0000000 0.4140959 0.0000000
0.0000000 0.4238637 0.0000000
0.0000000 0.4336105 0.0000000
0.0000000 0.4433719 0.0000000
0.0487729 0.4531700 0.0000000
0.1000126 0.4630027 0.0000000
0.1505734 0.4728624 0.0000000
0.2001579 0.4826533 0.0000000
0.2483813 0.4922175 0.0000000
0.2949799 0.5013940 0.0000000
0.3398041 0.5100372 0.0000000
0.3828597 0.5179955 0.0000000
0.4239780 0.5251129 0.0000000
0.4629375 0.5312849 0.0000000
0.4994844 0.5364080 0.0000000
0.5335419 0.5403858 0.0000000
0.5651809 0.5431593 0.0000000
0.5944564 0.5447907 0.0000000
0.6217945 0.5454184 0.0000000
0.6475477 0.5451752 0.0000000
0.6721563 0.5442326 0.0000000
0.6959583 0.5427776 0.0000000
0.7191525 0.5410333 0.0000000
0.7419720 0.5392093 0.0000000
0.7647030 0.5374502 0.0000000
0.7875943 0.5358740 0.0000000
0.8108479 0.5345458 0.0000000
0.8344960 0.5334941 0.0000000
0.8584861 0.5326610 0.0000000
0.8827101 0.5319487 0.0000000
0.9070828 0.5313059 0.0000000
0.9314934 0.5307147 0.0000000
0.0000000 0.4449603 0.0000000
0.0000000 0.4537111 0.0000000
0.0000000 0.4624629 0.0000000
0.0000000 0.4712548 0.0000000
0.0000000 0.4801639 0.0000000
0.0414155 0.4892270 0.0000000
0.0896605 0.4984731 0.0000000
0.1375182 0.5078912 0.0000000
0.1847554 0.5173728 0.0000000
0.2309643 0.5267306 0.0000000
0.2758157 0.5357728 0.0000000
0.3191081 0.5443436 0.0000000
0.3607847 0.5522651 0.0000000
0.4007443 0.5593641 0.0000000
0.4388023 0.5654949 0.0000000
0.4746566 0.5705921 0.0000000
0.5081937 0.5746225 0.0000000
0.5394728 0.5775699 0.0000000
0.5686463 0.5794856 0.0000000
0.5961321 0.5804983 0.0000000
0.6222680 0.5807388 0.0000000
0.6473774 0.5803727 0.0000000
0.6718481 0.5795855 0.0000000
0.6958641 0.5785364 0.0000000
0.7196062 0.5773837 0.0000000
0.7433374 0.5763033 0.0000000
0.7673047 0.5753837 0.0000000
0.7916823 0.5746727 0.0000000
0.8165286 0.5741590 0.0000000
0.8418668 0.5738277 0.0000000
0.8675603 0.5736559 0.0000000
0.8934491 0.5735947 0.0000000
0.9194034 0.5735719 0.0000000
0.0000000 0.4846217 0.0000000
0.0000000 0.4924435 0.0000000
0.0000000 0.5003065 0.0000000
0.0000000 0.5082607 0.0000000
0.0000000 0.5163703 0.0000000
0.0342801 0.5246776 0.0000000
0.0793063 0.5332217 0.0000000
0.1242065 0.5420165 0.0000000
0.1687448 0.5509693 0.0000000
0.2125707 0.5598942 0.0000000
0.2553418 0.5686155 0.0000000
0.2968272 0.5769720 0.0000000
0.3369728 0.5847798 0.0000000
0.3757053 0.5918393 0.0000000
0.4128825 0.5979797 0.0000000
0.4481278 0.6031637 0.0000000
0.4812992 0.6073689 0.0000000
0.5124021 0.6105977 0.0000000
0.5417014 0.6129018 0.0000000
0.5695330 0.6143765 0.0000000
0.5962240 0.6151609 0.0000000
0.6220333 0.6154205 0.0000000
0.6473091 0.6153161 0.0000000
0.6722535 0.6149781 0.0000000
0.6969937 0.6145419 0.0000000
0.7218271 0.6141419 0.0000000
0.7469637 0.6138828 0.0000000
0.7725471 0.6137773 0.0000000
0.7986956 0.6138082 0.0000000
0.8253984 0.6140007 0.0000000
0.8525450 0.6143529 0.0000000
0.8799681 0.6148162 0.0000000
0.9074898 0.6153231 0.0000000
0.0000000 0.5233604 0.0000000
0.0000000 0.5303718 0.0000000
0.0000000 0.5374459 0.0000000
0.0000000 0.5446510 0.0000000
0.0000000 0.5519957 0.0000000
0.0274964 0.5595286 0.0000000
0.0691594 0.5673200 0.0000000
0.1108983 0.5753680 0.0000000
0.1525009 0.5836066 0.0000000
0.1936340 0.5919334 0.0000000
0.2340451 0.6002035 0.0000000
0.2735104 0.6082142 0.0000000
0.3119527 0.6157856 0.0000000
0.3493767 0.6227295 0.0000000
0.3855902 0.6289148 0.0000000
0.4202674 0.6342700 0.0000000
0.4531610 0.6387628 0.0000000
0.4842955 0.6423657 0.0000000
0.5138747 0.6451102 0.0000000
0.5422204 0.6470971 0.0000000
0.5695638 0.6484673 0.0000000
0.5962173 0.6493915 0.0000000
0.6224037 0.6499937 0.0000000
0.6483066 0.6503775 0.0000000
0.6741480 0.6506551 0.0000000
0.7001385 0.6509432 0.0000000
0.7264863 0.6513085 0.0000000
0.7533847 0.6517728 0.0000000
0.7809358 0.6523399 0.0000000
0.8090378 0.6530198 0.0000000
0.8376727 0.6538652 0.0000000
0.8666880 0.6548614 0.0000000
0.8958220 0.6559127 0.0000000
0.0000000 0.5612295 0.0000000
0.0000000 0.5675855 0.0000000
0.0000000 0.5739732 0.0000000
0.0000000 0.5804475 0.0000000
0.0000000 0.5870499 0.0000000
0.0211782 0.5938274 0.0000000
0.0593927 0.6008292 0.0000000
0.0978351 0.6080672 0.0000000
0.1363152 0.6155137 0.0000000
0.1745570 0.6231266 0.0000000
0.2124200 0.6307928 0.0000000
0.2496841 0.6383558 0.0000000
0.2863192 0.6456062 0.0000000
0.3222946 0.6523958 0.0000000
0.3574703 0.6586321 0.0000000
0.3915263 0.6642056 0.0000000
0.4241964 0.6690096 0.0000000
0.4554256 0.6729988 0.0000000
0.4854223 0.6762103 0.0000000
0.5143415 0.6787348 0.0000000
0.5424335 0.6807335 0.0000000
0.5699679 0.6823365 0.0000000
0.5971223 0.6836361 0.0000000
0.6240476 0.6847157 0.0000000
0.6510362 0.6856646 0.0000000
0.6782610 0.6865723 0.0000000
0.7058880 0.6875299 0.0000000
0.7341576 0.6885770 0.0000000
0.7631598 0.6897002 0.0000000
0.7927588 0.6909036 0.0000000
0.8229662 0.6922363 0.0000000
0.8536285 0.6937135 0.0000000
0.8844345 0.6952739 0.0000000
0.0000000 0.5985348 0.0000000
0.0000000 0.6042558 0.0000000
0.0000000 0.6099754 0.0000000
0.0000000 0.6157292 0.0000000
0.0000000 0.6215764 0.0000000
0.0153861 0.6275889 0.0000000
0.0501494 0.6338110 0.0000000
0.0852073 0.6402622 0.0000000
0.1204561 0.6469317 0.0000000
0.1557075 0.6537982 0.0000000
0.1908737 0.6607879 0.0000000
0.2258302 0.6677733 0.0000000
0.2605121 0.6746159 0.0000000
0.2949379 0.6811964 0.0000000
0.3289777 0.6873916 0.0000000
0.3623456 0.6930701 0.0000000
0.3947551 0.6981292 0.0000000
0.4260713 0.7025203 0.0000000
0.4564522 0.7062346 0.0000000
0.4859802 0.7093412 0.0000000
0.5148574 0.7119804 0.0000000
0.5433166 0.7142434 0.0000000
0.5714928 0.7162071 0.0000000
0.5995126 0.7179468 0.0000000
0.6276976 0.7195525 0.0000000
0.6562227 0.7210946 0.0000000
0.6851777 0.7226485 0.0000000
0.7148507 0.7242269 0.0000000
0.7453690 0.7258672 0.0000000
0.7765869 0.7276064 0.0000000
0.8084358 0.7294699 0.0000000
0.8407631 0.7314388 0.0000000
0.8732301 0.7334710 0.0000000
0.0000000 0.6352591 0.0000000
0.0000000 0.6403339 0.0000000
0.0000000 0.6453825 0.0000000
0.0000000 0.6504412 0.0000000
0.0000000 0.6555911 0.0000000
