catalog/styles/film/film-negative/look.cube
# film-negative iteration 20
LUT_3D_SIZE 9
DOMAIN_MIN 0 0 0
DOMAIN_MAX 1 1 1
0.0955194 0.0935425 0.0924483
0.1217019 0.1038043 0.0938327
0.1626812 0.1117879 0.0846579
0.2957431 0.1366375 0.0949646
0.4814047 0.1598778 0.0875980
0.6420916 0.1529593 0.0459586
0.7949008 0.1272550 0.0000000
0.9231175 0.0744312 0.0000000
1.0000000 0.0036581 0.0000000
0.0669505 0.0901082 0.0796870
0.1092440 0.1093835 0.1074034
0.1962254 0.1506146 0.1137091
0.2777539 0.1647895 0.1175620
0.3869237 0.1749336 0.1039055
0.5407453 0.1950598 0.0801925
0.7285585 0.2208057 0.0516275
0.8981836 0.2275536 0.0101417
1.0000000 0.2264888 0.0000000
0.0829951 0.1692529 0.0955666
0.1685356 0.2098152 0.1394537
0.2255863 0.2093152 0.1336834
0.3996694 0.2953509 0.1721179
0.4184201 0.2417542 0.1332877
0.5519966 0.2438953 0.1050464
0.7466583 0.2974514 0.0916057
0.9228710 0.3570487 0.0795460
1.0000000 0.4136713 0.0696410
0.0971297 0.2539185 0.1162886
0.1914849 0.2964604 0.1493011
0.2777865 0.3264831 0.1817153
0.3167914 0.3016874 0.1676125
0.5293556 0.4002129 0.2096135
0.6416128 0.3604894 0.1600826
0.8127419 0.3653081 0.1054822
0.9686062 0.4505157 0.1195188
1.0000000 0.5262078 0.1265517
0.0795586 0.3107197 0.1129478
0.1445793 0.3277708 0.1184807
0.2206851 0.3506750 0.1392173
0.3146766 0.3821572 0.1762632
0.4248158 0.3946789 0.1805559
0.5926462 0.4108642 0.1597936
0.7702228 0.4272968 0.1119252
0.9431073 0.4912899 0.1057967
1.0000000 0.5588008 0.1064409
0.0274984 0.3437626 0.0898814
0.0814288 0.3520714 0.0798174
0.1449183 0.3645236 0.0785153
0.2278504 0.3793436 0.0921777
0.3302936 0.3867566 0.0985912
0.4790562 0.4044870 0.0835050
0.6608466 0.4398931 0.0605829
0.8447662 0.4853599 0.0374633
1.0000000 0.5368304 0.0218486
0.0000000 0.3726915 0.0636463
0.0167574 0.3773038 0.0433291
0.0783135 0.3817622 0.0254635
0.1545926 0.3858535 0.0140082
0.2579444 0.3948488 0.0090467
0.3952713 0.4143640 0.0000000
0.5597972 0.4413628 0.0000000
0.7361438 0.4704065 0.0000000
0.9174354 0.5032014 0.0000000
0.0000000 0.4056517 0.0407000
0.0000000 0.4050499 0.0116213
0.0206932 0.4039202 0.0000000
0.0985821 0.4046013 0.0000000
0.1986333 0.4122215 0.0000000
0.3253233 0.4280477 0.0000000
0.4750101 0.4477857 0.0000000
0.6381751 0.4676383 0.0000000
0.8047421 0.4874440 0.0000000
0.0000000 0.4412186 0.0199206
0.0000000 0.4344193 0.0000000
0.0000000 0.4285338 0.0000000
0.0472868 0.4261167 0.0000000
0.1423092 0.4298177 0.0000000
0.2576961 0.4402443 0.0000000
0.3936123 0.4547617 0.0000000
0.5427735 0.4688125 0.0000000
0.6967050 0.4807424 0.0000000
0.1053460 0.1058382 0.1171420
0.1175248 0.1007158 0.1225635
0.1467047 0.0970824 0.1121169
0.2348037 0.1118575 0.1104997
0.3762862 0.1403522 0.1129735
0.5512274 0.1567302 0.1011883
0.7386372 0.1636934 0.0831389
0.8791377 0.1681391 0.0597475
0.9556145 0.1768343 0.0197341
0.1097405 0.1315006 0.1211640
0.1533090 0.1523062 0.1537819
0.1664970 0.1476205 0.1571135
0.2084187 0.1470755 0.1451232
0.3208299 0.1639204 0.1315041
0.4640663 0.1746881 0.1081357
0.6353188 0.1892889 0.0833281
0.8124767 0.2162267 0.0657662
0.9821182 0.2482146 0.0500310
0.1246500 0.1837002 0.1492089
0.1869331 0.2179767 0.1827223
0.2024809 0.2059300 0.1792643
0.2419232 0.2076862 0.1841582
0.2827631 0.1929496 0.1550722
0.4113691 0.2122162 0.1379687
0.5872840 0.2359900 0.1040593
0.7876227 0.2764577 0.0848695
0.9909679 0.3183106 0.0715222
0.1256598 0.2399974 0.1580218
0.1874456 0.2737983 0.1857458
0.2306826 0.2804195 0.1977603
0.2636750 0.2636066 0.2014192
0.3397341 0.2762307 0.2089717
0.4228388 0.2787459 0.1861558
0.5961241 0.2994181 0.1422333
0.8241094 0.3802793 0.1420649
0.9866452 0.4200547 0.1246206
0.1077484 0.3001625 0.1627019
0.1599208 0.3196039 0.1711991
0.2014467 0.3265426 0.1680541
0.2478846 0.3176002 0.1648255
0.3341609 0.3223715 0.1928764
0.4668980 0.3577955 0.2117892
0.6251001 0.3871585 0.1938477
0.8234069 0.4475235 0.1768311
0.9587923 0.4889740 0.1625054
0.0726921 0.3546815 0.1629661
0.1227545 0.3659670 0.1564699
0.1732650 0.3761863 0.1469987
0.2337131 0.3844443 0.1362838
0.3220207 0.3868041 0.1417495
0.4393925 0.3991519 0.1668212
0.6068965 0.4416229 0.1815832
0.7721767 0.4762452 0.1705946
0.9193539 0.5101600 0.1472881
0.0276990 0.4067873 0.1588324
0.0826622 0.4133802 0.1423206
0.1410397 0.4206122 0.1260046
0.2076659 0.4261399 0.1092840
0.2908572 0.4284297 0.0984449
0.4048874 0.4401236 0.1080897
0.5547149 0.4730919 0.1261994
0.7237309 0.5139847 0.1250692
0.8890023 0.5456996 0.0931093
0.0000000 0.4593924 0.1520787
0.0418792 0.4603241 0.1279697
0.1058523 0.4612615 0.1042955
0.1759285 0.4617126 0.0814655
0.2591921 0.4640899 0.0630560
0.3667030 0.4762429 0.0558258
0.5048079 0.5048014 0.0582491
0.6696644 0.5453663 0.0493042
0.8473084 0.5871212 0.0201224
0.0000000 0.5125062 0.1442444
0.0009891 0.5066983 0.1133598
0.0702499 0.5012983 0.0831465
0.1443270 0.4986092 0.0549339
0.2292856 0.5021360 0.0303186
0.3323041 0.5147575 0.0090956
0.4612635 0.5395409 0.0000000
0.6182143 0.5784394 0.0000000
0.7907531 0.6261273 0.0000000
0.0869968 0.1020584 0.1639563
0.1209366 0.1064909 0.1560032
0.1480988 0.0941597 0.1296020
0.2157320 0.1005793 0.1278135
0.3339855 0.1220027 0.1361345
0.4926630 0.1402011 0.1389230
0.6699910 0.1677530 0.1460162
0.8187399 0.2235215 0.1663359
0.9245456 0.3288069 0.2122139
0.1079705 0.1375691 0.1436463
0.1589508 0.1570903 0.1846449
0.1978962 0.1718003 0.1989424
0.2230748 0.1560633 0.1695911
0.3142817 0.1580259 0.1542699
0.4687727 0.1787974 0.1536153
0.6200024 0.1953088 0.1453088
0.7697764 0.2246529 0.1409548
0.9313376 0.2679953 0.1453616
0.1458029 0.2043291 0.1892222
0.1827235 0.2059407 0.2004601
0.2017754 0.2025062 0.2022408
0.2393916 0.2037820 0.1969795
0.3026471 0.2037403 0.1814032
0.4234168 0.2184412 0.1722072
0.5632077 0.2335474 0.1548723
0.7312396 0.2517122 0.1338294
0.9313594 0.2566880 0.1013987
0.1392793 0.2308558 0.1908153
0.1938811 0.2662902 0.2234714
0.2258678 0.2722486 0.2292805
0.2635644 0.2648197 0.2269725
0.3305174 0.2786397 0.2382850
0.3813320 0.2613603 0.1918610
0.5280443 0.2856017 0.1785830
0.7114710 0.3134369 0.1603231
0.9053255 0.3334833 0.1312070
0.1321700 0.2951443 0.2114644
0.1821288 0.3197652 0.2289400
0.2238529 0.3320473 0.2335538
0.2688597 0.3320949 0.2329212
0.3471377 0.3412615 0.2527707
0.4514322 0.3750933 0.2859297
0.5495151 0.3851057 0.2734233
0.7007869 0.3872291 0.2263371
0.8439969 0.4244867 0.2047160
0.1177470 0.3717657 0.2382421
0.1672006 0.3856524 0.2375829
0.2149146 0.3968869 0.2321530
0.2678298 0.4038696 0.2223356
0.3453292 0.4094003 0.2293016
0.4487690 0.4275001 0.2719817
0.5749928 0.4627226 0.3113331
0.7238753 0.5008102 0.3316162
0.8514350 0.5298583 0.3050661
0.0953767 0.4452776 0.2556595
0.1484032 0.4517656 0.2425833
0.2032587 0.4590713 0.2291374
0.2635315 0.4654035 0.2148868
0.3329814 0.4655538 0.2051803
0.4245221 0.4714212 0.2227998
0.5521462 0.5051577 0.2677160
0.7091188 0.5629876 0.3132857
0.8742496 0.5960348 0.2568947
0.0695885 0.5142296 0.2632316
0.1277922 0.5147983 0.2430432
0.1881080 0.5163336 0.2242842
0.2524613 0.5180740 0.2077465
0.3237958 0.5191835 0.1958305
0.4124869 0.5272581 0.1981938
0.5346180 0.5596838 0.2264038
0.6929307 0.6174339 0.2573333
0.8827848 0.6811563 0.2306034
0.0427600 0.5809352 0.2661727
0.1063621 0.5757151 0.2413578
0.1710474 0.5712636 0.2185788
0.2391680 0.5696139 0.2002516
0.3155953 0.5744842 0.1883516
0.4087632 0.5906663 0.1849683
0.5301953 0.6240720 0.1918547
0.6900135 0.6836214 0.2145033
0.8774934 0.7675582 0.2580909
0.1081495 0.1242329 0.2936526
0.1247007 0.1154654 0.2112199
0.1441532 0.0981692 0.1625811
0.2052759 0.0989696 0.1571522
0.3112682 0.1095782 0.1682143
0.4535358 0.1236384 0.1816629
0.6124788 0.1582713 0.2049446
0.7658811 0.2247499 0.2454507
0.9078051 0.3142602 0.3006540
0.1074815 0.1447411 0.1947312
0.1685357 0.1750637 0.2401689
0.2009560 0.1783912 0.2387912
0.2249171 0.1499827 0.1953635
0.3125668 0.1419569 0.1786743
0.4656328 0.1669702 0.1943538
0.6242009 0.2054827 0.2162101
0.7620058 0.2475323 0.2337130
0.9058124 0.2978741 0.2543870
0.1565340 0.2224535 0.2258350
0.1886445 0.2147624 0.2404360
0.2185674 0.2218113 0.2537795
0.2477582 0.2060300 0.2307230
0.3220370 0.1945567 0.2073475
0.4632754 0.2198422 0.2145528
0.6146246 0.2581203 0.2304324
0.7501554 0.2836653 0.2302196
0.9068685 0.3095465 0.2270232
0.1595450 0.2617261 0.2478861
0.2198698 0.2888517 0.2822758
0.2437569 0.2888653 0.2830027
0.2777277 0.2798559 0.2749876
0.3571908 0.2984208 0.2858710
0.4533045 0.3016994 0.2636075
0.5890344 0.3209846 0.2462266
0.7393239 0.3473740 0.2493170
0.8964028 0.3582397 0.2329561
0.1617385 0.3182015 0.2786521
0.2163622 0.3441107 0.3013569
0.2604859 0.3570177 0.3117814
0.2905443 0.3497677 0.3009486
0.3570151 0.3615105 0.3081806
0.4732660 0.4065913 0.3477889
0.5962420 0.4071491 0.2942670
0.7502210 0.4498902 0.3192221
0.8731343 0.4621604 0.3106572
0.1683766 0.4093756 0.3263008
0.2149324 0.4184432 0.3263392
0.2623014 0.4265440 0.3266806
0.3125226 0.4334384 0.3257735
0.3835646 0.4447178 0.3309761
0.4974812 0.4813954 0.3712683
0.5964982 0.5003957 0.3962143
0.7191863 0.5310726 0.4113697
0.8563511 0.5813741 0.4220674
0.1660262 0.4945181 0.3567508
0.2134629 0.4955916 0.3448200
0.2634960 0.4985199 0.3349381
0.3210892 0.5051890 0.3299385
0.3956839 0.5192289 0.3384130
0.4826560 0.5349184 0.3621217
0.5775721 0.5550486 0.4003014
0.6942557 0.5946477 0.4425443
0.8394663 0.6699070 0.5008269
0.1585905 0.5711341 0.3734515
0.2101787 0.5682647 0.3557192
0.2648397 0.5678036 0.3411293
0.3262364 0.5720834 0.3335592
0.3971883 0.5818468 0.3370276
0.4795485 0.5966195 0.3539180
0.5827614 0.6259573 0.3905014
0.7135503 0.6788654 0.4441329
0.8699667 0.7540307 0.5112140
0.1483396 0.6430433 0.3835593
0.2054245 0.6376656 0.3630521
0.2643032 0.6339336 0.3459485
0.3271773 0.6342732 0.3359905
0.3971716 0.6415660 0.3356241
0.4832239 0.6621627 0.3494909
0.5980966 0.7041504 0.3849118
0.7501766 0.7743603 0.4551923
0.9368383 0.8808102 0.5836059
0.1571078 0.1574862 0.4050032
0.1457561 0.1344490 0.2888912
0.1577526 0.1191931 0.2306701
0.2040236 0.1076023 0.2081579
0.2989634 0.1081736 0.2163741
0.4291327 0.1199480 0.2384524
0.5759020 0.1516219 0.2699163
0.7273503 0.2040622 0.3114121
0.8804757 0.2657699 0.3585525
0.1293337 0.1696581 0.2887163
0.1713899 0.1886495 0.3078597
0.1978253 0.1829220 0.2947064
0.2238099 0.1477370 0.2490099
0.3071153 0.1337138 0.2322324
0.4479936 0.1580987 0.2531113
0.6065384 0.2072504 0.2898848
0.7547915 0.2615542 0.3247555
0.8970639 0.3162736 0.3574338
0.1471140 0.2179777 0.2687826
0.1957830 0.2397112 0.3155713
0.2181346 0.2312515 0.3182469
0.2399591 0.1948355 0.2831427
0.3202451 0.1795068 0.2638208
0.4670943 0.2121171 0.2801624
0.6314046 0.2711739 0.3141165
0.7758669 0.3241220 0.3403212
0.9124270 0.3743463 0.3628869
0.1905832 0.3045792 0.3325421
0.2375638 0.3165934 0.3512101
0.2410545 0.2887060 0.3279728
0.3011302 0.3077163 0.3608484
0.3692388 0.2911219 0.3448842
0.4897531 0.3060398 0.3383892
0.6488849 0.3552930 0.3508024
0.7919150 0.4006797 0.3630465
0.9255966 0.4444074 0.3803105
0.2195512 0.4034679 0.4001802
0.2526091 0.3891076 0.3869855
0.2711774 0.3745600 0.3727987
0.3392383 0.4080048 0.4076183
0.4123597 0.4180020 0.4156513
0.5120368 0.4270198 0.4176160
0.6586986 0.4581964 0.4098530
0.8193282 0.5082948 0.4079631
0.9245080 0.5222978 0.4125898
0.2354370 0.4804627 0.4361797
0.2617636 0.4650435 0.4189245
0.2934629 0.4552874 0.4091925
0.3492093 0.4681502 0.4198102
0.4282818 0.4939085 0.4354780
0.5820233 0.5632211 0.4982329
0.6237512 0.5404523 0.4779947
0.8119538 0.6150558 0.4812896
0.8937737 0.6239278 0.4881844
0.2458473 0.5585695 0.4641198
0.2760882 0.5459519 0.4472746
0.3172644 0.5407200 0.4380674
0.3755488 0.5488844 0.4418067
0.4582138 0.5766674 0.4631287
0.5872586 0.6423358 0.5282529
0.6692479 0.6556486 0.5510113
0.7177763 0.6337608 0.5272518
0.8513246 0.6997315 0.5558492
0.2477754 0.6306892 0.4834637
0.2868909 0.6208497 0.4653825
0.3328230 0.6155653 0.4524420
0.3923419 0.6209801 0.4517804
0.4702670 0.6433975 0.4716027
0.5665866 0.6814024 0.5135657
0.6653997 0.7172460 0.5611604
0.7524381 0.7401325 0.5986684
0.8571721 0.7757360 0.6419663
0.2457962 0.6981759 0.4972922
0.2960637 0.6925614 0.4790562
0.3477240 0.6878055 0.4639487
0.4033707 0.6869091 0.4572647
0.4673892 0.6946828 0.4646888
0.5467102 0.7178636 0.4920174
0.6549842 0.7671468 0.5516053
0.7936121 0.8389936 0.6516836
0.9413485 0.9142314 0.7876454
0.2018012 0.1945640 0.4892898
0.1765862 0.1609410 0.3914144
0.1755480 0.1335198 0.3170830
0.2148552 0.1182974 0.2806685
0.2986498 0.1149535 0.2828480
0.4161677 0.1251776 0.3063151
0.5523638 0.1509949 0.3390385
0.6974517 0.1873668 0.3775303
0.8471144 0.2278194 0.4189541
0.1626664 0.2082558 0.4216913
0.1813491 0.2065176 0.3977028
0.2017903 0.1909295 0.3662482
0.2336994 0.1582765 0.3266036
0.3110942 0.1433519 0.3120759
0.4393464 0.1668827 0.3334870
0.5914097 0.2160567 0.3727640
0.7438887 0.2712838 0.4141366
0.8922090 0.3258468 0.4541201
0.1445319 0.2284101 0.3560916
0.1988046 0.2602608 0.4019852
0.2306234 0.2562408 0.4088636
0.2523278 0.2110612 0.3714232
0.3267476 0.1908006 0.3533664
0.4674599 0.2257676 0.3748601
0.6343247 0.2912890 0.4142258
0.7874707 0.3565103 0.4502168
0.9304481 0.4189186 0.4844321
0.1901079 0.3164119 0.3914254
0.2419927 0.3395851 0.4265903
0.2574154 0.3223962 0.4244613
0.3141361 0.3305792 0.4531694
0.3840160 0.3104615 0.4438149
0.5077516 0.3228941 0.4399500
0.6716214 0.3825853 0.4635871
0.8199951 0.4451355 0.4851131
0.9560709 0.5058904 0.5077611
0.2692106 0.4731226 0.5031642
0.2734029 0.4193424 0.4548794
0.2653804 0.3804133 0.4249994
0.3595216 0.4488537 0.5108522
0.4976943 0.5038447 0.5782973
0.5682923 0.4659226 0.5280025
0.6864653 0.4833883 0.5143318
0.8271909 0.5374468 0.5213668
0.9640558 0.5908865 0.5302290
0.3250110 0.5743339 0.5565259
0.3042154 0.5125426 0.5034746
0.3164888 0.4924027 0.4898895
0.3875972 0.5232364 0.5238748
0.5359049 0.6057091 0.6023644
0.6237088 0.6113729 0.6011144
0.6693614 0.5747738 0.5565227
0.7998668 0.6227438 0.5593562
0.9444001 0.6822519 0.5774220
0.3357441 0.6317780 0.5738216
0.3309100 0.5959635 0.5433169
0.3499863 0.5767497 0.5270492
0.4225432 0.5967793 0.5436302
0.5366908 0.6481719 0.5877536
0.6742337 0.7261031 0.6649770
0.7875327 0.7759619 0.7229359
0.7675242 0.6878462 0.6105838
0.8866388 0.7460637 0.6372215
0.3342954 0.6893944 0.5919129
0.3555318 0.6721856 0.5715621
0.3877583 0.6598732 0.5558568
0.4431546 0.6619682 0.5549572
0.5271059 0.6887430 0.5808211
0.6427488 0.7477135 0.6440882
0.7652218 0.8149442 0.7249210
0.8067639 0.8020340 0.7209083
0.8929712 0.8170894 0.7205421
0.3351976 0.7534187 0.6159566
0.3789996 0.7461810 0.5953715
0.4230812 0.7374579 0.5762725
0.4681306 0.7291784 0.5648302
0.5214855 0.7302050 0.5709164
0.5923197 0.7509020 0.6017449
0.6904679 0.7995912 0.6664708
0.8200991 0.8704843 0.7657499
0.9428391 0.9210719 0.8523164
0.2362877 0.2446320 0.6381857
0.2149984 0.2006740 0.5281435
0.2091419 0.1596822 0.4311291
0.2408566 0.1359411 0.3773721
0.3131616 0.1300442 0.3669351
0.4156020 0.1377534 0.3824443
0.5373193 0.1561716 0.4103597
0.6729744 0.1802861 0.4468562
0.8135551 0.2056132 0.4860856
0.2099597 0.2731663 0.6056916
0.2160038 0.2507250 0.5248420
0.2288186 0.2195177 0.4642864
0.2637570 0.1890801 0.4236074
0.3362540 0.1778938 0.4111679
0.4494558 0.1974930 0.4298022
0.5871283 0.2377944 0.4652345
0.7329047 0.2836097 0.5052814
0.8792346 0.3293406 0.5455701
0.1812478 0.2980896 0.5221535
0.2247808 0.3048250 0.5159674
0.2631145 0.2972616 0.5074574
0.2981217 0.2636826 0.4796804
0.3683220 0.2482838 0.4692444
0.4903586 0.2755000 0.4905099
0.6395199 0.3281596 0.5256257
0.7899763 0.3866515 0.5617538
0.9362343 0.4447062 0.5971448
0.1392803 0.2706981 0.3654227
0.2511440 0.3674909 0.5052988
0.3123464 0.3907977 0.5452727
0.3640681 0.3912889 0.5638685
0.4370147 0.3841214 0.5703196
0.5477361 0.3902973 0.5714655
0.6900224 0.4305218 0.5887490
0.8336027 0.4873076 0.6121103
0.9730357 0.5470097 0.6362204
0.2409497 0.4287999 0.4594751
0.2876798 0.4334994 0.5006140
0.3304271 0.4534159 0.5411163
0.4358116 0.5548354 0.6652078
0.5456931 0.5805524 0.7024865
0.6256721 0.5422995 0.6648044
0.7310928 0.5440424 0.6481283
0.8512833 0.5831281 0.6543353
0.9812912 0.6375672 0.6666764
0.3772876 0.6267025 0.6337123
0.3227452 0.5226856 0.5451115
0.3265047 0.5245793 0.5740923
0.4053756 0.5690608 0.6138718
0.5995114 0.7001615 0.7439694
0.7206381 0.7107145 0.7574394
0.7648612 0.6681956 0.7090384
0.8417570 0.6705248 0.6889215
0.9656800 0.7246132 0.7035461
0.4028753 0.6777786 0.6553712
0.3700758 0.6300832 0.6203418
0.3712387 0.6136762 0.6146078
0.4257406 0.6227254 0.6209430
0.5877787 0.7059011 0.6893265
0.7963194 0.8361298 0.8213506
0.8070471 0.7946668 0.7871519
0.8149549 0.7406735 0.7156830
0.9353475 0.8037693 0.7536218
0.4134688 0.7411361 0.6950626
0.4139498 0.7201056 0.6733244
0.4310877 0.7022255 0.6521363
0.4813319 0.7004803 0.6459696
0.5666715 0.7214016 0.6660854
0.6915817 0.7827079 0.7333095
0.8055832 0.8466273 0.8046230
0.8247818 0.8212878 0.7763052
0.9099115 0.8476014 0.7913615
0.4233093 0.8224000 0.7530766
0.4572591 0.8081524 0.7227151
0.4909808 0.7909578 0.6926384
0.5255843 0.7721004 0.6697554
0.5661810 0.7608305 0.6646717
0.6232813 0.7685082 0.6812529
0.7143001 0.8120362 0.7339196
0.8328747 0.8780472 0.8130572
0.9556165 0.9327604 0.8795695
0.2881557 0.3196186 0.8171720
0.2725856 0.2627201 0.6924428
0.2644918 0.2093172 0.5796189
0.2855723 0.1729099 0.5039918
0.3403359 0.1566912 0.4674892
0.4238098 0.1551420 0.4641364
0.5304293 0.1636616 0.4845601
0.6529629 0.1784720 0.5188506
0.7797812 0.1943126 0.5560807
0.2949393 0.3830378 0.8021400
0.2732372 0.3202493 0.6766135
0.2813598 0.2751017 0.5932677
0.3163044 0.2440950 0.5421285
0.3816674 0.2339661 0.5248421
0.4766191 0.2449460 0.5365823
0.5936337 0.2695111 0.5647152
0.7226267 0.2990409 0.5988393
0.8557944 0.3294801 0.6344783
0.2501259 0.4069975 0.7100912
0.2737996 0.3762913 0.6539055
0.3058029 0.3454754 0.6062826
0.3558878 0.3275380 0.5854136
0.4302563 0.3286309 0.5911341
0.5333503 0.3491291 0.6154879
0.6569856 0.3816130 0.6457878
0.7902704 0.4197839 0.6769614
0.9262970 0.4598224 0.7083888
0.2204984 0.4608664 0.6705535
0.2706563 0.4120307 0.6027594
0.3311328 0.4100239 0.6029835
0.4023906 0.4300954 0.6352319
0.4895885 0.4544580 0.6739266
0.5964948 0.4746029 0.7006156
0.7197999 0.5018741 0.7241103
0.8501269 0.5391881 0.7486529
0.9807038 0.5798103 0.7728427
0.1439582 0.3869803 0.4887590
0.2833540 0.4414283 0.5514750
0.3308841 0.4474907 0.5748509
0.4299911 0.5438889 0.6945569
0.5551681 0.6040446 0.7609793
0.6690981 0.6177422 0.7823668
0.7820178 0.6299683 0.7956963
0.8969802 0.6559860 0.8113375
1.0000000 0.6849319 0.8235519
0.1838285 0.4664570 0.5093746
0.3297549 0.5160337 0.5740270
0.3649755 0.5709322 0.6728578
0.4089153 0.6354612 0.7493185
0.5879301 0.7080509 0.7941383
0.7543900 0.7678860 0.8550200
0.8491246 0.7685019 0.8674737
0.9203649 0.7603592 0.8575816
1.0000000 0.7784136 0.8628463
0.4092589 0.6557523 0.6746540
0.3833584 0.6350039 0.6671131
0.4019794 0.6479269 0.6910146
0.4521514 0.6762943 0.7175343
0.5773664 0.7240802 0.7513693
0.7883802 0.8459127 0.8698000
0.8790763 0.8683015 0.9051156
0.9040498 0.8276803 0.8676505
1.0000000 0.8697765 0.9015052
0.4718900 0.7839875 0.7941473
0.4593622 0.7616662 0.7695248
0.4681129 0.7440850 0.7463134
0.5109637 0.7386116 0.7328281
0.5873226 0.7512110 0.7387853
0.6883996 0.7858258 0.7720083
0.7923071 0.8321710 0.8210121
0.8688563 0.8611199 0.8523469
0.9656102 0.9149154 0.9038384
0.5239501 0.9105536 0.9119838
0.5356966 0.8850620 0.8694238
0.5528441 0.8579648 0.8287572
0.5811445 0.8320097 0.7954204
0.6184514 0.8113365 0.7730906
0.6667628 0.8028597 0.7646846
0.7370827 0.8223450 0.7827147
0.8276547 0.8673991 0.8282596
0.9511369 0.9361829 0.9037452
0.3622637 0.4061218 0.9956483
0.3414105 0.3352497 0.8652522
0.3304812 0.2722620 0.7454517
0.3385602 0.2214281 0.6450474
0.3712512 0.1862224 0.5753343
0.4351601 0.1710695 0.5486632
0.5280632 0.1715899 0.5615268
0.6349397 0.1781954 0.5920708
0.7446212 0.1849288 0.6254394
0.3604135 0.4766784 0.9454322
0.3408185 0.4010394 0.8346520
0.3443402 0.3423155 0.7355116
0.3778212 0.3093394 0.6704465
0.4348158 0.2978012 0.6442750
0.5111282 0.2985837 0.6474118
0.6051835 0.3054754 0.6671406
0.7128818 0.3160546 0.6938547
0.8269774 0.3284095 0.7227864
0.3478582 0.5573726 0.9302961
0.3318134 0.4588529 0.7998533
0.3484285 0.3950384 0.7070678
0.4097656 0.3877146 0.6851523
0.4939631 0.4094348 0.7091819
0.5849142 0.4302257 0.7429119
0.6832261 0.4437682 0.7712111
0.7922816 0.4563307 0.7954393
0.9087271 0.4711112 0.8199494
0.3522525 0.6744275 0.9657135
0.3134223 0.4952405 0.7494837
0.3363855 0.4180557 0.6527763
0.4197606 0.4452522 0.6817262
0.5330706 0.5100875 0.7585272
0.6497529 0.5608561 0.8260913
0.7610022 0.5854411 0.8671328
0.8722515 0.5988188 0.8923552
0.9855506 0.6106978 0.9132459
0.3393224 0.7179592 0.9118277
0.2946947 0.4967555 0.6714297
0.3418937 0.4531061 0.6219219
0.4114579 0.4910860 0.6719248
0.5249004 0.5720384 0.7664472
0.6810645 0.6612546 0.8671446
0.8290915 0.7181279 0.9402601
0.9488748 0.7398933 0.9774355
1.0000000 0.7425692 0.9937642
0.2396211 0.5214604 0.6294678
0.3173374 0.5255625 0.6423328
0.3731206 0.5294945 0.6473857
0.4166311 0.5544671 0.6821753
0.4753788 0.5883565 0.7235753
0.6378412 0.6853346 0.8251275
0.8636722 0.8153582 0.9660838
1.0000000 0.8630092 1.0000000
1.0000000 0.8645286 1.0000000
0.2401325 0.5889657 0.6720761
0.3916701 0.6318644 0.7087703
0.4187469 0.6483346 0.7258919
0.4556019 0.6659113 0.7453698
0.5098350 0.6825095 0.7608632
0.5929206 0.6977922 0.7706832
0.8235992 0.8329331 0.9100501
1.0000000 0.9319279 1.0000000
1.0000000 0.9798894 1.0000000
0.4971293 0.8160109 0.8917829
0.4937461 0.8003408 0.8645414
0.5082765 0.7967912 0.8554986
0.5437261 0.7951183 0.8500369
0.5980955 0.7942109 0.8331629
0.6731900 0.8041052 0.8382066
0.7650081 0.8194586 0.8441558
0.9222193 0.9166014 0.9491292
1.0000000 1.0000000 1.0000000
0.6428948 1.0000000 1.0000000
0.6165160 0.9715207 1.0000000
0.6119591 0.9360749 0.9827786
0.6388656 0.9082676 0.9438528
0.6823819 0.8815170 0.8987402
0.7246329 0.8560030 0.8552133
0.7650196 0.8446130 0.8381228
0.8332528 0.8704151 0.8673213
0.9937397 0.9900376 0.9965549
