catalog/styles/film/film-negative/look.cube
# film-negative iteration 20
LUT_3D_SIZE 5
DOMAIN_MIN 0 0 0
DOMAIN_MAX 1 1 1
0.0955194 0.0935425 0.0924483
0.1626812 0.1117879 0.0846579
0.4814047 0.1598778 0.0875980
0.7949008 0.1272550 0.0000000
1.0000000 0.0036581 0.0000000
0.0829951 0.1692529 0.0955666
0.2255863 0.2093152 0.1336834
0.4184201 0.2417542 0.1332877
0.7466583 0.2974514 0.0916057
1.0000000 0.4136713 0.0696410
0.0795586 0.3107197 0.1129478
0.2206851 0.3506750 0.1392173
0.4248158 0.3946789 0.1805559
0.7702228 0.4272968 0.1119252
1.0000000 0.5588008 0.1064409
0.0000000 0.3726915 0.0636463
0.0783135 0.3817622 0.0254635
0.2579444 0.3948488 0.0090467
0.5597972 0.4413628 0.0000000
0.9174354 0.5032014 0.0000000
0.0000000 0.4412186 0.0199206
0.0000000 0.4285338 0.0000000
0.1423092 0.4298177 0.0000000
0.3936123 0.4547617 0.0000000
0.6967050 0.4807424 0.0000000
0.0869968 0.1020584 0.1639563
0.1480988 0.0941597 0.1296020
0.3339855 0.1220027 0.1361345
0.6699910 0.1677530 0.1460162
0.9245456 0.3288069 0.2122139
0.1458029 0.2043291 0.1892222
0.2017754 0.2025062 0.2022408
0.3026471 0.2037403 0.1814032
0.5632077 0.2335474 0.1548723
0.9313594 0.2566880 0.1013987
0.1321700 0.2951443 0.2114644
0.2238529 0.3320473 0.2335538
0.3471377 0.3412615 0.2527707
0.5495151 0.3851057 0.2734233
0.8439969 0.4244867 0.2047160
0.0953767 0.4452776 0.2556595
0.2032587 0.4590713 0.2291374
0.3329814 0.4655538 0.2051803
0.5521462 0.5051577 0.2677160
0.8742496 0.5960348 0.2568947
0.0427600 0.5809352 0.2661727
0.1710474 0.5712636 0.2185788
0.3155953 0.5744842 0.1883516
0.5301953 0.6240720 0.1918547
0.8774934 0.7675582 0.2580909
0.1571078 0.1574862 0.4050032
0.1577526 0.1191931 0.2306701
0.2989634 0.1081736 0.2163741
0.5759020 0.1516219 0.2699163
0.8804757 0.2657699 0.3585525
0.1471140 0.2179777 0.2687826
0.2181346 0.2312515 0.3182469
0.3202451 0.1795068 0.2638208
0.6314046 0.2711739 0.3141165
0.9124270 0.3743463 0.3628869
0.2195512 0.4034679 0.4001802
0.2711774 0.3745600 0.3727987
0.4123597 0.4180020 0.4156513
0.6586986 0.4581964 0.4098530
0.9245080 0.5222978 0.4125898
0.2458473 0.5585695 0.4641198
0.3172644 0.5407200 0.4380674
0.4582138 0.5766674 0.4631287
0.6692479 0.6556486 0.5510113
0.8513246 0.6997315 0.5558492
0.2457962 0.6981759 0.4972922
0.3477240 0.6878055 0.4639487
0.4673892 0.6946828 0.4646888
0.6549842 0.7671468 0.5516053
0.9413485 0.9142314 0.7876454
0.2362877 0.2446320 0.6381857
0.2091419 0.1596822 0.4311291
0.3131616 0.1300442 0.3669351
0.5373193 0.1561716 0.4103597
0.8135551 0.2056132 0.4860856
0.1812478 0.2980896 0.5221535
0.2631145 0.2972616 0.5074574
0.3683220 0.2482838 0.4692444
0.6395199 0.3281596 0.5256257
0.9362343 0.4447062 0.5971448
0.2409497 0.4287999 0.4594751
0.3304271 0.4534159 0.5411163
0.5456931 0.5805524 0.7024865
0.7310928 0.5440424 0.6481283
0.9812912 0.6375672 0.6666764
0.4028753 0.6777786 0.6553712
0.3712387 0.6136762 0.6146078
0.5877787 0.7059011 0.6893265
0.8070471 0.7946668 0.7871519
0.9353475 0.8037693 0.7536218
0.4233093 0.8224000 0.7530766
0.4909808 0.7909578 0.6926384
0.5661810 0.7608305 0.6646717
0.7143001 0.8120362 0.7339196
0.9556165 0.9327604 0.8795695
0.3622637 0.4061218 0.9956483
0.3304812 0.2722620 0.7454517
0.3712512 0.1862224 0.5753343
0.5280632 0.1715899 0.5615268
0.7446212 0.1849288 0.6254394
0.3478582 0.5573726 0.9302961
0.3484285 0.3950384 0.7070678
0.4939631 0.4094348 0.7091819
0.6832261 0.4437682 0.7712111
0.9087271 0.4711112 0.8199494
0.3393224 0.7179592 0.9118277
0.3418937 0.4531061 0.6219219
0.5249004 0.5720384 0.7664472
0.8290915 0.7181279 0.9402601
1.0000000 0.7425692 0.9937642
0.2401325 0.5889657 0.6720761
0.4187469 0.6483346 0.7258919
0.5098350 0.6825095 0.7608632
0.8235992 0.8329331 0.9100501
1.0000000 0.9798894 1.0000000
0.6428948 1.0000000 1.0000000
0.6119591 0.9360749 0.9827786
0.6823819 0.8815170 0.8987402
0.7650196 0.8446130 0.8381228
0.9937397 0.9900376 0.9965549
