catalog/styles/film/film-negative/look.cube
# film-negative iteration 20
LUT_3D_SIZE 33
DOMAIN_MIN 0 0 0
DOMAIN_MAX 1 1 1
0.0955194 0.0935425 0.0924483
0.1292440 0.1180631 0.1071290
0.1295439 0.1133012 0.1004287
0.1234159 0.1058509 0.0946461
0.1217019 0.1038043 0.0938327
0.1264101 0.1064268 0.0949065
0.1352340 0.1095979 0.0939106
0.1466881 0.1110545 0.0896802
0.1626812 0.1117879 0.0846579
0.1850701 0.1137604 0.0823446
0.2152215 0.1189991 0.0845547
0.2530120 0.1274111 0.0898676
0.2957431 0.1366375 0.0949646
0.3416393 0.1451946 0.0978355
0.3889410 0.1521774 0.0975085
0.4359779 0.1570517 0.0938985
0.4814047 0.1598778 0.0875980
0.5246420 0.1608028 0.0791751
0.5656517 0.1597783 0.0691050
0.6044154 0.1569841 0.0578352
0.6420916 0.1529593 0.0459586
0.6800215 0.1482405 0.0340108
0.7183088 0.1426441 0.0221402
0.7569538 0.1357263 0.0101610
0.7949008 0.1272550 0.0000000
0.8306928 0.1168615 0.0000000
0.8638943 0.1044543 0.0000000
0.8945860 0.0901878 0.0000000
0.9231175 0.0744312 0.0000000
0.9500742 0.0575846 0.0000000
0.9760638 0.0399770 0.0000000
1.0000000 0.0219127 0.0000000
1.0000000 0.0036581 0.0000000
0.1003824 0.1046463 0.1020573
0.1162145 0.1151675 0.1089873
0.1202923 0.1141135 0.1062083
0.1223021 0.1117967 0.1028836
0.1254284 0.1117598 0.1017384
0.1293577 0.1129277 0.1012959
0.1344822 0.1132999 0.0994548
0.1423911 0.1128561 0.0961907
0.1557785 0.1134164 0.0935399
0.1767805 0.1160273 0.0924140
0.2060046 0.1217206 0.0937376
0.2421169 0.1301209 0.0970891
0.2821196 0.1393417 0.1005541
0.3237468 0.1477364 0.1023729
0.3658863 0.1545173 0.1015933
0.4079610 0.1594699 0.0980304
0.4494576 0.1627645 0.0921432
0.4902843 0.1646735 0.0844915
0.5306119 0.1654676 0.0756066
0.5704994 0.1652331 0.0658395
0.6104450 0.1642409 0.0555833
0.6509254 0.1626110 0.0450879
0.6919514 0.1601738 0.0343990
0.7330384 0.1565594 0.0233903
0.7733295 0.1514686 0.0118262
0.8119119 0.1446065 0.0000000
0.8483050 0.1359141 0.0000000
0.8824443 0.1255455 0.0000000
0.9145974 0.1138179 0.0000000
0.9452376 0.1011083 0.0000000
0.9749012 0.0877686 0.0000000
1.0000000 0.0740871 0.0000000
1.0000000 0.0602785 0.0000000
0.0848639 0.0936755 0.0933941
0.0987710 0.1030328 0.1017808
0.1093581 0.1090080 0.1066440
0.1178723 0.1128979 0.1082892
0.1253831 0.1162495 0.1083034
0.1311817 0.1183152 0.1071164
0.1358300 0.1181076 0.1046720
0.1410690 0.1159802 0.1012830
0.1518443 0.1154766 0.0992408
0.1714085 0.1182660 0.0987086
0.2002963 0.1251242 0.1003784
0.2353416 0.1344745 0.1034871
0.2723918 0.1436978 0.1061063
0.3095634 0.1514982 0.1069866
0.3466121 0.1576815 0.1056662
0.3838442 0.1623435 0.1020034
0.4215500 0.1658596 0.0964291
0.4599550 0.1686125 0.0894800
0.4993599 0.1709699 0.0816607
0.5398907 0.1730807 0.0732916
0.5816078 0.1749315 0.0645518
0.6243695 0.1763709 0.0554877
0.6678352 0.1771582 0.0460609
0.7113315 0.1769317 0.0361510
0.7539526 0.1752826 0.0255202
0.7950460 0.1719706 0.0139238
0.8342278 0.1669847 0.0011834
0.8714328 0.1604931 0.0000000
0.9068817 0.1528022 0.0000000
0.9409664 0.1442738 0.0000000
0.9741401 0.1352499 0.0000000
1.0000000 0.1259947 0.0000000
1.0000000 0.1166696 0.0000000
0.0717269 0.0860551 0.0839941
0.0862123 0.0945532 0.0944416
0.0986403 0.1018439 0.1027790
0.1087000 0.1078779 0.1077548
0.1187634 0.1141753 0.1099845
0.1307973 0.1212088 0.1110624
0.1426854 0.1262828 0.1109068
0.1509670 0.1259081 0.1076455
0.1601062 0.1239905 0.1038540
0.1774148 0.1261053 0.1029155
0.2051069 0.1339294 0.1058558
0.2376033 0.1435194 0.1096866
0.2700974 0.1515245 0.1116514
0.3017567 0.1575584 0.1113716
0.3335492 0.1623710 0.1093573
0.3661521 0.1662701 0.1056056
0.4002009 0.1696668 0.1003347
0.4361595 0.1730260 0.0940788
0.4742965 0.1766338 0.0872446
0.5149206 0.1806961 0.0801006
0.5577897 0.1850833 0.0727269
0.6024505 0.1894843 0.0650565
0.6480985 0.1935029 0.0569843
0.6938165 0.1966618 0.0483155
0.7385886 0.1984459 0.0388123
0.7818239 0.1986415 0.0283373
0.8232517 0.1972693 0.0168489
0.8629155 0.1945597 0.0044096
0.9010845 0.1908609 0.0000000
0.9381133 0.1865297 0.0000000
0.9743782 0.1818725 0.0000000
1.0000000 0.1771012 0.0000000
1.0000000 0.1723120 0.0000000
0.0669505 0.0901082 0.0796870
0.0806597 0.0952504 0.0897486
0.0920360 0.0997201 0.0979459
0.1001386 0.1035623 0.1033695
0.1092440 0.1093835 0.1074034
0.1281646 0.1221430 0.1132354
0.1555274 0.1382985 0.1186126
0.1805494 0.1488132 0.1185455
0.1962254 0.1506146 0.1137091
0.2108463 0.1518726 0.1122872
0.2312157 0.1566652 0.1154094
0.2542218 0.1614645 0.1177406
0.2777539 0.1647895 0.1175620
0.3021771 0.1672662 0.1156604
0.3281416 0.1695542 0.1127113
0.3562764 0.1720448 0.1088028
0.3869237 0.1749336 0.1039055
0.4204107 0.1785180 0.0983537
0.4570639 0.1830086 0.0924423
0.4973106 0.1885715 0.0863697
0.5407453 0.1950598 0.0801925
0.5868003 0.2021730 0.0738664
0.6343509 0.2093123 0.0671990
0.6819903 0.2157195 0.0598690
0.7285585 0.2208057 0.0516275
0.7734523 0.2243448 0.0424074
0.8165228 0.2264178 0.0322831
0.8579799 0.2273512 0.0214486
0.8981836 0.2275536 0.0101417
0.9374866 0.2273758 0.0000000
0.9761988 0.2270673 0.0000000
1.0000000 0.2267635 0.0000000
1.0000000 0.2264888 0.0000000
0.0685121 0.1041955 0.0802226
0.0816202 0.1065494 0.0894154
0.0924634 0.1084405 0.0967950
0.1003699 0.1106855 0.1022668
0.1063414 0.1130689 0.1057987
0.1226791 0.1224843 0.1109231
0.1624599 0.1463929 0.1204007
0.2210007 0.1801599 0.1316676
0.2650043 0.2013607 0.1349537
0.2776870 0.2019751 0.1337581
0.2810059 0.1967032 0.1327952
0.2868510 0.1910752 0.1296844
0.2974556 0.1863072 0.1255208
0.3124953 0.1829056 0.1212338
0.3317417 0.1812045 0.1169403
0.3550842 0.1812012 0.1124489
0.3821819 0.1827024 0.1075789
0.4131645 0.1858009 0.1024752
0.4484164 0.1906825 0.0973542
0.4880752 0.1972728 0.0922172
0.5318079 0.2054499 0.0871019
0.5787659 0.2148308 0.0820049
0.6276206 0.2246599 0.0766641
0.6766689 0.2339980 0.0706732
0.7245229 0.2421237 0.0637520
0.7705137 0.2487762 0.0558633
0.8146412 0.2541261 0.0471930
0.8572697 0.2585893 0.0380544
0.8988268 0.2625990 0.0287441
0.9396548 0.2664686 0.0194613
0.9800153 0.2703753 0.0102966
1.0000000 0.2743749 0.0012464
1.0000000 0.2784335 0.0000000
0.0729307 0.1241133 0.0839109
0.0874576 0.1267102 0.0934864
0.1001736 0.1291387 0.1015185
0.1105372 0.1320101 0.1076646
0.1184194 0.1346081 0.1114408
0.1277509 0.1364411 0.1121152
0.1586531 0.1512190 0.1169163
0.2222871 0.1878184 0.1314269
0.2901995 0.2259841 0.1459142
0.3248002 0.2410398 0.1513942
0.3335835 0.2403442 0.1505356
0.3313229 0.2307467 0.1448451
0.3290571 0.2181551 0.1375630
0.3335237 0.2074730 0.1306062
0.3453372 0.2002701 0.1243101
0.3628936 0.1960826 0.1183193
0.3858127 0.1946453 0.1124963
0.4142121 0.1961024 0.1071088
0.4481285 0.2004829 0.1022816
0.4873226 0.2074587 0.0977992
0.5312013 0.2166650 0.0934774
0.5786216 0.2276341 0.0893690
0.6281602 0.2395489 0.0851871
0.6779945 0.2513248 0.0804339
0.7264748 0.2620914 0.0747891
0.7730311 0.2716444 0.0682925
0.8177512 0.2801973 0.0612177
0.8610346 0.2881513 0.0539267
0.9033015 0.2958775 0.0467108
0.9448708 0.3036076 0.0397236
0.9859900 0.3114455 0.0329923
1.0000000 0.3193965 0.0264507
1.0000000 0.3274056 0.0199938
0.0779324 0.1463615 0.0892686
0.0956458 0.1515423 0.1000915
0.1124052 0.1571670 0.1099097
0.1283951 0.1640153 0.1185472
0.1430714 0.1710919 0.1249960
0.1531656 0.1728149 0.1255465
0.1644404 0.1707608 0.1214700
0.1987107 0.1836340 0.1250267
0.2576935 0.2150246 0.1386058
0.3194567 0.2496463 0.1536984
0.3611230 0.2711157 0.1618289
0.3731932 0.2717134 0.1611555
0.3682512 0.2581734 0.1543790
0.3655744 0.2428251 0.1456804
0.3695211 0.2296759 0.1368939
0.3799916 0.2196636 0.1284379
0.3978817 0.2134817 0.1205176
0.4232838 0.2115716 0.1136210
0.4556098 0.2138710 0.1079772
0.4942287 0.2198568 0.1032240
0.5380924 0.2289747 0.0991662
0.5857700 0.2406294 0.0957003
0.6355216 0.2538367 0.0923655
0.6854101 0.2674006 0.0886338
0.7339824 0.2804699 0.0842208
0.7807398 0.2928553 0.0792576
0.8257085 0.3046505 0.0740170
0.8691793 0.3160850 0.0687852
0.9115111 0.3273735 0.0637594
0.9530200 0.3386450 0.0590183
0.9939829 0.3499583 0.0545433
1.0000000 0.3613183 0.0502478
1.0000000 0.3727021 0.0460259
0.0829951 0.1692529 0.0955666
0.1042314 0.1776183 0.1074122
0.1252318 0.1868044 0.1187350
0.1467603 0.1977541 0.1296447
0.1685356 0.2098152 0.1394537
0.1866459 0.2182147 0.1451984
0.1935443 0.2138285 0.1415641
0.1984383 0.2034508 0.1332664
0.2255863 0.2093152 0.1336834
0.2781759 0.2362006 0.1453851
0.3374958 0.2697136 0.1610200
0.3797382 0.2912998 0.1710983
0.3996694 0.2953509 0.1721179
0.4061202 0.2869278 0.1660519
0.4049350 0.2702758 0.1552478
0.4069215 0.2536796 0.1437181
0.4184201 0.2417542 0.1332877
0.4404422 0.2353755 0.1242693
0.4712442 0.2340448 0.1166242
0.5088263 0.2370078 0.1101870
0.5519966 0.2438953 0.1050464
0.5993317 0.2543931 0.1011024
0.6488470 0.2676299 0.0978371
0.6983596 0.2822882 0.0947489
0.7466583 0.2974514 0.0916057
0.7932699 0.3126819 0.0884456
0.8380560 0.3277275 0.0853347
0.8811592 0.3425139 0.0823535
0.9228710 0.3570487 0.0795460
0.9635373 0.3713700 0.0769098
1.0000000 0.3855401 0.0744160
1.0000000 0.3996226 0.0720112
1.0000000 0.4136713 0.0696410
0.0879935 0.1919776 0.1021016
0.1118306 0.2028296 0.1141383
0.1358205 0.2144644 0.1259812
0.1607386 0.2276886 0.1378525
0.1865841 0.2422407 0.1495393
0.2108007 0.2552938 0.1593721
0.2262264 0.2593672 0.1628270
0.2269520 0.2477739 0.1557171
0.2271242 0.2325743 0.1453962
0.2478574 0.2332930 0.1432036
0.2919066 0.2534383 0.1519212
0.3488760 0.2845902 0.1672077
0.4038667 0.3138036 0.1807637
0.4376917 0.3257953 0.1843302
0.4448545 0.3163700 0.1770139
0.4431146 0.2975586 0.1644197
0.4483207 0.2807166 0.1518215
0.4660738 0.2698748 0.1409342
0.4949967 0.2643350 0.1310613
0.5309541 0.2623231 0.1215763
0.5721792 0.2640345 0.1131119
0.6182431 0.2705063 0.1063701
0.6670869 0.2819028 0.1017147
0.7159524 0.2967642 0.0986965
0.7637167 0.3137294 0.0968737
0.8097333 0.3316504 0.0957598
0.8537346 0.3497229 0.0949906
0.8957862 0.3674752 0.0943224
0.9361863 0.3847065 0.0936193
0.9753618 0.4014147 0.0928291
1.0000000 0.4177215 0.0919606
1.0000000 0.4337899 0.0910446
1.0000000 0.4497671 0.0901115
0.0924053 0.2139926 0.1080883
0.1174547 0.2260203 0.1194648
0.1427003 0.2385455 0.1307746
0.1686707 0.2520723 0.1422456
0.1954006 0.2664760 0.1538790
0.2215191 0.2802356 0.1648435
0.2428355 0.2891909 0.1724959
0.2533128 0.2874151 0.1730772
0.2526972 0.2739948 0.1662300
0.2514917 0.2575100 0.1561276
0.2677443 0.2543415 0.1517867
0.3100702 0.2721961 0.1583851
0.3711028 0.3051435 0.1734922
0.4291711 0.3359417 0.1875880
0.4644739 0.3484758 0.1920399
0.4783485 0.3424499 0.1864115
0.4857921 0.3279949 0.1753428
0.5007860 0.3149007 0.1637860
0.5271316 0.3059450 0.1527191
0.5600205 0.2981700 0.1397841
0.5974782 0.2919493 0.1253636
0.6404726 0.2910666 0.1126957
0.6878991 0.2981921 0.1046998
0.7361677 0.3121299 0.1011066
0.7831919 0.3301779 0.1003856
0.8281528 0.3502305 0.1012933
0.8707371 0.3707333 0.1028203
0.9110896 0.3907445 0.1042898
0.9496611 0.4099014 0.1053897
0.9869982 0.4282361 0.1060766
1.0000000 0.4459678 0.1064468
1.0000000 0.4633573 0.1066376
1.0000000 0.4806213 0.1067631
0.0956326 0.2347939 0.1129555
0.1205346 0.2466830 0.1229940
0.1454804 0.2587344 0.1329646
0.1707208 0.2711522 0.1430313
0.1962735 0.2838153 0.1532810
0.2215782 0.2959972 0.1634341
0.2448800 0.3059102 0.1723920
0.2630945 0.3106891 0.1782531
0.2731223 0.3075088 0.1794428
0.2743964 0.2952881 0.1747206
0.2750285 0.2803494 0.1653360
0.2919226 0.2774469 0.1599657
0.3334519 0.2943155 0.1650746
0.3913504 0.3246152 0.1786098
0.4488316 0.3544482 0.1928798
0.4909827 0.3707966 0.1995307
0.5171651 0.3715319 0.1966556
0.5400390 0.3651174 0.1897410
0.5647594 0.3546420 0.1789637
0.5917618 0.3406434 0.1626404
0.6228221 0.3264879 0.1426968
0.6607638 0.3176172 0.1235421
0.7058129 0.3182579 0.1096464
0.7542425 0.3292440 0.1032585
0.8012272 0.3473096 0.1028127
0.8451887 0.3685756 0.1052985
0.8860672 0.3905114 0.1086657
0.9244572 0.4117940 0.1117744
0.9611332 0.4320038 0.1141926
0.9967582 0.4512428 0.1159295
1.0000000 0.4698091 0.1171779
1.0000000 0.4880110 0.1181582
1.0000000 0.5060841 0.1190434
0.0971297 0.2539185 0.1162886
0.1208116 0.2646938 0.1245738
0.1443885 0.2753890 0.1327493
0.1679247 0.2860053 0.1409350
0.1914849 0.2964604 0.1493011
0.2150126 0.3065062 0.1579404
0.2381455 0.3156539 0.1667211
0.2597387 0.3228315 0.1750155
0.2777865 0.3264831 0.1817153
0.2892507 0.3240742 0.1845491
0.2934415 0.3143338 0.1807875
0.2978632 0.3027345 0.1724352
0.3167914 0.3016874 0.1676125
0.3571702 0.3177086 0.1720937
0.4145918 0.3470770 0.1852676
0.4759738 0.3783099 0.2003010
0.5293556 0.4002129 0.2096135
0.5712439 0.4092187 0.2122340
0.5977492 0.4008718 0.2038582
0.6176234 0.3810752 0.1843466
0.6416128 0.3604894 0.1600826
0.6744917 0.3459597 0.1364560
0.7167172 0.3415157 0.1178442
0.7649051 0.3487147 0.1074719
0.8127419 0.3653081 0.1054822
0.8565689 0.3864685 0.1082838
0.8963040 0.4085879 0.1124920
0.9332522 0.4300681 0.1164079
0.9686062 0.4505157 0.1195188
1.0000000 0.4700706 0.1218637
1.0000000 0.4890291 0.1236647
1.0000000 0.5076730 0.1251630
1.0000000 0.5262078 0.1265517
0.0964804 0.2711013 0.1179591
0.1182896 0.2802259 0.1242789
0.1399455 0.2891654 0.1305012
0.1614368 0.2978350 0.1367279
0.1828823 0.3062010 0.1431933
0.2045269 0.3143225 0.1502414
0.2266022 0.3222982 0.1582172
0.2489460 0.3299885 0.1671440
0.2706409 0.3367387 0.1764000
0.2893960 0.3408547 0.1840031
0.3028789 0.3403398 0.1874835
0.3110122 0.3339052 0.1849357
0.3203879 0.3263273 0.1784378
0.3440278 0.3290078 0.1757915
0.3887557 0.3475013 0.1821849
0.4505963 0.3781083 0.1963392
0.5184799 0.4111411 0.2128811
0.5758887 0.4324910 0.2230514
0.6081974 0.4291866 0.2172826
0.6266942 0.4091660 0.1975752
0.6483002 0.3874087 0.1723798
0.6789335 0.3714430 0.1474404
0.7192305 0.3650778 0.1269572
0.7663197 0.3697085 0.1139424
0.8144721 0.3839301 0.1094396
0.8589600 0.4035246 0.1108342
0.8988819 0.4246003 0.1144402
0.9356801 0.4453736 0.1181317
0.9707999 0.4654135 0.1212451
1.0000000 0.4848100 0.1237293
1.0000000 0.5037785 0.1257287
1.0000000 0.5225238 0.1274394
1.0000000 0.5411940 0.1290413
0.0933744 0.2862707 0.1179225
0.1131019 0.2935686 0.1222761
0.1327128 0.3007130 0.1265999
0.1522007 0.3075945 0.1310079
0.1717278 0.3142402 0.1357696
0.1916490 0.3208463 0.1413306
0.2123845 0.3277016 0.1481668
0.2341761 0.3350633 0.1565733
0.2567354 0.3428256 0.1663169
0.2788220 0.3501266 0.1761580
0.2987920 0.3556748 0.1842362
0.3150749 0.3572460 0.1882638
0.3277927 0.3538240 0.1868647
0.3450140 0.3518277 0.1837963
0.3768414 0.3594853 0.1848687
0.4267757 0.3796694 0.1929302
0.4876458 0.4062973 0.2053016
0.5444601 0.4266723 0.2141674
0.5852505 0.4304089 0.2119985
0.6134113 0.4196193 0.1980630
0.6403948 0.4038849 0.1766320
0.6729598 0.3910180 0.1535035
0.7130160 0.3856467 0.1335734
0.7589664 0.3895340 0.1199274
0.8066824 0.4016690 0.1134246
0.8520194 0.4190300 0.1125264
0.8932926 0.4383749 0.1144283
0.9312486 0.4579001 0.1170515
0.9672598 0.4770760 0.1195408
1.0000000 0.4958934 0.1216658
1.0000000 0.5144691 0.1234384
1.0000000 0.5329260 0.1249772
1.0000000 0.5513491 0.1264230
0.0877018 0.2994154 0.1162016
0.1054854 0.3050548 0.1187802
0.1232104 0.3106010 0.1214026
0.1409075 0.3159830 0.1241901
0.1587881 0.3212852 0.1274479
0.1771995 0.3267280 0.1316056
0.1966054 0.3326537 0.1371581
0.2173301 0.3393844 0.1444443
0.2394218 0.3470660 0.1534951
0.2624030 0.3553934 0.1636822
0.2854131 0.3635862 0.1737624
0.3072338 0.3701853 0.1819576
0.3265789 0.3731522 0.1862763
0.3456304 0.3732576 0.1869458
0.3705398 0.3753185 0.1866643
0.4072933 0.3844669 0.1890008
0.4541690 0.3991579 0.1938740
0.5034899 0.4129886 0.1976464
0.5477074 0.4196876 0.1963420
0.5850941 0.4177738 0.1879440
0.6201087 0.4106766 0.1723323
0.6572564 0.4035910 0.1529640
0.6987241 0.4012169 0.1353281
0.7441758 0.4056109 0.1223045
0.7913104 0.4164680 0.1147697
0.8372784 0.4318672 0.1118774
0.8802769 0.4494660 0.1118416
0.9201999 0.4676401 0.1130130
0.9579722 0.4857470 0.1144591
0.9946246 0.5036851 0.1157994
1.0000000 0.5215079 0.1169305
1.0000000 0.5392876 0.1178954
1.0000000 0.5570653 0.1187904
0.0795586 0.3107197 0.1129478
0.0956974 0.3150067 0.1140151
0.1118515 0.3192769 0.1151820
0.1280740 0.3234986 0.1165741
0.1445793 0.3277708 0.1184807
0.1617112 0.3323244 0.1213068
0.1799208 0.3374906 0.1255198
0.1995208 0.3435520 0.1314470
0.2206851 0.3506750 0.1392173
0.2433375 0.3587759 0.1485690
0.2670490 0.3673798 0.1587314
0.2910809 0.3755942 0.1684697
0.3146766 0.3821572 0.1762632
0.3374705 0.3858196 0.1807240
0.3611791 0.3873294 0.1819174
0.3895790 0.3896718 0.1814069
0.4248158 0.3946789 0.1805559
0.4658035 0.4016019 0.1794583
0.5090334 0.4077504 0.1767052
0.5514131 0.4108485 0.1705210
0.5926462 0.4108642 0.1597936
0.6342768 0.4099503 0.1454838
0.6777848 0.4113637 0.1312998
0.7234314 0.4170394 0.1197567
0.7702228 0.4272968 0.1119252
0.8165555 0.4412141 0.1076269
0.8610253 0.4572979 0.1058948
0.9030911 0.4742311 0.1055727
0.9431073 0.4912899 0.1057967
0.9818370 0.5082541 0.1061035
1.0000000 0.5251270 0.1063098
1.0000000 0.5419644 0.1064024
1.0000000 0.5588008 0.1064409
0.0691338 0.3204360 0.1083634
0.0840094 0.3237298 0.1081977
0.0989586 0.3270652 0.1081555
0.1140598 0.3304501 0.1083694
0.1295113 0.3339847 0.1090926
0.1456296 0.3378839 0.1106817
0.1628008 0.3423945 0.1135380
0.1813309 0.3477514 0.1179698
0.2014368 0.3540629 0.1241432
0.2232034 0.3612963 0.1319873
0.2464764 0.3691800 0.1410903
0.2707784 0.3770830 0.1505394
0.2955279 0.3841077 0.1590951
0.3201349 0.3892039 0.1653563
0.3446368 0.3917067 0.1684033
0.3701613 0.3920074 0.1678020
0.3992709 0.3922501 0.1645904
0.4342775 0.3946448 0.1606307
0.4745753 0.3989958 0.1561306
0.5179884 0.4039423 0.1504121
0.5623912 0.4082709 0.1425665
0.6071245 0.4121893 0.1325897
0.6524155 0.4170368 0.1218980
0.6984931 0.4241602 0.1121755
0.7451177 0.4342090 0.1045391
0.7915885 0.4469950 0.0993194
0.8370556 0.4617388 0.0961825
0.8809446 0.4774981 0.0944395
0.9232111 0.4935583 0.0933944
0.9642430 0.5095737 0.0925705
1.0000000 0.5254665 0.0917313
1.0000000 0.5412754 0.0908180
1.0000000 0.5570545 0.0898623
0.0566946 0.3288872 0.1027295
0.0707139 0.3315345 0.1015788
0.0848211 0.3342321 0.1005320
0.0991339 0.3370408 0.0997410
0.1138196 0.3400555 0.0994101
0.1291683 0.3434486 0.0998506
0.1454967 0.3473898 0.1013815
0.1630776 0.3520211 0.1042701
0.1821758 0.3574275 0.1087305
0.2029270 0.3635625 0.1147856
0.2252420 0.3701845 0.1221575
0.2488220 0.3768515 0.1302026
0.2731801 0.3828933 0.1379154
0.2978105 0.3875332 0.1441107
0.3225139 0.3901203 0.1476961
0.3477582 0.3905559 0.1478812
0.3753218 0.3901344 0.1450039
0.4075026 0.3909519 0.1405034
0.4451810 0.3940913 0.1353017
0.4875049 0.3993500 0.1297750
0.5324846 0.4056951 0.1235320
0.5784770 0.4124312 0.1162707
0.6247334 0.4196522 0.1082380
0.6711151 0.4279620 0.1002035
0.7176061 0.4379404 0.0930058
0.7640302 0.4497909 0.0871928
0.8100194 0.4632616 0.0828742
0.8551772 0.4777955 0.0797747
0.8993002 0.4927989 0.0774402
0.9424739 0.5078587 0.0754546
0.9849827 0.5227998 0.0735572
1.0000000 0.5376152 0.0716427
1.0000000 0.5523698 0.0697029
0.0426850 0.3365411 0.0964659
0.0561788 0.3387617 0.0944734
0.0697517 0.3410301 0.0925586
0.0835390 0.3434276 0.0908655
0.0977150 0.3460531 0.0895855
0.1125204 0.3490250 0.0889608
0.1282138 0.3524492 0.0892431
0.1450523 0.3563977 0.0906672
0.1632705 0.3608928 0.0934231
0.1830034 0.3658579 0.0975620
0.2042023 0.3710707 0.1028936
0.2266884 0.3762163 0.1089737
0.2501286 0.3808441 0.1150601
0.2741984 0.3844694 0.1202224
0.2988176 0.3867288 0.1235195
0.3244207 0.3876609 0.1242836
0.3521793 0.3880398 0.1224810
0.3836349 0.3891763 0.1187787
0.4197914 0.3921675 0.1140485
0.4605425 0.3974073 0.1090156
0.5045709 0.4043592 0.1037339
0.5502953 0.4122685 0.0979865
0.5965704 0.4206925 0.0916261
0.6428814 0.4296658 0.0848350
0.6891326 0.4395055 0.0780775
0.7353504 0.4505078 0.0718683
0.7814730 0.4627280 0.0665434
0.8273211 0.4759362 0.0621575
0.8727030 0.4897335 0.0585256
0.9175431 0.5037365 0.0553669
0.9619148 0.5177068 0.0524368
1.0000000 0.5315738 0.0495849
1.0000000 0.5453771 0.0467438
0.0274984 0.3437626 0.0898814
0.0407311 0.3456918 0.0871377
0.0540358 0.3476667 0.0844583
0.0675447 0.3497646 0.0819643
0.0814288 0.3520714 0.0798174
0.0958898 0.3546649 0.0782076
0.1111477 0.3576007 0.0773352
0.1274269 0.3608978 0.0773898
0.1449183 0.3645236 0.0785153
0.1637404 0.3683768 0.0807590
0.1839059 0.3722834 0.0840149
0.2053278 0.3760226 0.0879881
0.2278504 0.3793436 0.0921777
0.2513536 0.3820285 0.0959244
0.2759211 0.3839916 0.0985392
0.3019774 0.3854023 0.0994938
0.3302936 0.3867566 0.0985912
0.3617876 0.3887857 0.0960253
0.3971668 0.3922405 0.0923268
0.4365029 0.3975309 0.0880684
0.4790562 0.4044870 0.0835050
0.5236556 0.4125800 0.0785839
0.5692054 0.4212899 0.0731243
0.6150178 0.4303727 0.0670618
0.6608466 0.4398931 0.0605829
0.7067141 0.4500717 0.0540602
0.7526867 0.4610796 0.0478907
0.7987396 0.4729072 0.0423387
0.8447662 0.4853599 0.0374633
0.8906472 0.4981594 0.0331557
0.9363264 0.5110692 0.0292298
0.9818391 0.5239652 0.0255047
1.0000000 0.5368304 0.0218486
0.0114419 0.3508150 0.0831776
0.0246339 0.3525339 0.0797595
0.0378935 0.3542919 0.0763965
0.0513370 0.3561507 0.0731835
0.0651176 0.3581731 0.0702448
0.0794105 0.3604061 0.0677283
0.0944054 0.3628696 0.0657915
0.1102905 0.3655467 0.0645782
0.1272268 0.3683791 0.0641932
0.1453327 0.3712678 0.0646819
0.1646710 0.3740885 0.0659981
0.1852554 0.3767172 0.0679724
0.2070864 0.3790625 0.0703036
0.2302153 0.3811032 0.0725755
0.2548248 0.3829240 0.0743232
0.2812688 0.3847359 0.0751317
0.3100376 0.3868653 0.0747325
0.3416562 0.3897184 0.0730814
0.3765226 0.3937111 0.0703761
0.4146895 0.3991031 0.0669234
0.4557403 0.4058575 0.0629469
0.4989011 0.4136614 0.0584838
0.5433113 0.4221012 0.0534240
0.5882984 0.4308708 0.0476609
0.6335190 0.4398830 0.0412426
0.6789098 0.4492406 0.0344143
0.7245355 0.4591112 0.0275475
0.7704417 0.4695942 0.0210087
0.8165952 0.4806564 0.0150309
0.8628957 0.4921494 0.0096636
0.9092423 0.5038881 0.0048016
0.9555773 0.5157252 0.0002584
1.0000000 0.5275830 0.0000000
0.0000000 0.3579001 0.0765047
0.0081023 0.3594414 0.0724752
0.0214937 0.3610108 0.0684892
0.0350397 0.3626503 0.0646167
0.0488740 0.3643979 0.0609493
0.0631491 0.3662755 0.0575981
0.0780290 0.3682797 0.0546810
0.0936749 0.3703786 0.0523062
0.1102382 0.3725135 0.0505573
0.1278485 0.3746100 0.0494836
0.1466168 0.3765994 0.0490854
0.1666467 0.3784443 0.0492906
0.1880528 0.3801639 0.0499446
0.2109923 0.3818477 0.0508122
0.2356807 0.3836517 0.0515966
0.2623865 0.3857762 0.0519816
0.2914057 0.3884391 0.0516872
0.3230158 0.3918582 0.0505405
0.3574019 0.3962284 0.0485087
0.3945630 0.4016666 0.0456678
0.4342478 0.4081487 0.0421148
0.4759607 0.4154873 0.0378839
0.5190884 0.4233962 0.0329215
0.5630732 0.4316094 0.0271550
0.6075435 0.4399836 0.0206010
0.6523517 0.4485310 0.0134382
0.6974965 0.4573689 0.0059977
0.7430180 0.4666261 0.0000000
0.7889162 0.4763634 0.0000000
0.8351253 0.4865416 0.0000000
0.8815400 0.4970441 0.0000000
0.9280611 0.5077292 0.0000000
0.9746188 0.5184797 0.0000000
0.0000000 0.3651633 0.0699711
0.0000000 0.3665205 0.0653750
0.0049586 0.3678938 0.0608081
0.0187346 0.3693049 0.0563195
0.0327462 0.3707703 0.0519745
0.0471283 0.3722920 0.0478505
0.0620222 0.3738550 0.0440335
0.0775779 0.3754276 0.0406082
0.0939467 0.3769679 0.0376494
0.1112763 0.3784377 0.0352165
0.1297203 0.3798231 0.0333442
0.1494471 0.3811532 0.0320291
0.1706423 0.3825121 0.0312160
0.1935080 0.3840353 0.0307890
0.2182546 0.3858878 0.0305685
0.2450793 0.3882364 0.0303180
0.2741504 0.3912233 0.0297778
0.3055918 0.3949567 0.0287124
0.3394622 0.3995051 0.0269559
0.3757233 0.4048903 0.0244194
0.4142036 0.4110661 0.0210693
0.4545861 0.4179023 0.0168825
0.4964535 0.4252037 0.0118221
0.5393767 0.4327677 0.0058584
0.5830096 0.4404533 0.0000000
0.6271481 0.4482259 0.0000000
0.6717129 0.4561514 0.0000000
0.7166933 0.4643447 0.0000000
0.7620814 0.4729021 0.0000000
0.8078248 0.4818504 0.0000000
0.8538356 0.4911308 0.0000000
0.9000071 0.5006268 0.0000000
0.9462407 0.5102110 0.0000000
0.0000000 0.3726915 0.0636463
0.0000000 0.3738340 0.0585097
0.0000000 0.3749813 0.0533896
0.0024710 0.3761382 0.0483151
0.0167574 0.3773038 0.0433291
