catalog/styles/series/movie/series-movie-honey-hour/look.cube
# series-movie-honey-hour iteration 19
LUT_3D_SIZE 9
DOMAIN_MIN 0 0 0
DOMAIN_MAX 1 1 1
0.0505251 0.0492915 0.0414132
0.1404855 0.0219255 0.0156116
0.4444192 0.0371395 0.0432102
0.6907151 0.0648557 0.0058017
0.8400678 0.0852789 0.0000000
0.9219044 0.0982211 0.0000000
0.9580614 0.0989016 0.0000000
0.9981935 0.1005144 0.0000000
1.0000000 0.1127271 0.0000000
0.0000000 0.0690012 0.0000000
0.2012290 0.1559165 0.0361428
0.4451088 0.2107734 0.0208219
0.5889490 0.1665742 0.0167069
0.7366596 0.1613415 0.0000000
0.8507711 0.1615382 0.0000000
0.9420961 0.1610441 0.0000000
1.0000000 0.1499508 0.0000000
1.0000000 0.1282595 0.0000000
0.0000000 0.2678432 0.0000000
0.2277343 0.3251835 0.0222175
0.4149856 0.3410352 0.0210822
0.5617734 0.3046247 0.0228367
0.7675157 0.2824945 0.0058864
0.8904558 0.2751167 0.0000000
0.9696593 0.2692607 0.0000000
1.0000000 0.2430726 0.0000000
1.0000000 0.1915329 0.0000000
0.0370907 0.4563243 0.0000000
0.2246081 0.4663510 0.0000000
0.3761396 0.4556016 0.0235929
0.5235598 0.4400593 0.0173886
0.6996137 0.4194770 0.0000000
0.8977718 0.4172951 0.0000000
1.0000000 0.4124572 0.0000000
1.0000000 0.3828675 0.0000000
1.0000000 0.3436895 0.0103856
0.0410396 0.6014385 0.0000000
0.1964605 0.5842063 0.0000000
0.3370416 0.5632753 0.0000000
0.4821471 0.5526594 0.0000000
0.6537816 0.5557724 0.0000000
0.8306745 0.5542436 0.0000000
0.9751168 0.5518636 0.0000000
1.0000000 0.5402573 0.0096777
1.0000000 0.5192741 0.0541272
0.0293101 0.7230694 0.0000000
0.1735167 0.7021598 0.0000000
0.3161961 0.6847382 0.0000000
0.4627289 0.6773979 0.0000000
0.6201459 0.6819593 0.0000000
0.7779978 0.6870831 0.0000000
0.9149894 0.6885720 0.0000000
1.0000000 0.6905456 0.0266520
1.0000000 0.6820426 0.1136633
0.0174565 0.8360794 0.0000000
0.1561286 0.8206574 0.0000000
0.2960654 0.8084731 0.0000000
0.4386139 0.8030771 0.0000000
0.5828037 0.8051779 0.0000000
0.7241698 0.8112807 0.0000000
0.8533843 0.8166535 0.0000000
0.9598828 0.8190700 0.0000000
1.0000000 0.8157359 0.1063795
0.0102094 0.9465145 0.0000000
0.1414521 0.9393398 0.0000000
0.2731225 0.9329920 0.0000000
0.4050385 0.9287614 0.0000000
0.5368065 0.9279565 0.0000000
0.6665710 0.9308518 0.0000000
0.7930237 0.9357385 0.0000000
0.9144494 0.9396540 0.0000000
1.0000000 0.9422901 0.0271697
0.0053163 1.0000000 0.0000000
0.1277689 1.0000000 0.0000000
0.2490839 1.0000000 0.0000000
0.3684036 1.0000000 0.0000000
0.4867506 1.0000000 0.0000000
0.6070170 1.0000000 0.0000000
0.7339833 1.0000000 0.0000000
0.8715622 1.0000000 0.0000000
1.0000000 1.0000000 0.0000000
0.0581756 0.0794856 0.1409074
0.0869236 0.0170227 0.0993068
0.3003916 0.0149940 0.1308785
0.5859975 0.0479796 0.1294021
0.8025823 0.0828788 0.1075433
0.9275909 0.1087793 0.0863888
0.9871147 0.1250823 0.0754112
1.0000000 0.1467358 0.0847647
1.0000000 0.1751501 0.1110509
0.0346265 0.1871263 0.1118214
0.1242753 0.1204007 0.1128158
0.2595911 0.1234606 0.1300970
0.4822045 0.1401438 0.1189946
0.6848315 0.1585480 0.1050126
0.8324981 0.1736630 0.0923229
0.9391896 0.1882679 0.0884095
1.0000000 0.1992244 0.0968067
1.0000000 0.2083380 0.1116569
0.0177412 0.3135029 0.1178257
0.1915498 0.3202526 0.1117697
0.3615490 0.3153462 0.0954446
0.4938826 0.2907856 0.1222535
0.6398698 0.2650575 0.1084913
0.8053523 0.2669025 0.0917174
0.9316412 0.2787827 0.0923233
1.0000000 0.2828657 0.1027912
1.0000000 0.2760098 0.1187028
0.0278079 0.4713685 0.1203428
0.1923930 0.4648050 0.1036623
0.3424388 0.4485477 0.1007130
0.4672009 0.4199927 0.1151874
0.6553614 0.4206281 0.1125521
0.8163754 0.4027134 0.0848192
0.9511442 0.4033940 0.0773498
1.0000000 0.4006247 0.1020706
1.0000000 0.3882883 0.1302847
0.0299689 0.6124288 0.1082625
0.1800507 0.5946091 0.0863481
0.3330963 0.5778077 0.0660123
0.4698562 0.5545957 0.0506525
0.6155650 0.5416078 0.0553055
0.8039922 0.5535014 0.0618145
0.9423273 0.5395585 0.0616196
1.0000000 0.5315269 0.0958244
1.0000000 0.5234518 0.1351200
0.0221749 0.7359523 0.0872867
0.1648526 0.7162320 0.0572404
0.3082393 0.6964257 0.0261358
0.4480332 0.6765894 0.0014944
0.5907826 0.6667110 0.0000000
0.7520214 0.6757046 0.0208279
0.8994459 0.6816185 0.0529515
0.9930998 0.6727836 0.0908293
1.0000000 0.6634794 0.1315103
0.0115501 0.8501484 0.0571320
0.1481232 0.8330317 0.0240104
0.2840076 0.8157732 0.0000000
0.4204078 0.8009710 0.0000000
0.5600324 0.7939574 0.0000000
0.7027296 0.7966951 0.0000000
0.8402297 0.8037864 0.0273285
0.9561318 0.8057743 0.0750777
1.0000000 0.8010687 0.1206251
0.0013226 0.9592243 0.0210692
0.1316845 0.9481122 0.0000000
0.2619342 0.9375190 0.0000000
0.3926953 0.9285145 0.0000000
0.5240534 0.9227775 0.0000000
0.6555156 0.9214841 0.0000000
0.7864327 0.9244324 0.0000000
0.9140729 0.9288161 0.0461373
1.0000000 0.9313355 0.0986908
0.0000000 1.0000000 0.0000000
0.1161892 1.0000000 0.0000000
0.2402522 1.0000000 0.0000000
0.3640218 1.0000000 0.0000000
0.4866550 1.0000000 0.0000000
0.6092267 1.0000000 0.0000000
0.7367426 1.0000000 0.0000000
0.8742396 1.0000000 0.0110493
1.0000000 1.0000000 0.0588847
0.1521062 0.1984218 0.3294532
0.1425019 0.0678621 0.2356880
0.2607853 0.0217529 0.2232591
0.4753037 0.0296938 0.2329360
0.6933910 0.0645455 0.2355697
0.8537498 0.0998316 0.2277250
0.9558833 0.1298598 0.2178487
1.0000000 0.1622511 0.2150887
1.0000000 0.2064902 0.2245174
0.1073476 0.2563351 0.2810361
0.1598397 0.1772667 0.2511710
0.2231137 0.0963575 0.2091918
0.4319653 0.1189338 0.2202828
0.6369006 0.1520710 0.2242506
0.7959242 0.1770551 0.2180718
0.9181032 0.2031364 0.2153008
1.0000000 0.2293307 0.2209987
1.0000000 0.2551293 0.2317658
0.0663901 0.3690440 0.2790563
0.1654902 0.3141870 0.2518446
0.2516578 0.2431924 0.2234490
0.4118080 0.2385201 0.2153242
0.5892479 0.2403464 0.1944878
0.7599569 0.2631989 0.2013108
0.8954659 0.2881529 0.2102517
0.9977574 0.3090797 0.2256747
1.0000000 0.3264135 0.2438922
0.0554694 0.5035199 0.2826168
0.1597638 0.4611110 0.2302748
0.2764690 0.4173843 0.1895189
0.4235714 0.3844802 0.1896227
0.6132257 0.3919611 0.2024196
0.7671570 0.3865361 0.1941935
0.8865037 0.3980196 0.2079500
0.9865324 0.4112674 0.2288508
1.0000000 0.4199097 0.2513321
0.0418118 0.6331628 0.2737063
0.1615871 0.6005110 0.2200704
0.3005625 0.5763391 0.1739565
0.4532356 0.5546026 0.1474822
0.5911119 0.5302774 0.1594980
0.7756859 0.5455248 0.1920835
0.8931351 0.5357056 0.2036888
0.9826851 0.5328685 0.2223731
1.0000000 0.5356057 0.2431589
0.0245854 0.7521595 0.2487481
0.1548857 0.7274605 0.2014595
0.2907934 0.7034682 0.1557548
0.4268492 0.6750129 0.1177298
0.5621235 0.6516548 0.1087463
0.7218719 0.6595191 0.1413764
0.8792910 0.6724059 0.1776403
0.9777438 0.6658757 0.2009641
1.0000000 0.6603973 0.2175407
0.0087107 0.8639974 0.2126702
0.1395323 0.8437234 0.1734746
0.2706932 0.8225692 0.1357652
0.4025325 0.8011775 0.1059455
0.5377116 0.7850493 0.0961048
0.6811755 0.7825841 0.1150201
0.8266914 0.7909894 0.1506947
0.9487727 0.7948824 0.1797340
1.0000000 0.7921125 0.1975690
0.0000000 0.9703339 0.1705044
0.1216752 0.9559594 0.1421277
0.2508944 0.9419068 0.1159218
0.3813097 0.9293641 0.0971710
0.5132737 0.9197427 0.0919984
0.6466260 0.9144295 0.1038928
0.7807223 0.9148034 0.1306034
0.9117579 0.9187470 0.1619773
1.0000000 0.9224298 0.1892127
0.0000000 1.0000000 0.1264763
0.1040149 1.0000000 0.1105619
0.2321546 1.0000000 0.0967228
0.3602140 1.0000000 0.0881077
0.4869549 1.0000000 0.0870470
0.6125158 1.0000000 0.0953330
0.7408984 1.0000000 0.1149189
0.8782136 1.0000000 0.1456547
1.0000000 1.0000000 0.1816163
0.2407347 0.3008778 0.4661144
0.2379307 0.1514852 0.3811004
0.3013996 0.0628052 0.3363936
0.4410954 0.0411062 0.3354695
0.6139895 0.0575902 0.3493558
0.7744168 0.0877443 0.3571366
0.9016530 0.1180435 0.3542792
1.0000000 0.1487167 0.3465771
1.0000000 0.1813795 0.3385131
0.1981916 0.3451620 0.4469895
0.2270403 0.2466510 0.3918688
0.2882121 0.1635532 0.3507562
0.4218533 0.1362168 0.3397660
0.5939805 0.1517683 0.3440592
0.7484829 0.1744254 0.3447631
0.8780360 0.2007108 0.3439778
0.9873878 0.2298013 0.3457608
1.0000000 0.2595914 0.3497788
0.1104300 0.3600290 0.3733671
0.2242059 0.3697385 0.4152361
0.2888077 0.2858561 0.3692042
0.4059222 0.2458457 0.3545232
0.5703272 0.2434619 0.3318154
0.7233345 0.2568125 0.3202299
0.8589318 0.2865427 0.3306466
0.9733448 0.3155752 0.3461757
1.0000000 0.3432843 0.3636198
0.1169022 0.5387647 0.4413236
0.1752970 0.4750258 0.3830863
0.2286988 0.3847173 0.3221809
0.3819342 0.3655526 0.3362114
0.5578557 0.3604328 0.3318502
0.7189629 0.3489351 0.2718700
0.8519240 0.3850440 0.3133630
0.9602300 0.4134966 0.3496985
1.0000000 0.4378916 0.3766764
0.0852071 0.6666446 0.4399805
0.1575647 0.6057315 0.3656629
0.2539594 0.5627853 0.3137661
0.3899270 0.5251779 0.2815413
0.5688174 0.5102376 0.2945260
0.7407517 0.5179374 0.3058175
0.8654020 0.5262218 0.3295904
0.9611258 0.5354151 0.3567170
1.0000000 0.5476740 0.3783682
0.0462312 0.7757126 0.4089424
0.1474707 0.7345328 0.3485818
0.2627146 0.7030700 0.2985956
0.3971883 0.6762743 0.2620802
0.5445983 0.6519564 0.2518328
0.7006183 0.6522259 0.2899535
0.8598808 0.6683714 0.3323996
0.9670198 0.6684041 0.3494981
1.0000000 0.6663398 0.3594222
0.0140399 0.8793977 0.3663117
0.1317526 0.8515720 0.3222713
0.2540118 0.8258525 0.2816093
0.3853925 0.8051580 0.2521835
0.5244922 0.7881314 0.2421593
0.6687960 0.7789853 0.2597806
0.8156559 0.7836068 0.2959145
0.9417441 0.7894460 0.3225264
1.0000000 0.7911461 0.3366834
0.0000000 0.9787966 0.3185056
0.1116538 0.9617957 0.2911414
0.2401191 0.9449643 0.2654976
0.3712010 0.9304408 0.2468341
0.5063660 0.9200580 0.2417634
0.6438834 0.9135693 0.2528114
0.7797675 0.9111311 0.2766229
0.9094906 0.9125930 0.3025330
1.0000000 0.9153359 0.3222693
0.0000000 1.0000000 0.2692799
0.0901801 1.0000000 0.2593347
0.2253519 1.0000000 0.2499227
0.3578625 1.0000000 0.2429792
0.4875197 1.0000000 0.2414924
0.6159088 1.0000000 0.2478342
0.7461314 1.0000000 0.2632604
0.8829515 1.0000000 0.2885163
1.0000000 1.0000000 0.3206213
0.3081330 0.3865419 0.5669415
0.3382284 0.2476522 0.5154159
0.3852323 0.1392222 0.4716352
0.4714803 0.0846900 0.4565309
0.5916447 0.0731989 0.4647398
0.7235823 0.0835678 0.4770399
0.8480320 0.1000555 0.4796303
0.9618913 0.1168852 0.4724867
1.0000000 0.1336721 0.4612597
0.2663782 0.4109667 0.5517494
0.3175164 0.3309537 0.5270353
0.3851375 0.2589164 0.5047424
0.4717900 0.2021846 0.4824965
0.5879288 0.1786684 0.4721648
0.7157157 0.1793822 0.4701548
0.8382145 0.1918444 0.4691440
0.9531835 0.2098460 0.4675293
1.0000000 0.2292835 0.4657245
0.1837011 0.4441631 0.5272007
0.2861582 0.4177109 0.5333180
0.3875234 0.3876407 0.5366240
0.4757782 0.3290836 0.5140627
0.5833251 0.2860066 0.4854837
0.7069167 0.2717834 0.4589425
0.8302350 0.2836200 0.4544690
0.9459102 0.3050444 0.4626369
1.0000000 0.3270555 0.4735771
0.1408335 0.5217079 0.5291718
0.2360877 0.5163881 0.5327378
0.3302532 0.4706136 0.5072728
0.4700506 0.4643037 0.5371462
0.5678667 0.3907578 0.4978486
0.7014984 0.3683121 0.4446182
0.8309709 0.3809998 0.4298406
0.9425808 0.4070957 0.4576878
1.0000000 0.4322360 0.4895094
0.1352010 0.6933044 0.5849959
0.1851766 0.6244077 0.5159118
0.2521543 0.5667927 0.4683333
0.3857068 0.5524328 0.4777149
0.5343049 0.4976282 0.4661114
0.7051455 0.5113308 0.4721279
0.8412572 0.4961600 0.3987472
0.9473835 0.5251967 0.4606882
1.0000000 0.5459189 0.5075768
0.0853281 0.8022968 0.5590992
0.1565725 0.7452814 0.4967584
0.2409092 0.6968691 0.4454358
0.3704258 0.6805397 0.4290574
0.5404343 0.6764886 0.4362187
0.7133722 0.6752325 0.4704789
0.8423378 0.6620225 0.4772216
0.9606286 0.6685010 0.4910989
1.0000000 0.6656949 0.5096132
0.0281540 0.8949062 0.5123962
0.1305588 0.8584998 0.4685205
0.2396603 0.8259959 0.4295378
0.3665828 0.8051868 0.4049822
0.5196705 0.8007416 0.4052744
0.6806678 0.7985026 0.4293346
0.8197846 0.7936759 0.4680348
0.9422882 0.7926621 0.4923727
1.0000000 0.7881459 0.4998983
0.0000000 0.9834319 0.4624891
0.1023357 0.9644897 0.4371281
0.2312399 0.9465109 0.4137641
0.3633263 0.9310348 0.3964976
0.5024774 0.9213439 0.3929823
0.6489268 0.9194444 0.4097137
0.7891938 0.9181854 0.4395581
0.9113064 0.9133837 0.4665690
1.0000000 0.9111348 0.4856654
0.0000000 1.0000000 0.4129914
0.0735167 1.0000000 0.4058446
0.2185843 1.0000000 0.3978828
0.3570778 1.0000000 0.3901860
0.4889118 1.0000000 0.3871394
0.6181594 1.0000000 0.3938579
0.7504651 1.0000000 0.4126951
0.8876242 1.0000000 0.4417050
1.0000000 1.0000000 0.4773304
0.3811991 0.4696905 0.6650206
0.4428602 0.3434131 0.6380647
0.4886443 0.2338856 0.6129762
0.5409821 0.1550875 0.5953654
0.6138848 0.1112491 0.5922288
0.7053071 0.0914132 0.5969661
0.8059124 0.0824853 0.5989852
0.9089491 0.0761949 0.5939299
1.0000000 0.0699088 0.5850499
0.3486653 0.4860168 0.6530583
0.4114319 0.4147819 0.6469219
0.4757561 0.3441675 0.6377792
0.5400583 0.2786363 0.6228703
0.6158019 0.2283439 0.6076649
0.7078963 0.1998357 0.5985285
0.8087550 0.1869645 0.5928678
0.9117962 0.1818263 0.5875239
1.0000000 0.1789164 0.5817672
0.2870562 0.5373473 0.6599627
0.3660588 0.4846623 0.6495721
0.4548354 0.4523167 0.6561323
0.5384299 0.4049330 0.6495139
0.6189269 0.3488273 0.6268960
0.7109616 0.3090565 0.6016336
0.8127004 0.2919141 0.5858865
0.9160094 0.2884141 0.5810000
1.0000000 0.2887227 0.5801295
0.2031020 0.5865126 0.6517341
0.3012898 0.5625760 0.6514411
0.3934304 0.5352893 0.6440343
0.5266764 0.5353363 0.6679202
0.6255131 0.4813488 0.6560880
0.7144346 0.4221659 0.6111226
0.8179890 0.3993310 0.5787062
0.9215581 0.3970927 0.5736521
1.0000000 0.4019637 0.5842572
0.1882213 0.7030086 0.6843526
0.2332642 0.6598514 0.6529962
0.3119728 0.6102690 0.6200796
0.4033077 0.5568468 0.5836543
0.6391771 0.6382130 0.6993913
0.7158779 0.5463585 0.6329236
0.8203837 0.5130359 0.5772582
0.9276269 0.5102316 0.5661462
1.0000000 0.5236641 0.5997430
0.1256725 0.8174024 0.6810698
0.1886232 0.7670098 0.6368534
0.2642930 0.7160329 0.5973809
0.3511235 0.6622656 0.5657581
0.5635212 0.7216749 0.6484041
0.7124181 0.6891925 0.6513563
0.8135794 0.6392442 0.5952873
0.9389547 0.6410592 0.5770075
1.0000000 0.6542218 0.6254929
0.0408881 0.9033500 0.6434060
0.1396542 0.8662855 0.6074127
0.2433463 0.8325240 0.5772890
0.3645164 0.8102749 0.5637167
0.5120888 0.8052539 0.5711506
0.6984635 0.8255826 0.6147621
0.8414270 0.8161869 0.6414586
0.9406869 0.7953644 0.6451121
1.0000000 0.7860172 0.6495156
0.0000000 0.9826752 0.5998513
0.0950215 0.9639914 0.5786069
0.2273768 0.9473255 0.5605537
0.3626553 0.9332802 0.5487034
0.5026966 0.9226484 0.5471045
0.6540123 0.9229873 0.5674642
0.8066003 0.9310905 0.6078508
0.9224424 0.9218588 0.6352479
1.0000000 0.9066450 0.6461983
0.0000000 1.0000000 0.5570944
0.0523734 1.0000000 0.5511040
0.2084370 1.0000000 0.5434055
0.3556891 1.0000000 0.5348114
0.4931307 1.0000000 0.5308215
0.6238432 1.0000000 0.5386244
0.7555123 1.0000000 0.5630526
0.8920216 1.0000000 0.5999685
1.0000000 1.0000000 0.6378892
0.5036977 0.5506900 0.7503224
0.5556503 0.4352135 0.7536743
0.5938354 0.3298525 0.7482514
0.6237895 0.2385506 0.7381329
0.6602658 0.1665681 0.7296245
0.7115811 0.1127795 0.7245208
0.7769629 0.0703841 0.7199669
0.8507714 0.0323036 0.7129265
0.9278362 0.0000000 0.7038514
0.4574105 0.5661352 0.7524606
0.5101585 0.4931299 0.7555123
0.5598870 0.4216651 0.7571499
0.6064054 0.3518108 0.7525992
0.6564175 0.2868382 0.7418965
0.7170975 0.2326190 0.7298584
0.7890226 0.1893819 0.7187931
0.8675431 0.1530040 0.7084065
0.9480953 0.1190577 0.6980950
0.4065277 0.5941983 0.7463763
0.4554051 0.5503963 0.7537815
0.5157535 0.5094570 0.7614754
0.5861188 0.4651768 0.7649137
0.6538266 0.4091834 0.7549426
0.7235760 0.3538890 0.7371298
0.8015663 0.3092673 0.7191744
0.8845514 0.2740213 0.7045596
0.9685374 0.2425544 0.6922747
0.3601051 0.6298110 0.7289181
0.3835325 0.6150189 0.7531649
0.4518313 0.5880958 0.7559248
0.5529022 0.5676936 0.7627748
0.6535121 0.5373228 0.7691930
0.7339518 0.4809645 0.7504382
0.8145816 0.4307425 0.7240110
0.9005029 0.3950533 0.7030148
0.9881163 0.3657577 0.6879149
0.2723110 0.7149904 0.7512955
0.2972529 0.6960242 0.7560024
0.3847226 0.6690086 0.7489614
0.4834701 0.6377800 0.7335084
0.6422249 0.6599172 0.7724570
0.7547773 0.6229086 0.7780497
0.8249934 0.5532879 0.7349798
0.9120014 0.5154847 0.7047807
1.0000000 0.4939568 0.6914236
0.1513681 0.8162779 0.7706074
0.2229676 0.7864990 0.7509596
0.3223871 0.7577597 0.7356730
0.4257179 0.7289486 0.7306625
0.5717288 0.7236158 0.7416570
0.7653435 0.7633730 0.8071322
0.8257611 0.6756540 0.7531748
0.9163878 0.6357527 0.7099112
1.0000000 0.6346313 0.7138894
0.0472277 0.9006331 0.7558556
0.1577035 0.8743347 0.7339061
0.2702484 0.8505181 0.7181467
0.3937296 0.8319201 0.7160395
0.5322421 0.8188605 0.7275819
0.6953414 0.8300735 0.7685787
0.8101087 0.7944381 0.7648075
0.9239026 0.7685483 0.7271122
1.0000000 0.7840630 0.7559664
0.0000000 0.9759500 0.7280586
0.0912694 0.9618681 0.7142046
0.2310868 0.9490828 0.7033621
0.3731012 0.9388627 0.6994255
0.5156664 0.9293538 0.7036512
0.6564069 0.9210679 0.7173207
0.8053706 0.9249171 0.7509015
0.9240058 0.9141509 0.7662469
1.0000000 0.9150226 0.7824162
0.0000000 1.0000000 0.6985863
0.0269858 1.0000000 0.6949142
0.1937712 1.0000000 0.6899041
0.3522779 1.0000000 0.6838049
0.4998023 1.0000000 0.6811989
0.6396774 1.0000000 0.6907020
0.7736758 1.0000000 0.7179376
0.9028577 1.0000000 0.7565227
1.0000000 1.0000000 0.7872875
0.6502061 0.6248517 0.8458513
0.6768964 0.5228125 0.8654522
0.6960192 0.4223831 0.8764595
0.7058291 0.3244670 0.8778923
0.7142543 0.2312746 0.8712503
0.7300981 0.1449524 0.8596906
0.7569807 0.0650221 0.8460850
0.7925463 0.0000000 0.8317350
0.8317894 0.0000000 0.8170751
0.5860735 0.6409492 0.8458064
0.6147270 0.5681869 0.8591681
0.6422212 0.4955604 0.8703567
0.6692909 0.4218968 0.8754887
0.6981622 0.3462090 0.8722145
0.7324915 0.2705185 0.8617814
0.7745490 0.1970833 0.8473435
0.8226654 0.1259807 0.8313630
0.8732349 0.0560322 0.8149923
0.5227694 0.6599610 0.8380941
0.5488391 0.6149697 0.8522197
0.5832078 0.5678013 0.8633262
0.6298800 0.5173078 0.8705082
0.6822021 0.4603300 0.8715214
0.7355748 0.3960473 0.8637016
0.7922609 0.3291902 0.8493806
0.8523519 0.2629697 0.8317965
0.9136581 0.1975127 0.8133605
0.4522418 0.6919095 0.8308483
0.4708179 0.6681187 0.8472985
0.5158561 0.6393533 0.8555327
0.5844188 0.6062247 0.8586727
0.6637707 0.5700691 0.8644221
0.7399244 0.5212108 0.8648937
0.8101018 0.4609938 0.8536309
0.8801130 0.3991998 0.8351825
0.9507240 0.3376051 0.8133024
0.3368978 0.7454635 0.8372704
0.3737077 0.7310995 0.8470134
0.4446923 0.7130735 0.8491458
0.5353187 0.6905352 0.8438698
0.6343715 0.6660053 0.8437289
0.7409677 0.6417715 0.8622427
0.8272340 0.5928272 0.8627040
0.9032911 0.5341567 0.8428392
0.9828864 0.4787841 0.8181792
0.1872060 0.8166949 0.8519693
0.2740419 0.8038080 0.8493376
0.3759251 0.7914374 0.8469474
0.4854216 0.7753953 0.8395390
0.5928306 0.7468383 0.8214492
0.7315699 0.7519191 0.8568287
0.8370137 0.7201096 0.8745146
0.9168796 0.6642125 0.8515372
1.0000000 0.6284361 0.8339720
0.0571557 0.8914205 0.8552321
0.1817238 0.8810622 0.8488245
0.3078432 0.8713010 0.8446318
0.4373101 0.8610658 0.8427368
0.5725657 0.8503366 0.8463368
0.7018473 0.8361802 0.8487647
0.8242331 0.8242167 0.8708417
0.9192507 0.7877224 0.8629554
1.0000000 0.7869908 0.8614745
0.0000000 0.9640241 0.8474413
0.0900055 0.9585267 0.8439576
0.2415613 0.9529293 0.8415657
0.3930415 0.9483246 0.8429867
0.5426526 0.9439077 0.8497835
0.6805901 0.9337792 0.8566445
0.8052793 0.9222282 0.8670628
0.9211985 0.9111241 0.8876655
1.0000000 0.9309762 0.8906951
0.0000000 1.0000000 0.8359126
0.0000000 1.0000000 0.8378607
0.1774693 1.0000000 0.8400801
0.3494180 1.0000000 0.8421612
0.5103112 1.0000000 0.8444089
0.6619339 1.0000000 0.8527359
0.8050085 1.0000000 0.8722969
0.9321977 1.0000000 0.9009686
1.0000000 1.0000000 0.9199280
0.8045093 0.6986571 0.9470238
0.8019003 0.6071195 0.9760645
0.7967735 0.5122403 1.0000000
0.7855524 0.4100370 1.0000000
0.7687071 0.2988594 1.0000000
0.7517691 0.1816286 0.9982386
0.7401344 0.0630888 0.9753515
0.7348968 0.0000000 0.9512005
0.7330525 0.0000000 0.9276922
0.7214637 0.7144884 0.9396672
0.7225462 0.6425562 0.9621748
0.7251500 0.5686852 0.9819046
0.7304707 0.4902362 0.9956229
0.7386059 0.4045523 1.0000000
0.7489580 0.3096697 0.9936179
0.7617934 0.2068967 0.9771833
0.7781281 0.1002078 0.9555659
0.7964660 0.0000000 0.9326444
0.6305474 0.7322305 0.9354584
0.6410366 0.6803536 0.9501761
0.6542501 0.6266154 0.9637825
0.6753101 0.5692536 0.9748032
0.7071467 0.5066436 0.9828946
0.7449247 0.4342965 0.9851960
0.7827826 0.3489298 0.9773567
0.8200606 0.2536276 0.9604702
0.8574691 0.1546573 0.9394398
0.5167013 0.7544779 0.9346316
0.5516049 0.7224543 0.9424467
0.5842341 0.6886098 0.9501775
0.6228656 0.6483266 0.9552078
0.6739249 0.6014669 0.9597729
0.7365423 0.5496459 0.9684918
0.8008843 0.4858155 0.9740197
0.8594174 0.4052243 0.9664733
0.9140682 0.3157507 0.9499940
0.3817311 0.7831474 0.9350215
0.4499379 0.7704026 0.9412333
0.5115786 0.7542542 0.9442331
0.5754994 0.7283044 0.9408523
0.6453719 0.6924719 0.9374249
0.7250313 0.6550960 0.9461551
0.8138187 0.6148697 0.9663767
0.8937716 0.5539117 0.9735625
0.9628001 0.4763508 0.9647307
0.2324621 0.8242117 0.9397317
0.3338414 0.8249948 0.9477900
0.4319633 0.8210380 0.9480446
0.5297719 0.8075739 0.9368244
0.6274985 0.7868963 0.9287446
0.7209543 0.7585022 0.9322772
0.8236016 0.7360796 0.9594685
0.9194684 0.6996134 0.9829189
0.9999567 0.6411012 0.9831303
0.0746869 0.8817441 0.9513509
0.2105099 0.8871127 0.9591550
0.3455962 0.8891146 0.9608480
0.4781937 0.8853400 0.9518331
0.6071564 0.8779617 0.9418200
0.7255217 0.8642547 0.9440460
0.8350610 0.8526809 0.9667511
0.9358075 0.8400217 0.9957363
1.0000000 0.8161725 1.0000000
0.0000000 0.9497803 0.9626481
0.0893567 0.9542522 0.9706554
0.2545198 0.9575291 0.9772088
0.4166238 0.9593812 0.9799906
0.5719837 0.9593043 0.9790301
0.7144932 0.9558798 0.9793323
0.8396719 0.9527240 0.9881544
0.9553917 0.9655300 1.0000000
1.0000000 0.9769324 1.0000000
0.0000000 1.0000000 0.9704889
0.0000000 1.0000000 0.9809816
0.1615658 1.0000000 0.9936716
0.3487906 1.0000000 1.0000000
0.5256961 1.0000000 1.0000000
0.6880530 1.0000000 1.0000000
0.8413031 1.0000000 1.0000000
0.9820033 1.0000000 1.0000000
1.0000000 1.0000000 1.0000000
