catalog/styles/series/movie/series-movie-honey-hour/look.cube
# series-movie-honey-hour iteration 19
LUT_3D_SIZE 5
DOMAIN_MIN 0 0 0
DOMAIN_MAX 1 1 1
0.0505251 0.0492915 0.0414132
0.4444192 0.0371395 0.0432102
0.8400678 0.0852789 0.0000000
0.9580614 0.0989016 0.0000000
1.0000000 0.1127271 0.0000000
0.0000000 0.2678432 0.0000000
0.4149856 0.3410352 0.0210822
0.7675157 0.2824945 0.0058864
0.9696593 0.2692607 0.0000000
1.0000000 0.1915329 0.0000000
0.0410396 0.6014385 0.0000000
0.3370416 0.5632753 0.0000000
0.6537816 0.5557724 0.0000000
0.9751168 0.5518636 0.0000000
1.0000000 0.5192741 0.0541272
0.0174565 0.8360794 0.0000000
0.2960654 0.8084731 0.0000000
0.5828037 0.8051779 0.0000000
0.8533843 0.8166535 0.0000000
1.0000000 0.8157359 0.1063795
0.0053163 1.0000000 0.0000000
0.2490839 1.0000000 0.0000000
0.4867506 1.0000000 0.0000000
0.7339833 1.0000000 0.0000000
1.0000000 1.0000000 0.0000000
0.1521062 0.1984218 0.3294532
0.2607853 0.0217529 0.2232591
0.6933910 0.0645455 0.2355697
0.9558833 0.1298598 0.2178487
1.0000000 0.2064902 0.2245174
0.0663901 0.3690440 0.2790563
0.2516578 0.2431924 0.2234490
0.5892479 0.2403464 0.1944878
0.8954659 0.2881529 0.2102517
1.0000000 0.3264135 0.2438922
0.0418118 0.6331628 0.2737063
0.3005625 0.5763391 0.1739565
0.5911119 0.5302774 0.1594980
0.8931351 0.5357056 0.2036888
1.0000000 0.5356057 0.2431589
0.0087107 0.8639974 0.2126702
0.2706932 0.8225692 0.1357652
0.5377116 0.7850493 0.0961048
0.8266914 0.7909894 0.1506947
1.0000000 0.7921125 0.1975690
0.0000000 1.0000000 0.1264763
0.2321546 1.0000000 0.0967228
0.4869549 1.0000000 0.0870470
0.7408984 1.0000000 0.1149189
1.0000000 1.0000000 0.1816163
0.3081330 0.3865419 0.5669415
0.3852323 0.1392222 0.4716352
0.5916447 0.0731989 0.4647398
0.8480320 0.1000555 0.4796303
1.0000000 0.1336721 0.4612597
0.1837011 0.4441631 0.5272007
0.3875234 0.3876407 0.5366240
0.5833251 0.2860066 0.4854837
0.8302350 0.2836200 0.4544690
1.0000000 0.3270555 0.4735771
0.1352010 0.6933044 0.5849959
0.2521543 0.5667927 0.4683333
0.5343049 0.4976282 0.4661114
0.8412572 0.4961600 0.3987472
1.0000000 0.5459189 0.5075768
0.0281540 0.8949062 0.5123962
0.2396603 0.8259959 0.4295378
0.5196705 0.8007416 0.4052744
0.8197846 0.7936759 0.4680348
1.0000000 0.7881459 0.4998983
0.0000000 1.0000000 0.4129914
0.2185843 1.0000000 0.3978828
0.4889118 1.0000000 0.3871394
0.7504651 1.0000000 0.4126951
1.0000000 1.0000000 0.4773304
0.5036977 0.5506900 0.7503224
0.5938354 0.3298525 0.7482514
0.6602658 0.1665681 0.7296245
0.7769629 0.0703841 0.7199669
0.9278362 0.0000000 0.7038514
0.4065277 0.5941983 0.7463763
0.5157535 0.5094570 0.7614754
0.6538266 0.4091834 0.7549426
0.8015663 0.3092673 0.7191744
0.9685374 0.2425544 0.6922747
0.2723110 0.7149904 0.7512955
0.3847226 0.6690086 0.7489614
0.6422249 0.6599172 0.7724570
0.8249934 0.5532879 0.7349798
1.0000000 0.4939568 0.6914236
0.0472277 0.9006331 0.7558556
0.2702484 0.8505181 0.7181467
0.5322421 0.8188605 0.7275819
0.8101087 0.7944381 0.7648075
1.0000000 0.7840630 0.7559664
0.0000000 1.0000000 0.6985863
0.1937712 1.0000000 0.6899041
0.4998023 1.0000000 0.6811989
0.7736758 1.0000000 0.7179376
1.0000000 1.0000000 0.7872875
0.8045093 0.6986571 0.9470238
0.7967735 0.5122403 1.0000000
0.7687071 0.2988594 1.0000000
0.7401344 0.0630888 0.9753515
0.7330525 0.0000000 0.9276922
0.6305474 0.7322305 0.9354584
0.6542501 0.6266154 0.9637825
0.7071467 0.5066436 0.9828946
0.7827826 0.3489298 0.9773567
0.8574691 0.1546573 0.9394398
0.3817311 0.7831474 0.9350215
0.5115786 0.7542542 0.9442331
0.6453719 0.6924719 0.9374249
0.8138187 0.6148697 0.9663767
0.9628001 0.4763508 0.9647307
0.0746869 0.8817441 0.9513509
0.3455962 0.8891146 0.9608480
0.6071564 0.8779617 0.9418200
0.8350610 0.8526809 0.9667511
1.0000000 0.8161725 1.0000000
0.0000000 1.0000000 0.9704889
0.1615658 1.0000000 0.9936716
0.5256961 1.0000000 1.0000000
0.8413031 1.0000000 1.0000000
1.0000000 1.0000000 1.0000000
