catalog/styles/series/movie/series-movie-honey-hour/look.cube
# series-movie-honey-hour iteration 19
LUT_3D_SIZE 33
DOMAIN_MIN 0 0 0
DOMAIN_MAX 1 1 1
0.0505251 0.0492915 0.0414132
0.0655626 0.0426379 0.0264093
0.0788234 0.0358894 0.0151976
0.1031190 0.0297532 0.0112384
0.1404855 0.0219255 0.0156116
0.1974872 0.0176457 0.0258431
0.2736965 0.0201998 0.0364504
0.3596270 0.0278058 0.0428294
0.4444192 0.0371395 0.0432102
0.5208776 0.0459058 0.0380458
0.5865626 0.0532806 0.0288812
0.6423471 0.0594299 0.0175662
0.6907151 0.0648557 0.0058017
0.7338667 0.0699719 0.0000000
0.7729776 0.0751003 0.0000000
0.8084220 0.0802772 0.0000000
0.8400678 0.0852789 0.0000000
0.8674835 0.0898232 0.0000000
0.8901445 0.0936140 0.0000000
0.9079906 0.0964139 0.0000000
0.9219044 0.0982211 0.0000000
0.9328380 0.0991561 0.0000000
0.9417807 0.0994045 0.0000000
0.9499176 0.0992352 0.0000000
0.9580614 0.0989016 0.0000000
0.9668641 0.0986496 0.0000000
0.9766005 0.0987227 0.0000000
0.9871636 0.0992921 0.0000000
0.9981935 0.1005144 0.0000000
1.0000000 0.1025226 0.0000000
1.0000000 0.1053366 0.0000000
1.0000000 0.1088609 0.0000000
1.0000000 0.1127271 0.0000000
0.0163528 0.0295889 0.0168414
0.0377392 0.0330469 0.0170099
0.0654074 0.0444735 0.0205727
0.1077598 0.0576111 0.0232738
0.1664069 0.0687185 0.0272011
0.2359727 0.0769464 0.0327322
0.3071235 0.0810913 0.0373756
0.3745641 0.0818164 0.0393531
0.4375851 0.0813004 0.0381250
0.4964120 0.0812537 0.0337593
0.5513648 0.0824747 0.0268371
0.6023585 0.0848198 0.0181653
0.6491184 0.0877866 0.0086563
0.6921092 0.0910481 0.0000000
0.7320584 0.0944833 0.0000000
0.7688126 0.0979756 0.0000000
0.8021159 0.1014071 0.0000000
0.8317363 0.1046100 0.0000000
0.8574973 0.1073960 0.0000000
0.8795747 0.1096323 0.0000000
0.8984137 0.1112554 0.0000000
0.9145381 0.1122574 0.0000000
0.9285791 0.1127067 0.0000000
0.9412383 0.1127267 0.0000000
0.9531506 0.1124672 0.0000000
0.9647453 0.1120732 0.0000000
0.9762852 0.1117013 0.0000000
0.9878793 0.1114951 0.0000000
0.9994528 0.1115669 0.0000000
1.0000000 0.1119878 0.0000000
1.0000000 0.1128091 0.0000000
1.0000000 0.1139818 0.0000000
1.0000000 0.1153310 0.0000000
0.0000000 0.0241381 0.0016013
0.0133378 0.0294751 0.0134421
0.0461497 0.0453023 0.0245136
0.1072586 0.0760366 0.0319457
0.1979027 0.1144291 0.0365814
0.2828280 0.1385449 0.0373904
0.3446335 0.1422300 0.0361739
0.3924340 0.1349556 0.0346093
0.4356371 0.1250178 0.0326180
0.4795342 0.1172517 0.0295810
0.5252493 0.1130006 0.0250266
0.5715298 0.1116448 0.0188593
0.6164363 0.1120050 0.0114317
0.6588362 0.1133131 0.0034147
0.6984474 0.1149978 0.0000000
0.7350446 0.1167817 0.0000000
0.7687261 0.1186262 0.0000000
0.7996655 0.1205026 0.0000000
0.8278950 0.1223155 0.0000000
0.8535352 0.1239692 0.0000000
0.8766631 0.1253372 0.0000000
0.8973624 0.1263112 0.0000000
0.9159198 0.1268435 0.0000000
0.9326747 0.1269466 0.0000000
0.9480629 0.1266814 0.0000000
0.9623443 0.1260864 0.0000000
0.9757435 0.1252277 0.0000000
0.9884715 0.1241773 0.0000000
1.0000000 0.1230070 0.0000000
1.0000000 0.1217739 0.0000000
1.0000000 0.1205826 0.0000000
1.0000000 0.1194847 0.0000000
1.0000000 0.1184467 0.0000000
0.0000000 0.0383528 0.0000000
0.0003029 0.0441420 0.0137791
0.0351778 0.0551609 0.0288185
0.1023853 0.0874392 0.0379004
0.2269212 0.1523023 0.0419124
0.3327242 0.1966912 0.0368131
0.3824857 0.1997350 0.0309630
0.4115740 0.1854041 0.0279353
0.4388643 0.1679330 0.0266190
0.4721458 0.1544234 0.0256387
0.5112840 0.1456155 0.0235691
0.5539080 0.1406880 0.0197251
0.5971428 0.1383087 0.0141560
0.6389838 0.1376685 0.0074802
0.6777552 0.1376925 0.0002990
0.7130378 0.1379069 0.0000000
0.7457307 0.1382925 0.0000000
0.7766207 0.1389144 0.0000000
0.8059554 0.1397678 0.0000000
0.8338290 0.1407892 0.0000000
0.8599041 0.1417791 0.0000000
0.8838986 0.1425477 0.0000000
0.9058267 0.1429837 0.0000000
0.9257829 0.1429987 0.0000000
0.9439229 0.1425510 0.0000000
0.9604232 0.1415971 0.0000000
0.9754390 0.1400957 0.0000000
0.9892117 0.1380579 0.0000000
1.0000000 0.1355048 0.0000000
1.0000000 0.1325053 0.0000000
1.0000000 0.1292474 0.0000000
1.0000000 0.1258900 0.0000000
1.0000000 0.1225261 0.0000000
0.0000000 0.0690012 0.0000000
0.0008184 0.0785787 0.0153528
0.0409863 0.0887173 0.0305627
0.0971750 0.1071584 0.0377335
0.2012290 0.1559165 0.0361428
0.3243526 0.2158492 0.0288943
0.3929683 0.2370353 0.0220597
0.4226161 0.2282882 0.0198898
0.4451088 0.2107734 0.0208219
0.4721649 0.1938568 0.0223753
0.5063159 0.1805728 0.0225874
0.5462166 0.1717076 0.0207043
0.5889490 0.1665742 0.0167069
0.6312298 0.1640502 0.0111609
0.6702279 0.1628063 0.0048111
0.7050376 0.1620020 0.0000000
0.7366596 0.1613415 0.0000000
0.7664338 0.1609009 0.0000000
0.7952779 0.1608164 0.0000000
0.8235632 0.1611060 0.0000000
0.8507711 0.1615382 0.0000000
0.8763992 0.1619075 0.0000000
0.9002432 0.1620656 0.0000000
0.9221941 0.1618378 0.0000000
0.9420961 0.1610441 0.0000000
0.9600125 0.1595397 0.0000000
0.9760968 0.1572168 0.0000000
0.9905689 0.1540232 0.0000000
1.0000000 0.1499508 0.0000000
1.0000000 0.1450687 0.0000000
1.0000000 0.1396576 0.0000000
1.0000000 0.1339960 0.0000000
1.0000000 0.1282595 0.0000000
0.0000000 0.1113889 0.0000000
0.0120346 0.1261675 0.0159609
0.0612133 0.1405305 0.0291471
0.1158114 0.1556643 0.0349176
0.1852894 0.1775405 0.0302918
0.2799296 0.2163754 0.0203949
0.3633510 0.2487040 0.0133375
0.4117162 0.2555666 0.0123824
0.4434425 0.2475490 0.0160190
0.4718566 0.2332993 0.0202228
0.5038775 0.2181199 0.0223528
0.5424944 0.2055463 0.0217936
0.5861161 0.1971805 0.0188573
0.6306678 0.1925201 0.0142047
0.6718643 0.1901397 0.0086515
0.7079518 0.1887102 0.0027548
0.7397727 0.1875660 0.0000000
0.7689109 0.1865629 0.0000000
0.7966872 0.1857671 0.0000000
0.8238646 0.1852693 0.0000000
0.8504852 0.1850532 0.0000000
0.8761029 0.1849005 0.0000000
0.9004057 0.1846713 0.0000000
0.9229957 0.1840908 0.0000000
0.9435321 0.1828457 0.0000000
0.9619425 0.1806664 0.0000000
0.9783701 0.1774077 0.0000000
0.9930332 0.1729875 0.0000000
1.0000000 0.1673294 0.0000000
1.0000000 0.1605087 0.0000000
1.0000000 0.1528841 0.0000000
1.0000000 0.1448797 0.0000000
1.0000000 0.1367374 0.0000000
0.0000000 0.1611749 0.0016489
0.0281212 0.1795382 0.0145665
0.0841637 0.1970317 0.0251566
0.1405862 0.2126233 0.0301708
0.1991179 0.2268831 0.0274196
0.2645983 0.2440236 0.0186471
0.3348960 0.2651051 0.0109633
0.3926619 0.2783625 0.0097492
0.4328492 0.2778749 0.0139070
0.4646473 0.2680504 0.0193941
0.4972209 0.2545467 0.0227803
0.5358460 0.2414896 0.0230076
0.5813090 0.2311349 0.0205927
0.6301435 0.2243214 0.0165587
0.6763062 0.2204062 0.0116884
0.7163286 0.2181832 0.0064144
0.7505858 0.2165997 0.0010601
0.7803935 0.2151737 0.0000000
0.8074464 0.2138572 0.0000000
0.8331709 0.2127795 0.0000000
0.8583787 0.2120654 0.0000000
0.8829611 0.2114968 0.0000000
0.9065640 0.2109133 0.0000000
0.9286344 0.2099916 0.0000000
0.9487299 0.2083004 0.0000000
0.9667116 0.2054372 0.0000000
0.9827011 0.2012540 0.0000000
0.9969316 0.1956485 0.0000000
1.0000000 0.1884542 0.0000000
1.0000000 0.1797834 0.0000000
1.0000000 0.1700295 0.0000000
1.0000000 0.1597704 0.0000000
1.0000000 0.1493241 0.0000000
0.0000000 0.2143843 0.0007486
0.0445117 0.2334956 0.0109377
0.1037038 0.2514755 0.0196056
0.1609481 0.2667145 0.0247329
0.2158587 0.2784200 0.0249127
0.2703355 0.2880939 0.0205858
0.3267402 0.2985467 0.0151610
0.3801171 0.3074618 0.0133205
0.4224221 0.3084742 0.0159779
0.4556201 0.3009413 0.0205117
0.4883392 0.2893511 0.0236902
0.5266369 0.2775789 0.0240553
0.5718020 0.2673190 0.0219472
0.6217014 0.2592026 0.0183299
0.6731627 0.2536600 0.0138784
0.7217223 0.2504840 0.0090315
0.7632605 0.2485426 0.0041517
0.7963203 0.2466614 0.0000000
0.8237170 0.2447307 0.0000000
0.8485653 0.2431376 0.0000000
0.8725019 0.2420193 0.0000000
0.8958388 0.2412372 0.0000000
0.9181822 0.2405340 0.0000000
0.9388852 0.2393606 0.0000000
0.9576472 0.2372996 0.0000000
0.9743565 0.2338481 0.0000000
0.9891562 0.2288481 0.0000000
1.0000000 0.2221945 0.0000000
1.0000000 0.2137649 0.0000000
1.0000000 0.2035627 0.0000000
1.0000000 0.1919996 0.0000000
1.0000000 0.1797704 0.0000000
1.0000000 0.1672713 0.0000000
0.0000000 0.2678432 0.0000000
0.0587477 0.2852741 0.0053824
0.1180148 0.3015654 0.0131591
0.1746397 0.3151914 0.0190642
0.2277343 0.3251835 0.0222175
0.2779195 0.3320007 0.0224574
0.3268881 0.3373309 0.0209216
0.3739022 0.3412887 0.0199615
0.4149856 0.3410352 0.0210822
0.4496223 0.3351150 0.0235392
0.4828747 0.3255636 0.0253069
0.5196809 0.3149662 0.0250491
0.5617734 0.3046247 0.0228367
0.6092703 0.2955327 0.0194029
0.6611144 0.2885403 0.0151875
0.7153745 0.2843797 0.0105372
0.7675157 0.2824945 0.0058864
0.8099030 0.2809200 0.0018151
0.8407989 0.2786084 0.0000000
0.8663779 0.2764847 0.0000000
0.8904558 0.2751167 0.0000000
0.9131185 0.2741844 0.0000000
0.9340667 0.2732401 0.0000000
0.9529410 0.2717695 0.0000000
0.9696593 0.2692607 0.0000000
0.9844447 0.2653166 0.0000000
0.9974481 0.2596754 0.0000000
1.0000000 0.2523117 0.0000000
1.0000000 0.2430726 0.0000000
1.0000000 0.2318909 0.0000000
1.0000000 0.2191354 0.0000000
1.0000000 0.2055119 0.0000000
1.0000000 0.1915329 0.0000000
0.0114111 0.3194863 0.0000000
0.0698970 0.3337673 0.0000000
0.1272683 0.3470859 0.0061139
0.1821148 0.3582065 0.0130157
0.2334156 0.3662219 0.0186270
0.2810467 0.3710477 0.0225320
0.3258324 0.3735423 0.0246847
0.3684711 0.3745226 0.0256936
0.4082410 0.3733743 0.0265211
0.4445933 0.3690676 0.0273505
0.4793201 0.3618611 0.0274137
0.5150423 0.3526634 0.0260639
0.5535200 0.3422629 0.0233315
0.5966342 0.3321829 0.0196466
0.6457909 0.3240927 0.0153386
0.6999121 0.3188162 0.0107105
0.7556893 0.3162520 0.0062048
0.8074118 0.3152533 0.0023432
0.8493323 0.3141095 0.0000000
0.8813861 0.3124447 0.0000000
0.9086244 0.3112678 0.0000000
0.9321010 0.3103510 0.0000000
0.9519886 0.3090251 0.0000000
0.9688163 0.3068457 0.0000000
0.9833380 0.3035217 0.0000000
0.9960015 0.2988702 0.0000000
1.0000000 0.2926540 0.0000000
1.0000000 0.2849123 0.0000000
1.0000000 0.2754863 0.0000000
1.0000000 0.2641833 0.0000000
1.0000000 0.2510962 0.0000000
1.0000000 0.2369255 0.0000000
1.0000000 0.2224070 0.0000000
0.0224980 0.3682675 0.0000000
0.0778922 0.3788304 0.0000000
0.1323621 0.3886746 0.0000000
0.1846677 0.3968271 0.0064026
0.2337458 0.4024690 0.0136775
0.2790919 0.4052774 0.0200030
0.3211148 0.4057453 0.0248783
0.3609975 0.4049154 0.0280582
0.3995797 0.4031847 0.0296462
0.4368757 0.4000363 0.0299190
0.4729534 0.3948197 0.0288894
0.5086916 0.3874244 0.0265556
0.5455059 0.3781935 0.0230991
0.5855296 0.3683752 0.0188820
0.6309150 0.3597928 0.0141960
0.6820211 0.3536604 0.0093511
0.7363869 0.3500651 0.0047852
0.7901137 0.3484212 0.0009824
0.8396471 0.3480006 0.0000000
0.8831318 0.3482903 0.0000000
0.9196944 0.3488595 0.0000000
0.9477305 0.3487589 0.0000000
0.9678093 0.3470300 0.0000000
0.9833545 0.3439674 0.0000000
0.9963206 0.3396175 0.0000000
1.0000000 0.3339230 0.0000000
1.0000000 0.3270502 0.0000000
1.0000000 0.3190109 0.0000000
1.0000000 0.3097818 0.0000000
1.0000000 0.2991371 0.0000000
1.0000000 0.2868163 0.0000000
1.0000000 0.2732744 0.0000000
1.0000000 0.2592608 0.0000000
0.0310681 0.4138530 0.0000000
0.0830256 0.4207557 0.0000000
0.1342517 0.4271373 0.0000000
0.1836865 0.4322506 0.0000000
0.2303126 0.4354047 0.0072341
0.2735148 0.4362448 0.0148225
0.3134858 0.4350577 0.0213084
0.3513498 0.4327542 0.0261052
0.3884954 0.4301916 0.0288213
0.4254757 0.4272908 0.0294216
0.4621098 0.4233309 0.0281518
0.4984743 0.4177699 0.0253671
0.5354927 0.4106683 0.0214158
0.5747449 0.4027265 0.0166971
0.6177850 0.3950213 0.0115616
0.6654528 0.3887864 0.0063668
0.7167404 0.3844967 0.0015465
0.7695153 0.3821366 0.0000000
0.8213541 0.3814690 0.0000000
0.8700582 0.3821732 0.0000000
0.9134991 0.3837727 0.0000000
0.9489803 0.3850982 0.0000000
0.9743909 0.3843530 0.0000000
0.9924105 0.3814980 0.0000000
1.0000000 0.3765729 0.0000000
1.0000000 0.3699059 0.0000000
1.0000000 0.3624822 0.0000000
1.0000000 0.3544427 0.0000000
1.0000000 0.3456360 0.0000000
1.0000000 0.3358352 0.0000000
1.0000000 0.3249042 0.0000000
1.0000000 0.3129533 0.0000000
1.0000000 0.3003842 0.0036510
0.0370907 0.4563243 0.0000000
0.0857241 0.4599566 0.0000000
0.1337861 0.4632097 0.0000000
0.1803773 0.4655200 0.0000000
0.2246081 0.4663510 0.0000000
0.2658932 0.4654050 0.0073166
0.3042701 0.4628265 0.0143942
0.3405755 0.4592715 0.0200083
0.3761396 0.4556016 0.0235929
0.4119997 0.4522164 0.0248846
0.4484399 0.4487859 0.0240179
0.4855111 0.4448192 0.0213739
0.5235598 0.4400593 0.0173886
0.5633057 0.4346051 0.0124795
0.6055972 0.4288998 0.0070767
0.6510724 0.4236538 0.0016170
0.6996137 0.4194770 0.0000000
0.7502863 0.4167330 0.0000000
0.8016543 0.4156095 0.0000000
0.8516860 0.4160015 0.0000000
0.8977718 0.4172951 0.0000000
0.9374388 0.4185769 0.0000000
0.9688412 0.4186567 0.0000000
0.9922285 0.4167534 0.0000000
1.0000000 0.4124572 0.0000000
1.0000000 0.4060715 0.0000000
1.0000000 0.3988095 0.0000000
1.0000000 0.3910943 0.0000000
1.0000000 0.3828675 0.0000000
1.0000000 0.3739922 0.0000000
1.0000000 0.3644142 0.0000000
1.0000000 0.3542297 0.0045795
1.0000000 0.3436895 0.0103856
0.0407729 0.4959593 0.0000000
0.0864277 0.4968491 0.0000000
0.1316305 0.4974652 0.0000000
0.1756549 0.4973993 0.0000000
0.2177602 0.4962515 0.0000000
0.2574173 0.4937871 0.0000000
0.2945707 0.4900770 0.0047497
0.3297692 0.4855596 0.0104217
0.3641080 0.4809488 0.0143774
0.3987960 0.4768688 0.0162558
0.4346736 0.4734790 0.0160168
0.4720886 0.4705810 0.0139043
0.5110923 0.4677704 0.0102997
0.5517152 0.4646982 0.0056219
0.5941317 0.4612876 0.0003192
0.6386275 0.4577476 0.0000000
0.6853773 0.4545188 0.0000000
0.7340356 0.4520341 0.0000000
0.7837412 0.4506487 0.0000000
0.8329925 0.4504592 0.0000000
0.8795428 0.4510323 0.0000000
0.9213075 0.4517479 0.0000000
0.9567357 0.4518966 0.0000000
0.9850206 0.4506605 0.0000000
1.0000000 0.4474312 0.0000000
1.0000000 0.4422364 0.0000000
1.0000000 0.4358455 0.0000000
1.0000000 0.4287962 0.0000000
1.0000000 0.4212863 0.0000000
1.0000000 0.4133621 0.0000000
1.0000000 0.4050578 0.0044718
1.0000000 0.3964501 0.0113951
1.0000000 0.3877035 0.0185276
0.0424113 0.5331124 0.0000000
0.0855459 0.5318171 0.0000000
0.1283235 0.5303373 0.0000000
0.1701725 0.5283842 0.0000000
0.2105038 0.5256760 0.0000000
0.2488696 0.5220388 0.0000000
0.2851604 0.5174980 0.0000000
0.3197268 0.5123538 0.0000000
0.3534151 0.5071746 0.0019610
0.3873836 0.5026052 0.0040689
0.4227391 0.4991086 0.0043525
0.4601035 0.4967610 0.0028889
0.4995385 0.4952312 0.0000000
0.5407902 0.4939939 0.0000000
0.5835703 0.4926171 0.0000000
0.6277706 0.4909379 0.0000000
0.6734548 0.4890802 0.0000000
0.7204832 0.4873356 0.0000000
0.7683306 0.4860488 0.0000000
0.8159441 0.4853860 0.0000000
0.8618139 0.4852711 0.0000000
0.9042650 0.4853845 0.0000000
0.9418401 0.4852383 0.0000000
0.9735905 0.4843793 0.0000000
0.9990241 0.4822871 0.0000000
1.0000000 0.4785247 0.0000000
1.0000000 0.4733481 0.0000000
1.0000000 0.4672450 0.0000000
1.0000000 0.4605869 0.0000000
1.0000000 0.4536101 0.0040290
1.0000000 0.4464437 0.0116847
1.0000000 0.4391622 0.0199431
1.0000000 0.4318403 0.0284445
0.0423735 0.5681537 0.0000000
0.0834651 0.5652049 0.0000000
0.1242807 0.5621418 0.0000000
0.1643840 0.5587842 0.0000000
0.2033151 0.5549411 0.0000000
0.2407244 0.5504874 0.0000000
0.2764890 0.5454328 0.0000000
0.3108455 0.5399944 0.0000000
0.3444211 0.5346231 0.0000000
0.3782216 0.5299032 0.0000000
0.4133162 0.5263650 0.0000000
0.4504463 0.5242504 0.0000000
0.4898172 0.5233924 0.0000000
0.5311816 0.5233043 0.0000000
0.5740926 0.5234267 0.0000000
0.6181528 0.5233374 0.0000000
0.6631322 0.5228612 0.0000000
0.7088422 0.5220509 0.0000000
0.7549629 0.5211291 0.0000000
0.8008393 0.5203215 0.0000000
0.8455215 0.5197891 0.0000000
0.8877321 0.5194282 0.0000000
0.9261958 0.5190156 0.0000000
0.9599075 0.5183490 0.0000000
0.9881682 0.5170913 0.0000000
1.0000000 0.5147712 0.0000000
1.0000000 0.5110066 0.0000000
1.0000000 0.5060514 0.0000000
1.0000000 0.5003840 0.0031118
1.0000000 0.4943619 0.0114132
1.0000000 0.4881965 0.0205808
1.0000000 0.4819908 0.0303353
1.0000000 0.4757795 0.0403335
0.0410396 0.6014385 0.0000000
0.0805327 0.5973187 0.0000000
0.1198148 0.5931411 0.0000000
0.1585742 0.5888069 0.0000000
0.1964605 0.5842063 0.0000000
0.2332168 0.5792588 0.0000000
0.2687348 0.5739757 0.0000000
0.3031834 0.5685315 0.0000000
0.3370416 0.5632753 0.0000000
0.3710924 0.5586886 0.0000000
0.4062152 0.5552497 0.0000000
0.4431217 0.5532483 0.0000000
0.4821471 0.5526594 0.0000000
0.5231771 0.5531355 0.0000000
0.5657912 0.5541416 0.0000000
0.6094702 0.5551449 0.0000000
0.6537816 0.5557724 0.0000000
0.6983949 0.5558669 0.0000000
0.7430481 0.5555073 0.0000000
0.7873631 0.5548956 0.0000000
0.8306745 0.5542436 0.0000000
0.8720807 0.5536361 0.0000000
0.9105528 0.5530769 0.0000000
0.9451464 0.5525453 0.0000000
0.9751168 0.5518636 0.0000000
0.9999346 0.5506916 0.0000000
1.0000000 0.5484219 0.0000000
1.0000000 0.5448007 0.0000000
1.0000000 0.5402573 0.0096777
1.0000000 0.5352115 0.0200224
1.0000000 0.5299420 0.0310007
1.0000000 0.5246113 0.0424540
1.0000000 0.5192741 0.0541272
0.0387669 0.6333035 0.0000000
0.0770394 0.6284349 0.0000000
0.1151623 0.6235437 0.0000000
0.1529154 0.6185963 0.0000000
0.1900496 0.6135461 0.0000000
0.2263861 0.6083630 0.0000000
0.2618541 0.6030822 0.0000000
0.2965876 0.5978408 0.0000000
0.3309391 0.5929002 0.0000000
0.3654628 0.5886302 0.0000000
0.4008291 0.5854169 0.0000000
0.4376291 0.5835269 0.0000000
0.4762358 0.5830101 0.0000000
0.5166528 0.5836527 0.0000000
0.5585843 0.5850219 0.0000000
0.6015411 0.5866002 0.0000000
0.6450210 0.5879389 0.0000000
0.6886140 0.5887647 0.0000000
0.7320170 0.5890244 0.0000000
0.7749343 0.5888261 0.0000000
0.8169053 0.5883520 0.0000000
0.8572726 0.5877712 0.0000000
0.8952314 0.5872306 0.0000000
0.9299776 0.5868337 0.0000000
0.9607989 0.5865236 0.0000000
0.9870913 0.5860740 0.0000000
1.0000000 0.5850688 0.0000000
1.0000000 0.5830036 0.0036003
1.0000000 0.5797616 0.0164656
1.0000000 0.5757430 0.0294009
1.0000000 0.5712936 0.0425312
1.0000000 0.5666768 0.0559039
1.0000000 0.5620197 0.0694088
0.0358770 0.6640360 0.0000000
0.0732343 0.6587695 0.0000000
0.1104964 0.6535039 0.0000000
0.1475053 0.6482439 0.0000000
0.1841043 0.6429925 0.0000000
0.2201794 0.6377691 0.0000000
0.2557074 0.6326367 0.0000000
0.2907972 0.6277133 0.0000000
0.3256844 0.6231910 0.0000000
0.3607435 0.6193361 0.0000000
0.3964465 0.6164224 0.0000000
0.4332478 0.6146671 0.0000000
0.4714646 0.6141422 0.0000000
0.5111738 0.6147295 0.0000000
0.5522007 0.6161156 0.0000000
0.5941699 0.6178724 0.0000000
0.6366346 0.6195717 0.0000000
0.6791661 0.6208978 0.0000000
0.7214123 0.6217071 0.0000000
0.7630588 0.6219997 0.0000000
0.8037652 0.6218993 0.0000000
0.8430274 0.6215668 0.0000000
0.8802246 0.6212138 0.0000000
0.9146901 0.6209948 0.0000000
0.9457931 0.6209461 0.0000000
0.9729668 0.6209453 0.0000000
0.9958927 0.6207682 0.0000000
1.0000000 0.6200863 0.0057374
1.0000000 0.6183453 0.0224814
1.0000000 0.6154862 0.0387365
1.0000000 0.6118384 0.0544668
1.0000000 0.6078085 0.0699447
1.0000000 0.6036660 0.0853636
0.0326502 0.6938844 0.0000000
0.0693227 0.6885020 0.0000000
0.1059390 0.6831328 0.0000000
0.1423975 0.6778011 0.0000000
0.1786096 0.6725457 0.0000000
0.2145174 0.6674222 0.0000000
0.2501277 0.6625209 0.0000000
0.2855268 0.6579555 0.0000000
0.3208749 0.6538702 0.0000000
0.3564078 0.6504454 0.0000000
0.3924341 0.6478610 0.0000000
0.4292739 0.6462623 0.0000000
0.4671550 0.6457134 0.0000000
0.5061661 0.6461480 0.0000000
0.5462289 0.6473722 0.0000000
0.5870988 0.6490650 0.0000000
0.6284221 0.6508679 0.0000000
0.6698070 0.6524725 0.0000000
0.7108984 0.6536898 0.0000000
0.7513682 0.6544518 0.0000000
0.7908868 0.6548005 0.0000000
0.8290670 0.6548603 0.0000000
0.8654077 0.6548158 0.0000000
0.8993769 0.6548296 0.0000000
0.9304498 0.6549932 0.0000000
0.9581502 0.6552880 0.0000000
0.9821866 0.6556197 0.0000000
1.0000000 0.6558028 0.0056348
1.0000000 0.6553859 0.0263399
1.0000000 0.6538187 0.0466563
1.0000000 0.6510818 0.0656400
1.0000000 0.6475734 0.0834107
1.0000000 0.6438038 0.1007077
0.0293101 0.7230694 0.0000000
0.0654575 0.7177699 0.0000000
0.1015736 0.7124910 0.0000000
0.1376083 0.7072699 0.0000000
0.1735167 0.7021598 0.0000000
0.2092859 0.6972394 0.0000000
0.2449354 0.6926173 0.0000000
0.2805322 0.6884128 0.0000000
0.3161961 0.6847382 0.0000000
0.3520658 0.6817007 0.0000000
0.3883215 0.6794147 0.0000000
0.4251595 0.6779661 0.0000000
0.4627289 0.6773979 0.0000000
0.5010967 0.6776756 0.0000000
0.5402419 0.6786847 0.0000000
0.5800084 0.6802043 0.0000000
0.6201459 0.6819593 0.0000000
0.6603383 0.6836809 0.0000000
0.7002652 0.6851677 0.0000000
0.7395954 0.6863075 0.0000000
0.7779978 0.6870831 0.0000000
0.8151433 0.6875727 0.0000000
0.8506384 0.6879003 0.0000000
0.8840617 0.6881967 0.0000000
0.9149894 0.6885720 0.0000000
0.9430381 0.6890714 0.0000000
0.9679476 0.6896708 0.0000000
0.9895998 0.6902545 0.0030677
1.0000000 0.6905456 0.0266520
1.0000000 0.6901196 0.0510582
1.0000000 0.6884555 0.0741605
1.0000000 0.6855260 0.0945813
1.0000000 0.6820426 0.1136633
0.0260226 0.7517746 0.0000000
0.0617456 0.7466880 0.0000000
0.0974573 0.7416274 0.0000000
0.1331353 0.7366408 0.0000000
0.1687715 0.7317876 0.0000000
0.2043815 0.7271527 0.0000000
0.2399898 0.7228465 0.0000000
0.2756509 0.7189875 0.0000000
0.3114497 0.7156638 0.0000000
0.3474745 0.7129516 0.0000000
0.3838087 0.7109105 0.0000000
0.4205583 0.7095862 0.0000000
0.4577985 0.7090036 0.0000000
0.4955700 0.7091535 0.0000000
0.5338719 0.7099635 0.0000000
0.5726020 0.7112825 0.0000000
0.6115894 0.7129127 0.0000000
0.6506025 0.7146416 0.0000000
0.6893771 0.7162764 0.0000000
0.7275865 0.7176854 0.0000000
0.7649255 0.7188215 0.0000000
0.8011141 0.7197024 0.0000000
0.8358324 0.7203948 0.0000000
0.8687438 0.7209875 0.0000000
0.8995141 0.7215774 0.0000000
0.9278369 0.7222197 0.0000000
0.9534637 0.7229209 0.0000000
0.9762471 0.7236113 0.0000000
0.9961021 0.7241262 0.0232822
1.0000000 0.7242106 0.0501609
1.0000000 0.7234445 0.0771927
1.0000000 0.7211639 0.1009565
1.0000000 0.7180200 0.1220662
0.0228942 0.7801229 0.0000000
0.0582600 0.7753443 0.0000000
0.0936145 0.7705976 0.0000000
0.1289655 0.7659301 0.0000000
0.1643273 0.7614088 0.0000000
0.1997275 0.7571204 0.0000000
0.2351959 0.7531590 0.0000000
0.2707777 0.7496245 0.0000000
0.3065318 0.7465942 0.0000000
0.3425134 0.7441333 0.0000000
0.3787582 0.7422786 0.0000000
0.4152960 0.7410477 0.0000000
0.4521569 0.7404606 0.0000000
0.4893552 0.7405135 0.0000000
0.5268774 0.7411530 0.0000000
0.5646583 0.7422752 0.0000000
0.6025851 0.7437435 0.0000000
0.6404855 0.7453996 0.0000000
0.6781314 0.7470796 0.0000000
0.7152596 0.7486591 0.0000000
0.7516046 0.7500597 0.0000000
0.7869191 0.7512548 0.0000000
0.8209467 0.7522641 0.0000000
0.8534207 0.7531401 0.0000000
0.8840749 0.7539394 0.0000000
0.9126540 0.7546988 0.0000000
0.9389303 0.7554285 0.0000000
0.9627490 0.7560803 0.0000000
0.9840023 0.7565423 0.0167259
1.0000000 0.7566165 0.0441684
1.0000000 0.7559845 0.0724278
1.0000000 0.7542738 0.0994800
1.0000000 0.7517316 0.1238798
0.0200172 0.8081955 0.0000000
0.0550354 0.8038085 0.0000000
0.0900456 0.7994499 0.0000000
0.1250671 0.7951646 0.0000000
0.1601278 0.7910261 0.0000000
0.1952551 0.7871183 0.0000000
0.2304875 0.7835177 0.0000000
0.2658583 0.7802973 0.0000000
0.3014034 0.7775253 0.0000000
0.3371607 0.7752613 0.0000000
0.3731420 0.7735374 0.0000000
0.4093427 0.7723766 0.0000000
0.4457486 0.7717870 0.0000000
0.4823554 0.7717646 0.0000000
0.5191381 0.7722572 0.0000000
0.5560482 0.7731964 0.0000000
0.5930061 0.7744856 0.0000000
0.6298702 0.7760084 0.0000000
0.6664610 0.7776459 0.0000000
0.7025843 0.7792892 0.0000000
0.7380164 0.7808487 0.0000000
0.7725518 0.7822680 0.0000000
0.8059799 0.7835321 0.0000000
0.8380984 0.7846472 0.0000000
0.8686924 0.7856300 0.0000000
0.8975451 0.7864919 0.0000000
0.9244630 0.7872291 0.0000000
0.9492769 0.7877999 0.0000000
0.9718788 0.7881170 0.0075976
0.9922057 0.7880400 0.0345257
1.0000000 0.7873692 0.0625408
1.0000000 0.7859667 0.0907552
1.0000000 0.7839941 0.1183853
0.0174565 0.8360794 0.0000000
0.0520979 0.8321411 0.0000000
0.0867430 0.8282218 0.0000000
0.1214102 0.8243721 0.0000000
0.1561286 0.8206574 0.0000000
