catalog/styles/experimental/experimental-lough-leane/look.cube
# experimental-lough-leane iteration 6
LUT_3D_SIZE 5
DOMAIN_MIN 0 0 0
DOMAIN_MAX 1 1 1
0.0838308 0.0853839 0.0829000
0.4715314 0.2070483 0.1851655
0.6718293 0.2200724 0.2345039
0.7225510 0.2181902 0.1827607
0.7927596 0.2548261 0.2160432
0.1569517 0.3576189 0.1784980
0.4380685 0.4466836 0.1980563
0.6588474 0.5233268 0.2822474
0.7485861 0.5446282 0.3125757
0.7956420 0.5142003 0.2855312
0.2414026 0.5979098 0.2244736
0.4031224 0.5762858 0.1754090
0.6414415 0.6547380 0.2244289
0.7820980 0.7151198 0.2779166
0.8483122 0.7254769 0.3063699
0.2970577 0.7275141 0.2146489
0.4473002 0.7297100 0.2204359
0.6211618 0.7677698 0.2508505
0.7752185 0.8086187 0.2762245
0.8893448 0.8314134 0.2621605
0.3669874 0.8580691 0.2048677
0.4810184 0.8704585 0.2548935
0.5953901 0.8737795 0.2908270
0.7410055 0.8864901 0.3164545
0.9205662 0.9147568 0.3339814
0.1441731 0.2131605 0.4896613
0.3166425 0.1305721 0.3019922
0.6585468 0.3486684 0.4893451
0.8023889 0.4692743 0.5451031
0.8597525 0.5742589 0.5574810
0.1852428 0.3934599 0.3880679
0.3833587 0.3836634 0.3840288
0.6073495 0.4658065 0.4428459
0.7707599 0.5853968 0.5441676
0.8653547 0.6476733 0.5803457
0.2781813 0.6011380 0.4248490
0.4403969 0.5982573 0.4277519
0.6335722 0.6319961 0.4749291
0.7780171 0.7034269 0.5493234
0.8656479 0.7390635 0.5811647
0.3092625 0.7299672 0.3910444
0.4549750 0.7204609 0.4072413
0.6064563 0.7306564 0.4418585
0.7817059 0.8013524 0.5365587
0.8915240 0.8335187 0.5913348
0.3345627 0.8338548 0.3394948
0.4625268 0.8342856 0.3825010
0.5974742 0.8434698 0.4331255
0.7466196 0.8667702 0.4989072
0.9270327 0.9251985 0.6097872
0.4511452 0.4630813 0.6720395
0.4643791 0.3396489 0.5793693
0.6312611 0.4176054 0.6372714
0.8138511 0.5849126 0.7563823
0.9402716 0.7236591 0.8287269
0.2267694 0.5298532 0.6371029
0.5649030 0.5644964 0.6842323
0.6969099 0.5841567 0.6893144
0.8137369 0.6592415 0.7391311
0.9130277 0.7399112 0.8011431
0.3141775 0.6369912 0.6208264
0.4678471 0.6253415 0.6253326
0.6902263 0.6878359 0.6878724
0.8177828 0.7461065 0.7264528
0.8970654 0.7781685 0.7861192
0.3044448 0.7289835 0.5604427
0.4598922 0.7157735 0.5749003
0.6438038 0.7464167 0.6383041
0.7945153 0.8021503 0.7221652
0.9049092 0.8486314 0.7795152
0.2937371 0.8027028 0.4877097
0.4538566 0.8078742 0.5305413
0.6031623 0.8156425 0.5804530
0.7616036 0.8541639 0.6678325
0.9279727 0.9290953 0.8060037
0.7661200 0.7387579 0.8360951
0.7513698 0.6591362 0.8707580
0.7613983 0.6260196 0.8889654
0.8369608 0.6701939 0.9474274
0.9361375 0.7433192 1.0000000
0.5893993 0.7168880 0.8100386
0.6840158 0.7112939 0.8553869
0.7915842 0.7281624 0.8934337
0.8640944 0.7453223 0.9194266
0.9386870 0.7793794 0.9593367
0.4183543 0.6934563 0.7491939
0.5806892 0.7298626 0.8017629
0.8019209 0.8073639 0.8750256
0.8765967 0.8129174 0.8878734
0.9385478 0.8238843 0.9110617
0.2764501 0.7236995 0.7164793
0.5019740 0.7507649 0.7401228
0.7111123 0.7938286 0.7881994
0.8498239 0.8499112 0.8507266
0.9402932 0.8839589 0.8878967
0.2219948 0.7542173 0.6577061
0.4509516 0.7942984 0.7022189
0.6451426 0.8273910 0.7466649
0.8014729 0.8711380 0.8076471
0.9314867 0.9337335 0.8841637
1.0000000 0.9694097 1.0000000
1.0000000 0.9373676 1.0000000
0.9389440 0.8715222 1.0000000
0.8926939 0.7870160 1.0000000
0.8875962 0.7140768 1.0000000
0.8954149 0.8823195 0.9548042
0.8506975 0.8711268 1.0000000
0.8601191 0.8538208 1.0000000
0.9114541 0.8333192 1.0000000
0.9561207 0.8024085 1.0000000
0.6101455 0.7971963 0.9084737
0.7117250 0.8379400 0.9563787
0.8079424 0.8472799 0.9786177
0.9142471 0.8651449 1.0000000
0.9992661 0.8809444 1.0000000
0.3037735 0.7249062 0.8642573
0.5881155 0.8238891 0.9228343
0.8015937 0.8804377 0.9407661
0.8922245 0.8888203 0.9438540
1.0000000 0.9485362 1.0000000
0.0980348 0.6889625 0.8382548
0.4449428 0.7861169 0.8793937
0.7240191 0.8765345 0.9183876
0.9020081 0.9559356 0.9570669
0.9869346 0.9873555 0.9877835
