catalog/styles/experimental/experimental-lough-leane/look.cube
# experimental-lough-leane iteration 6
LUT_3D_SIZE 33
DOMAIN_MIN 0 0 0
DOMAIN_MAX 1 1 1
0.0838308 0.0853839 0.0829000
0.0753664 0.0633329 0.0488317
0.0784689 0.0515854 0.0349022
0.1158659 0.0587022 0.0430938
0.1713880 0.0746091 0.0625236
0.2426529 0.1021298 0.0915045
0.3235033 0.1387919 0.1255054
0.4026718 0.1760933 0.1580584
0.4715314 0.2070483 0.1851655
0.5260541 0.2283564 0.2053415
0.5665263 0.2397935 0.2189592
0.5957379 0.2433840 0.2275644
0.6172678 0.2415382 0.2327304
0.6341296 0.2367299 0.2356492
0.6482499 0.2308536 0.2369403
0.6606857 0.2251526 0.2366590
0.6718293 0.2200724 0.2345039
0.6816830 0.2158518 0.2302318
0.6900760 0.2127232 0.2239002
0.6969827 0.2107018 0.2160728
0.7027681 0.2097901 0.2075479
0.7078347 0.2100376 0.1993109
0.7125122 0.2115186 0.1921755
0.7172545 0.2141971 0.1865278
0.7225510 0.2181902 0.1827607
0.7287873 0.2233689 0.1810601
0.7359992 0.2292626 0.1814103
0.7441447 0.2353933 0.1837515
0.7531031 0.2413950 0.1879739
0.7626557 0.2466779 0.1937386
0.7725180 0.2506772 0.2006055
0.7825141 0.2531183 0.2081137
0.7927596 0.2548261 0.2160432
0.0376228 0.0483095 0.0330183
0.0536231 0.0505963 0.0338516
0.0744295 0.0592506 0.0422948
0.1169174 0.0764250 0.0517064
0.1860295 0.1101862 0.0715152
0.2671833 0.1521709 0.1020874
0.3447207 0.1907289 0.1355183
0.4108040 0.2201573 0.1650257
0.4645147 0.2403765 0.1878631
0.5073962 0.2531927 0.2040886
0.5418891 0.2607698 0.2153979
0.5699173 0.2645781 0.2233301
0.5928445 0.2653547 0.2287214
0.6121160 0.2640208 0.2322140
0.6288748 0.2614353 0.2341471
0.6436246 0.2581857 0.2344419
0.6566416 0.2547365 0.2329574
0.6680760 0.2515139 0.2297107
0.6780428 0.2489367 0.2249711
0.6867248 0.2472823 0.2192321
0.6944134 0.2466954 0.2131217
0.7013921 0.2472382 0.2072947
0.7079615 0.2489638 0.2023259
0.7144561 0.2518590 0.1985979
0.7211952 0.2558477 0.1963493
0.7283732 0.2607318 0.1956697
0.7360704 0.2661445 0.1965004
0.7442708 0.2716173 0.1986775
0.7528909 0.2767144 0.2020016
0.7618161 0.2810459 0.2062247
0.7709230 0.2843624 0.2110801
0.7801278 0.2866942 0.2163045
0.7894441 0.2885779 0.2217339
0.0063202 0.0357148 0.0120887
0.0170729 0.0279935 0.0202709
0.0474032 0.0429732 0.0355480
0.1119522 0.0862021 0.0542656
0.2107637 0.1542201 0.0850828
0.3040556 0.2134661 0.1202768
0.3734562 0.2493476 0.1516507
0.4240987 0.2680333 0.1763938
0.4627722 0.2768901 0.1938130
0.4948522 0.2815988 0.2057018
0.5234746 0.2853158 0.2144402
0.5496376 0.2888222 0.2213865
0.5733236 0.2917163 0.2269030
0.5944181 0.2934511 0.2309259
0.6130124 0.2937153 0.2332813
0.6292518 0.2925508 0.2338249
0.6435099 0.2905245 0.2327113
0.6561586 0.2882613 0.2302695
0.6674917 0.2863370 0.2269308
0.6777533 0.2851670 0.2231498
0.6871457 0.2849591 0.2193355
0.6958444 0.2857874 0.2158507
0.7041089 0.2877105 0.2130747
0.7121729 0.2907156 0.2112866
0.7202312 0.2946243 0.2105833
0.7283298 0.2991511 0.2109246
0.7364967 0.3039228 0.2121501
0.7447597 0.3085505 0.2140678
0.7530832 0.3126446 0.2164412
0.7614373 0.3159336 0.2191022
0.7698105 0.3183375 0.2219332
0.7782139 0.3200071 0.2248679
0.7866878 0.3213869 0.2279026
0.0033400 0.0587264 0.0212137
0.0076812 0.0408803 0.0238899
0.0281596 0.0408846 0.0310834
0.0966678 0.0877726 0.0518317
0.2348338 0.1978742 0.1027927
0.3504951 0.2842623 0.1492083
0.4085455 0.3140018 0.1758720
0.4421203 0.3191923 0.1922376
0.4668995 0.3166159 0.2027406
0.4902474 0.3145212 0.2104993
0.5140136 0.3149763 0.2170502
0.5382469 0.3179976 0.2232277
0.5619101 0.3222708 0.2289240
0.5839814 0.3263664 0.2335062
0.6035306 0.3288458 0.2361818
0.6203491 0.3293121 0.2366997
0.6350238 0.3283865 0.2355439
0.6482330 0.3269237 0.2334475
0.6603549 0.3256037 0.2310253
0.6716816 0.3249265 0.2287606
0.6822950 0.3250868 0.2268584
0.6922895 0.3261585 0.2254641
0.7018623 0.3281917 0.2247497
0.7111736 0.3311730 0.2248310
0.7202665 0.3348664 0.2256359
0.7291178 0.3389144 0.2269578
0.7376777 0.3429039 0.2285198
0.7459551 0.3464914 0.2300814
0.7539805 0.3494074 0.2314404
0.7617930 0.3514534 0.2325115
0.7694684 0.3526128 0.2333324
0.7771013 0.3530806 0.2340163
0.7847770 0.3532772 0.2347166
0.0237362 0.1085383 0.0501830
0.0303019 0.0918048 0.0475182
0.0454887 0.0840219 0.0462594
0.0884348 0.1038551 0.0525539
0.1962645 0.1860714 0.0897944
0.3361907 0.2990771 0.1526716
0.4182840 0.3545315 0.1901639
0.4529432 0.3624397 0.2034652
0.4731863 0.3565631 0.2102639
0.4915769 0.3504415 0.2158096
0.5119761 0.3483746 0.2215337
0.5345843 0.3507308 0.2277270
0.5581213 0.3560390 0.2341871
0.5807800 0.3620383 0.2397826
0.6009813 0.3665459 0.2432066
0.6181572 0.3686399 0.2439674
0.6328938 0.3687718 0.2426962
0.6460220 0.3679344 0.2405013
0.6581649 0.3669898 0.2383710
0.6697665 0.3665720 0.2369305
0.6808970 0.3669258 0.2363276
0.6915954 0.3681141 0.2365664
0.7019739 0.3701763 0.2376225
0.7121073 0.3730507 0.2393865
0.7218774 0.3764197 0.2415458
0.7311818 0.3798608 0.2437175
0.7399430 0.3829456 0.2455064
0.7481406 0.3853568 0.2466311
0.7558077 0.3868994 0.2469231
0.7630619 0.3874748 0.2464033
0.7700894 0.3871173 0.2453132
0.7770501 0.3861110 0.2439533
0.7840353 0.3848314 0.2425314
0.0573320 0.1724428 0.0876277
0.0715329 0.1632315 0.0831054
0.0910667 0.1593668 0.0800660
0.1245344 0.1692492 0.0814007
0.1844234 0.2046453 0.0938946
0.2861532 0.2806372 0.1334370
0.3835660 0.3517069 0.1765716
0.4393139 0.3809867 0.1986211
0.4707716 0.3866633 0.2099786
0.4923438 0.3839452 0.2171352
0.5121779 0.3814648 0.2232485
0.5343035 0.3835919 0.2306247
0.5585851 0.3902173 0.2394154
0.5825613 0.3984367 0.2476129
0.6037704 0.4051209 0.2528572
0.6215413 0.4090399 0.2545769
0.6364982 0.4105583 0.2536273
0.6495176 0.4106083 0.2514619
0.6613168 0.4100282 0.2493684
0.6725078 0.4096419 0.2481596
0.6834791 0.4099913 0.2482200
0.6942718 0.4111505 0.2495528
0.7049501 0.4131835 0.2520033
0.7154179 0.4159119 0.2551375
0.7254501 0.4188893 0.2583681
0.7348608 0.4216231 0.2611142
0.7435586 0.4236864 0.2629105
0.7515108 0.4247762 0.2634609
0.7587573 0.4248065 0.2626661
0.7654527 0.4237832 0.2606612
0.7718844 0.4218585 0.2578938
0.7782849 0.4193500 0.2548225
0.7847290 0.4165901 0.2516951
0.0944480 0.2393664 0.1243789
0.1166201 0.2383494 0.1206849
0.1418103 0.2403370 0.1184796
0.1743238 0.2494700 0.1197551
0.2181981 0.2693029 0.1260972
0.2792315 0.3052116 0.1414389
0.3535728 0.3535947 0.1668934
0.4168299 0.3904724 0.1897251
0.4584554 0.4060847 0.2034773
0.4861981 0.4091493 0.2120542
0.5091334 0.4094549 0.2194852
0.5326710 0.4127838 0.2284143
0.5584579 0.4208949 0.2397623
0.5849579 0.4320191 0.2519319
0.6087075 0.4420274 0.2612157
0.6282395 0.4486435 0.2657784
0.6441208 0.4521101 0.2665802
0.6572762 0.4532562 0.2652045
0.6686993 0.4531517 0.2632879
0.6792769 0.4528715 0.2621303
0.6898143 0.4533027 0.2625815
0.7003755 0.4545607 0.2646902
0.7109351 0.4566000 0.2681659
0.7213138 0.4591776 0.2722348
0.7311897 0.4617036 0.2760767
0.7403283 0.4636124 0.2789284
0.7486438 0.4645296 0.2803438
0.7561464 0.4642338 0.2800996
0.7628879 0.4627287 0.2782009
0.7690675 0.4601492 0.2749467
0.7749793 0.4567270 0.2708660
0.7809263 0.4528641 0.2665399
0.7869514 0.4488370 0.2622273
0.1287194 0.3022439 0.1552525
0.1563906 0.3070145 0.1531998
0.1852679 0.3129913 0.1520522
0.2174897 0.3221925 0.1532270
0.2542209 0.3353477 0.1567139
0.2978757 0.3543945 0.1632718
0.3500030 0.3810379 0.1745833
0.4034185 0.4083460 0.1884879
0.4463360 0.4250358 0.1990175
0.4774168 0.4307794 0.2057176
0.5034912 0.4334766 0.2127806
0.5294485 0.4385815 0.2225107
0.5563792 0.4472778 0.2346373
0.5836753 0.4588327 0.2480357
0.6102007 0.4717940 0.2613005
0.6340229 0.4835580 0.2721174
0.6532394 0.4914394 0.2783255
0.6675854 0.4946299 0.2797154
0.6788790 0.4950586 0.2786553
0.6890432 0.4950137 0.2779466
0.6991899 0.4957158 0.2790357
0.7094775 0.4973462 0.2819886
0.7197639 0.4996405 0.2862371
0.7297010 0.5020390 0.2906610
0.7390323 0.5040079 0.2943851
0.7474946 0.5049409 0.2966315
0.7550880 0.5046284 0.2971124
0.7619391 0.5029864 0.2957982
0.7681570 0.5001118 0.2928848
0.7738834 0.4961925 0.2887231
0.7793920 0.4915324 0.2838189
0.7849611 0.4865315 0.2787329
0.7906519 0.4814615 0.2737400
0.1569517 0.3576189 0.1784980
0.1868693 0.3648391 0.1773369
0.2169634 0.3722677 0.1765408
0.2479926 0.3805995 0.1768399
0.2803556 0.3899094 0.1780905
0.3154356 0.4010841 0.1804365
0.3552511 0.4159092 0.1850509
0.3981905 0.4330170 0.1917479
0.4380685 0.4466836 0.1980563
0.4712324 0.4541082 0.2028632
0.5000155 0.4587302 0.2085617
0.5273896 0.4642862 0.2169432
0.5542476 0.4718731 0.2274949
0.5808954 0.4817987 0.2395710
0.6076217 0.4943037 0.2532419
0.6342597 0.5089913 0.2681519
0.6588474 0.5233268 0.2822474
0.6775174 0.5321611 0.2909854
0.6900926 0.5346231 0.2930580
0.7004948 0.5353696 0.2938838
0.7108800 0.5369758 0.2967631
0.7211932 0.5392638 0.3011858
0.7311215 0.5416974 0.3060165
0.7403012 0.5436208 0.3100516
0.7485861 0.5446282 0.3125757
0.7559850 0.5444405 0.3132880
0.7625388 0.5428775 0.3121630
0.7686185 0.5400876 0.3095778
0.7743097 0.5361740 0.3058280
0.7796685 0.5313086 0.3011553
0.7849074 0.5258073 0.2959551
0.7902298 0.5200330 0.2906958
0.7956420 0.5142003 0.2855312
0.1785966 0.4047868 0.1948157
0.2081885 0.4117940 0.1933598
0.2375440 0.4186208 0.1919764
0.2666494 0.4252434 0.1908386
0.2956842 0.4316251 0.1899212
0.3254556 0.4381360 0.1892912
0.3581102 0.4464072 0.1901954
0.3943049 0.4571222 0.1931936
0.4314486 0.4682551 0.1974092
0.4662070 0.4771926 0.2017814
0.4976252 0.4839208 0.2066932
0.5262478 0.4897434 0.2129445
0.5526219 0.4956015 0.2205521
0.5779130 0.5028902 0.2297297
0.6038614 0.5135183 0.2418654
0.6306195 0.5275920 0.2569920
0.6568570 0.5434267 0.2736972
0.6800297 0.5576513 0.2891051
0.6979133 0.5670004 0.2999945
0.7113987 0.5719927 0.3068821
0.7234602 0.5761357 0.3138545
0.7345197 0.5797870 0.3209043
0.7441342 0.5821785 0.3261664
0.7522474 0.5830476 0.3288616
0.7591775 0.5825817 0.3291975
0.7652055 0.5809189 0.3275019
0.7705499 0.5780610 0.3242563
0.7757329 0.5743462 0.3202852
0.7808995 0.5698917 0.3159324
0.7860528 0.5647186 0.3112846
0.7911922 0.5589361 0.3064044
0.7964106 0.5528501 0.3015334
0.8017145 0.5467053 0.2968078
0.1947417 0.4447429 0.2059107
0.2225934 0.4500428 0.2033507
0.2500061 0.4549708 0.2006085
0.2768246 0.4593735 0.1977418
0.3030782 0.4631411 0.1947717
0.3293491 0.4665315 0.1918870
0.3575105 0.4709301 0.1902961
0.3893930 0.4778773 0.1913023
0.4242188 0.4870155 0.1945494
0.4595142 0.4965978 0.1989875
0.4927460 0.5048771 0.2036771
0.5229039 0.5115229 0.2085623
0.5501073 0.5171746 0.2141034
0.5753895 0.5232551 0.2210914
0.6005101 0.5318120 0.2308142
0.6263968 0.5438552 0.2440760
0.6520917 0.5582083 0.2598373
0.6761068 0.5729176 0.2764141
0.6976336 0.5865747 0.2927803
0.7167267 0.5987705 0.3090386
0.7334282 0.6091722 0.3246724
0.7469257 0.6162720 0.3369178
0.7566784 0.6189613 0.3427228
0.7639767 0.6188598 0.3439639
0.7697054 0.6169349 0.3419913
0.7743062 0.6135399 0.3374737
0.7784701 0.6093562 0.3320554
0.7827818 0.6048789 0.3268808
0.7875186 0.6002975 0.3223185
0.7926575 0.5954915 0.3182394
0.7978778 0.5901475 0.3143016
0.8031553 0.5843819 0.3104112
0.8085069 0.5784787 0.3066147
0.2069025 0.4789439 0.2134174
0.2323722 0.4818442 0.2092813
0.2574671 0.4844187 0.2049417
0.2819922 0.4864698 0.2003688
0.3059536 0.4879134 0.1956353
0.3299578 0.4891328 0.1911597
0.3554145 0.4911886 0.1879520
0.3840880 0.4955073 0.1872890
0.4164017 0.5026228 0.1894147
0.4507564 0.5115521 0.1933688
0.4845106 0.5203610 0.1978211
0.5160946 0.5280987 0.2023696
0.5451360 0.5349443 0.2073482
0.5720854 0.5418054 0.2135409
0.5978264 0.5498874 0.2218747
0.6231714 0.5601793 0.2329180
0.6479765 0.5724950 0.2465522
0.6718420 0.5862030 0.2624014
0.6945399 0.6007220 0.2801734
0.7159467 0.6154918 0.2995695
0.7356305 0.6295689 0.3194972
0.7523380 0.6408888 0.3368157
0.7644673 0.6467902 0.3467831
0.7728438 0.6481734 0.3501101
0.7784295 0.6460640 0.3477178
0.7820924 0.6414237 0.3409846
0.7855901 0.6364675 0.3342961
0.7895603 0.6318352 0.3289488
0.7941578 0.6275123 0.3248951
0.7992437 0.6232235 0.3217200
0.8046064 0.6187257 0.3190326
0.8100733 0.6138772 0.3165188
0.8155204 0.6087321 0.3139243
0.2163096 0.5086108 0.2184467
0.2394274 0.5090919 0.2127373
0.2623014 0.5093532 0.2068878
0.2847801 0.5092334 0.2008589
0.3069545 0.5087531 0.1947951
0.3294166 0.5083526 0.1892075
0.3532857 0.5089243 0.1849824
0.3797503 0.5114295 0.1829832
0.4093727 0.5164069 0.1835459
0.4416427 0.5237307 0.1862619
0.4748172 0.5322446 0.1902402
0.5072863 0.5409077 0.1949260
0.5381854 0.5493813 0.2003049
0.5672914 0.5578954 0.2067512
0.5947329 0.5669009 0.2147295
0.6207696 0.5768806 0.2245854
0.6455309 0.5880528 0.2365494
0.6691870 0.6005221 0.2508740
0.6919704 0.6143041 0.2677084
0.7137824 0.6289258 0.2865333
0.7339519 0.6431253 0.3056832
0.7515671 0.6552571 0.3226243
0.7656134 0.6635537 0.3346062
0.7759453 0.6674781 0.3407767
0.7829222 0.6672007 0.3409164
0.7874350 0.6636991 0.3360845
0.7913962 0.6594358 0.3307017
0.7956746 0.6554204 0.3265467
0.8004486 0.6517236 0.3236916
0.8056406 0.6481477 0.3217555
0.8111114 0.6445013 0.3203528
0.8167555 0.6407004 0.3192027
0.8224170 0.6367254 0.3180329
0.2238503 0.5346639 0.2216745
0.2450527 0.5331240 0.2147434
0.2661295 0.5314628 0.2077550
0.2870291 0.5296138 0.2007127
0.3079142 0.5276831 0.1938003
0.3293085 0.5260890 0.1874926
0.3520071 0.5254912 0.1824569
0.3767776 0.5265505 0.1792816
0.4041362 0.5297715 0.1783332
0.4341336 0.5354035 0.1796681
0.4660857 0.5431868 0.1830292
0.4986428 0.5522757 0.1878049
0.5307682 0.5620999 0.1938018
0.5617332 0.5723148 0.2009701
0.5911117 0.5828094 0.2093398
0.6186597 0.5935850 0.2189742
0.6443445 0.6047502 0.2300550
0.6683847 0.6165576 0.2429291
0.6910426 0.6291667 0.2577671
0.7123660 0.6423276 0.2740737
0.7319377 0.6550970 0.2904144
0.7492428 0.6663288 0.3049460
0.7637997 0.6749675 0.3160726
0.7753178 0.6802557 0.3228167
0.7839291 0.6820290 0.3251717
0.7903344 0.6809984 0.3242274
0.7956760 0.6785968 0.3220389
0.8008055 0.6758526 0.3201405
0.8060911 0.6731356 0.3190105
0.8116152 0.6704683 0.3185643
0.8173385 0.6677747 0.3185387
0.8231928 0.6650098 0.3187013
0.8290920 0.6621887 0.3188882
0.2302197 0.5578419 0.2235482
0.2500788 0.5548533 0.2159103
0.2699050 0.5518251 0.2082788
0.2897339 0.5487737 0.2007154
0.3097594 0.5458545 0.1934015
0.3303849 0.5434045 0.1866967
0.3521505 0.5419006 0.1810732
0.3756091 0.5418636 0.1769988
0.4012641 0.5438248 0.1749086
0.4294021 0.5481987 0.1751345
0.4598170 0.5550718 0.1777345
0.4917627 0.5640857 0.1824093
0.5242904 0.5746594 0.1888473
0.5564167 0.5861357 0.1967069
0.5873566 0.5980199 0.2056910
0.6165470 0.6099853 0.2156101
0.6436386 0.6218423 0.2264018
0.6685563 0.6335915 0.2381340
0.6913746 0.6452787 0.2508364
0.7121477 0.6567619 0.2641175
0.7308446 0.6676103 0.2770578
0.7473728 0.6772284 0.2885645
0.7615832 0.6849829 0.2976221
0.7735435 0.6905286 0.3037178
0.7834147 0.6937557 0.3072096
0.7915812 0.6949308 0.3090792
0.7985215 0.6945951 0.3099614
0.8048256 0.6934549 0.3105932
0.8109174 0.6919864 0.3114390
0.8170069 0.6903961 0.3126017
0.8231604 0.6887385 0.3139805
0.8293761 0.6870371 0.3154522
0.8356207 0.6853174 0.3169492
0.2359426 0.5787514 0.2243955
0.2550012 0.5749041 0.2165734
0.2740909 0.5710732 0.2087985
0.2932989 0.5673312 0.2011635
0.3128140 0.5638447 0.1938357
0.3329310 0.5608852 0.1870691
0.3540362 0.5588231 0.1812124
0.3765693 0.5581146 0.1766779
0.4009965 0.5592810 0.1739321
0.4276612 0.5627763 0.1733955
0.4565970 0.5688338 0.1753136
0.4875203 0.5774473 0.1796864
0.5196725 0.5881291 0.1861963
0.5521305 0.6002177 0.1943996
0.5839594 0.6130249 0.2038214
0.6143827 0.6259855 0.2140489
0.6427746 0.6386308 0.2247418
0.6687116 0.6506304 0.2356268
0.6919877 0.6617883 0.2464843
0.7125833 0.6719807 0.2570358
0.7306759 0.6811220 0.2668697
0.7464662 0.6890411 0.2754517
0.7601797 0.6955699 0.2823119
0.7721035 0.7006527 0.2873137
0.7825726 0.7043734 0.2908586
0.7919254 0.7069141 0.2937899
0.8002547 0.7082699 0.2965211
0.8078024 0.7087021 0.2991831
0.8148904 0.7085856 0.3018443
0.8217528 0.7081771 0.3045452
0.8285285 0.7076179 0.3072566
0.8352805 0.7069882 0.3099526
0.8420299 0.7063388 0.3126396
0.2414026 0.5979098 0.2244736
0.2601004 0.5937135 0.2169149
0.2788544 0.5895631 0.2094154
0.2977809 0.5855642 0.2020853
0.3170530 0.5818844 0.1950716
0.3369005 0.5787593 0.1885732
0.3576165 0.5765062 0.1828736
0.3795582 0.5755268 0.1783406
0.4031224 0.5762858 0.1754090
0.4286505 0.5792256 0.1745096
0.4563021 0.5846515 0.1759669
0.4860035 0.5926812 0.1799106
0.5172594 0.6030129 0.1861522
0.5493225 0.6150939 0.1942825
0.5812857 0.6282105 0.2037547
0.6122570 0.6416422 0.2139878
0.6414415 0.6547380 0.2244289
0.6681727 0.6669369 0.2345610
0.6920352 0.6778579 0.2439937
0.7128834 0.6873079 0.2524860
0.7308356 0.6952549 0.2598750
0.7462384 0.7017964 0.2660474
0.7595838 0.7071334 0.2709899
0.7713812 0.7114977 0.2748423
0.7820980 0.7151198 0.2779166
0.7920482 0.7181461 0.2807470
0.8013616 0.7205572 0.2839041
0.8099945 0.7222308 0.2875052
0.8181281 0.7233723 0.2913795
0.8259005 0.7241402 0.2952728
0.8334512 0.7246760 0.2990587
0.8408975 0.7250954 0.3027403
0.8483122 0.7254769 0.3063699
0.2469089 0.6157621 0.2239996
0.2655348 0.6116042 0.2170385
0.2842198 0.6075073 0.2101361
0.3030836 0.6035897 0.2033949
0.3222918 0.6000200 0.1969601
0.3420433 0.5970205 0.1910199
0.3625692 0.5948742 0.1858148
0.3841589 0.5939314 0.1816611
0.4071348 0.5945904 0.1789353
0.4318028 0.5972475 0.1780280
0.4583687 0.6022177 0.1792715
0.4868392 0.6096370 0.1828302
0.5169276 0.6193536 0.1886220
0.5480744 0.6309492 0.1963288
0.5794861 0.6437717 0.2054124
0.6102802 0.6570681 0.2152358
0.6396120 0.6701156 0.2251399
0.6667240 0.6822613 0.2344987
0.6910672 0.6930082 0.2428299
0.7123596 0.7020644 0.2498857
0.7305951 0.7093539 0.2556016
0.7460963 0.7150506 0.2600869
0.7594267 0.7195217 0.2635914
0.7712530 0.7232192 0.2664380
0.7821454 0.7264984 0.2689095
0.7924343 0.7295079 0.2712995
0.8022951 0.7322780 0.2739467
0.8117771 0.7347604 0.2772988
0.8208678 0.7368901 0.2814080
0.8295830 0.7386954 0.2858274
0.8379961 0.7402327 0.2901865
0.8462458 0.7416171 0.2944269
0.8544426 0.7429462 0.2985884
0.2526884 0.6326767 0.2231344
0.2713891 0.6288307 0.2170029
0.2901455 0.6250508 0.2109199
0.3090664 0.6214571 0.2049849
0.3283075 0.6182197 0.1993398
0.3480476 0.6155527 0.1941669
0.3684875 0.6137153 0.1896890
0.3898590 0.6130106 0.1861771
0.4124206 0.6137754 0.1839360
0.4364240 0.6163457 0.1832973
0.4620577 0.6209916 0.1845387
0.4893667 0.6278446 0.1878269
0.5181764 0.6368216 0.1931234
0.5480933 0.6476213 0.2001982
0.5784650 0.6596934 0.2085753
0.6085130 0.6723584 0.2176537
0.6374314 0.6849095 0.2267773
0.6644727 0.6966880 0.2353143
0.6890323 0.7071502 0.2427600
0.7107365 0.7159422 0.2488398
0.7294735 0.7229319 0.2535238
0.7454507 0.7282527 0.2570082
0.7591684 0.7322816 0.2596047
0.7712937 0.7355261 0.2616701
0.7824500 0.7384274 0.2635265
0.7930458 0.7412227 0.2653729
0.8033215 0.7440171 0.2673961
0.8134280 0.7468607 0.2699211
0.8233477 0.7496587 0.2732945
0.8329599 0.7522622 0.2773005
0.8422584 0.7546228 0.2815017
0.8513611 0.7568174 0.2856910
0.8603903 0.7589489 0.2898302
0.2588986 0.6489591 0.2219805
0.2777105 0.6455957 0.2168293
0.2965743 0.6422985 0.2117178
0.3155838 0.6391865 0.2067392
0.3348771 0.6364236 0.2020308
0.3546174 0.6342147 0.1977671
0.3749871 0.6327977 0.1941586
0.3961798 0.6324379 0.1914361
0.4184008 0.6334168 0.1898484
0.4418449 0.6360040 0.1896421
0.4666545 0.6404117 0.1910387
0.4928734 0.6467428 0.1941663
0.5203999 0.6549490 0.1990160
0.5489388 0.6647921 0.2053947
0.5779986 0.6758488 0.2129243
0.6069322 0.6875547 0.2210827
0.6350308 0.6992790 0.2292865
0.6616116 0.7104091 0.2369656
0.6860909 0.7204215 0.2436626
0.7080503 0.7289384 0.2490963
0.7273087 0.7357872 0.2532192
0.7439575 0.7410309 0.2562124
0.7583585 0.7449628 0.2583404
0.7710645 0.7480199 0.2599231
0.7826750 0.7506590 0.2612624
0.7936722 0.7532204 0.2625625
0.8043861 0.7559124 0.2639705
0.8150253 0.7588428 0.2656474
0.8256266 0.7619688 0.2677860
0.8360734 0.7651206 0.2705737
0.8462789 0.7681222 0.2738185
0.8562562 0.7709356 0.2772663
0.8661302 0.7736627 0.2807469
0.2656246 0.6648492 0.2206383
0.2845047 0.6620620 0.2165432
0.3034306 0.6593372 0.2124880
0.3224885 0.6567896 0.2085562
0.3417948 0.6545749 0.2048751
0.3614983 0.6528846 0.2016059
0.3817595 0.6519314 0.1989351
0.4027446 0.6519472 0.1970632
0.4246182 0.6531660 0.1961899
0.4475235 0.6557976 0.1964931
0.4715584 0.6599978 0.1981285
0.4967539 0.6658389 0.2011941
0.5230355 0.6732771 0.2056757
0.5501841 0.6821282 0.2114145
0.5778250 0.6920640 0.2181013
0.6054544 0.7026433 0.2253137
0.6324878 0.7133457 0.2325780
0.6583377 0.7236392 0.2394323
0.6824765 0.7330485 0.2454854
0.7044961 0.7412141 0.2504793
0.7241735 0.7479401 0.2543344
0.7415112 0.7532271 0.2571483
0.7567352 0.7572575 0.2591192
0.7702438 0.7603570 0.2604993
0.7825363 0.7629270 0.2615309
0.7940964 0.7653442 0.2623977
0.8053102 0.7678931 0.2632202
0.8164435 0.7707439 0.2640702
0.8276172 0.7739308 0.2650034
0.8388446 0.7773863 0.2661889
0.8499788 0.7808580 0.2678296
0.8608976 0.7841356 0.2698953
0.8716277 0.7872277 0.2721428
0.2728663 0.6805303 0.2191817
0.2917264 0.6783538 0.2161765
0.3106310 0.6762349 0.2132138
0.3296562 0.6742799 0.2103655
0.3489014 0.6726351 0.2077475
0.3684918 0.6714709 0.2055042
0.3885731 0.6709768 0.2037905
0.4092855 0.6713500 0.2027717
0.4307540 0.6727802 0.2026069
0.4530881 0.6754316 0.2034279
0.4763571 0.6794173 0.2053436
0.5005737 0.6847799 0.2084169
0.5256692 0.6914732 0.2126211
0.5514711 0.6993523 0.2178188
0.5776997 0.7081691 0.2237599
0.6039727 0.7175840 0.2301199
0.6298300 0.7271882 0.2365361
0.6547893 0.7365444 0.2426526
0.6784023 0.7452469 0.2481582
0.7002996 0.7529720 0.2528257
0.7202492 0.7595240 0.2565550
0.7381921 0.7648500 0.2593666
0.7542446 0.7690412 0.2613805
0.7686583 0.7723121 0.2627674
0.7818008 0.7749759 0.2636898
0.7940823 0.7773713 0.2642772
0.8058935 0.7798003 0.2646187
0.8175516 0.7824921 0.2647490
0.8292769 0.7855739 0.2646742
0.8411888 0.7890715 0.2644278
0.8532466 0.7928411 0.2641762
0.8651536 0.7964292 0.2643549
0.8768008 0.7997220 0.2649444
0.2805714 0.6961417 0.2176726
0.2993146 0.6945685 0.2157564
0.3180988 0.6930470 0.2138815
0.3369925 0.6916754 0.2121189
0.3560785 0.6905822 0.2105576
0.3754656 0.6899167 0.2093230
0.3952787 0.6898418 0.2085464
0.4156321 0.6905233 0.2083527
0.4366249 0.6921144 0.2088666
0.4583380 0.6947391 0.2101872
0.4808232 0.6984825 0.2123901
0.5040799 0.7033663 0.2155142
0.5280409 0.7093448 0.2195248
0.5525680 0.7163030 0.2242980
0.5774464 0.7240539 0.2296363
0.6023917 0.7323414 0.2352968
0.6270552 0.7408515 0.2410100
0.6510596 0.7492433 0.2465115
0.6740340 0.7571815 0.2515609
0.6956671 0.7643926 0.2559680
0.7157446 0.7706919 0.2596331
0.7341717 0.7759933 0.2625249
0.7509688 0.7803176 0.2646849
0.7662740 0.7837934 0.2661969
0.7803301 0.7866372 0.2671493
0.7934554 0.7891137 0.2676129
0.8059948 0.7914978 0.2676318
0.8182767 0.7940346 0.2672331
0.8305758 0.7969051 0.2664098
0.8430803 0.8001933 0.2651436
0.8558529 0.8038561 0.2634636
0.8687614 0.8076375 0.2616020
0.8815507 0.8112041 0.2601954
0.2886602 0.7117796 0.2161505
0.3071951 0.7107779 0.2153068
0.3257604 0.7098217 0.2144979
0.3444158 0.7089948 0.2137868
0.3632435 0.7084079 0.2132508
0.3823384 0.7081900 0.2129864
0.4017951 0.7084775 0.2130979
0.4217037 0.7094059 0.2136857
0.4421458 0.7110960 0.2148341
0.4631881 0.7136459 0.2166205
0.4848648 0.7171153 0.2191077
0.5071652 0.7215172 0.2223101
0.5300342 0.7268126 0.2261919
0.5533566 0.7329113 0.2306507
0.5769662 0.7396716 0.2355344
0.6006526 0.7469025 0.2406601
0.6241627 0.7543699 0.2458328
0.6472071 0.7618119 0.2508531
0.6694945 0.7689690 0.2555375
0.6907722 0.7756158 0.2597404
0.7108550 0.7815858 0.2633666
0.7296218 0.7867764 0.2663550
0.7470352 0.7911649 0.2686886
0.7631496 0.7948110 0.2703754
0.7781119 0.7978471 0.2714426
0.7921492 0.8004624 0.2719059
0.8055345 0.8028746 0.2717785
0.8185613 0.8053051 0.2710693
0.8315069 0.8079427 0.2697776
0.8446050 0.8109156 0.2678888
0.8580075 0.8142617 0.2653862
0.8717593 0.8179207 0.2623356
0.8857720 0.8217471 0.2591130
0.2970577 0.7275141 0.2146489
0.3152925 0.7270328 0.2148369
0.3335488 0.7265898 0.2150562
0.3518759 0.7262524 0.2153567
0.3703536 0.7261131 0.2157992
