catalog/styles/experimental/experimental-lough-leane/look.cube
# experimental-lough-leane iteration 6
LUT_3D_SIZE 9
DOMAIN_MIN 0 0 0
DOMAIN_MAX 1 1 1
0.0838308 0.0853839 0.0829000
0.1713880 0.0746091 0.0625236
0.4715314 0.2070483 0.1851655
0.6172678 0.2415382 0.2327304
0.6718293 0.2200724 0.2345039
0.7027681 0.2097901 0.2075479
0.7225510 0.2181902 0.1827607
0.7531031 0.2413950 0.1879739
0.7927596 0.2548261 0.2160432
0.0237362 0.1085383 0.0501830
0.1962645 0.1860714 0.0897944
0.4731863 0.3565631 0.2102639
0.5581213 0.3560390 0.2341871
0.6328938 0.3687718 0.2426962
0.6808970 0.3669258 0.2363276
0.7218774 0.3764197 0.2415458
0.7558077 0.3868994 0.2469231
0.7840353 0.3848314 0.2425314
0.1569517 0.3576189 0.1784980
0.2803556 0.3899094 0.1780905
0.4380685 0.4466836 0.1980563
0.5542476 0.4718731 0.2274949
0.6588474 0.5233268 0.2822474
0.7108800 0.5369758 0.2967631
0.7485861 0.5446282 0.3125757
0.7743097 0.5361740 0.3058280
0.7956420 0.5142003 0.2855312
0.2163096 0.5086108 0.2184467
0.3069545 0.5087531 0.1947951
0.4093727 0.5164069 0.1835459
0.5381854 0.5493813 0.2003049
0.6455309 0.5880528 0.2365494
0.7339519 0.6431253 0.3056832
0.7829222 0.6672007 0.3409164
0.8004486 0.6517236 0.3236916
0.8224170 0.6367254 0.3180329
0.2414026 0.5979098 0.2244736
0.3170530 0.5818844 0.1950716
0.4031224 0.5762858 0.1754090
0.5172594 0.6030129 0.1861522
0.6414415 0.6547380 0.2244289
0.7308356 0.6952549 0.2598750
0.7820980 0.7151198 0.2779166
0.8181281 0.7233723 0.2913795
0.8483122 0.7254769 0.3063699
0.2656246 0.6648492 0.2206383
0.3417948 0.6545749 0.2048751
0.4246182 0.6531660 0.1961899
0.5230355 0.6732771 0.2056757
0.6324878 0.7133457 0.2325780
0.7241735 0.7479401 0.2543344
0.7825363 0.7629270 0.2615309
0.8276172 0.7739308 0.2650034
0.8716277 0.7872277 0.2721428
0.2970577 0.7275141 0.2146489
0.3703536 0.7261131 0.2157992
0.4473002 0.7297100 0.2204359
0.5316299 0.7438762 0.2325356
0.6211618 0.7677698 0.2508505
0.7057167 0.7923154 0.2675725
0.7752185 0.8086187 0.2762245
0.8320909 0.8187206 0.2743637
0.8893448 0.8314134 0.2621605
0.3319077 0.7920082 0.2091991
0.3979303 0.7959451 0.2242167
0.4651661 0.8011723 0.2393375
0.5350858 0.8092601 0.2549165
0.6084688 0.8207841 0.2710354
0.6841379 0.8347737 0.2861792
0.7593061 0.8485603 0.2966560
0.8316131 0.8599685 0.2989261
0.9019618 0.8698817 0.2945489
0.3669874 0.8580691 0.2048677
0.4244480 0.8650488 0.2307462
0.4810184 0.8704585 0.2548935
0.5368879 0.8728584 0.2750268
0.5953901 0.8737795 0.2908270
0.6623914 0.8773492 0.3044092
0.7410055 0.8864901 0.3164545
0.8288478 0.8999927 0.3260478
0.9205662 0.9147568 0.3339814
0.0755073 0.0962530 0.2511553
0.1301933 0.0485233 0.1259228
0.3575228 0.1414814 0.2302480
0.5769692 0.2661387 0.3525176
0.6925673 0.3173033 0.4029673
0.7435081 0.3211964 0.3950264
0.7672660 0.3326898 0.3672629
0.7886309 0.3781647 0.3646102
0.8169736 0.4349611 0.3887272
0.0891141 0.2138799 0.2019506
0.1554563 0.1560511 0.1602979
0.2976795 0.1890745 0.1908235
0.5083058 0.3096429 0.3004193
0.6341860 0.3854428 0.3603190
0.7075395 0.4282311 0.3880308
0.7575281 0.4593050 0.4027125
0.7940263 0.4825812 0.4102527
0.8262153 0.5055518 0.4161275
0.1277899 0.3405301 0.2401602
0.2686341 0.3760000 0.2604211
0.4201594 0.4286367 0.3050340
0.5119542 0.4217180 0.3068261
0.6039418 0.4523481 0.3350153
0.6898932 0.5111044 0.3837699
0.7555999 0.5577996 0.4284575
0.8003521 0.5787066 0.4441520
0.8330545 0.5834336 0.4389535
0.2091444 0.4930742 0.3041214
0.3053300 0.4979516 0.2946312
0.4008851 0.4992286 0.2880720
0.5204262 0.5226485 0.3137519
0.6400604 0.5728242 0.3610455
0.7060604 0.5994242 0.3871357
0.7664328 0.6441602 0.4472960
0.8096149 0.6607144 0.4580699
0.8417719 0.6623059 0.4490505
0.2556990 0.5962741 0.3236193
0.3353056 0.5889513 0.3097789
0.4243903 0.5874340 0.3046477
0.5241993 0.5968611 0.3131058
0.6323876 0.6343767 0.3449056
0.7385154 0.6933302 0.4000753
0.7800868 0.7062398 0.4193537
0.8148717 0.7171087 0.4374835
0.8545789 0.7285549 0.4448290
0.2820642 0.6683647 0.3174092
0.3591642 0.6619018 0.3128393
0.4400120 0.6589731 0.3118134
0.5255069 0.6640565 0.3176064
0.6210908 0.6904124 0.3417368
0.7237247 0.7389166 0.3865386
0.7966294 0.7711685 0.4193592
0.8313193 0.7742108 0.4284510
0.8677504 0.7801402 0.4362131
0.3047958 0.7294952 0.3035329
0.3777447 0.7262025 0.3087925
0.4511839 0.7245910 0.3145943
0.5281131 0.7296930 0.3253573
0.6123541 0.7475584 0.3471986
0.7006941 0.7772914 0.3795756
0.7804788 0.8067929 0.4117677
0.8391075 0.8218450 0.4302396
0.8841990 0.8266737 0.4391622
0.3278189 0.7878016 0.2876658
0.3943430 0.7876656 0.3018979
0.4614288 0.7887274 0.3165593
0.5308327 0.7933236 0.3333791
0.6042577 0.8034714 0.3544463
0.6816489 0.8196912 0.3800143
0.7603403 0.8399248 0.4079034
0.8353731 0.8590611 0.4337454
0.9051892 0.8744810 0.4541689
0.3509138 0.8460424 0.2712657
0.4109384 0.8488943 0.2944120
0.4713091 0.8520157 0.3177111
0.5327101 0.8552900 0.3403305
0.5963321 0.8587547 0.3614808
0.6650210 0.8642538 0.3827599
0.7425354 0.8756663 0.4077757
0.8306499 0.8956791 0.4388928
0.9262395 0.9220364 0.4737043
0.1441731 0.2131605 0.4896613
0.1863605 0.1118836 0.3069189
0.3166425 0.1305721 0.3019922
0.5022662 0.2378379 0.3991264
0.6585468 0.3486684 0.4893451
0.7521699 0.4199884 0.5329910
0.8023889 0.4692743 0.5451031
0.8334932 0.5171391 0.5481651
0.8597525 0.5742589 0.5574810
0.1695506 0.3045674 0.4091941
0.2411045 0.2507344 0.3554316
0.2931332 0.1871607 0.2867490
0.4912393 0.3092861 0.3890587
0.6376672 0.4128024 0.4725775
0.7239545 0.4770044 0.5155096
0.7846088 0.5295890 0.5436282
0.8283432 0.5715403 0.5601823
0.8656701 0.6079467 0.5711750
0.1852428 0.3934599 0.3880679
0.3041269 0.4101769 0.4112894
0.3833587 0.3836634 0.3840288
0.4947357 0.4067850 0.3967607
0.6073495 0.4658065 0.4428459
0.7007601 0.5315286 0.5011091
0.7707599 0.5853968 0.5441676
0.8222825 0.6214113 0.5679705
0.8653547 0.6476733 0.5803457
0.2362364 0.5038664 0.4136232
0.3264198 0.5127589 0.4193356
0.4148035 0.5087535 0.4131642
0.5232259 0.5248439 0.4349730
0.6291949 0.5654283 0.4698483
0.7014095 0.5990629 0.5022037
0.7618892 0.6360017 0.5425224
0.8154958 0.6672840 0.5692875
0.8627571 0.6917971 0.5818030
0.2781813 0.6011380 0.4248490
0.3520892 0.5963138 0.4215735
0.4403969 0.5982573 0.4277519
0.5399017 0.6070739 0.4459715
0.6335722 0.6319961 0.4749291
0.7293272 0.6832767 0.5234850
0.7780171 0.7034269 0.5493234
0.8140309 0.7149620 0.5658746
0.8656479 0.7390635 0.5811647
0.2966298 0.6723959 0.4129216
0.3718355 0.6665627 0.4150408
0.4511545 0.6631890 0.4207070
0.5301233 0.6605436 0.4279962
0.6127599 0.6726214 0.4486670
0.7122656 0.7209010 0.5026911
0.8005196 0.7718848 0.5610190
0.8374394 0.7789954 0.5747445
0.8741782 0.7847180 0.5818760
0.3092625 0.7299672 0.3910444
0.3822746 0.7248316 0.3988787
0.4549750 0.7204609 0.4072413
0.5281412 0.7197979 0.4188968
0.6064563 0.7306564 0.4418585
0.6944908 0.7612054 0.4844391
0.7817059 0.8013524 0.5365587
0.8459180 0.8255776 0.5721288
0.8915240 0.8335187 0.5913348
0.3221901 0.7825250 0.3657571
0.3900902 0.7791980 0.3795954
0.4583568 0.7771106 0.3943153
0.5285593 0.7791819 0.4128143
0.6026838 0.7884252 0.4383537
0.6812528 0.8063945 0.4726726
0.7619723 0.8317054 0.5145927
0.8392401 0.8581559 0.5592135
0.9103446 0.8809440 0.6031947
0.3345627 0.8338548 0.3394948
0.3981832 0.8334651 0.3603523
0.4625268 0.8342856 0.3825010
0.5287755 0.8376031 0.4067852
0.5974742 0.8434698 0.4331255
0.6691531 0.8521161 0.4623191
0.7466196 0.8667702 0.4989072
0.8331887 0.8917386 0.5488305
0.9270327 0.9251985 0.6097872
0.2792229 0.3300879 0.5939896
0.2966282 0.2351482 0.4772714
0.3574855 0.2014511 0.4245840
0.4819201 0.2600671 0.4673581
0.6236864 0.3643898 0.5508698
0.7374928 0.4651723 0.6217539
0.8132100 0.5441339 0.6646687
0.8653273 0.6083099 0.6885125
0.9087315 0.6677350 0.7048702
0.2667757 0.4357683 0.5976959
0.3220419 0.3444396 0.5099840
0.3904226 0.3020977 0.4615776
0.5090970 0.3513368 0.4934576
0.6389859 0.4437259 0.5637204
0.7328553 0.5187627 0.6168646
0.8008496 0.5809307 0.6544415
0.8543216 0.6352839 0.6820061
0.9015203 0.6847058 0.7039975
0.1453006 0.3763766 0.4731777
0.3811122 0.4834561 0.5670670
0.4532495 0.4483609 0.5339359
0.5453982 0.4615977 0.5343302
0.6473528 0.5180388 0.5696377
0.7257432 0.5702316 0.6078252
0.7902364 0.6197523 0.6454096
0.8435202 0.6626214 0.6753623
0.8921963 0.7021956 0.7017092
0.2780387 0.5250969 0.5247166
0.3634772 0.5442470 0.5453441
0.4112174 0.5079501 0.5187898
0.5460646 0.5463725 0.5465653
0.6488686 0.5869610 0.5776672
0.7264718 0.6287363 0.6020764
0.7852949 0.6628869 0.6397266
0.8334832 0.6915258 0.6687355
0.8829487 0.7241034 0.6993396
0.3092146 0.6198289 0.5301038
0.3673057 0.6074314 0.5261986
0.4481686 0.6063695 0.5328256
0.5440606 0.6129378 0.5450482
0.6497665 0.6485021 0.5871192
0.7294907 0.6860674 0.6171588
0.7930738 0.7200387 0.6529251
0.8309588 0.7317679 0.6706956
0.8810939 0.7576170 0.6992468
0.3072274 0.6793299 0.5064878
0.3767892 0.6685084 0.5075950
0.4569885 0.6662716 0.5172064
0.5440884 0.6708459 0.5345650
0.6266495 0.6821510 0.5596587
0.7111936 0.7160158 0.6050819
0.7924499 0.7630294 0.6570940
0.8413603 0.7833420 0.6817377
0.8855428 0.7960939 0.6963340
0.3089622 0.7292387 0.4762906
0.3820904 0.7216264 0.4837561
0.4572607 0.7169752 0.4945981
0.5356947 0.7186646 0.5124382
0.6149291 0.7286387 0.5393153
0.6967012 0.7537775 0.5816249
0.7807545 0.7943668 0.6377100
0.8492257 0.8267031 0.6811256
0.9003465 0.8425707 0.7044783
0.3127292 0.7753466 0.4441337
0.3846181 0.7708100 0.4576993
0.4566954 0.7676279 0.4729342
0.5304239 0.7691834 0.4935312
0.6075592 0.7792272 0.5232234
0.6874890 0.7990399 0.5634517
0.7674882 0.8269670 0.6124000
0.8434416 0.8574143 0.6645271
0.9137403 0.8853785 0.7155301
0.3163868 0.8200489 0.4111064
0.3866003 0.8192373 0.4315019
0.4564571 0.8190999 0.4527480
0.5266474 0.8212891 0.4766885
0.5988787 0.8278751 0.5057276
0.6743742 0.8403242 0.5415774
0.7536989 0.8600327 0.5874737
0.8379005 0.8893272 0.6490969
0.9261015 0.9263186 0.7255528
0.4511452 0.4630813 0.6720395
0.4468533 0.3909197 0.6219199
0.4643791 0.3396489 0.5793693
0.5316424 0.3515869 0.5853586
0.6312611 0.4176054 0.6372714
0.7313914 0.5034987 0.7027121
0.8138511 0.5849126 0.7563823
0.8804060 0.6567752 0.7955769
0.9402716 0.7236591 0.8287269
0.3711884 0.5210946 0.6800905
0.4376982 0.4704923 0.6467692
0.5120557 0.4479518 0.6296365
0.5829008 0.4559473 0.6318432
0.6655739 0.5016384 0.6639360
0.7462071 0.5624293 0.7078652
0.8139472 0.6216947 0.7479231
0.8720666 0.6774039 0.7823296
0.9264290 0.7310852 0.8138466
0.2267694 0.5298532 0.6371029
0.4220841 0.5337678 0.6539213
0.5649030 0.5644964 0.6842323
0.6362497 0.5675245 0.6834805
0.6969099 0.5841567 0.6893144
0.7579589 0.6188422 0.7102523
0.8137369 0.6592415 0.7391311
0.8646519 0.7000733 0.7702503
0.9130277 0.7399112 0.8011431
0.2300934 0.5266270 0.5885587
0.3994046 0.5852886 0.6434997
0.5398976 0.6169656 0.6760279
0.6734434 0.6696240 0.7246315
0.7099955 0.6510870 0.7022545
0.7640049 0.6719675 0.7105870
0.8156966 0.7011758 0.7319089
0.8596929 0.7276737 0.7608358
0.9022421 0.7544102 0.7924299
0.3141775 0.6369912 0.6208264
0.3770126 0.6241796 0.6150218
0.4678471 0.6253415 0.6253326
0.6015695 0.6665139 0.6683630
0.6902263 0.6878359 0.6878724
0.7627879 0.7198415 0.7136356
0.8177828 0.7461065 0.7264528
0.8573490 0.7613776 0.7564258
0.8970654 0.7781685 0.7861192
0.3141597 0.6895560 0.5958883
0.3791942 0.6733319 0.5909140
0.4593307 0.6680847 0.5975005
0.5652629 0.6872611 0.6274309
0.6712662 0.7204377 0.6702174
0.7522002 0.7540321 0.7118000
0.8019671 0.7715572 0.7280364
0.8571751 0.7995602 0.7598434
0.8989745 0.8115211 0.7806538
0.3044448 0.7289835 0.5604427
0.3801995 0.7202151 0.5649885
0.4598922 0.7157735 0.5749003
0.5488073 0.7234842 0.5985180
0.6438038 0.7464167 0.6383041
0.7277845 0.7745717 0.6822962
0.7945153 0.8021503 0.7221652
0.8561993 0.8318565 0.7583823
0.9049092 0.8486314 0.7795152
0.2975993 0.7658902 0.5238833
0.3777370 0.7633923 0.5372745
0.4579031 0.7624472 0.5530539
0.5387537 0.7661429 0.5750548
0.6213136 0.7785175 0.6073215
0.7044512 0.8017172 0.6507708
0.7821282 0.8310620 0.6995913
0.8506174 0.8597400 0.7456537
0.9138354 0.8868286 0.7883209
0.2937371 0.8027028 0.4877097
0.3749371 0.8055570 0.5092025
0.4538566 0.8078742 0.5305413
0.5291301 0.8101238 0.5531026
0.6031623 0.8156425 0.5804530
0.6802145 0.8293825 0.6175787
0.7616036 0.8541639 0.6678325
0.8445939 0.8885681 0.7315121
0.9279727 0.9290953 0.8060037
0.6314925 0.6209851 0.7602760
0.6077112 0.5497948 0.7482787
0.6064752 0.5027762 0.7341209
0.6312653 0.4870172 0.7315163
0.6832285 0.5107063 0.7553100
0.7504635 0.5616515 0.7990815
0.8196153 0.6224135 0.8466022
0.8848481 0.6838621 0.8893939
0.9478053 0.7451393 0.9295461
0.5207341 0.6223565 0.7557419
0.5674231 0.5942911 0.7568322
0.6195192 0.5751312 0.7592499
0.6670619 0.5705565 0.7631849
0.7165803 0.5850991 0.7771621
0.7731500 0.6190887 0.8048892
0.8300903 0.6623090 0.8385705
0.8843572 0.7077464 0.8726319
0.9374748 0.7535492 0.9066679
0.4072542 0.6478886 0.7461115
0.5140049 0.6233758 0.7493312
0.6212236 0.6368660 0.7739607
0.6970893 0.6502880 0.7902650
0.7487254 0.6586249 0.7974971
0.7940050 0.6752488 0.8092976
0.8391008 0.7016435 0.8299984
0.8838079 0.7324050 0.8566195
0.9279838 0.7639018 0.8850705
0.2842537 0.6216728 0.6894113
0.4449438 0.6343844 0.7205269
0.5797006 0.6645421 0.7566325
0.7110885 0.7154614 0.8013052
0.7776061 0.7295822 0.8148967
0.8068360 0.7255024 0.8085694
0.8440856 0.7395289 0.8196432
0.8827223 0.7591515 0.8412861
0.9207102 0.7790822 0.8665929
0.3176826 0.6546537 0.6873127
0.3870599 0.6477459 0.6853678
0.5193776 0.6698040 0.7140779
0.6236921 0.6853736 0.7310043
0.8001004 0.7953619 0.8296195
0.8082455 0.7673699 0.8042512
0.8398577 0.7712677 0.8057007
0.8790647 0.7866200 0.8255336
0.9175610 0.8023484 0.8535951
0.3170161 0.6991506 0.6740295
0.3892367 0.6901082 0.6703223
0.4831871 0.6888804 0.6762564
0.5827829 0.6974278 0.6946800
0.7445675 0.7859188 0.7828163
0.8092086 0.8081584 0.8080669
0.8235390 0.7916780 0.7885192
0.8758868 0.8167682 0.8144654
0.9176161 0.8323245 0.8448137
0.2914090 0.7273012 0.6410581
0.3806823 0.7249258 0.6458624
0.4722545 0.7251647 0.6544385
0.5725338 0.7377161 0.6776021
0.6783468 0.7690776 0.7216908
0.7785076 0.8149196 0.7776603
0.8312810 0.8335454 0.8020596
0.8705216 0.8444299 0.8137865
0.9156342 0.8601873 0.8345035
0.2757760 0.7539177 0.6055728
0.3705392 0.7580074 0.6192505
0.4642268 0.7636569 0.6354517
0.5558177 0.7728515 0.6576013
0.6439310 0.7875881 0.6879556
0.7291981 0.8127768 0.7289687
0.8068702 0.8460326 0.7752879
0.8646772 0.8698734 0.8083795
0.9147004 0.8873171 0.8321430
0.2638409 0.7808488 0.5700611
0.3600715 0.7910385 0.5925949
0.4528072 0.8000964 0.6147898
0.5383719 0.8071851 0.6367270
0.6176109 0.8146895 0.6611230
0.6947521 0.8283407 0.6934380
0.7730498 0.8531849 0.7377235
0.8523504 0.8896549 0.7932756
0.9310057 0.9331515 0.8550776
0.7661200 0.7387579 0.8360951
0.7607716 0.6969750 0.8603189
0.7513698 0.6591362 0.8707580
0.7484202 0.6326008 0.8763138
0.7613983 0.6260196 0.8889654
0.7928429 0.6408973 0.9139437
0.8369608 0.6701939 0.9474274
0.8860924 0.7058464 0.9826193
0.9361375 0.7433192 1.0000000
0.6779977 0.7282896 0.8323592
0.6992812 0.7066116 0.8502070
0.7225475 0.6889471 0.8663571
0.7476119 0.6784259 0.8790915
0.7763196 0.6773310 0.8918759
0.8111975 0.6879076 0.9100190
0.8513228 0.7082084 0.9337364
0.8940354 0.7336866 0.9604117
0.9376179 0.7609209 0.9879123
0.5893993 0.7168880 0.8100386
0.6300611 0.7094380 0.8314637
0.6840158 0.7112939 0.8553869
0.7435992 0.7212686 0.8784150
0.7915842 0.7281624 0.8934337
0.8287032 0.7340681 0.9046305
0.8640944 0.7453223 0.9194266
0.9010562 0.7615253 0.9387238
0.9386870 0.7793794 0.9593367
0.5161285 0.6964309 0.7680164
0.5446105 0.7030039 0.8003973
0.6332239 0.7237879 0.8344207
0.7334176 0.7551320 0.8692535
0.8057835 0.7764772 0.8918460
0.8431175 0.7778958 0.8968916
0.8729093 0.7802800 0.9035313
0.9053194 0.7890314 0.9169698
0.9387887 0.7997570 0.9327621
0.4183543 0.6934563 0.7491939
0.4511270 0.7006456 0.7682676
0.5806892 0.7298626 0.8017629
0.7112139 0.7698606 0.8444131
0.8019209 0.8073639 0.8750256
0.8574151 0.8233807 0.8923643
0.8765967 0.8129174 0.8878734
0.9045185 0.8147973 0.8951014
0.9385478 0.8238843 0.9110617
0.3204324 0.7075731 0.7392028
0.4057726 0.7163810 0.7476957
0.5322847 0.7353296 0.7647219
0.6564169 0.7588304 0.7893741
0.7530897 0.7903597 0.8184354
0.8651415 0.8651005 0.8914438
0.8723809 0.8401806 0.8733239
0.8972888 0.8372145 0.8737142
0.9402866 0.8539500 0.8970330
0.2764501 0.7236995 0.7164793
0.3893842 0.7365329 0.7271198
0.5019740 0.7507649 0.7401228
0.6125885 0.7691816 0.7597406
0.7111123 0.7938286 0.7881994
0.8061308 0.8374096 0.8361507
0.8498239 0.8499112 0.8507266
0.8899718 0.8613676 0.8606008
0.9402932 0.8839589 0.8878967
0.2488419 0.7392519 0.6879857
0.3648644 0.7554574 0.7037674
0.4773242 0.7723907 0.7211730
0.5837825 0.7914468 0.7430486
0.6792824 0.8117251 0.7694107
0.7592606 0.8329402 0.7981900
0.8300607 0.8623776 0.8326729
0.8799237 0.8830648 0.8555129
0.9311287 0.9036701 0.8783201
0.2219948 0.7542173 0.6577061
0.3384970 0.7747467 0.6800317
0.4509516 0.7942984 0.7022189
0.5536144 0.8113845 0.7239348
0.6451426 0.8273910 0.7466649
0.7277311 0.8466723 0.7742900
0.8014729 0.8711380 0.8076471
0.8670099 0.8996834 0.8440611
0.9314867 0.9337335 0.8841637
0.9109074 0.8498195 0.9201365
0.9040797 0.8293636 0.9620965
0.8861149 0.8020264 0.9926191
0.8641087 0.7730017 1.0000000
0.8492516 0.7483338 1.0000000
0.8488480 0.7327477 1.0000000
0.8630592 0.7268098 1.0000000
0.8867081 0.7274143 1.0000000
0.9138616 0.7303537 1.0000000
0.8334280 0.8264336 0.9053240
0.8294932 0.8115168 0.9367430
0.8264017 0.7965652 0.9651305
0.8282515 0.7823507 0.9879812
0.8374300 0.7703157 1.0000000
0.8536730 0.7620041 1.0000000
0.8761558 0.7585227 1.0000000
0.9029815 0.7589379 1.0000000
0.9315867 0.7610070 1.0000000
0.7498769 0.7962023 0.8801132
0.7518000 0.7932087 0.9093970
0.7645128 0.7910739 0.9373889
0.7928802 0.7915389 0.9628765
0.8271453 0.7922242 0.9829831
0.8586817 0.7907167 0.9966624
0.8881375 0.7893683 1.0000000
0.9177632 0.7898587 1.0000000
0.9475568 0.7913126 1.0000000
0.6595814 0.7677857 0.8508807
0.6625787 0.7758723 0.8805019
0.7003679 0.7865585 0.9090536
0.7599209 0.7993945 0.9350716
0.8176020 0.8116031 0.9570053
0.8628656 0.8177293 0.9721390
0.8974838 0.8185557 0.9816426
0.9287226 0.8193115 0.9900150
0.9591832 0.8205556 0.9980821
0.5231549 0.7437234 0.8259431
0.5577528 0.7614557 0.8527699
0.6398608 0.7846051 0.8805283
0.7296800 0.8045459 0.9027157
0.7991667 0.8195930 0.9200952
0.8608504 0.8389258 0.9431385
0.9030784 0.8461836 0.9569366
0.9336483 0.8464460 0.9635577
0.9655036 0.8493248 0.9716805
0.3712999 0.7274968 0.8075374
0.4699945 0.7541609 0.8293921
0.5888561 0.7849088 0.8536388
0.7021229 0.8122695 0.8748313
0.7695792 0.8167971 0.8763546
0.8453118 0.8482904 0.9072406
0.8999384 0.8686871 0.9330852
0.9298038 0.8692235 0.9393724
0.9696888 0.8807407 0.9542511
0.2801520 0.7225009 0.7898354
0.4122467 0.7539425 0.8098867
0.5433496 0.7862088 0.8308801
0.6672867 0.8190306 0.8532897
0.7627170 0.8424740 0.8695783
0.8085142 0.8408648 0.8657015
0.8760863 0.8749814 0.9020568
0.9189917 0.8883512 0.9195734
0.9708988 0.9129889 0.9445697
0.2197289 0.7222418 0.7694868
0.3606598 0.7552395 0.7899455
0.4965742 0.7880582 0.8106421
0.6210496 0.8197708 0.8316979
0.7243354 0.8468829 0.8512542
0.7984140 0.8658233 0.8660672
0.8587908 0.8882912 0.8865115
0.9074815 0.9062669 0.9066145
0.9602460 0.9347083 0.9332668
0.1648793 0.7229414 0.7478385
0.3092727 0.7569554 0.7695768
0.4480268 0.7897568 0.7907193
0.5732313 0.8201110 0.8111132
0.6819249 0.8494002 0.8324086
0.7748698 0.8801951 0.8570748
0.8486030 0.9095024 0.8821405
0.9003712 0.9307438 0.9017123
0.9265313 0.9275210 0.9040091
1.0000000 0.9694097 1.0000000
1.0000000 0.9555217 1.0000000
1.0000000 0.9373676 1.0000000
0.9765506 0.9093703 1.0000000
0.9389440 0.8715222 1.0000000
0.9092056 0.8286424 1.0000000
0.8926939 0.7870160 1.0000000
0.8876986 0.7493043 1.0000000
0.8875962 0.7140768 1.0000000
0.9919018 0.9247162 0.9798475
0.9596712 0.9148645 1.0000000
0.9307799 0.9021956 1.0000000
0.9096011 0.8847920 1.0000000
0.8986083 0.8627596 1.0000000
0.8969767 0.8373127 1.0000000
0.9023310 0.8105750 1.0000000
0.9119823 0.7844197 1.0000000
0.9234492 0.7590411 1.0000000
0.8954149 0.8823195 0.9548042
0.8701337 0.8778060 0.9877359
0.8506975 0.8711268 1.0000000
0.8461370 0.8622675 1.0000000
0.8601191 0.8538208 1.0000000
0.8853232 0.8451603 1.0000000
0.9114541 0.8333192 1.0000000
0.9345707 0.8184372 1.0000000
0.9561207 0.8024085 1.0000000
0.7648396 0.8402889 0.9327849
0.7726455 0.8470751 0.9590547
0.7769651 0.8490696 0.9820642
0.7921321 0.8464897 1.0000000
0.8269115 0.8459159 1.0000000
0.8733944 0.8500856 1.0000000
0.9172729 0.8527866 1.0000000
0.9520175 0.8494633 1.0000000
0.9818906 0.8429264 1.0000000
0.6101455 0.7971963 0.9084737
0.6675828 0.8213470 0.9356288
0.7117250 0.8379400 0.9563787
0.7565018 0.8450470 0.9689981
0.8079424 0.8472799 0.9786177
0.8608743 0.8524651 0.9918804
0.9142471 0.8651449 1.0000000
0.9603827 0.8757291 1.0000000
0.9992661 0.8809444 1.0000000
0.4503973 0.7565354 0.8836651
0.5550648 0.7972309 0.9142368
0.6512868 0.8327871 0.9393889
0.7390392 0.8576480 0.9539383
0.8089330 0.8656991 0.9559123
0.8508475 0.8585745 0.9503003
0.9011682 0.8719690 0.9680926
0.9591480 0.8981295 0.9988138
1.0000000 0.9167134 1.0000000
0.3037735 0.7249062 0.8642573
0.4476370 0.7751007 0.8945800
0.5881155 0.8238891 0.9228343
0.7137555 0.8642221 0.9418931
0.8015937 0.8804377 0.9407661
0.8453917 0.8749069 0.9286465
0.8922245 0.8888203 0.9438540
0.9541188 0.9216859 0.9807031
1.0000000 0.9485362 1.0000000
0.1910915 0.7043343 0.8502089
0.3573266 0.7561446 0.8770168
0.5185948 0.8071514 0.9023548
0.6614802 0.8519410 0.9215898
0.7680546 0.8809591 0.9279062
0.8371392 0.8971154 0.9283882
0.8924107 0.9178914 0.9428148
0.9527037 0.9504746 0.9750745
0.9892499 0.9618564 0.9893505
0.0980348 0.6889625 0.8382548
0.2755780 0.7383458 0.8595352
0.4449428 0.7861169 0.8793937
0.5959727 0.8314568 0.8982227
0.7240191 0.8765345 0.9183876
0.8270130 0.9202575 0.9392177
0.9020081 0.9559356 0.9570669
0.9438982 0.9710080 0.9648154
0.9869346 0.9873555 0.9877835
