presets/experimental/experimental-verbania/look.cube
# Approximate v0 colour conversion; calibrate before claiming visual parity.
LUT_3D_SIZE 5
DOMAIN_MIN 0 0 0
DOMAIN_MAX 1 1 1
0.0102630 0.0077100 0.0044770
0.2856540 0.0112730 0.0029440
0.5513060 0.0141680 0.0000000
0.7642700 0.0134920 0.0000000
0.9843120 0.0267760 0.0000000
0.0080140 0.2262150 0.0163760
0.2265980 0.2293760 0.0276940
0.5173720 0.2389650 0.0118880
0.7689950 0.2542510 0.0070360
0.9801310 0.3071820 0.0305300
0.0063410 0.4860850 0.0142950
0.2332100 0.4787000 0.0299580
0.4822180 0.4847040 0.0491820
0.7514830 0.5002400 0.0300840
0.9952400 0.5468220 0.0580620
0.0086650 0.7410290 0.0104910
0.2510520 0.7395050 0.0129050
0.4941900 0.7400590 0.0208760
0.7488130 0.7514210 0.0400780
0.9891640 0.7658280 0.0144330
0.0111040 0.9927270 0.0088350
0.2563860 0.9921470 0.0099340
0.5003630 0.9936880 0.0155040
0.7503950 1.0000000 0.0312080
1.0000000 1.0000000 0.0583150
0.0211120 0.0142230 0.2433330
0.2234800 0.0509750 0.2157360
0.5270200 0.0247240 0.2151450
0.7649210 0.0292540 0.1833320
0.9835620 0.0624860 0.1860140
0.0608680 0.2431290 0.2559000
0.2452890 0.2470970 0.2474490
0.5265550 0.2447330 0.2293960
0.7489960 0.2542370 0.2275410
0.9746630 0.3232090 0.2585990
0.0207160 0.4938960 0.2617370
0.2471800 0.4883420 0.2476070
0.4774010 0.4792990 0.2218600
0.7461780 0.4948760 0.2357320
0.9772030 0.5245410 0.2740660
0.0178930 0.7447250 0.2584170
0.2573110 0.7414490 0.2547580
0.4899830 0.7335630 0.2468570
0.7451510 0.7476190 0.2603150
0.9920320 0.7603780 0.2828630
0.0195640 0.9953030 0.2567280
0.2628930 0.9938570 0.2562130
0.5029240 0.9933090 0.2583730
0.7504300 1.0000000 0.2716300
1.0000000 1.0000000 0.2961340
0.0465180 0.0166990 0.5461980
0.2603810 0.0353100 0.4918420
0.5052540 0.0419720 0.4710620
0.7461820 0.0446400 0.4646060
0.9875520 0.0543960 0.4671370
0.0301330 0.2502560 0.5608630
0.2587180 0.2657120 0.4875070
0.4970360 0.2958100 0.4773100
0.7500290 0.2923420 0.4797110
0.9797050 0.3051140 0.4849160
0.0355550 0.5037920 0.5153820
0.2903940 0.5400670 0.5487040
0.4909150 0.4938080 0.4886110
0.7447530 0.5307890 0.4998680
0.9773100 0.5212530 0.5086020
0.0423730 0.7529170 0.5063710
0.2762810 0.7477850 0.5016320
0.4996780 0.7390880 0.4938050
0.7367280 0.7350330 0.4906080
0.9846370 0.7585070 0.5146660
0.0435120 1.0000000 0.5026330
0.2823960 0.9995090 0.5014430
0.5141570 0.9962990 0.5021320
0.7547140 0.9997350 0.5122060
1.0000000 1.0000000 0.5331430
0.1425110 0.0907250 0.7849050
0.3111350 0.0538380 0.7450820
0.5165800 0.0493600 0.7167140
0.7438130 0.0500840 0.7072860
0.9853760 0.0502620 0.7086040
0.1364480 0.2919840 0.7951450
0.3015410 0.2870520 0.7469050
0.5146570 0.2957210 0.7144000
0.7513440 0.3016090 0.7182890
0.9899320 0.3003860 0.7204180
0.1064240 0.5486160 0.7925310
0.2740030 0.5190780 0.7509320
0.5374360 0.5507750 0.7548770
0.7638730 0.5564940 0.7388300
0.9902890 0.5503710 0.7416660
0.1016670 0.7648810 0.7487710
0.3131510 0.7604920 0.7466680
0.5177640 0.7504110 0.7438840
0.7422260 0.7430270 0.7377400
0.9869740 0.7857540 0.7692830
0.0855120 1.0000000 0.7461300
0.3187330 1.0000000 0.7458810
0.5386180 1.0000000 0.7490780
0.7690690 1.0000000 0.7621730
1.0000000 1.0000000 0.7794360
0.1285660 0.0796450 1.0000000
0.3294490 0.0619930 0.9907580
0.5289500 0.0548700 0.9634010
0.7506540 0.0513270 0.9557910
0.9920020 0.0506000 0.9574750
0.1782580 0.3431790 1.0000000
0.3395770 0.3089050 0.9874790
0.5323200 0.3022970 0.9596810
0.7565140 0.3023600 0.9601230
0.9971870 0.3010450 0.9652730
0.2554180 0.6065280 1.0000000
0.3643760 0.5488290 0.9788580
0.5514000 0.5475540 0.9654760
0.7774710 0.5593970 0.9758550
1.0000000 0.5526230 0.9834430
0.1650430 0.7882370 0.9878720
0.3943130 0.7843990 0.9798530
0.5597110 0.7780290 0.9761040
0.8272800 0.8244510 0.9921520
1.0000000 0.7911500 0.9997520
0.1175320 1.0000000 0.9910670
0.3505920 1.0000000 0.9909080
0.5636590 1.0000000 0.9948620
0.7922510 1.0000000 1.0000000
1.0000000 1.0000000 1.0000000
