presets/experimental/experimental-verbania/look.cube
# Approximate v0 colour conversion; calibrate before claiming visual parity.
LUT_3D_SIZE 9
DOMAIN_MIN 0 0 0
DOMAIN_MAX 1 1 1
0.0102630 0.0077100 0.0044770
0.1292150 0.0111090 0.0082270
0.2856540 0.0112730 0.0029440
0.4308320 0.0120530 0.0016600
0.5513060 0.0141680 0.0000000
0.6628090 0.0131460 0.0000000
0.7642700 0.0134920 0.0000000
0.8722230 0.0184970 0.0000000
0.9843120 0.0267760 0.0000000
0.0058780 0.0970800 0.0161100
0.1048530 0.1062640 0.0193000
0.2765680 0.1356780 0.0106100
0.4176740 0.1298680 0.0082810
0.5464520 0.1290860 0.0055510
0.6547160 0.1261240 0.0035730
0.7591500 0.1311620 0.0037950
0.8630020 0.1485100 0.0046260
0.9818680 0.1678320 0.0118590
0.0080140 0.2262150 0.0163760
0.1043200 0.2231650 0.0131310
0.2265980 0.2293760 0.0276940
0.4308400 0.2910740 0.0253100
0.5173720 0.2389650 0.0118880
0.6492320 0.2449450 0.0040370
0.7689950 0.2542510 0.0070360
0.8694740 0.2842480 0.0164010
0.9801310 0.3071820 0.0305300
0.0078260 0.3573610 0.0161950
0.1178930 0.3543630 0.0184720
0.2198970 0.3528040 0.0315200
0.3462360 0.3566320 0.0424910
0.5128760 0.3755740 0.0323630
0.6305180 0.3638910 0.0238250
0.7571480 0.3684710 0.0365300
0.8938680 0.4344210 0.0154780
0.9924100 0.4315860 0.0409600
0.0063410 0.4860850 0.0142950
0.1233960 0.4838720 0.0165950
0.2332100 0.4787000 0.0299580
0.3478750 0.4813360 0.0539080
0.4822180 0.4847040 0.0491820
0.6302070 0.4982940 0.0343550
0.7514830 0.5002400 0.0300840
0.8670840 0.5023010 0.0724580
0.9952400 0.5468220 0.0580620
0.0069530 0.6140360 0.0122340
0.1276500 0.6130620 0.0135070
0.2447840 0.6114600 0.0187010
0.3629930 0.6100270 0.0311690
0.4869480 0.6107900 0.0362830
0.6231940 0.6208780 0.0384590
0.7535320 0.6297480 0.0583980
0.8676370 0.6342040 0.0326920
0.9853600 0.6419330 0.0112660
0.0086650 0.7410290 0.0104910
0.1310350 0.7404830 0.0110650
0.2510520 0.7395050 0.0129050
0.3711470 0.7387880 0.0165060
0.4941900 0.7400590 0.0208760
0.6214730 0.7449740 0.0278920
0.7488130 0.7514210 0.0400780
0.8712100 0.7561180 0.0323270
0.9891640 0.7658280 0.0144330
0.0102890 0.8672210 0.0093300
0.1334240 0.8668820 0.0096440
0.2547970 0.8663410 0.0106130
0.3759260 0.8662350 0.0126990
0.4984820 0.8675850 0.0164690
0.6232120 0.8711300 0.0227920
0.7491720 0.8763230 0.0315590
0.8756320 0.8819730 0.0405010
0.9994070 0.8871120 0.0493270
0.0111040 0.9927270 0.0088350
0.1345150 0.9924810 0.0091010
0.2563860 0.9921470 0.0099340
0.3779070 0.9922950 0.0118310
0.5003630 0.9936880 0.0155040
0.6245010 0.9968450 0.0217380
0.7503950 1.0000000 0.0312080
0.8787560 1.0000000 0.0456310
1.0000000 1.0000000 0.0583150
0.0162720 0.0096340 0.1030940
0.0835050 0.0269760 0.0887010
0.2443930 0.0299570 0.1098420
0.4133680 0.0193610 0.1032910
0.5481990 0.0171520 0.0932500
0.6684530 0.0169760 0.0767070
0.7657460 0.0186380 0.0559210
0.8708650 0.0263440 0.0463300
0.9713640 0.0606410 0.0759220
0.0377580 0.1259660 0.1313880
0.1412320 0.1445350 0.1400330
0.2573900 0.1231290 0.1117960
0.4081790 0.1270010 0.1151720
0.5427720 0.1264530 0.1123930
0.6475960 0.1303100 0.1067370
0.7541910 0.1422000 0.1045370
0.8606190 0.1645690 0.1094080
0.9748350 0.2144230 0.1308220
0.0400460 0.2379570 0.1457260
0.1475910 0.2463120 0.1464580
0.2537570 0.2592810 0.1247380
0.3890400 0.2407560 0.1050790
0.5071730 0.2323350 0.1093080
0.6340980 0.2360100 0.1137000
0.7510100 0.2537100 0.1202780
0.8605210 0.2874490 0.1313340
0.9760220 0.3381840 0.1550310
0.0211870 0.3615050 0.1411820
0.1353310 0.3601630 0.1390620
0.2370970 0.3624300 0.1203960
0.3574170 0.3686700 0.1212340
0.5803290 0.4525420 0.1642850
0.6331240 0.3651350 0.1232910
0.7519810 0.3678600 0.1314150
0.8727310 0.4034750 0.1528410
0.9768400 0.4535800 0.1823030
0.0121550 0.4885880 0.1378890
0.1297590 0.4873520 0.1366480
0.2386990 0.4854050 0.1304320
0.3497560 0.4830250 0.1240770
0.4740290 0.4828950 0.1330020
0.6839350 0.5666560 0.2066590
0.7506250 0.5005270 0.1443320
0.8657690 0.5062370 0.1603280
0.9997440 0.6335560 0.2869430
0.0104810 0.6157510 0.1361030
0.1310150 0.6148450 0.1357550
0.2471160 0.6130370 0.1350080
0.3625730 0.6105060 0.1353880
0.4826060 0.6084690 0.1388890
0.6160720 0.6163000 0.1436180
0.7526120 0.6302660 0.1552690
0.8674870 0.6353050 0.1629370
0.9904500 0.6539520 0.1809720
0.0114690 0.7421800 0.1346160
0.1335970 0.7415300 0.1345180
0.2528500 0.7401170 0.1343380
0.3714740 0.7383930 0.1346330
0.4927110 0.7382180 0.1368180
0.6192620 0.7428390 0.1427010
0.7473550 0.7508920 0.1533310
0.8703190 0.7579350 0.1618810
0.9929010 0.7621710 0.1713600
0.0128540 0.8680870 0.1335780
0.1357790 0.8676400 0.1335840
0.2566240 0.8668120 0.1337700
0.3769370 0.8661970 0.1347040
0.4986090 0.8669610 0.1374110
0.6227990 0.8702510 0.1430760
0.7486450 0.8756870 0.1520900
0.8745350 0.8816250 0.1644690
0.9996860 0.8865950 0.1876350
0.0135970 0.9934990 0.1331250
0.1368220 0.9931650 0.1332030
0.2582650 0.9926210 0.1335990
0.3791800 0.9924390 0.1348770
0.5009970 0.9934670 0.1379130
0.6246420 0.9963900 0.1436670
0.7501720 1.0000000 0.1528900
0.8773650 1.0000000 0.1664190
1.0000000 1.0000000 0.1794910
0.0211120 0.0142230 0.2433330
0.0977720 0.0313040 0.1894400
0.2234800 0.0509750 0.2157360
0.3813160 0.0350740 0.2202580
0.5270200 0.0247240 0.2151450
0.6503340 0.0242910 0.2044030
0.7649210 0.0292540 0.1833320
0.8787810 0.0372250 0.1533900
0.9835620 0.0624860 0.1860140
0.0447280 0.1209670 0.2397760
0.1424670 0.1409880 0.2355870
0.2141150 0.1602700 0.2319230
0.3641430 0.1552630 0.2317250
0.5536730 0.1398780 0.2256060
0.6500800 0.1410090 0.2193070
0.7539970 0.1493560 0.2151010
0.8626690 0.1717350 0.2195040
0.9754330 0.2201150 0.2444510
0.0608680 0.2431290 0.2559000
0.1645360 0.2489220 0.2591670
0.2452890 0.2470970 0.2474490
0.3588910 0.2410120 0.2310030
0.5265550 0.2447330 0.2293960
0.6399720 0.2434720 0.2255850
0.7489960 0.2542370 0.2275410
0.8610570 0.2809350 0.2396920
0.9746630 0.3232090 0.2585990
0.0315580 0.3698800 0.2629460
0.1494710 0.3628710 0.2592710
0.2465220 0.3634510 0.2463320
0.3495980 0.3491990 0.2189970
0.4904320 0.3548770 0.2178850
0.6221810 0.3573030 0.2198770
0.7398650 0.3590620 0.2217940
0.8547330 0.3796130 0.2434660
0.9711680 0.4205550 0.2679850
0.0207160 0.4938960 0.2617370
0.1392150 0.4923830 0.2591060
0.2471800 0.4883420 0.2476070
0.3486600 0.4787270 0.2190650
0.4774010 0.4792990 0.2218600
0.6107420 0.4847780 0.2260490
0.7461780 0.4948760 0.2357320
0.8605250 0.5023860 0.2455040
0.9772030 0.5245410 0.2740660
0.0176440 0.6194560 0.2601650
0.1380530 0.6185320 0.2587100
0.2522440 0.6146380 0.2526310
0.3607750 0.6059530 0.2380040
0.4728150 0.5967550 0.2242930
0.6055980 0.6053940 0.2359340
0.7470670 0.6246070 0.2428270
0.8656380 0.6339900 0.2619940
0.9874430 0.6396620 0.2755470
0.0178930 0.7447250 0.2584170
0.1395960 0.7437810 0.2575080
0.2573110 0.7414490 0.2547580
0.3729980 0.7375320 0.2502660
0.4899830 0.7335630 0.2468570
0.6156900 0.7384060 0.2510320
0.7451510 0.7476190 0.2603150
0.8712280 0.7579470 0.2722120
0.9920320 0.7603780 0.2828630
0.0189580 0.8700660 0.2572430
0.1414670 0.8693860 0.2568220
0.2611650 0.8680450 0.2558240
0.3797950 0.8664580 0.2549400
0.4995580 0.8659680 0.2556300
0.6224500 0.8684850 0.2598330
0.7480880 0.8740730 0.2682430
0.8746830 0.8810110 0.2807520
0.9998320 0.8874140 0.2974990
0.0195640 0.9953030 0.2567280
0.1423840 0.9947990 0.2565150
0.2628930 0.9938570 0.2562130
0.3825070 0.9930420 0.2564750
0.5029240 0.9933090 0.2583730
0.6254490 0.9956380 0.2631290
0.7504300 1.0000000 0.2716300
0.8777910 1.0000000 0.2844360
1.0000000 1.0000000 0.2961340
0.0216680 0.0069840 0.4266930
0.1214330 0.0202760 0.3856510
0.2384920 0.0413740 0.3501990
0.3683440 0.0420280 0.3438640
0.5079720 0.0356590 0.3433670
0.6347500 0.0344930 0.3389890
0.7515880 0.0388680 0.3330080
0.8682120 0.0489470 0.3310620
0.9868540 0.0612230 0.3373050
0.0286940 0.1146250 0.4196930
0.1348250 0.1289560 0.3767890
0.2263020 0.1590620 0.3266550
0.3425240 0.1687660 0.3314370
0.5051160 0.1595070 0.3462680
0.6404770 0.1570060 0.3457300
0.7509240 0.1608750 0.3423540
0.8643680 0.1750820 0.3464710
0.9825190 0.2039840 0.3605800
0.0062120 0.2533280 0.4128470
0.1632100 0.2425000 0.3623790
0.2494090 0.2485540 0.3306220
0.3157940 0.2607230 0.3239440
0.4975760 0.2754750 0.3535730
0.6617230 0.2763380 0.3576350
0.7531980 0.2759900 0.3531010
0.8622220 0.2904640 0.3598950
0.9788370 0.3268430 0.3794460
0.0323850 0.3763640 0.3890400
0.1630990 0.3740420 0.3888300
0.2658000 0.3897690 0.4020790
0.3628080 0.3670830 0.3631310
0.4838130 0.3660890 0.3532090
0.6328970 0.3837800 0.3583590
0.7429170 0.3788150 0.3593100
0.8611730 0.3884210 0.3628620
0.9732640 0.4191900 0.3759120
0.0290840 0.5013890 0.3892340
0.1502920 0.5028010 0.3900180
0.2560290 0.4972950 0.3796910
0.3593290 0.4850350 0.3591090
0.4649500 0.4606040 0.3337640
0.6045540 0.4793070 0.3442200
0.7828290 0.5392640 0.3839770
0.8561250 0.5058670 0.3665800
0.9780200 0.5190500 0.3789720
0.0276080 0.6244000 0.3856180
0.1482050 0.6241290 0.3849160
0.2610690 0.6198140 0.3784720
0.3673880 0.6090690 0.3631920
0.4694880 0.5911380 0.3385740
0.5954320 0.5912550 0.3402950
0.7347330 0.6120880 0.3542050
0.8634610 0.6312340 0.3742360
0.9794630 0.6365410 0.3812860
0.0279840 0.7484040 0.3825690
0.1495040 0.7469870 0.3816300
0.2650920 0.7442550 0.3776760
0.3782190 0.7389970 0.3714070
0.4915520 0.7328890 0.3640360
0.6106810 0.7308470 0.3613550
0.7395330 0.7390960 0.3696420
0.8681810 0.7544420 0.3835990
0.9883950 0.7583480 0.3915460
0.0289140 0.8731200 0.3807070
0.1509900 0.8722980 0.3802140
0.2689420 0.8703850 0.3783390
0.3855100 0.8679600 0.3764280
0.5028660 0.8661800 0.3756050
0.6232980 0.8668530 0.3778440
0.7477510 0.8716260 0.3847770
0.8743590 0.8789830 0.3956160
0.9986240 0.8865060 0.4060320
0.0293560 0.9981480 0.3799180
0.1515980 0.9974460 0.3795140
0.2707520 0.9960990 0.3787390
0.3885700 0.9946410 0.3783210
0.5070310 0.9940160 0.3793300
0.6277850 0.9953700 0.3830270
0.7516870 0.9994840 0.3904360
0.8790940 1.0000000 0.4017670
1.0000000 1.0000000 0.4111170
0.0465180 0.0166990 0.5461980
0.1490900 0.0246200 0.5164960
0.2603810 0.0353100 0.4918420
0.3800360 0.0414510 0.4767300
0.5052540 0.0419720 0.4710620
0.6275410 0.0422450 0.4672290
0.7461820 0.0446400 0.4646060
0.8654270 0.0496940 0.4649860
0.9875520 0.0543960 0.4671370
0.0649680 0.1183940 0.5715730
0.1460380 0.1282700 0.5205130
0.2526620 0.1505050 0.4881500
0.3738850 0.1675600 0.4742920
0.5017910 0.1680650 0.4723710
0.6289640 0.1675000 0.4715790
0.7482140 0.1689360 0.4698630
0.8651450 0.1745050 0.4715810
0.9858680 0.1813380 0.4747170
0.0301330 0.2502560 0.5608630
0.1566600 0.2548830 0.5150150
0.2587180 0.2657120 0.4875070
0.3546960 0.2782620 0.4585200
0.4970360 0.2958100 0.4773100
0.6378660 0.2966850 0.4866550
0.7500290 0.2923420 0.4797110
0.8612090 0.2965500 0.4802640
0.9797050 0.3051140 0.4849160
0.0075970 0.3717870 0.5166020
0.1617600 0.3828050 0.5198550
0.2664970 0.4157250 0.5662720
0.3835750 0.3972860 0.5042610
0.4962030 0.4108620 0.4910880
0.6325780 0.4146690 0.4920660
0.7467000 0.4149360 0.4903060
0.8560470 0.4104560 0.4883870
0.9703060 0.4207610 0.4935540
0.0355550 0.5037920 0.5153820
0.1700140 0.5198400 0.5307340
0.2903940 0.5400670 0.5487040
0.3886300 0.5093340 0.5133340
0.4909150 0.4938080 0.4886110
0.6192920 0.4983390 0.4851090
0.7447530 0.5307890 0.4998680
0.8574590 0.5179060 0.4978050
0.9773100 0.5212530 0.5086020
0.0407410 0.6292550 0.5113450
0.1614990 0.6310960 0.5129110
0.2728680 0.6261130 0.5077020
0.3724640 0.6116170 0.4915370
0.4864910 0.6088770 0.4865060
0.6065100 0.6033340 0.4793110
0.7391920 0.6203480 0.4897160
0.8845680 0.6803890 0.5458730
0.9782380 0.6403440 0.5055180
0.0423730 0.7529170 0.5063710
0.1623110 0.7518270 0.5054550
0.2762810 0.7477850 0.5016320
0.3866120 0.7424950 0.4968090
0.4996780 0.7390880 0.4938050
0.6151480 0.7337190 0.4888290
0.7367280 0.7350330 0.4906080
0.8692870 0.7540540 0.5069340
0.9846370 0.7585070 0.5146660
0.0432740 0.8772250 0.5036160
0.1642370 0.8761010 0.5029290
0.2803900 0.8738760 0.5013160
0.3946490 0.8711030 0.4998040
0.5098060 0.8689790 0.4995980
0.6276160 0.8680170 0.5011560
0.7493380 0.8705600 0.5062230
0.8744620 0.8766380 0.5156890
0.9965890 0.8856830 0.5275600
0.0435120 1.0000000 0.5026330
0.1650480 1.0000000 0.5022110
0.2823960 0.9995090 0.5014430
0.3980070 0.9976160 0.5011070
0.5141570 0.9962990 0.5021320
0.6326750 0.9966100 0.5054760
0.7547140 0.9997350 0.5122060
0.8812420 1.0000000 0.5232800
1.0000000 1.0000000 0.5331430
0.1111720 0.0638980 0.6689500
0.1928260 0.0494070 0.6463490
0.2882710 0.0436940 0.6224810
0.3958160 0.0443820 0.6057940
0.5095170 0.0456510 0.5949600
0.6264790 0.0465440 0.5898150
0.7450560 0.0478740 0.5884090
0.8639820 0.0498160 0.5882340
0.9857090 0.0512480 0.5885820
0.2648710 0.2736800 0.8010390
0.1989480 0.1661510 0.6563570
0.2831520 0.1620150 0.6250600
0.3926010 0.1674100 0.6058710
0.5073920 0.1704650 0.5952260
0.6272060 0.1720270 0.5927500
0.7458140 0.1729320 0.5916800
0.8656790 0.1747360 0.5931850
0.9868770 0.1764150 0.5937560
0.1004170 0.2764110 0.7130590
0.1846460 0.2732870 0.6512940
0.2752290 0.2732450 0.6251210
0.3860390 0.2858290 0.6083690
0.5086270 0.2975950 0.6007020
0.6333060 0.3016170 0.6021860
0.7500490 0.2992970 0.6006630
0.8657980 0.2994180 0.6009280
0.9850980 0.3006890 0.6016120
0.0107020 0.3806950 0.7179690
0.1681910 0.3907190 0.6501950
0.2707420 0.3912460 0.6356260
0.3830440 0.3970660 0.6321950
0.5177410 0.4262900 0.6188440
0.6391180 0.4319920 0.6137680
0.7535420 0.4276450 0.6099530
0.8634830 0.4230870 0.6096240
0.9759890 0.4243670 0.6096660
0.0158070 0.5069200 0.6375100
0.1549610 0.5105990 0.6412980
0.2663400 0.5096580 0.6371840
0.4129290 0.5466230 0.6711750
0.5599830 0.5636150 0.6712570
0.6412400 0.5441670 0.6240160
0.7498560 0.5454650 0.6134220
0.8590280 0.5428470 0.6189690
0.9737880 0.5450510 0.6241280
0.0601770 0.6331550 0.6349120
0.1719660 0.6331600 0.6342800
0.2771260 0.6259150 0.6273790
0.3704900 0.6032130 0.6065290
0.5003720 0.6206260 0.6191450
0.6150130 0.6155820 0.6095830
0.7422270 0.6277690 0.6183880
0.8625200 0.6555350 0.6326430
0.9766910 0.6546800 0.6360560
0.0646240 0.7580260 0.6288520
0.1810730 0.7564290 0.6275230
0.2891780 0.7518370 0.6242220
0.3950450 0.7452820 0.6199280
0.5073840 0.7463880 0.6246230
0.6235980 0.7425620 0.6209860
0.7405800 0.7380140 0.6192930
0.8649440 0.7544490 0.6312380
0.9821050 0.7657670 0.6393650
0.0637570 0.8823490 0.6256440
0.1831950 0.8812010 0.6250110
0.2964380 0.8786870 0.6239230
0.4074520 0.8755780 0.6233710
0.5199110 0.8734560 0.6251940
0.6353400 0.8717980 0.6281490
0.7550770 0.8731170 0.6336820
0.8728840 0.8739260 0.6377850
0.9955230 0.8849770 0.6497280
0.0625510 1.0000000 0.6246900
0.1830450 1.0000000 0.6243550
0.2984070 1.0000000 0.6239760
0.4112760 1.0000000 0.6242200
0.5246500 1.0000000 0.6259530
0.6406260 0.9995420 0.6299350
0.7603420 1.0000000 0.6370680
0.8843810 1.0000000 0.6483360
1.0000000 1.0000000 0.6570920
0.1425110 0.0907250 0.7849050
0.2242240 0.0686770 0.7626990
0.3111350 0.0538380 0.7450820
0.4104600 0.0493960 0.7297420
0.5165800 0.0493600 0.7167140
0.6274890 0.0493780 0.7088500
0.7438130 0.0500840 0.7072860
0.8649310 0.0502130 0.7095490
0.9853760 0.0502620 0.7086040
0.2139590 0.2541230 0.8256670
0.2306310 0.1893110 0.7708240
0.3090200 0.1737840 0.7470200
0.4084230 0.1716430 0.7288410
0.5157000 0.1729750 0.7157310
0.6284030 0.1739560 0.7101110
0.7458460 0.1748550 0.7103670
0.8665250 0.1752150 0.7130040
0.9856980 0.1750500 0.7112240
0.1364480 0.2919840 0.7951450
0.2170810 0.2943720 0.7686200
0.3015410 0.2870520 0.7469050
0.4049480 0.2908870 0.7291930
0.5146570 0.2957210 0.7144000
0.6333780 0.3008200 0.7157990
0.7513440 0.3016090 0.7182890
0.8687960 0.3006020 0.7196250
0.9899320 0.3003860 0.7204180
0.0769440 0.4167140 0.8333160
0.2041950 0.4117240 0.7718890
0.2978430 0.4067220 0.7501330
0.4056420 0.4126180 0.7440660
0.5230210 0.4242070 0.7291020
0.6428980 0.4337650 0.7277160
0.7567670 0.4307360 0.7272230
0.8719240 0.4270660 0.7293490
0.9909720 0.4255420 0.7302050
0.1064240 0.5486160 0.7925310
0.1820250 0.5240320 0.7589170
0.2740030 0.5190780 0.7509320
0.3731850 0.5130220 0.7553670
0.5374360 0.5507750 0.7548770
0.6593960 0.5654040 0.7456750
0.7638730 0.5564940 0.7388300
0.8731910 0.5520770 0.7401090
0.9902890 0.5503710 0.7416660
0.0945820 0.6429270 0.7610900
0.1834290 0.6363120 0.7536630
0.2668230 0.6321150 0.7514560
0.3766860 0.6363750 0.7554870
0.5153230 0.6414640 0.7516270
0.6667530 0.6664920 0.7621740
0.7610360 0.6622180 0.7425340
0.8718180 0.6702390 0.7500010
0.9888200 0.6723080 0.7552550
0.1016670 0.7648810 0.7487710
0.2168870 0.7623700 0.7464310
0.3131510 0.7604920 0.7466680
0.4099720 0.7552730 0.7457850
0.5177640 0.7504110 0.7438840
0.6550770 0.7637510 0.7604400
0.7422260 0.7430270 0.7377400
0.8684330 0.7659940 0.7549050
0.9869740 0.7857540 0.7692830
0.0913780 0.8886530 0.7464140
0.2105400 0.8876660 0.7459200
0.3197960 0.8856020 0.7457490
0.4257840 0.8826860 0.7465110
0.5334130 0.8790390 0.7481940
0.6442390 0.8751220 0.7544320
0.7630770 0.8777630 0.7605110
0.8903260 0.8909970 0.7817530
0.9950490 0.8935280 0.7773520
0.0855120 1.0000000 0.7461300
0.2054690 1.0000000 0.7458810
0.3187330 1.0000000 0.7458810
0.4283630 1.0000000 0.7467910
0.5386180 1.0000000 0.7490780
0.6518900 1.0000000 0.7538860
0.7690690 1.0000000 0.7621730
0.8898150 1.0000000 0.7743960
1.0000000 1.0000000 0.7794360
0.1358360 0.0861300 0.8931910
0.2326600 0.0715620 0.8811100
0.3243580 0.0596790 0.8675370
0.4213770 0.0541050 0.8526370
0.5241230 0.0522070 0.8391580
0.6319290 0.0512450 0.8308030
0.7463700 0.0512110 0.8290880
0.8665340 0.0507970 0.8312350
0.9883140 0.0503720 0.8315580
0.1550440 0.2142270 0.8970200
0.2392500 0.1951100 0.8833400
0.3257420 0.1824260 0.8673710
0.4213950 0.1770550 0.8513910
0.5234030 0.1759670 0.8355320
0.6318120 0.1754540 0.8291510
0.7488030 0.1758410 0.8316450
0.8687410 0.1756970 0.8344000
0.9879790 0.1750040 0.8324980
0.1848670 0.3365780 0.8947120
0.2474260 0.3154230 0.8812400
0.3280970 0.3028450 0.8653940
0.4212900 0.2978620 0.8465210
0.5238600 0.2982320 0.8331040
0.6345490 0.2999960 0.8292790
0.7534700 0.3015740 0.8364710
0.8727260 0.3013170 0.8403690
0.9936150 0.3005660 0.8408220
0.2070720 0.4664100 0.8971390
0.2594360 0.4392880 0.8780920
0.3314240 0.4226060 0.8630570
0.4266430 0.4193410 0.8516590
0.5297460 0.4217340 0.8358900
0.6445370 0.4288400 0.8364290
0.7619350 0.4305220 0.8454040
0.8784010 0.4281220 0.8493220
0.9990300 0.4266880 0.8509760
0.3283220 0.6573170 0.9255240
0.2636410 0.5580780 0.8739140
0.3341780 0.5391990 0.8612410
0.4346200 0.5369950 0.8531220
0.5427140 0.5473940 0.8470110
0.6619310 0.5604580 0.8490780
0.7730250 0.5603970 0.8554770
0.8840950 0.5548960 0.8592170
1.0000000 0.5519750 0.8611590
0.1715320 0.6750060 0.8750200
0.2584280 0.6599480 0.8595610
0.3432650 0.6505570 0.8545670
0.5068360 0.6619560 0.8589680
0.5568890 0.6620340 0.8527670
0.6821620 0.6840430 0.8578660
0.7854130 0.6849880 0.8614170
0.8886120 0.6778900 0.8680600
1.0000000 0.6743800 0.8714760
0.1496830 0.7771210 0.8645620
0.2997450 0.7747450 0.8587140
0.3688000 0.7736970 0.8599760
0.4432380 0.7679040 0.8633290
0.5132090 0.7600530 0.8723130
0.6753260 0.7835150 0.8778080
0.7688580 0.7695610 0.8649770
0.8885960 0.7888090 0.8763710
1.0000000 0.7895410 0.8812590
0.1197060 0.8959820 0.8667590
0.2424180 0.8953500 0.8660860
0.3509210 0.8940330 0.8662440
0.4513670 0.8913880 0.8675000
0.5541000 0.8893920 0.8712190
0.6604160 0.8856290 0.8722070
0.8009940 0.9003290 0.8915130
0.8676590 0.8689590 0.8664890
0.9972180 0.8962010 0.8871940
0.1067720 1.0000000 0.8677750
0.2269980 1.0000000 0.8675460
0.3396480 1.0000000 0.8671840
0.4466960 1.0000000 0.8690110
0.5543550 1.0000000 0.8715100
0.6653860 1.0000000 0.8759130
0.7817500 1.0000000 0.8833400
0.8942240 1.0000000 0.8913200
1.0000000 1.0000000 0.8929780
0.1285660 0.0796450 1.0000000
0.2341100 0.0716000 1.0000000
0.3294490 0.0619930 0.9907580
0.4265530 0.0564420 0.9766970
0.5289500 0.0548700 0.9634010
0.6361700 0.0520120 0.9567810
0.7506540 0.0513270 0.9557910
0.8698550 0.0508980 0.9570650
0.9920020 0.0506000 0.9574750
0.1435960 0.2083320 1.0000000
0.2419810 0.1971150 1.0000000
0.3326040 0.1859700 0.9899500
0.4277930 0.1799810 0.9755860
0.5290760 0.1778500 0.9621410
0.6367730 0.1765100 0.9556700
0.7523320 0.1764210 0.9566910
0.8714700 0.1759960 0.9590820
0.9924720 0.1755120 0.9585390
0.1782580 0.3431790 1.0000000
0.2588590 0.3237020 0.9999750
0.3395770 0.3089050 0.9874790
0.4313780 0.3024220 0.9732250
0.5323200 0.3022970 0.9596810
0.6397790 0.3019150 0.9546050
0.7565140 0.3023600 0.9601230
0.8752240 0.3016120 0.9636490
0.9971870 0.3010450 0.9652730
0.2206160 0.4779340 1.0000000
0.2812370 0.4497190 0.9932750
0.3499730 0.4301740 0.9834050
0.4392950 0.4240210 0.9723100
0.5400120 0.4259060 0.9595000
0.6509280 0.4304420 0.9612860
0.7658520 0.4313500 0.9677230
0.8820080 0.4283660 0.9718600
1.0000000 0.4270880 0.9739530
0.2554180 0.6065280 1.0000000
0.3000780 0.5685200 0.9844110
0.3643760 0.5488290 0.9788580
0.4545490 0.5438370 0.9713330
0.5514000 0.5475540 0.9654760
0.6654770 0.5579290 0.9690030
0.7774710 0.5593970 0.9758550
0.8892570 0.5552460 0.9810720
1.0000000 0.5526230 0.9834430
0.2050890 0.6914900 0.9921510
0.2998530 0.6787210 0.9834930
0.3842190 0.6655280 0.9752830
0.4877170 0.6627080 0.9674000
0.5543020 0.6612850 0.9617720
0.6845150 0.6855700 0.9739250
0.7949590 0.6896720 0.9815340
0.8973170 0.6803070 0.9892120
1.0000000 0.6751850 0.9923630
0.1650430 0.7882370 0.9878720
0.2934390 0.7877030 0.9838060
0.3943130 0.7843990 0.9798530
0.4830670 0.7815250 0.9777920
0.5597110 0.7780290 0.9761040
0.6935440 0.8023430 0.9831250
0.8272800 0.8244510 0.9921520
0.9045750 0.7987240 0.9963070
1.0000000 0.7911500 0.9997520
0.1327440 0.9009740 0.9897160
0.2552690 0.9005620 0.9887330
0.3663850 0.8994080 0.9880810
0.4688580 0.8985520 0.9892240
0.5686250 0.8979700 0.9914750
0.6812740 0.9031990 0.9941800
0.8196510 0.9201210 1.0000000
0.9000000 0.8990670 0.9992180
1.0000000 0.8992770 1.0000000
0.1175320 1.0000000 0.9910670
0.2379360 1.0000000 0.9908100
0.3505920 1.0000000 0.9909080
0.4573200 1.0000000 0.9922970
0.5636590 1.0000000 0.9948620
0.6756830 1.0000000 0.9986620
0.7922510 1.0000000 1.0000000
0.8984040 1.0000000 1.0000000
1.0000000 1.0000000 1.0000000
