presets/experimental/experimental-verbania/look.cube
# Approximate v0 colour conversion; calibrate before claiming visual parity.
LUT_3D_SIZE 33
DOMAIN_MIN 0 0 0
DOMAIN_MAX 1 1 1
0.0102630 0.0077100 0.0044770
0.0422220 0.0079865 0.0048375
0.0741810 0.0082630 0.0051980
0.1016980 0.0096860 0.0067125
0.1292150 0.0111090 0.0082270
0.1677050 0.0115290 0.0068085
0.2061950 0.0119490 0.0053900
0.2459245 0.0116110 0.0041670
0.2856540 0.0112730 0.0029440
0.3242250 0.0118860 0.0031725
0.3627960 0.0124990 0.0034010
0.3968140 0.0122760 0.0025305
0.4308320 0.0120530 0.0016600
0.4617805 0.0121440 0.0008300
0.4927290 0.0122350 0.0000000
0.5220175 0.0132015 0.0000000
0.5513060 0.0141680 0.0000000
0.5795895 0.0141730 0.0000000
0.6078730 0.0141780 0.0000000
0.6353410 0.0136620 0.0000000
0.6628090 0.0131460 0.0000000
0.6880390 0.0139140 0.0000000
0.7132690 0.0146820 0.0000000
0.7387695 0.0140870 0.0000000
0.7642700 0.0134920 0.0000000
0.7914345 0.0139360 0.0000000
0.8185990 0.0143800 0.0000000
0.8454110 0.0164385 0.0000000
0.8722230 0.0184970 0.0000000
0.8991145 0.0221615 0.0000000
0.9260060 0.0258260 0.0000000
0.9551590 0.0263010 0.0000000
0.9843120 0.0267760 0.0000000
0.0183695 0.0415890 0.0173620
0.0472255 0.0402615 0.0144528
0.0760815 0.0389340 0.0115435
0.1044593 0.0389460 0.0098817
0.1328370 0.0389580 0.0082200
0.1683922 0.0391375 0.0074198
0.2039475 0.0393170 0.0066195
0.2432140 0.0401325 0.0059500
0.2824805 0.0409480 0.0052805
0.3213405 0.0418288 0.0053848
0.3602005 0.0427095 0.0054890
0.3941050 0.0427025 0.0044613
0.4280095 0.0426955 0.0034335
0.4593535 0.0427635 0.0026507
0.4906975 0.0428315 0.0018680
0.5203393 0.0431360 0.0013342
0.5499810 0.0434405 0.0008005
0.5780100 0.0436395 0.0005938
0.6060390 0.0438385 0.0003870
0.6329605 0.0434733 0.0001935
0.6598820 0.0431080 0.0000000
0.6851997 0.0436448 0.0000000
0.7105175 0.0441815 0.0000000
0.7359530 0.0443200 0.0000000
0.7613885 0.0444585 0.0000000
0.7882098 0.0452528 0.0000000
0.8150310 0.0460470 0.0000000
0.8424983 0.0484633 0.0000000
0.8699655 0.0508795 0.0000000
0.8977893 0.0542007 0.0000000
0.9256130 0.0575220 0.0000000
0.9554735 0.0569900 0.0000000
0.9853340 0.0564580 0.0000000
0.0264760 0.0754680 0.0302470
0.0522290 0.0725365 0.0240680
0.0779820 0.0696050 0.0178890
0.1072205 0.0682060 0.0130510
0.1364590 0.0668070 0.0082130
0.1690795 0.0667460 0.0080310
0.2017000 0.0666850 0.0078490
0.2405035 0.0686540 0.0077330
0.2793070 0.0706230 0.0076170
0.3184560 0.0717715 0.0075970
0.3576050 0.0729200 0.0075770
0.3913960 0.0731290 0.0063920
0.4251870 0.0733380 0.0052070
0.4569265 0.0733830 0.0044715
0.4886660 0.0734280 0.0037360
0.5186610 0.0730705 0.0026685
0.5486560 0.0727130 0.0016010
0.5764305 0.0731060 0.0011875
0.6042050 0.0734990 0.0007740
0.6305800 0.0732845 0.0003870
0.6569550 0.0730700 0.0000000
0.6823605 0.0733755 0.0000000
0.7077660 0.0736810 0.0000000
0.7331365 0.0745530 0.0000000
0.7585070 0.0754250 0.0000000
0.7849850 0.0765695 0.0000000
0.8114630 0.0777140 0.0000000
0.8395855 0.0804880 0.0000000
0.8677080 0.0832620 0.0000000
0.8964640 0.0862400 0.0000000
0.9252200 0.0892180 0.0000000
0.9557880 0.0876790 0.0000000
0.9863560 0.0861400 0.0000000
0.0161770 0.0862740 0.0231785
0.0371583 0.0803045 0.0188020
0.0581395 0.0743350 0.0144255
0.0893977 0.0804352 0.0140910
0.1206560 0.0865355 0.0137565
0.1606847 0.0921842 0.0123410
0.2007135 0.0978330 0.0109255
0.2393255 0.1004917 0.0100195
0.2779375 0.1031505 0.0091135
0.3148085 0.1021848 0.0088282
0.3516795 0.1012190 0.0085430
0.3865550 0.1014110 0.0076435
0.4214305 0.1016030 0.0067440
0.4557925 0.1022795 0.0060617
0.4901545 0.1029560 0.0053795
0.5188542 0.1019277 0.0044777
0.5475540 0.1008995 0.0035760
0.5742085 0.0999663 0.0027905
0.6008630 0.0990330 0.0020050
0.6283492 0.0993150 0.0018958
0.6558355 0.0995970 0.0017865
0.6818870 0.1005353 0.0016328
0.7079385 0.1014735 0.0014790
0.7333835 0.1023835 0.0016883
0.7588285 0.1032935 0.0018975
0.7839935 0.1052363 0.0019903
0.8091585 0.1071790 0.0020830
0.8372567 0.1115325 0.0021980
0.8653550 0.1158860 0.0023130
0.8946305 0.1200517 0.0028615
0.9239060 0.1242175 0.0034100
0.9540090 0.1256018 0.0046698
0.9841120 0.1269860 0.0059295
0.0058780 0.0970800 0.0161100
0.0220875 0.0880725 0.0135360
0.0382970 0.0790650 0.0109620
0.0715750 0.0926645 0.0151310
0.1048530 0.1062640 0.0193000
0.1522900 0.1176225 0.0166510
0.1997270 0.1289810 0.0140020
0.2381475 0.1323295 0.0123060
0.2765680 0.1356780 0.0106100
0.3111610 0.1325980 0.0100595
0.3457540 0.1295180 0.0095090
0.3817140 0.1296930 0.0088950
0.4176740 0.1298680 0.0082810
0.4546585 0.1311760 0.0076520
0.4916430 0.1324840 0.0070230
0.5190475 0.1307850 0.0062870
0.5464520 0.1290860 0.0055510
0.5719865 0.1268265 0.0043935
0.5975210 0.1245670 0.0032360
0.6261185 0.1253455 0.0034045
0.6547160 0.1261240 0.0035730
0.6814135 0.1276950 0.0032655
0.7081110 0.1292660 0.0029580
0.7336305 0.1302140 0.0033765
0.7591500 0.1311620 0.0037950
0.7830020 0.1339030 0.0039805
0.8068540 0.1366440 0.0041660
0.8349280 0.1425770 0.0043960
0.8630020 0.1485100 0.0046260
0.8927970 0.1538635 0.0057230
0.9225920 0.1592170 0.0068200
0.9522300 0.1635245 0.0093395
0.9818680 0.1678320 0.0118590
0.0049875 0.1275695 0.0153515
0.0225088 0.1184680 0.0123850
0.0400300 0.1093665 0.0094185
0.0689788 0.1172935 0.0132778
0.0979275 0.1252205 0.0171370
0.1393175 0.1367623 0.0179417
0.1807075 0.1483040 0.0187465
0.2370815 0.1646970 0.0149935
0.2934555 0.1810900 0.0112405
0.3262140 0.1812122 0.0110793
0.3589725 0.1813345 0.0109180
0.3857505 0.1708338 0.0101128
0.4125285 0.1603330 0.0093075
0.4474032 0.1598820 0.0085805
0.4822780 0.1594310 0.0078535
0.5132767 0.1589703 0.0069275
0.5442755 0.1585095 0.0060015
0.5711405 0.1571905 0.0047575
0.5980055 0.1558715 0.0035135
0.6258595 0.1557813 0.0038995
0.6537135 0.1556910 0.0042855
0.6812187 0.1573018 0.0040160
0.7087240 0.1589125 0.0037465
0.7341247 0.1598327 0.0047645
0.7595255 0.1607530 0.0057825
0.7845305 0.1649930 0.0064427
0.8095355 0.1692330 0.0071030
0.8366975 0.1758768 0.0076698
0.8638595 0.1825205 0.0082365
0.8927357 0.1891870 0.0100038
0.9216120 0.1958535 0.0117710
0.9514945 0.1992435 0.0145490
0.9813770 0.2026335 0.0173270
0.0040970 0.1580590 0.0145930
0.0229300 0.1488635 0.0112340
0.0417630 0.1396680 0.0078750
0.0663825 0.1419225 0.0114245
0.0910020 0.1441770 0.0149740
0.1263450 0.1559020 0.0192325
0.1616880 0.1676270 0.0234910
0.2360155 0.1970645 0.0176810
0.3103430 0.2265020 0.0118710
0.3412670 0.2298265 0.0120990
0.3721910 0.2331510 0.0123270
0.3897870 0.2119745 0.0113305
0.4073830 0.1907980 0.0103340
0.4401480 0.1885880 0.0095090
0.4729130 0.1863780 0.0086840
0.5075060 0.1871555 0.0075680
0.5420990 0.1879330 0.0064520
0.5702945 0.1875545 0.0051215
0.5984900 0.1871760 0.0037910
0.6256005 0.1862170 0.0043945
0.6527110 0.1852580 0.0049980
0.6810240 0.1869085 0.0047665
0.7093370 0.1885590 0.0045350
0.7346190 0.1894515 0.0061525
0.7599010 0.1903440 0.0077700
0.7860590 0.1960830 0.0089050
0.8122170 0.2018220 0.0100400
0.8384670 0.2091765 0.0109435
0.8647170 0.2165310 0.0118470
0.8926745 0.2245105 0.0142845
0.9206320 0.2324900 0.0167220
0.9507590 0.2349625 0.0197585
0.9808860 0.2374350 0.0227950
0.0060555 0.1921370 0.0154845
0.0282637 0.1867803 0.0131430
0.0504720 0.1814235 0.0108015
0.0740665 0.1825472 0.0124270
0.0976610 0.1836710 0.0140525
0.1298790 0.1896045 0.0192845
0.1620970 0.1955380 0.0245165
0.2152837 0.2117385 0.0221495
0.2684705 0.2279390 0.0197825
0.3230513 0.2456852 0.0197482
0.3776320 0.2634315 0.0197140
0.3983718 0.2521837 0.0187680
0.4191115 0.2409360 0.0178220
0.4424357 0.2297943 0.0153527
0.4657600 0.2186525 0.0128835
0.4977477 0.2160507 0.0110268
0.5297355 0.2134490 0.0091700
0.5602545 0.2133655 0.0076782
0.5907735 0.2132820 0.0061865
0.6208725 0.2141918 0.0053520
0.6509715 0.2151015 0.0045175
0.6831805 0.2192603 0.0042140
0.7153895 0.2234190 0.0039105
0.7399187 0.2228582 0.0056568
0.7644480 0.2222975 0.0074030
0.7897195 0.2283768 0.0087680
0.8149910 0.2344560 0.0101330
0.8410433 0.2424228 0.0121285
0.8670955 0.2503895 0.0141240
0.8944183 0.2581288 0.0173143
0.9217410 0.2658680 0.0205045
0.9511247 0.2690883 0.0235835
0.9805085 0.2723085 0.0266625
0.0080140 0.2262150 0.0163760
0.0335975 0.2246970 0.0150520
0.0591810 0.2231790 0.0137280
0.0817505 0.2231720 0.0134295
0.1043200 0.2231650 0.0131310
0.1334130 0.2233070 0.0193365
0.1625060 0.2234490 0.0255420
0.1945520 0.2264125 0.0266180
0.2265980 0.2293760 0.0276940
0.3048355 0.2615440 0.0273975
0.3830730 0.2937120 0.0271010
0.4069565 0.2923930 0.0262055
0.4308400 0.2910740 0.0253100
0.4447235 0.2710005 0.0211965
0.4586070 0.2509270 0.0170830
0.4879895 0.2449460 0.0144855
0.5173720 0.2389650 0.0118880
0.5502145 0.2391765 0.0102350
0.5830570 0.2393880 0.0085820
0.6161445 0.2421665 0.0063095
0.6492320 0.2449450 0.0040370
0.6853370 0.2516120 0.0036615
0.7214420 0.2582790 0.0032860
0.7452185 0.2562650 0.0051610
0.7689950 0.2542510 0.0070360
0.7933800 0.2606705 0.0086310
0.8177650 0.2670900 0.0102260
0.8436195 0.2756690 0.0133135
0.8694740 0.2842480 0.0164010
0.8961620 0.2917470 0.0203440
0.9228500 0.2992460 0.0242870
0.9514905 0.3032140 0.0274085
0.9801310 0.3071820 0.0305300
0.0083660 0.2592105 0.0165560
0.0349843 0.2583025 0.0157412
0.0616025 0.2573945 0.0149265
0.0851445 0.2574357 0.0149025
0.1086865 0.2574770 0.0148785
0.1359510 0.2581968 0.0192700
0.1632155 0.2589165 0.0236615
0.1955357 0.2616675 0.0275080
0.2278560 0.2644185 0.0313545
0.2820325 0.2798578 0.0320133
0.3362090 0.2952970 0.0326720
0.3851012 0.3086377 0.0348977
0.4339935 0.3219785 0.0371235
0.4510445 0.3084405 0.0322690
0.4680955 0.2949025 0.0274145
0.4904320 0.2836743 0.0221138
0.5127685 0.2724460 0.0168130
0.5448217 0.2703278 0.0146580
0.5768750 0.2682095 0.0125030
0.6097918 0.2698622 0.0111420
0.6427085 0.2715150 0.0097810
0.6765393 0.2761170 0.0091542
0.7103700 0.2807190 0.0085275
0.7394665 0.2827065 0.0079232
0.7685630 0.2846940 0.0073190
0.7981677 0.2960063 0.0078192
0.8277725 0.3073185 0.0083195
0.8520333 0.3137898 0.0123467
0.8762940 0.3202610 0.0163740
0.9015232 0.3266302 0.0211735
0.9267525 0.3329995 0.0259730
0.9543122 0.3353927 0.0289665
0.9818720 0.3377860 0.0319600
0.0087180 0.2922060 0.0167360
0.0363710 0.2919080 0.0164305
0.0640240 0.2916100 0.0161250
0.0885385 0.2916995 0.0163755
0.1130530 0.2917890 0.0166260
0.1384890 0.2930865 0.0192035
0.1639250 0.2943840 0.0217810
0.1965195 0.2969225 0.0283980
0.2291140 0.2994610 0.0350150
0.2592295 0.2981715 0.0366290
0.2893450 0.2968820 0.0382430
0.3632460 0.3248825 0.0435900
0.4371470 0.3528830 0.0489370
0.4573655 0.3458805 0.0433415
0.4775840 0.3388780 0.0377460
0.4928745 0.3224025 0.0297420
0.5081650 0.3059270 0.0217380
0.5394290 0.3014790 0.0190810
0.5706930 0.2970310 0.0164240
0.6034390 0.2975580 0.0159745
0.6361850 0.2980850 0.0155250
0.6677415 0.3006220 0.0146470
0.6992980 0.3031590 0.0137690
0.7337145 0.3091480 0.0106855
0.7681310 0.3151370 0.0076020
0.8029555 0.3313420 0.0070075
0.8377800 0.3475470 0.0064130
0.8604470 0.3519105 0.0113800
0.8831140 0.3562740 0.0163470
0.9068845 0.3615135 0.0220030
0.9306550 0.3667530 0.0276590
0.9571340 0.3675715 0.0305245
0.9836130 0.3683900 0.0333900
0.0082720 0.3247835 0.0164655
0.0364612 0.3244120 0.0163947
0.0646505 0.3240405 0.0163240
0.0900617 0.3235582 0.0169365
0.1154730 0.3230760 0.0175490
0.1400858 0.3224875 0.0205033
0.1646985 0.3218990 0.0234575
0.1946020 0.3240157 0.0283625
0.2245055 0.3261325 0.0332675
0.2554113 0.3265990 0.0363778
0.2863170 0.3270655 0.0394880
0.3390043 0.3409115 0.0426010
0.3916915 0.3547575 0.0457140
0.4278500 0.3571727 0.0439105
0.4640085 0.3595880 0.0421070
0.4872645 0.3501693 0.0345788
0.5105205 0.3407505 0.0270505
0.5392367 0.3356742 0.0228582
0.5679530 0.3305980 0.0186660
0.6006522 0.3307930 0.0191705
0.6333515 0.3309880 0.0196750
0.6656148 0.3318572 0.0226595
0.6978780 0.3327265 0.0256440
0.7302587 0.3372653 0.0238550
0.7626395 0.3418040 0.0220660
0.7957483 0.3537235 0.0186467
0.8288570 0.3656430 0.0152275
0.8586740 0.3804952 0.0155700
0.8884910 0.3953475 0.0159125
0.9121113 0.3985953 0.0224657
0.9357315 0.4018430 0.0290190
0.9618715 0.4009155 0.0330970
0.9880115 0.3999880 0.0371750
0.0078260 0.3573610 0.0161950
0.0365515 0.3569160 0.0163590
0.0652770 0.3564710 0.0165230
0.0915850 0.3554170 0.0174975
0.1178930 0.3543630 0.0184720
0.1416825 0.3518885 0.0218030
0.1654720 0.3494140 0.0251340
0.1926845 0.3511090 0.0283270
0.2198970 0.3528040 0.0315200
0.2515930 0.3550265 0.0361265
0.2832890 0.3572490 0.0407330
0.3147625 0.3569405 0.0416120
0.3462360 0.3566320 0.0424910
0.3983345 0.3684650 0.0444795
0.4504330 0.3802980 0.0464680
0.4816545 0.3779360 0.0394155
0.5128760 0.3755740 0.0323630
0.5390445 0.3698695 0.0266355
0.5652130 0.3641650 0.0209080
0.5978655 0.3640280 0.0223665
0.6305180 0.3638910 0.0238250
0.6634880 0.3630925 0.0306720
0.6964580 0.3622940 0.0375190
0.7268030 0.3653825 0.0370245
0.7571480 0.3684710 0.0365300
0.7885410 0.3761050 0.0302860
0.8199340 0.3837390 0.0240420
0.8569010 0.4090800 0.0197600
0.8938680 0.4344210 0.0154780
0.9173380 0.4356770 0.0229285
0.9408080 0.4369330 0.0303790
0.9666090 0.4342595 0.0356695
0.9924100 0.4315860 0.0409600
0.0073340 0.3895845 0.0157555
0.0363975 0.3891332 0.0159892
0.0654610 0.3886820 0.0162230
0.0924243 0.3875948 0.0172278
0.1193875 0.3865075 0.0182325
0.1442860 0.3840832 0.0213888
0.1691845 0.3816590 0.0245450
0.1956830 0.3818205 0.0293067
0.2221815 0.3819820 0.0340685
0.2525973 0.3842995 0.0381125
0.2830130 0.3866170 0.0421565
0.3140590 0.3873173 0.0439458
0.3451050 0.3880175 0.0457350
0.3884425 0.3945350 0.0468242
0.4317800 0.4010525 0.0479135
0.4686008 0.4023748 0.0418883
0.5054215 0.4036970 0.0358630
0.5358272 0.4005970 0.0294555
0.5662330 0.3974970 0.0230480
0.5978687 0.3975455 0.0236878
0.6295045 0.3975940 0.0243275
0.6619287 0.3974007 0.0274845
0.6943530 0.3972075 0.0306415
0.7252835 0.3985003 0.0376492
0.7562140 0.3997930 0.0446570
0.7859552 0.4045475 0.0426948
0.8156965 0.4093020 0.0407325
0.8485310 0.4252043 0.0384365
0.8813655 0.4411065 0.0361405
0.9096903 0.4511027 0.0375245
0.9380150 0.4610990 0.0389085
0.9660448 0.4630885 0.0439317
0.9940745 0.4650780 0.0489550
0.0068420 0.4218080 0.0153160
0.0362435 0.4213505 0.0156195
0.0656450 0.4208930 0.0159230
0.0932635 0.4197725 0.0169580
0.1208820 0.4186520 0.0179930
0.1468895 0.4162780 0.0209745
0.1728970 0.4139040 0.0239560
0.1986815 0.4125320 0.0302865
0.2244660 0.4111600 0.0366170
0.2536015 0.4135725 0.0400985
0.2827370 0.4159850 0.0435800
0.3133555 0.4176940 0.0462795
0.3439740 0.4194030 0.0489790
0.3785505 0.4206050 0.0491690
0.4131270 0.4218070 0.0493590
0.4555470 0.4268135 0.0443610
0.4979670 0.4318200 0.0393630
0.5326100 0.4313245 0.0322755
0.5672530 0.4308290 0.0251880
0.5978720 0.4310630 0.0250090
0.6284910 0.4312970 0.0248300
0.6603695 0.4317090 0.0242970
0.6922480 0.4321210 0.0237640
0.7237640 0.4316180 0.0382740
0.7552800 0.4311150 0.0527840
0.7833695 0.4329900 0.0551035
0.8114590 0.4348650 0.0574230
0.8401610 0.4413285 0.0571130
0.8688630 0.4477920 0.0568030
0.9020425 0.4665285 0.0521205
0.9352220 0.4852650 0.0474380
0.9654805 0.4919175 0.0521940
0.9957390 0.4985700 0.0569500
0.0065915 0.4539465 0.0148055
0.0362397 0.4535423 0.0151050
0.0658880 0.4531380 0.0154045
0.0940135 0.4522000 0.0163493
0.1221390 0.4512620 0.0172940
0.1489590 0.4494695 0.0198233
0.1757790 0.4476770 0.0223525
0.2023085 0.4463035 0.0278200
0.2288380 0.4449300 0.0332875
0.2579623 0.4471460 0.0389750
0.2870865 0.4493620 0.0446625
0.3165055 0.4498658 0.0480530
0.3459245 0.4503695 0.0514435
0.3786337 0.4508273 0.0522827
0.4113430 0.4512850 0.0531220
0.4507178 0.4547735 0.0486973
0.4900925 0.4582620 0.0442725
0.5273937 0.4605378 0.0370572
0.5646950 0.4628135 0.0298420
0.5970220 0.4638045 0.0297173
0.6293490 0.4647955 0.0295925
0.6608633 0.4654377 0.0300892
0.6923775 0.4660800 0.0305860
0.7228795 0.4658788 0.0360100
0.7533815 0.4656775 0.0414340
0.7823197 0.4663055 0.0494510
0.8112580 0.4669335 0.0574680
0.8396158 0.4709900 0.0610492
0.8679735 0.4750465 0.0646305
0.9002985 0.4905305 0.0563997
0.9326235 0.5060145 0.0481690
0.9640565 0.5143553 0.0528375
0.9954895 0.5226960 0.0575060
0.0063410 0.4860850 0.0142950
0.0362360 0.4857340 0.0145905
0.0661310 0.4853830 0.0148860
0.0947635 0.4846275 0.0157405
0.1233960 0.4838720 0.0165950
0.1510285 0.4826610 0.0186720
0.1786610 0.4814500 0.0207490
0.2059355 0.4800750 0.0253535
0.2332100 0.4787000 0.0299580
0.2623230 0.4807195 0.0378515
0.2914360 0.4827390 0.0457450
0.3196555 0.4820375 0.0498265
0.3478750 0.4813360 0.0539080
0.3787170 0.4810495 0.0553965
0.4095590 0.4807630 0.0568850
0.4458885 0.4827335 0.0530335
0.4822180 0.4847040 0.0491820
0.5221775 0.4897510 0.0418390
0.5621370 0.4947980 0.0344960
0.5961720 0.4965460 0.0344255
0.6302070 0.4982940 0.0343550
0.6613570 0.4991665 0.0358815
0.6925070 0.5000390 0.0374080
0.7219950 0.5001395 0.0337460
0.7514830 0.5002400 0.0300840
0.7812700 0.4996210 0.0437985
0.8110570 0.4990020 0.0575130
0.8390705 0.5006515 0.0649855
0.8670840 0.5023010 0.0724580
0.8985545 0.5145325 0.0606790
0.9300250 0.5267640 0.0489000
0.9626325 0.5367930 0.0534810
0.9952400 0.5468220 0.0580620
0.0063810 0.5181320 0.0137710
0.0364552 0.5178352 0.0140405
0.0665295 0.5175385 0.0143100
0.0955243 0.5169237 0.0150610
0.1245190 0.5163090 0.0158120
0.1526887 0.5153850 0.0175647
0.1808585 0.5144610 0.0193175
0.2087662 0.5135000 0.0230652
0.2366740 0.5125390 0.0268130
0.2658132 0.5136023 0.0334287
0.2949525 0.5146655 0.0400445
0.3237690 0.5143900 0.0453595
0.3525855 0.5141145 0.0506745
0.3828940 0.5134268 0.0525400
0.4132025 0.5127390 0.0544055
0.4473238 0.5138230 0.0509812
0.4814450 0.5149070 0.0475570
0.5199107 0.5194048 0.0421033
0.5583765 0.5239025 0.0366495
0.5935853 0.5265717 0.0363037
0.6287940 0.5292410 0.0359580
0.6607355 0.5306083 0.0394990
0.6926770 0.5319755 0.0430400
0.7225175 0.5328380 0.0411215
0.7523580 0.5337005 0.0392030
0.7812290 0.5332952 0.0415773
0.8101000 0.5328900 0.0439515
0.8384020 0.5344410 0.0457043
0.8667040 0.5359920 0.0474570
0.8968510 0.5436320 0.0402752
0.9269980 0.5512720 0.0330935
0.9598645 0.5594278 0.0409825
0.9927310 0.5675835 0.0488715
0.0064210 0.5501790 0.0132470
0.0366745 0.5499365 0.0134905
0.0669280 0.5496940 0.0137340
0.0962850 0.5492200 0.0143815
0.1256420 0.5487460 0.0150290
0.1543490 0.5481090 0.0164575
0.1830560 0.5474720 0.0178860
0.2115970 0.5469250 0.0207770
0.2401380 0.5463780 0.0236680
0.2693035 0.5464850 0.0290060
0.2984690 0.5465920 0.0343440
0.3278825 0.5467425 0.0408925
0.3572960 0.5468930 0.0474410
0.3870710 0.5458040 0.0496835
0.4168460 0.5447150 0.0519260
0.4487590 0.5449125 0.0489290
0.4806720 0.5451100 0.0459320
0.5176440 0.5490585 0.0423675
0.5546160 0.5530070 0.0388030
0.5909985 0.5565975 0.0381820
0.6273810 0.5601880 0.0375610
0.6601140 0.5620500 0.0431165
0.6928470 0.5639120 0.0486720
0.7230400 0.5655365 0.0484970
0.7532330 0.5671610 0.0483220
0.7811880 0.5669695 0.0393560
0.8091430 0.5667780 0.0303900
0.8377335 0.5682305 0.0264230
0.8663240 0.5696830 0.0224560
0.8951475 0.5727315 0.0198715
0.9239710 0.5757800 0.0172870
0.9570965 0.5820625 0.0284840
0.9902220 0.5883450 0.0396810
0.0066870 0.5821075 0.0127405
0.0370660 0.5819015 0.0129533
0.0674450 0.5816955 0.0131660
0.0970455 0.5812998 0.0137170
0.1266460 0.5809040 0.0142680
0.1556845 0.5803812 0.0154425
0.1847230 0.5798585 0.0166170
0.2135920 0.5793888 0.0189007
0.2424610 0.5789190 0.0211845
0.2717360 0.5788362 0.0252085
0.3010110 0.5787535 0.0292325
0.3305778 0.5786067 0.0342688
0.3601445 0.5784600 0.0393050
0.3900957 0.5776015 0.0416745
0.4200470 0.5767430 0.0440440
0.4519285 0.5773465 0.0425757
0.4838100 0.5779500 0.0411075
0.5191338 0.5809572 0.0393247
0.5544575 0.5839645 0.0375420
0.5898725 0.5872488 0.0377760
0.6252875 0.5905330 0.0380100
0.6586940 0.5928067 0.0429802
0.6921005 0.5950805 0.0479505
0.7227415 0.5967675 0.0506552
0.7533825 0.5984545 0.0533600
0.7814628 0.5983848 0.0460337
0.8095430 0.5983150 0.0387075
0.8382618 0.6001292 0.0331407
0.8669805 0.6019435 0.0275740
0.8953635 0.6040147 0.0220655
0.9237465 0.6060860 0.0165570
0.9557688 0.6106125 0.0210152
0.9877910 0.6151390 0.0254735
0.0069530 0.6140360 0.0122340
0.0374575 0.6138665 0.0124160
0.0679620 0.6136970 0.0125980
0.0978060 0.6133795 0.0130525
0.1276500 0.6130620 0.0135070
0.1570200 0.6126535 0.0144275
0.1863900 0.6122450 0.0153480
0.2155870 0.6118525 0.0170245
0.2447840 0.6114600 0.0187010
0.2741685 0.6111875 0.0214110
0.3035530 0.6109150 0.0241210
0.3332730 0.6104710 0.0276450
0.3629930 0.6100270 0.0311690
0.3931205 0.6093990 0.0336655
0.4232480 0.6087710 0.0361620
0.4550980 0.6097805 0.0362225
0.4869480 0.6107900 0.0362830
0.5206235 0.6128560 0.0362820
0.5542990 0.6149220 0.0362810
0.5887465 0.6179000 0.0373700
0.6231940 0.6208780 0.0384590
0.6572740 0.6235635 0.0428440
0.6913540 0.6262490 0.0472290
0.7224430 0.6279985 0.0528135
0.7535320 0.6297480 0.0583980
0.7817375 0.6298000 0.0527115
0.8099430 0.6298520 0.0470250
0.8387900 0.6320280 0.0398585
0.8676370 0.6342040 0.0326920
0.8955795 0.6352980 0.0242595
0.9235220 0.6363920 0.0158270
0.9544410 0.6391625 0.0135465
0.9853600 0.6419330 0.0112660
0.0073545 0.6458405 0.0117685
0.0379452 0.6456937 0.0119232
0.0685360 0.6455470 0.0120780
0.0985427 0.6452730 0.0124572
0.1285495 0.6449990 0.0128365
0.1581335 0.6446443 0.0135828
0.1877175 0.6442895 0.0143290
0.2171283 0.6439307 0.0156408
0.2465390 0.6435720 0.0169525
0.2760728 0.6432890 0.0190095
0.3056065 0.6430060 0.0210665
0.3354395 0.6426480 0.0236847
0.3652725 0.6422900 0.0263030
0.3955720 0.6419220 0.0283290
0.4258715 0.6415540 0.0303550
0.4574450 0.6424098 0.0308325
0.4890185 0.6432655 0.0313100
0.5220045 0.6449752 0.0319030
0.5549905 0.6466850 0.0324960
0.5886522 0.6491013 0.0341345
0.6223140 0.6515175 0.0357730
0.6558408 0.6538873 0.0401967
0.6893675 0.6562570 0.0446205
0.7209323 0.6580585 0.0510220
0.7524970 0.6598600 0.0574235
0.7817605 0.6608880 0.0521960
0.8110240 0.6619160 0.0469685
0.8396775 0.6636787 0.0397215
0.8683310 0.6654415 0.0324745
0.8966750 0.6665702 0.0247878
0.9250190 0.6676990 0.0171010
0.9565212 0.6702078 0.0127352
0.9880235 0.6727165 0.0083695
0.0077560 0.6776450 0.0113030
0.0384330 0.6775210 0.0114305
0.0691100 0.6773970 0.0115580
0.0992795 0.6771665 0.0118620
0.1294490 0.6769360 0.0121660
0.1592470 0.6766350 0.0127380
0.1890450 0.6763340 0.0133100
0.2186695 0.6760090 0.0142570
0.2482940 0.6756840 0.0152040
0.2779770 0.6753905 0.0166080
0.3076600 0.6750970 0.0180120
0.3376060 0.6748250 0.0197245
0.3675520 0.6745530 0.0214370
0.3980235 0.6744450 0.0229925
0.4284950 0.6743370 0.0245480
0.4597920 0.6750390 0.0254425
0.4910890 0.6757410 0.0263370
0.5233855 0.6770945 0.0275240
0.5556820 0.6784480 0.0287110
0.5885580 0.6803025 0.0308990
0.6214340 0.6821570 0.0330870
0.6544075 0.6842110 0.0375495
0.6873810 0.6862650 0.0420120
0.7194215 0.6881185 0.0492305
0.7514620 0.6899720 0.0564490
0.7817835 0.6919760 0.0516805
0.8121050 0.6939800 0.0469120
0.8405650 0.6953295 0.0395845
0.8690250 0.6966790 0.0322570
0.8977705 0.6978425 0.0253160
0.9265160 0.6990060 0.0183750
0.9586015 0.7012530 0.0119240
0.9906870 0.7035000 0.0054730
0.0082105 0.7093370 0.0108970
0.0389465 0.7092272 0.0110045
0.0696825 0.7091175 0.0111120
0.0999623 0.7089135 0.0113638
0.1302420 0.7087095 0.0116155
0.1601835 0.7084420 0.0120803
0.1901250 0.7081745 0.0125450
0.2198990 0.7078845 0.0132998
0.2496730 0.7075945 0.0140545
0.2794802 0.7073355 0.0151580
0.3092875 0.7070765 0.0162615
0.3393185 0.7068735 0.0176165
0.3693495 0.7066705 0.0189715
0.3998300 0.7066620 0.0202872
0.4303105 0.7066535 0.0216030
0.4614750 0.7072768 0.0226048
0.4926395 0.7079000 0.0236065
0.5245975 0.7090865 0.0249230
0.5565555 0.7102730 0.0262395
0.5890045 0.7119193 0.0283645
0.6214535 0.7135655 0.0304895
0.6539715 0.7154115 0.0341820
0.6864895 0.7172575 0.0378745
0.7183135 0.7189770 0.0430690
0.7501375 0.7206965 0.0482635
0.7808765 0.7224798 0.0457320
0.8116155 0.7242630 0.0432005
0.8408665 0.7253308 0.0377463
0.8701175 0.7263985 0.0322920
0.8990245 0.7277753 0.0262703
0.9279315 0.7291520 0.0202485
0.9589285 0.7319080 0.0151007
0.9899255 0.7346640 0.0099530
0.0086650 0.7410290 0.0104910
0.0394600 0.7409335 0.0105785
0.0702550 0.7408380 0.0106660
