catalog/styles/experimental/experimental-church/look.cube
# experimental-church iteration 6
LUT_3D_SIZE 5
DOMAIN_MIN 0 0 0
DOMAIN_MAX 1 1 1
0.0000000 0.0000000 0.0000000
0.1110916 0.0000000 0.0000000
0.5302193 0.0431730 0.0609703
0.8889803 0.0901372 0.0622257
1.0000000 0.1375934 0.0416993
0.0000000 0.0076790 0.0000000
0.0378379 0.0665649 0.0000000
0.4578632 0.1607004 0.0276044
0.8269259 0.2118916 0.0288722
1.0000000 0.2100080 0.0000000
0.0000000 0.0900163 0.0000000
0.0007118 0.1715099 0.0000000
0.3323705 0.2684395 0.0000000
0.7022646 0.3341903 0.0000000
1.0000000 0.3489985 0.0000000
0.0000000 0.1748402 0.0000000
0.0000000 0.2776150 0.0000000
0.2287145 0.3727078 0.0000000
0.5527307 0.4907052 0.0000000
0.9376295 0.6327959 0.0000000
0.0000000 0.2703010 0.0000000
0.0000000 0.3795721 0.0000000
0.1948598 0.5050491 0.0000000
0.4957744 0.7054577 0.0000000
0.9297388 0.9908091 0.3516147
0.0000000 0.0000000 0.1165821
0.0703338 0.0015236 0.0779361
0.3668620 0.0287757 0.0709452
0.6812181 0.0558332 0.0786328
0.8833248 0.1309923 0.0940893
0.0000000 0.0609736 0.0478200
0.0837379 0.0904022 0.0843364
0.1954971 0.0854538 0.0646450
0.5274634 0.1346494 0.0949628
0.8645210 0.1693803 0.1094824
0.0000000 0.1701102 0.0236722
0.0715424 0.1911891 0.0476356
0.2021834 0.2045250 0.0824539
0.4671974 0.2706565 0.1389019
0.8179712 0.3496033 0.1481182
0.0000000 0.2990632 0.0408894
0.1013342 0.3907667 0.0596476
0.2990578 0.4574139 0.0751371
0.5308066 0.5212092 0.1385650
0.8328198 0.6677262 0.3036940
0.0000000 0.4434938 0.0661966
0.1249073 0.5705680 0.0419446
0.3775253 0.7058011 0.0706696
0.6474728 0.8451810 0.2207946
0.9230057 0.9749852 0.5233460
0.0651584 0.0641288 0.4052793
0.0973029 0.0309689 0.2516388
0.2179152 0.0096546 0.1539049
0.4167673 0.0000000 0.1310470
0.6340110 0.0069999 0.1534057
0.0538984 0.0931716 0.2235018
0.0902044 0.0901475 0.1730674
0.1184378 0.0406711 0.0985727
0.3732376 0.0856105 0.1617604
0.7118685 0.1707934 0.2353786
0.0645418 0.2583530 0.2271431
0.1051891 0.2038051 0.1751145
0.1968501 0.2017738 0.1836280
0.4112404 0.2331879 0.2139032
0.8112983 0.3799887 0.2856295
0.0716596 0.4570887 0.2972413
0.1744203 0.4655361 0.2574147
0.3381151 0.5268289 0.2778506
0.6377505 0.6290603 0.3734573
0.8602766 0.7021315 0.4792245
0.0439256 0.6079995 0.3208393
0.2572239 0.7400869 0.3346802
0.5097283 0.8571567 0.3869985
0.7412843 0.9354998 0.5274576
0.9311829 0.9593624 0.7474791
0.2482056 0.1861704 0.7355440
0.1925524 0.0899168 0.5181307
0.1735679 0.0000000 0.3262707
0.2197755 0.0000000 0.2056792
0.3202125 0.0000000 0.1565924
0.1828583 0.1846136 0.5084377
0.1885192 0.1694883 0.4656565
0.2097636 0.1054054 0.3378756
0.3415614 0.0898285 0.3080650
0.5426588 0.1151658 0.3110141
0.0837699 0.1857645 0.2726708
0.1761117 0.2476476 0.3535605
0.2788599 0.2826389 0.4507107
0.4791470 0.3004422 0.4358709
0.7533272 0.3801634 0.4246786
0.2304370 0.5747657 0.5329472
0.2383469 0.4892437 0.4640840
0.3298760 0.5320260 0.4960240
0.6910343 0.6909029 0.6617407
0.8949475 0.7058044 0.6172739
0.3022074 0.8318652 0.6817050
0.4321970 0.9082560 0.6716689
0.5923058 0.9327286 0.6601588
0.7640205 0.9345412 0.7279374
0.9159536 0.9423748 0.8804426
0.4181522 0.3096030 1.0000000
0.3288464 0.1794345 0.8444628
0.2079561 0.0080542 0.5634102
0.0878051 0.0000000 0.2921292
0.0000000 0.0000000 0.0782506
0.3004204 0.3272828 0.8697075
0.2879690 0.2300389 0.6920929
0.3099999 0.1775320 0.5966767
0.3425409 0.1305612 0.5118399
0.3759686 0.0725083 0.4033610
0.2013360 0.3621305 0.7246976
0.2524738 0.2891806 0.5669057
0.3637061 0.3415806 0.6211666
0.5686651 0.4456421 0.7296764
0.7176945 0.4482708 0.6972827
0.2715754 0.5783549 0.7354831
0.3749116 0.6071071 0.7477942
0.4795710 0.6275578 0.7507564
0.7181200 0.7115318 0.8258864
0.9425534 0.7770317 0.8951973
0.6949278 1.0000000 1.0000000
0.6740816 1.0000000 1.0000000
0.7016286 0.9945734 0.9472693
0.8321364 0.9605274 0.8989361
1.0000000 1.0000000 1.0000000
