catalog/styles/experimental/experimental-church/look.cube
# experimental-church iteration 6
LUT_3D_SIZE 9
DOMAIN_MIN 0 0 0
DOMAIN_MAX 1 1 1
0.0000000 0.0000000 0.0000000
0.0000000 0.0000000 0.0000000
0.1110916 0.0000000 0.0000000
0.3283994 0.0197918 0.0364873
0.5302193 0.0431730 0.0609703
0.7183277 0.0658036 0.0676082
0.8889803 0.0901372 0.0622257
1.0000000 0.1147136 0.0524752
1.0000000 0.1375934 0.0416993
0.0000000 0.0000000 0.0000000
0.0000000 0.0000000 0.0000000
0.0711738 0.0237768 0.0000000
0.2849760 0.0635200 0.0236811
0.4966672 0.1019526 0.0470897
0.6870229 0.1301698 0.0527407
0.8539190 0.1490611 0.0465141
1.0000000 0.1611945 0.0320572
1.0000000 0.1705070 0.0136534
0.0000000 0.0076790 0.0000000
0.0000000 0.0328465 0.0000000
0.0378379 0.0665649 0.0000000
0.2431173 0.1137203 0.0070786
0.4578632 0.1607004 0.0276044
0.6582157 0.1962575 0.0336319
0.8269259 0.2118916 0.0288722
0.9704110 0.2130616 0.0096519
1.0000000 0.2100080 0.0000000
0.0000000 0.0503069 0.0000000
0.0000000 0.0805719 0.0000000
0.0154804 0.1188910 0.0000000
0.1982931 0.1678942 0.0000000
0.3975931 0.2156536 0.0000000
0.6045392 0.2568272 0.0055687
0.7821682 0.2760090 0.0005044
0.9254226 0.2731113 0.0000000
1.0000000 0.2644441 0.0000000
0.0000000 0.0900163 0.0000000
0.0000000 0.1302358 0.0000000
0.0007118 0.1715099 0.0000000
0.1540643 0.2178379 0.0000000
0.3323705 0.2684395 0.0000000
0.5232790 0.3095592 0.0000000
0.7022646 0.3341903 0.0000000
0.8612227 0.3456898 0.0000000
1.0000000 0.3489985 0.0000000
0.0000000 0.1309433 0.0000000
0.0000000 0.1788211 0.0000000
0.0000000 0.2255829 0.0000000
0.1233324 0.2706758 0.0000000
0.2704970 0.3168583 0.0000000
0.4391848 0.3621389 0.0000000
0.6158194 0.4012573 0.0000000
0.7922364 0.4381249 0.0000000
0.9738907 0.4722358 0.0000000
0.0000000 0.1748402 0.0000000
0.0000000 0.2269931 0.0000000
0.0000000 0.2776150 0.0000000
0.1044029 0.3250843 0.0000000
0.2287145 0.3727078 0.0000000
0.3781226 0.4276117 0.0000000
0.5527307 0.4907052 0.0000000
0.7413548 0.5595360 0.0000000
0.9376295 0.6327959 0.0000000
0.0000000 0.2217690 0.0000000
0.0000000 0.2756955 0.0000000
0.0000000 0.3284439 0.0000000
0.0937921 0.3805802 0.0000000
0.2079527 0.4373680 0.0000000
0.3468409 0.5071889 0.0000000
0.5173999 0.5957443 0.0000000
0.7151604 0.7007001 0.0024511
0.9257784 0.8116285 0.1064608
0.0000000 0.2703010 0.0000000
0.0000000 0.3248771 0.0000000
0.0000000 0.3795721 0.0000000
0.0868834 0.4371976 0.0000000
0.1948598 0.5050491 0.0000000
0.3280796 0.5922545 0.0000000
0.4957744 0.7054577 0.0000000
0.7003693 0.8422999 0.1064642
0.9297388 0.9908091 0.3516147
0.0000000 0.0000000 0.0000000
0.0000000 0.0000000 0.0132669
0.0873935 0.0000000 0.0307605
0.2662009 0.0193238 0.0489351
0.4494488 0.0362696 0.0610273
0.6287499 0.0523000 0.0658979
0.7940711 0.0745876 0.0675004
0.9279060 0.1051007 0.0663477
1.0000000 0.1430573 0.0651721
0.0000000 0.0000000 0.0000000
0.0000000 0.0125031 0.0114965
0.0737607 0.0386576 0.0351016
0.2188296 0.0588349 0.0479884
0.3810781 0.0794703 0.0591525
0.5664955 0.1042626 0.0684197
0.7412222 0.1236432 0.0671205
0.8828641 0.1398680 0.0613896
1.0000000 0.1561688 0.0568361
0.0000000 0.0370478 0.0000000
0.0000000 0.0557194 0.0031999
0.0522333 0.0685069 0.0302735
0.1699161 0.0871586 0.0321991
0.3259060 0.1276583 0.0484551
0.5004744 0.1550860 0.0652081
0.6760261 0.1712548 0.0628574
0.8290125 0.1812576 0.0542003
0.9732713 0.1855857 0.0444990
0.0000000 0.0859560 0.0000000
0.0000000 0.0996863 0.0000000
0.0350469 0.1071352 0.0079940
0.1440276 0.1286194 0.0163432
0.3102639 0.1882496 0.0240844
0.4578412 0.2115650 0.0501368
0.6273407 0.2211170 0.0569097
0.7984573 0.2412023 0.0464421
0.9352809 0.2462708 0.0286861
0.0000000 0.1303279 0.0000000
0.0000000 0.1540835 0.0000000
0.0396823 0.1829365 0.0000000
0.1517458 0.2171605 0.0094210
0.2681695 0.2441175 0.0176001
0.4070667 0.2683947 0.0359400
0.5850628 0.2927926 0.0503629
0.7678171 0.3164814 0.0356225
0.8991171 0.3329385 0.0171291
0.0000000 0.1786102 0.0000000
0.0000000 0.2192471 0.0000000
0.0442943 0.2610793 0.0000000
0.1515791 0.3000009 0.0000000
0.2547621 0.3263064 0.0025701
0.3742676 0.3480416 0.0158495
0.5456140 0.3881765 0.0335805
0.7325685 0.4290442 0.0373688
0.8745652 0.4683927 0.0449192
0.0000000 0.2353790 0.0000000
0.0000000 0.2865590 0.0000000
0.0485608 0.3354732 0.0000000
0.1540163 0.3786097 0.0000000
0.2607312 0.4143226 0.0000000
0.3808018 0.4500663 0.0000000
0.5338727 0.5042437 0.0241477
0.7120943 0.5788246 0.0676511
0.8818823 0.6553226 0.1111198
0.0000000 0.2961477 0.0000000
0.0000000 0.3523870 0.0000000
0.0534499 0.4068174 0.0000000
0.1604968 0.4580533 0.0000000
0.2737298 0.5084895 0.0000000
0.4008942 0.5647849 0.0000000
0.5486245 0.6358342 0.0391762
0.7155141 0.7247116 0.1364512
0.8936323 0.8272105 0.2554907
0.0000000 0.3578253 0.0000000
0.0000000 0.4171241 0.0000000
0.0586906 0.4766231 0.0000000
0.1688526 0.5386973 0.0000000
0.2893032 0.6073238 0.0000000
0.4239234 0.6858706 0.0000000
0.5737840 0.7753931 0.0661116
0.7406716 0.8754070 0.2265649
0.9200733 0.9810808 0.4252629
0.0000000 0.0000000 0.1165821
0.0000000 0.0000000 0.0958412
0.0703338 0.0015236 0.0779361
0.2086734 0.0171798 0.0721045
0.3668620 0.0287757 0.0709452
0.5286819 0.0381609 0.0719009
0.6812181 0.0558332 0.0786328
0.8026927 0.0854174 0.0850704
0.8833248 0.1309923 0.0940893
0.0000000 0.0111870 0.0777774
0.0000000 0.0318600 0.0825253
0.0730654 0.0480207 0.0794800
0.1560150 0.0491967 0.0626895
0.2758368 0.0562109 0.0635622
0.4480323 0.0777412 0.0809285
0.6246553 0.0979962 0.0894964
0.7637561 0.1195610 0.0951931
0.8861900 0.1446300 0.1042107
0.0000000 0.0609736 0.0478200
0.0000000 0.0738039 0.0627857
0.0837379 0.0904022 0.0843364
0.1059356 0.0708856 0.0565414
0.1954971 0.0854538 0.0646450
0.3472011 0.1146229 0.0911947
0.5274634 0.1346494 0.0949628
0.6950067 0.1544033 0.1001228
0.8645210 0.1693803 0.1094824
0.0000000 0.1168136 0.0313456
0.0000000 0.1162229 0.0401128
0.0623770 0.1082518 0.0469093
0.1204687 0.1176832 0.0624022
0.1917463 0.1335034 0.0675053
0.2555626 0.1299641 0.0705357
0.4392774 0.1608387 0.0850029
0.6532623 0.2010795 0.0976040
0.8426060 0.2395655 0.1213728
0.0000000 0.1701102 0.0236722
0.0000000 0.1765623 0.0326602
0.0715424 0.1911891 0.0476356
0.1513887 0.2144671 0.0733574
0.2021834 0.2045250 0.0824539
0.3025997 0.2262073 0.1120103
0.4671974 0.2706565 0.1389019
0.6391924 0.2718664 0.1034719
0.8179712 0.3496033 0.1481182
0.0000000 0.2293711 0.0278931
0.0000000 0.2596078 0.0414868
0.0879193 0.2930180 0.0586546
0.1771749 0.3229720 0.0757650
0.2597290 0.3389887 0.0854819
0.3505817 0.3467304 0.1047373
0.4932390 0.3854076 0.1475901
0.6744790 0.4484407 0.1982867
0.8147348 0.5012427 0.2210422
0.0000000 0.2990632 0.0408894
0.0038592 0.3458773 0.0503967
0.1013342 0.3907667 0.0596476
0.2001593 0.4291718 0.0675513
0.2990578 0.4574139 0.0751371
0.4031764 0.4808190 0.0945597
0.5308066 0.5212092 0.1385650
0.6833368 0.5865931 0.2056559
0.8328198 0.6677262 0.3036940
0.0000000 0.3717014 0.0546513
0.0079015 0.4277225 0.0528298
0.1131891 0.4819923 0.0522479
0.2231249 0.5327978 0.0563102
0.3380896 0.5799415 0.0710995
0.4578776 0.6260413 0.1051426
0.5861062 0.6792973 0.1684354
0.7250824 0.7454727 0.2662518
0.8719166 0.8200401 0.3973490
0.0000000 0.4434938 0.0661966
0.0109214 0.5066593 0.0513623
0.1249073 0.5705680 0.0419446
0.2469728 0.6366417 0.0457354
0.3775253 0.7058011 0.0706696
0.5125897 0.7766361 0.1261730
0.6474728 0.8451810 0.2207946
0.7832199 0.9104631 0.3584597
0.9230057 0.9749852 0.5233460
0.0000000 0.0113827 0.2521778
0.0129696 0.0122491 0.1991281
0.0730524 0.0125806 0.1509027
0.1648698 0.0160688 0.1191919
0.2853221 0.0198598 0.1013497
0.4185031 0.0229121 0.0953309
0.5492260 0.0311896 0.1004071
0.6658062 0.0494157 0.1119920
0.7694170 0.0745769 0.1258401
0.0000000 0.0386902 0.1843658
0.0284996 0.0478257 0.1594040
0.0727354 0.0489456 0.1257588
0.1126057 0.0371777 0.0844928
0.1964240 0.0343098 0.0749948
0.3328900 0.0467017 0.0924131
0.4903237 0.0688284 0.1143194
0.6397818 0.0945804 0.1338768
0.7802047 0.1224490 0.1526979
0.0000000 0.0783055 0.1322305
0.0349354 0.0810505 0.1186834
0.0804399 0.0860844 0.1066721
0.0931408 0.0693300 0.0751444
0.1234549 0.0461932 0.0570063
0.2507353 0.0695453 0.0891713
0.4307502 0.1076730 0.1246737
0.6065121 0.1402581 0.1507646
0.7893686 0.1799938 0.1800697
0.0000000 0.1397305 0.1125424
0.0329109 0.1239166 0.0946504
0.0796256 0.1182144 0.0928238
0.1102804 0.1069099 0.0910233
0.1432337 0.1032650 0.0877251
0.2187043 0.1141654 0.0992487
0.3658430 0.1391972 0.1187676
0.5723475 0.1894523 0.1553226
0.8053890 0.2650853 0.2124171
0.0000000 0.2102543 0.1159174
0.0391931 0.1992681 0.1064630
0.0888415 0.1934826 0.1059022
0.1465194 0.2015214 0.1224090
0.1801882 0.1835574 0.1114551
0.2998737 0.2279326 0.1496923
0.3750674 0.2122258 0.1255790
0.5777999 0.2694246 0.1602461
0.8212628 0.3840686 0.2517217
0.0000000 0.2901362 0.1367131
0.0523024 0.3005380 0.1352985
0.1201332 0.3185946 0.1418829
0.1937873 0.3381840 0.1535364
0.2598193 0.3373271 0.1520272
0.3560239 0.3490393 0.1668870
0.5027435 0.3962459 0.2071272
0.6431136 0.4337664 0.2346227
0.8219347 0.5252356 0.3006182
0.0000000 0.3722423 0.1605703
0.0624617 0.4031453 0.1601651
0.1442173 0.4375197 0.1628049
0.2331783 0.4711032 0.1688222
0.3317462 0.4974702 0.1787958
0.4435268 0.5231783 0.2013514
0.5634372 0.5565789 0.2460974
0.6866803 0.6008667 0.3054193
0.8472484 0.6854566 0.3806369
0.0000000 0.4509304 0.1785859
0.0684873 0.4992302 0.1750972
0.1666875 0.5490612 0.1750427
0.2743903 0.5992040 0.1829728
0.3935499 0.6474728 0.2045342
0.5179406 0.6917784 0.2444954
0.6367008 0.7315849 0.3071541
0.7524468 0.7735664 0.3949753
0.8697450 0.8166457 0.4920353
0.0000000 0.5257881 0.1908933
0.0731130 0.5917057 0.1849138
0.1896252 0.6576894 0.1843379
0.3170436 0.7248819 0.1978602
0.4520973 0.7923889 0.2324215
0.5847322 0.8540048 0.2919514
0.7075524 0.9043646 0.3812424
0.8204464 0.9406906 0.5012342
0.9294992 0.9672834 0.6421104
0.0651584 0.0641288 0.4052793
0.0766632 0.0475858 0.3264249
0.0973029 0.0309689 0.2516388
0.1430649 0.0181829 0.1924941
0.2179152 0.0096546 0.1539049
0.3126518 0.0026031 0.1342765
0.4167673 0.0000000 0.1310470
0.5248872 0.0010082 0.1397301
0.6340110 0.0069999 0.1534057
0.0610145 0.0748729 0.3114784
0.0777062 0.0704680 0.2626818
0.0922831 0.0607464 0.2094140
0.1104625 0.0408728 0.1538018
0.1607900 0.0242208 0.1229268
0.2579298 0.0236725 0.1243678
0.3891124 0.0400921 0.1459011
0.5302148 0.0627448 0.1714881
0.6702750 0.0851272 0.1953554
0.0538984 0.0931716 0.2235018
0.0729427 0.0930950 0.2006980
0.0902044 0.0901475 0.1730674
0.0950650 0.0693149 0.1320247
0.1184378 0.0406711 0.0985727
0.2193084 0.0492311 0.1181841
0.3732376 0.0856105 0.1617604
0.5392939 0.1261112 0.1998033
0.7118685 0.1707934 0.2353786
0.0516248 0.1489421 0.1868247
0.0678886 0.1351967 0.1676341
0.0869487 0.1216633 0.1542220
0.1051284 0.1054494 0.1378590
0.1337039 0.0923126 0.1199255
0.2339357 0.1117628 0.1460079
0.3764368 0.1432271 0.1806538
0.5520207 0.1930343 0.2171081
0.7624470 0.2690530 0.2678657
0.0645418 0.2583530 0.2271431
0.0795360 0.2230698 0.1876558
0.1051891 0.2038051 0.1751145
0.1292478 0.1794397 0.1551494
0.1968501 0.2017738 0.1836280
0.2817669 0.2114070 0.1975004
0.4112404 0.2331879 0.2139032
0.5892075 0.2762883 0.2184800
0.8112983 0.3799887 0.2856295
0.0749099 0.3663283 0.2683646
0.1018295 0.3398228 0.2342072
0.1363879 0.3269330 0.2135800
0.1846327 0.3308510 0.2106905
0.2450194 0.3383970 0.2158015
0.3107581 0.3121409 0.2022906
0.5218430 0.4176793 0.2897436
0.6597481 0.4165491 0.2533516
0.8388119 0.5170593 0.3250884
0.0716596 0.4570887 0.2972413
0.1188527 0.4542093 0.2716937
0.1744203 0.4655361 0.2574147
0.2482900 0.4994062 0.2654774
0.3381151 0.5268289 0.2778506
0.4733452 0.5673639 0.3088172
0.6377505 0.6290603 0.3734573
0.7274155 0.6351153 0.4046601
0.8602766 0.7021315 0.4792245
0.0588724 0.5341957 0.3113054
0.1335241 0.5655358 0.3008538
0.2145124 0.6031514 0.2971580
0.3102552 0.6497244 0.3072084
0.4280940 0.6995262 0.3349876
0.5659340 0.7475927 0.3851920
0.6972511 0.7877139 0.4548969
0.7909315 0.8086320 0.5259413
0.8848884 0.8331128 0.6049430
0.0439256 0.6079995 0.3208393
0.1472651 0.6751555 0.3265378
0.2572239 0.7400869 0.3346802
0.3793014 0.8008428 0.3516291
0.5097283 0.8571567 0.3869985
0.6331047 0.9032761 0.4452365
0.7412843 0.9354998 0.5274576
0.8413275 0.9555085 0.6336664
0.9311829 0.9593624 0.7474791
0.1584038 0.1236110 0.5692122
0.1457540 0.0903696 0.4710893
0.1387693 0.0568400 0.3755850
0.1482062 0.0266257 0.2928489
0.1803545 0.0006671 0.2289553
0.2337676 0.0000000 0.1863367
0.3057100 0.0000000 0.1661669
0.3913430 0.0000000 0.1632565
0.4827365 0.0000000 0.1675735
0.1403212 0.1240736 0.4592399
0.1370768 0.1092139 0.4041569
0.1341915 0.0894330 0.3413668
0.1369428 0.0591342 0.2684455
0.1636278 0.0302333 0.2115981
0.2272385 0.0167224 0.1888525
0.3230621 0.0185752 0.1928423
0.4358614 0.0278156 0.2076874
0.5530742 0.0385452 0.2238157
0.1206981 0.1280441 0.3519794
0.1236945 0.1260695 0.3294821
0.1280202 0.1200819 0.3019085
0.1297926 0.0936685 0.2509889
0.1547285 0.0651904 0.2049283
0.2314220 0.0618675 0.2010554
0.3489396 0.0809039 0.2236928
0.4849839 0.1100950 0.2496082
0.6274324 0.1437316 0.2745056
0.0924565 0.1386418 0.2354147
0.1078764 0.1552842 0.2615965
0.1298171 0.1606124 0.2751023
0.1475595 0.1484197 0.2657232
0.1760782 0.1270285 0.2363374
0.2598092 0.1299517 0.2417568
0.3886766 0.1538891 0.2628184
0.5406305 0.1966462 0.2838694
0.7047161 0.2515648 0.3074394
0.1048595 0.2740010 0.2948993
0.1181624 0.2415362 0.2696301
0.1399717 0.2265603 0.2711840
0.1613917 0.1955513 0.2436141
0.2180710 0.2195077 0.2938084
0.3046275 0.2232702 0.2950672
0.4315446 0.2455907 0.3021973
0.6037116 0.3035311 0.3181065
0.7790951 0.3648103 0.3222477
0.1478880 0.4425802 0.4098881
0.1464885 0.3669453 0.3275815
0.1527624 0.3230307 0.2851257
0.1745245 0.3076129 0.2737344
0.2340658 0.3353685 0.3088451
0.3361044 0.3470765 0.3249677
0.5002827 0.3952878 0.3602544
0.6729694 0.4525675 0.3785267
0.8450081 0.5115875 0.3691881
0.1579117 0.5361493 0.4333854
0.1757456 0.4957723 0.3823009
0.1981706 0.4722452 0.3472900
0.2438962 0.4909502 0.3501119
0.3329147 0.5491720 0.3947535
0.4766003 0.6011157 0.4453359
0.6527920 0.6480026 0.5030325
0.7469185 0.6446864 0.4971490
0.8787252 0.6981215 0.5327026
0.1575729 0.6181799 0.4510701
0.2074353 0.6281613 0.4335015
0.2638460 0.6462347 0.4231422
0.3378423 0.6803361 0.4299807
0.4413905 0.7254403 0.4588730
0.5832229 0.7755590 0.5172153
0.7329783 0.8198992 0.5949041
0.8121661 0.8228094 0.6384255
0.8935836 0.8425117 0.7071165
0.1544980 0.7039503 0.4775900
0.2413586 0.7650421 0.4869334
0.3357470 0.8229683 0.4964216
0.4417857 0.8698522 0.5076078
0.5532209 0.9002230 0.5275152
0.6562516 0.9184893 0.5671818
0.7507840 0.9369763 0.6381335
0.8470647 0.9563808 0.7378960
0.9279973 0.9551812 0.8313336
0.2482056 0.1861704 0.7355440
0.2187351 0.1385483 0.6266028
0.1925524 0.0899168 0.5181307
0.1764050 0.0426764 0.4169904
0.1735679 0.0000000 0.3262707
0.1875853 0.0000000 0.2537953
0.2197755 0.0000000 0.2056792
0.2668494 0.0000000 0.1770368
0.3202125 0.0000000 0.1565924
0.2141956 0.1822222 0.6157842
0.2041289 0.1604325 0.5647638
0.1920503 0.1310653 0.4979131
0.1819200 0.0888168 0.4073895
0.1891799 0.0481456 0.3272318
0.2224711 0.0196750 0.2779906
0.2795201 0.0028714 0.2547120
0.3520738 0.0000000 0.2442096
0.4303026 0.0000000 0.2367943
0.1828583 0.1846136 0.5084377
0.1827586 0.1768847 0.4872585
0.1885192 0.1694883 0.4656565
0.1897704 0.1374032 0.3958085
0.2097636 0.1054054 0.3378756
0.2610842 0.0892685 0.3124314
0.3415614 0.0898285 0.3080650
0.4394088 0.1004926 0.3095432
0.5426588 0.1151658 0.3110141
0.1492189 0.1966741 0.4235741
0.1569916 0.1957592 0.3981878
0.1788305 0.2012401 0.3971995
0.2045760 0.1947122 0.3879719
0.2417653 0.1800048 0.3759215
0.3077163 0.1737078 0.3690945
0.4080773 0.1851915 0.3689300
0.5286572 0.2126082 0.3714315
0.6529585 0.2446217 0.3715168
0.0837699 0.1857645 0.2726708
0.1604128 0.2682782 0.3802095
0.1761117 0.2476476 0.3535605
0.1987708 0.2392673 0.3697103
0.2788599 0.2826389 0.4507107
0.3650245 0.2858648 0.4461046
0.4791470 0.3004422 0.4358709
0.6158786 0.3393682 0.4347846
0.7533272 0.3801634 0.4246786
0.1670201 0.4249361 0.4585672
0.1886257 0.3809072 0.4128677
0.1882939 0.3326431 0.3824627
0.1671907 0.2762006 0.3575349
0.2855180 0.3970564 0.4914161
0.4448887 0.4550322 0.5473272
0.5665472 0.4611714 0.5245121
0.6922327 0.4857845 0.5077004
0.8358618 0.5332965 0.4960621
0.2304370 0.5747657 0.5329472
0.2346408 0.5253616 0.4857646
0.2383469 0.4892437 0.4640840
0.2472514 0.4673348 0.4463006
0.3298760 0.5320260 0.4960240
0.5343059 0.6793667 0.6436434
0.6910343 0.6909029 0.6617407
0.7536718 0.6491174 0.6017303
0.8949475 0.7058044 0.6172739
0.2703802 0.7006320 0.5984898
0.2944294 0.6917814 0.5771480
0.3260344 0.6913671 0.5607855
0.3793330 0.7098074 0.5619782
0.4629534 0.7414324 0.5850980
0.5779749 0.7757041 0.6299992
0.7097889 0.8025157 0.6826544
0.8150730 0.8186751 0.7207734
0.9133709 0.8496290 0.7705904
0.3022074 0.8318652 0.6817050
0.3631601 0.8706602 0.6768342
0.4321970 0.9082560 0.6716689
0.5119009 0.9335005 0.6660871
0.5923058 0.9327286 0.6601588
0.6729579 0.9219856 0.6709616
0.7640205 0.9345412 0.7279374
0.8508967 0.9507912 0.8108762
0.9159536 0.9423748 0.8804426
0.3346497 0.2482739 0.8972484
0.2961299 0.1915587 0.7896798
0.2574456 0.1317496 0.6773312
0.2201383 0.0677385 0.5595692
0.1869222 0.0003513 0.4409510
0.1628036 0.0000000 0.3340031
0.1508532 0.0000000 0.2484401
0.1484905 0.0000000 0.1816540
0.1498726 0.0000000 0.1221573
0.2856186 0.2468145 0.7813434
0.2705775 0.2131905 0.7184330
0.2531720 0.1725390 0.6418682
0.2346167 0.1215508 0.5459641
0.2246435 0.0706699 0.4534411
0.2286820 0.0268081 0.3802733
0.2467454 0.0000000 0.3259578
0.2742057 0.0000000 0.2818916
0.3051161 0.0000000 0.2406238
0.2405141 0.2517397 0.6799639
0.2404616 0.2300933 0.6369354
0.2431821 0.2067135 0.5892713
0.2465438 0.1732820 0.5239006
0.2621173 0.1431430 0.4689792
0.2936394 0.1213408 0.4328467
0.3409878 0.1077965 0.4068137
0.3982063 0.0991197 0.3813225
0.4590754 0.0921756 0.3547786
0.2045599 0.2778812 0.6271529
0.2051867 0.2427777 0.5489632
0.2206543 0.2258163 0.5035024
0.2511493 0.2220877 0.4912786
0.2962797 0.2229580 0.4973149
0.3567106 0.2255467 0.4998421
0.4334517 0.2325816 0.4929902
0.5191284 0.2425885 0.4791417
0.6052339 0.2519135 0.4601287
0.1522338 0.3005625 0.5878540
0.1919778 0.2859920 0.4926179
0.2152805 0.2658307 0.4439134
0.2394907 0.2636233 0.4613953
0.3217186 0.3185321 0.5507101
0.4262928 0.3579887 0.5876829
0.5309776 0.3775123 0.5887705
0.6331242 0.3935795 0.5752593
0.7318908 0.4090785 0.5546228
0.1216764 0.3164853 0.4425912
0.2232347 0.3902008 0.5082976
0.2468049 0.3682579 0.4931926
0.2366605 0.3405180 0.5502567
0.3262809 0.4094347 0.5831815
0.5099403 0.5286464 0.6882485
0.6376902 0.5507158 0.6947985
0.7275659 0.5462395 0.6635214
0.8339117 0.5678058 0.6466800
0.2920224 0.5684669 0.6000558
0.2913740 0.5509698 0.5952446
0.3026978 0.5365246 0.5984924
0.3208233 0.5332456 0.6128740
0.4006455 0.5728819 0.6385312
0.5646694 0.6709024 0.7394854
0.6917713 0.6924367 0.7504530
0.7931109 0.6930682 0.7376755
0.9118413 0.7316980 0.7487909
0.3891588 0.7849927 0.7651149
0.3969345 0.7667287 0.7420858
0.4123309 0.7565639 0.7221213
0.4499649 0.7608645 0.7119629
0.5171946 0.7746849 0.7192278
0.5995653 0.7786761 0.7282066
0.7203262 0.7990090 0.7594129
0.8648098 0.8598086 0.8292376
0.9350923 0.8555163 0.8372594
0.4891322 0.9927394 0.9273556
0.5139122 0.9928199 0.8941214
0.5484596 0.9938481 0.8621616
0.5937768 0.9878596 0.8317683
0.6417541 0.9632585 0.7995749
0.7048560 0.9387710 0.7841050
0.7928877 0.9442806 0.8143123
0.8759946 0.9553666 0.8685741
0.9409731 0.9516250 0.9189420
0.4181522 0.3096030 1.0000000
0.3763022 0.2477970 0.9561793
0.3288464 0.1794345 0.8444628
0.2713277 0.0987468 0.7110952
0.2079561 0.0080542 0.5634102
0.1457469 0.0000000 0.4191871
0.0878051 0.0000000 0.2921292
0.0333126 0.0000000 0.1814471
0.0000000 0.0000000 0.0782506
0.3569458 0.3152308 0.9552003
0.3347126 0.2632771 0.8646540
0.3113863 0.2090158 0.7723611
0.2871521 0.1520926 0.6775973
0.2621691 0.0935775 0.5808568
0.2379539 0.0355099 0.4872888
0.2165904 0.0000000 0.4004717
0.1976359 0.0000000 0.3194949
0.1797432 0.0000000 0.2413965
0.3004204 0.3272828 0.8697075
0.2919049 0.2757924 0.7753710
0.2879690 0.2300389 0.6920929
0.2951830 0.1989477 0.6360142
0.3099999 0.1775320 0.5966767
0.3263729 0.1561076 0.5575561
0.3425409 0.1305612 0.5118399
0.3589232 0.1022275 0.4589609
0.3759686 0.0725083 0.4033610
0.2483470 0.3467640 0.8023441
0.2496263 0.2866582 0.6914045
0.2618582 0.2465833 0.6120988
0.2926772 0.2395872 0.5902166
0.3432720 0.2582694 0.6088536
0.4046094 0.2803690 0.6297770
0.4621019 0.2871693 0.6256105
0.5120079 0.2793131 0.5970324
0.5586428 0.2657412 0.5582806
0.2013360 0.3621305 0.7246976
0.2184978 0.3065635 0.6198558
0.2524738 0.2891806 0.5669057
0.2970268 0.3030566 0.5736972
0.3637061 0.3415806 0.6211666
0.4653014 0.4028663 0.6905110
0.5686651 0.4456421 0.7296764
0.6497782 0.4546301 0.7239008
0.7176945 0.4482708 0.6972827
0.1598654 0.3803132 0.6472109
0.2375905 0.3854530 0.6114291
0.2782674 0.3976442 0.6049612
0.3304203 0.4263536 0.6192515
0.3989680 0.4576939 0.6587410
0.5103666 0.5149308 0.7220444
0.6501287 0.5870267 0.7967297
0.7609986 0.6158136 0.8201334
0.8459966 0.6181678 0.8109705
0.2715754 0.5783549 0.7354831
0.3510754 0.5952178 0.7423115
0.3749116 0.6071071 0.7477942
0.4158616 0.6195734 0.7544741
0.4795710 0.6275578 0.7507564
0.5754283 0.6493652 0.7638826
0.7181200 0.7115318 0.8258864
0.8423021 0.7571235 0.8755280
0.9425534 0.7770317 0.8951973
0.5296595 0.8856098 0.9700209
0.5154626 0.8606910 0.9339238
0.5300662 0.8471718 0.9131962
0.5642065 0.8324858 0.8907493
0.6051380 0.8250565 0.8676614
0.6797653 0.8160339 0.8414862
0.7769026 0.8269179 0.8500462
0.9130248 0.8926294 0.9124234
1.0000000 0.9134385 0.9554346
0.6949278 1.0000000 1.0000000
0.6799779 1.0000000 1.0000000
0.6740816 1.0000000 1.0000000
0.6812713 1.0000000 1.0000000
0.7016286 0.9945734 0.9472693
0.7452843 0.9603577 0.9041342
0.8321364 0.9605274 0.8989361
0.9435930 0.9935028 0.9420637
1.0000000 1.0000000 1.0000000
