catalog/styles/experimental/experimental-church/look.cube
# experimental-church iteration 6
LUT_3D_SIZE 33
DOMAIN_MIN 0 0 0
DOMAIN_MAX 1 1 1
0.0000000 0.0000000 0.0000000
0.0000000 0.0000000 0.0000000
0.0000000 0.0000000 0.0000000
0.0000000 0.0000000 0.0000000
0.0000000 0.0000000 0.0000000
0.0000000 0.0000000 0.0000000
0.0000000 0.0000000 0.0000000
0.0540317 0.0000000 0.0000000
0.1110916 0.0000000 0.0000000
0.1671070 0.0000000 0.0061692
0.2220258 0.0057448 0.0173240
0.2757624 0.0130624 0.0274575
0.3283994 0.0197918 0.0364873
0.3800485 0.0260414 0.0443770
0.4308754 0.0319406 0.0510983
0.4809246 0.0376140 0.0566298
0.5302193 0.0431730 0.0609703
0.5786767 0.0487170 0.0641529
0.6262162 0.0543148 0.0662592
0.6727730 0.0600031 0.0673772
0.7183277 0.0658036 0.0676082
0.7627679 0.0717267 0.0670716
0.8060195 0.0777719 0.0659041
0.8480765 0.0839210 0.0642431
0.8889803 0.0901372 0.0622257
0.9289764 0.0963774 0.0599750
0.9682980 0.1025889 0.0575742
1.0000000 0.1087146 0.0550661
1.0000000 0.1147136 0.0524752
1.0000000 0.1205772 0.0498296
1.0000000 0.1263199 0.0471451
1.0000000 0.1319774 0.0444290
1.0000000 0.1375934 0.0416993
0.0000000 0.0000000 0.0000000
0.0000000 0.0000000 0.0000000
0.0000000 0.0000000 0.0000000
0.0000000 0.0000000 0.0000000
0.0000000 0.0000000 0.0000000
0.0000000 0.0000000 0.0000000
0.0000000 0.0000000 0.0000000
0.0453014 0.0000000 0.0000000
0.1010477 0.0000000 0.0000000
0.1562169 0.0065226 0.0036917
0.2107396 0.0149474 0.0145887
0.2645044 0.0229665 0.0245485
0.3175002 0.0305886 0.0334746
0.3697393 0.0378361 0.0412888
0.4212520 0.0447483 0.0479455
0.4719416 0.0513713 0.0534190
0.5217328 0.0577578 0.0577045
0.5705156 0.0639506 0.0608399
0.6182172 0.0699978 0.0628833
0.6647736 0.0759432 0.0639276
0.7101749 0.0818129 0.0640798
0.7543679 0.0876256 0.0634720
0.7973286 0.0933899 0.0622306
0.8390860 0.0991042 0.0604833
0.8797067 0.1047508 0.0583435
0.9193904 0.1103047 0.0558982
0.9583557 0.1157392 0.0532212
0.9967451 0.1210326 0.0503712
1.0000000 0.1261737 0.0473869
1.0000000 0.1311684 0.0442995
1.0000000 0.1360445 0.0411476
1.0000000 0.1408446 0.0379596
1.0000000 0.1456161 0.0347539
0.0000000 0.0000000 0.0000000
0.0000000 0.0000000 0.0000000
0.0000000 0.0000000 0.0000000
0.0000000 0.0000000 0.0000000
0.0000000 0.0000000 0.0000000
0.0000000 0.0000000 0.0000000
0.0000000 0.0000000 0.0000000
0.0365797 0.0000000 0.0000000
0.0910033 0.0062573 0.0000000
0.1453103 0.0152688 0.0011322
0.1994374 0.0241593 0.0117702
0.2532371 0.0328898 0.0215579
0.3066060 0.0414123 0.0303813
0.3594464 0.0496677 0.0381323
0.4116488 0.0576005 0.0447359
0.4629917 0.0651784 0.0501522
0.5132950 0.0723862 0.0543778
0.5624211 0.0792243 0.0574462
0.6102945 0.0857192 0.0594206
0.6568685 0.0919108 0.0603949
0.7021378 0.0978411 0.0604868
0.7461100 0.1035417 0.0598215
0.7887962 0.1090303 0.0585250
0.8302684 0.1143143 0.0567029
0.8706067 0.1193952 0.0544468
0.9099873 0.1242676 0.0518180
0.9485985 0.1289314 0.0488729
0.9866476 0.1333961 0.0456810
1.0000000 0.1376794 0.0422987
1.0000000 0.1418054 0.0387720
1.0000000 0.1458197 0.0351517
1.0000000 0.1497702 0.0314807
1.0000000 0.1536981 0.0277941
0.0000000 0.0000000 0.0000000
0.0000000 0.0000000 0.0000000
0.0000000 0.0000000 0.0000000
0.0000000 0.0000000 0.0000000
0.0000000 0.0000000 0.0000000
0.0000000 0.0000000 0.0000000
0.0000000 0.0000000 0.0000000
0.0279146 0.0058574 0.0000000
0.0810003 0.0148857 0.0000000
0.1344323 0.0240946 0.0000000
0.1881575 0.0334551 0.0087678
0.2419937 0.0429055 0.0184017
0.2957471 0.0523412 0.0271334
0.3491931 0.0616134 0.0348297
0.4020889 0.0705746 0.0413844
0.4541012 0.0790987 0.0467357
0.5049516 0.0871106 0.0508788
0.5544637 0.0945778 0.0538581
0.6025563 0.1015114 0.0557521
0.6491864 0.1079493 0.0566695
0.6943782 0.1139418 0.0567322
0.7381806 0.1195360 0.0560542
0.7806407 0.1247550 0.0547382
0.8218603 0.1296167 0.0528713
0.8619360 0.1341348 0.0505136
0.9010252 0.1383348 0.0477115
0.9392860 0.1422415 0.0445110
0.9769028 0.1458862 0.0409848
1.0000000 0.1493146 0.0372030
1.0000000 0.1525808 0.0332295
1.0000000 0.1557423 0.0291273
1.0000000 0.1588514 0.0249629
1.0000000 0.1619453 0.0207758
0.0000000 0.0000000 0.0000000
0.0000000 0.0000000 0.0000000
0.0000000 0.0000000 0.0000000
0.0000000 0.0000000 0.0000000
0.0000000 0.0000000 0.0000000
0.0000000 0.0000000 0.0000000
0.0000000 0.0062012 0.0000000
0.0194180 0.0147896 0.0000000
0.0711738 0.0237768 0.0000000
0.1237278 0.0332000 0.0000000
0.1770315 0.0430377 0.0055276
0.2308749 0.0532006 0.0150260
0.2849760 0.0635200 0.0236811
0.3389928 0.0737747 0.0313230
0.3925594 0.0837235 0.0378019
0.4452338 0.0931626 0.0430581
0.4966672 0.1019526 0.0470897
0.5466320 0.1100333 0.0499557
0.5950294 0.1174011 0.0517715
0.6418139 0.1240961 0.0526636
0.6870229 0.1301698 0.0527407
0.7307426 0.1356700 0.0521054
0.7730532 0.1406334 0.0508260
0.8140734 0.1450848 0.0489523
0.8539190 0.1490611 0.0465141
0.8927293 0.1526042 0.0435484
0.9306458 0.1557634 0.0401037
0.9678049 0.1586026 0.0362471
1.0000000 0.1611945 0.0320572
1.0000000 0.1636182 0.0276273
1.0000000 0.1659444 0.0230362
1.0000000 0.1682314 0.0183584
1.0000000 0.1705070 0.0136534
0.0000000 0.0000000 0.0000000
0.0000000 0.0000000 0.0000000
0.0000000 0.0000000 0.0000000
0.0000000 0.0000000 0.0000000
0.0000000 0.0004838 0.0000000
0.0000000 0.0078316 0.0000000
0.0000000 0.0157518 0.0000000
0.0112804 0.0241671 0.0000000
0.0617434 0.0331892 0.0000000
0.1134276 0.0428724 0.0000000
0.1662671 0.0531944 0.0020553
0.2200310 0.0640266 0.0114204
0.2743533 0.0751436 0.0200051
0.3288104 0.0862575 0.0275650
0.3829357 0.0970739 0.0339352
0.4362159 0.1073354 0.0390396
0.4882476 0.1168597 0.0429125
0.5387521 0.1255514 0.0456533
0.5875889 0.1333795 0.0474020
0.6346864 0.1403672 0.0483022
0.6800693 0.1465602 0.0484583
0.7238382 0.1520027 0.0479319
0.7660992 0.1567355 0.0467539
0.8069964 0.1608024 0.0449178
0.8466524 0.1642548 0.0424264
0.8851998 0.1671592 0.0393107
0.9227598 0.1695948 0.0356193
0.9594377 0.1716498 0.0314188
0.9953373 0.1734315 0.0268116
1.0000000 0.1750382 0.0219064
1.0000000 0.1765535 0.0168109
1.0000000 0.1780285 0.0116068
1.0000000 0.1794925 0.0063649
0.0000000 0.0000000 0.0000000
0.0000000 0.0000000 0.0000000
0.0000000 0.0000000 0.0000000
0.0000000 0.0039807 0.0000000
0.0000000 0.0108640 0.0000000
0.0000000 0.0180799 0.0000000
0.0000000 0.0257976 0.0000000
0.0037077 0.0341896 0.0000000
0.0529488 0.0433770 0.0000000
0.1037726 0.0534043 0.0000000
0.1560831 0.0642122 0.0000000
0.2095979 0.0756263 0.0076031
0.2638969 0.0873694 0.0160719
0.3185223 0.0991333 0.0235094
0.3729610 0.1106133 0.0297138
0.4266968 0.1215427 0.0346185
0.4793040 0.1317196 0.0382946
0.5304446 0.1410141 0.0408948
0.5798974 0.1493553 0.0426073
0.6275299 0.1567209 0.0435706
0.6733063 0.1631173 0.0438651
0.7173054 0.1685677 0.0435124
0.7596510 0.1731189 0.0424785
0.8005099 0.1768313 0.0407209
0.8400241 0.1797871 0.0382077
0.8783160 0.1820805 0.0349524
0.9155037 0.1838186 0.0310037
0.9516746 0.1851229 0.0264479
0.9869335 0.1861240 0.0213990
1.0000000 0.1869424 0.0159959
1.0000000 0.1876642 0.0103602
1.0000000 0.1883430 0.0046071
1.0000000 0.1890060 0.0000000
0.0000000 0.0000000 0.0000000
0.0000000 0.0024003 0.0000000
0.0000000 0.0086641 0.0000000
0.0000000 0.0150689 0.0000000
0.0000000 0.0217057 0.0000000
0.0000000 0.0287645 0.0000000
0.0000000 0.0364701 0.0000000
0.0000000 0.0450113 0.0000000
0.0449625 0.0545103 0.0000000
0.0949153 0.0649682 0.0000000
0.1465770 0.0762549 0.0000000
0.1996064 0.0881191 0.0035424
0.2535397 0.1002607 0.0118136
0.3079280 0.1123932 0.0190518
0.3623148 0.1242662 0.0250390
0.4162519 0.1356590 0.0297192
0.4693280 0.1463776 0.0331981
0.5211578 0.1562606 0.0356860
0.5714131 0.1651812 0.0373950
0.6198258 0.1730318 0.0384657
0.6662557 0.1797455 0.0389429
0.7107158 0.1853094 0.0387917
0.7533153 0.1897614 0.0379289
0.7942372 0.1931847 0.0362685
0.8336543 0.1956867 0.0337496
0.8717068 0.1974014 0.0303610
0.9085051 0.1984772 0.0261566
0.9441609 0.1990702 0.0212290
0.9787831 0.1993303 0.0157238
1.0000000 0.1993889 0.0097907
1.0000000 0.1993428 0.0035895
1.0000000 0.1992495 0.0000000
1.0000000 0.1991418 0.0000000
0.0000000 0.0076790 0.0000000
0.0000000 0.0138171 0.0000000
0.0000000 0.0199847 0.0000000
0.0000000 0.0262716 0.0000000
0.0000000 0.0328465 0.0000000
0.0000000 0.0399438 0.0000000
0.0000000 0.0478063 0.0000000
0.0000000 0.0566456 0.0000000
0.0378379 0.0665649 0.0000000
0.0868463 0.0775006 0.0000000
0.1376828 0.0892204 0.0000000
0.1899309 0.1013981 0.0000000
0.2431173 0.1137203 0.0070786
0.2968387 0.1259576 0.0140381
0.3507522 0.1379579 0.0197809
0.4045380 0.1495882 0.0242632
0.4578632 0.1607004 0.0276044
0.5103167 0.1711240 0.0300333
0.5614633 0.1806573 0.0317805
0.6108670 0.1890906 0.0329757
0.6582157 0.1962575 0.0336319
0.7033877 0.2020691 0.0336657
0.7464389 0.2065399 0.0329587
0.7875469 0.2097665 0.0313879
0.8269259 0.2118916 0.0288722
0.8647536 0.2130919 0.0253699
0.9011796 0.2135613 0.0209177
0.9363470 0.2134943 0.0156268
0.9704110 0.2130616 0.0096519
1.0000000 0.2124119 0.0031795
1.0000000 0.2116466 0.0000000
1.0000000 0.2108333 0.0000000
1.0000000 0.2100080 0.0000000
0.0000000 0.0188272 0.0000000
0.0000000 0.0250208 0.0000000
0.0000000 0.0312498 0.0000000
0.0000000 0.0376204 0.0000000
0.0000000 0.0443263 0.0000000
0.0000000 0.0516204 0.0000000
0.0000000 0.0597683 0.0000000
0.0000000 0.0689802 0.0000000
0.0314872 0.0793323 0.0000000
0.0793893 0.0906982 0.0000000
0.1291669 0.1027664 0.0000000
0.1803458 0.1151452 0.0000000
0.2324572 0.1275119 0.0016949
0.2851540 0.1396964 0.0083185
0.3382102 0.1516436 0.0138308
0.3914559 0.1633255 0.0181897
0.4446845 0.1746685 0.0214834
0.4975310 0.1855148 0.0239241
0.5494895 0.1956160 0.0257320
0.5999626 0.2046685 0.0270272
0.6484147 0.2123860 0.0278015
0.6945242 0.2185833 0.0279548
0.7382148 0.2232210 0.0273498
0.7796416 0.2263888 0.0258467
0.8190543 0.2282586 0.0233378
0.8567027 0.2290478 0.0197470
0.8928132 0.2289993 0.0150890
0.9275955 0.2283484 0.0094609
0.9612675 0.2273012 0.0030403
0.9940560 0.2260208 0.0000000
1.0000000 0.2246263 0.0000000
1.0000000 0.2231916 0.0000000
1.0000000 0.2217528 0.0000000
0.0000000 0.0295975 0.0000000
0.0000000 0.0360309 0.0000000
0.0000000 0.0425104 0.0000000
0.0000000 0.0491489 0.0000000
0.0000000 0.0561420 0.0000000
0.0000000 0.0637514 0.0000000
0.0000000 0.0722381 0.0000000
0.0000000 0.0818033 0.0000000
0.0257324 0.0924943 0.0000000
0.0722974 0.1041500 0.0000000
0.1207532 0.1164284 0.0000000
0.1706219 0.1289245 0.0000000
0.2214365 0.1413122 0.0000000
0.2728838 0.1534424 0.0017698
0.3248102 0.1653121 0.0071035
0.3771775 0.1769610 0.0114277
0.4299266 0.1883921 0.0147780
0.4828026 0.1994977 0.0172950
0.5352995 0.2100298 0.0191586
0.5867049 0.2196227 0.0204829
0.6362682 0.2278955 0.0212737
0.6834143 0.2345648 0.0214432
0.7278731 0.2395117 0.0208633
0.7697318 0.2427832 0.0193918
0.8092754 0.2445619 0.0168887
0.8468385 0.2450974 0.0132441
0.8827601 0.2446714 0.0084308
0.9173395 0.2435639 0.0025334
0.9508625 0.2420237 0.0000000
0.9835943 0.2402486 0.0000000
1.0000000 0.2383717 0.0000000
1.0000000 0.2364690 0.0000000
1.0000000 0.2345694 0.0000000
0.0000000 0.0400654 0.0000000
0.0000000 0.0469032 0.0000000
0.0000000 0.0537904 0.0000000
0.0000000 0.0608443 0.0000000
0.0000000 0.0682481 0.0000000
0.0000000 0.0762354 0.0000000
0.0000000 0.0850520 0.0000000
0.0000000 0.0948752 0.0000000
0.0204200 0.1057397 0.0000000
0.0653971 0.1174961 0.0000000
0.1122781 0.1298330 0.0000000
0.1606333 0.1423819 0.0000000
0.2100158 0.1548301 0.0000000
0.2601135 0.1670115 0.0000000
0.3107870 0.1789071 0.0000000
0.3620755 0.1905638 0.0039046
0.4140404 0.2020243 0.0073802
0.4665527 0.2132487 0.0100170
0.5191690 0.2240212 0.0119218
0.5711435 0.2339749 0.0132016
0.6215697 0.2426902 0.0138871
0.6696411 0.2498163 0.0139563
0.7148847 0.2551472 0.0133136
0.7572584 0.2586702 0.0118243
0.7970460 0.2605409 0.0093157
0.8346801 0.2610274 0.0056390
0.8706097 0.2604386 0.0007370
0.9052365 0.2590905 0.0000000
0.9389181 0.2572634 0.0000000
0.9719508 0.2551915 0.0000000
1.0000000 0.2530311 0.0000000
1.0000000 0.2508618 0.0000000
1.0000000 0.2487001 0.0000000
0.0000000 0.0503069 0.0000000
0.0000000 0.0576699 0.0000000
0.0000000 0.0650873 0.0000000
0.0000000 0.0726719 0.0000000
0.0000000 0.0805719 0.0000000
0.0000000 0.0889735 0.0000000
0.0000000 0.0980773 0.0000000
0.0000000 0.1080329 0.0000000
0.0154804 0.1188910 0.0000000
0.0586530 0.1305604 0.0000000
0.1037428 0.1428109 0.0000000
0.1504251 0.1553493 0.0000000
0.1982931 0.1678942 0.0000000
0.2470200 0.1802468 0.0000000
0.2964334 0.1923219 0.0000000
0.3465857 0.2041118 0.0000000
0.3975931 0.2156536 0.0000000
0.4494122 0.2269291 0.0019539
0.5016885 0.2377718 0.0038904
0.5537134 0.2478651 0.0050683
0.6045392 0.2568272 0.0055687
0.6532261 0.2642879 0.0054359
0.6991128 0.2699905 0.0046387
0.7420127 0.2738589 0.0030549
0.7821682 0.2760090 0.0005044
0.8200744 0.2766912 0.0000000
0.8562685 0.2762223 0.0000000
0.8912463 0.2749289 0.0000000
0.9254226 0.2731113 0.0000000
0.9591189 0.2710186 0.0000000
0.9925583 0.2688301 0.0000000
1.0000000 0.2666318 0.0000000
1.0000000 0.2644441 0.0000000
0.0000000 0.0603568 0.0000000
0.0000000 0.0683477 0.0000000
0.0000000 0.0763896 0.0000000
0.0000000 0.0845756 0.0000000
0.0000000 0.0930170 0.0000000
0.0000000 0.1018446 0.0000000
0.0000000 0.1112011 0.0000000
0.0000000 0.1212078 0.0000000
0.0109460 0.1319379 0.0000000
0.0521912 0.1433774 0.0000000
0.0953426 0.1554228 0.0000000
0.1402210 0.1678840 0.0000000
0.1865095 0.1805233 0.0000000
0.2338639 0.1931105 0.0000000
0.2820602 0.2054763 0.0000000
0.3310892 0.2175318 0.0000000
0.3810509 0.2292465 0.0000000
0.4319352 0.2405769 0.0000000
0.4834576 0.2513882 0.0000000
0.5350026 0.2614474 0.0000000
0.5856814 0.2704493 0.0000000
0.6345360 0.2780735 0.0000000
0.6808033 0.2840669 0.0000000
0.7241600 0.2883235 0.0000000
0.7647860 0.2909131 0.0000000
0.8031858 0.2920526 0.0000000
0.8399435 0.2920317 0.0000000
0.8755963 0.2911583 0.0000000
0.9106003 0.2897195 0.0000000
0.9452773 0.2879532 0.0000000
0.9798345 0.2860381 0.0000000
1.0000000 0.2840845 0.0000000
1.0000000 0.2821316 0.0000000
0.0000000 0.0702690 0.0000000
0.0000000 0.0789510 0.0000000
0.0000000 0.0876681 0.0000000
0.0000000 0.0964845 0.0000000
0.0000000 0.1054835 0.0000000
0.0000000 0.1147448 0.0000000
0.0000000 0.1243573 0.0000000
0.0000000 0.1344097 0.0000000
0.0069191 0.1449864 0.0000000
0.0462463 0.1561504 0.0000000
0.0874038 0.1679214 0.0000000
0.1303862 0.1802269 0.0000000
0.1749970 0.1928945 0.0000000
0.2209281 0.2056860 0.0000000
0.2679022 0.2183615 0.0000000
0.3158134 0.2307300 0.0000000
0.3646710 0.2426694 0.0000000
0.4144420 0.2540822 0.0000000
0.4648944 0.2648458 0.0000000
0.5155263 0.2747901 0.0000000
0.5655622 0.2837053 0.0000000
0.6141281 0.2913583 0.0000000
0.6604466 0.2975537 0.0000000
0.7041365 0.3022066 0.0000000
0.7453098 0.3053774 0.0000000
0.7844134 0.3072310 0.0000000
0.8220170 0.3079997 0.0000000
0.8586558 0.3079352 0.0000000
0.8947817 0.3072703 0.0000000
0.9306960 0.3062030 0.0000000
0.9665825 0.3048956 0.0000000
1.0000000 0.3034780 0.0000000
1.0000000 0.3020317 0.0000000
0.0000000 0.0801267 0.0000000
0.0000000 0.0895032 0.0000000
0.0000000 0.0988972 0.0000000
0.0000000 0.1083467 0.0000000
0.0000000 0.1179000 0.0000000
0.0000000 0.1276072 0.0000000
0.0000000 0.1375057 0.0000000
0.0000000 0.1476615 0.0000000
0.0034984 0.1581581 0.0000000
0.0410290 0.1691074 0.0000000
0.0802497 0.1806108 0.0000000
0.1212892 0.1926931 0.0000000
0.1640969 0.2052620 0.0000000
0.2084548 0.2181170 0.0000000
0.2540928 0.2309941 0.0000000
0.3008071 0.2436191 0.0000000
0.3484792 0.2557706 0.0000000
0.3970145 0.2672921 0.0000000
0.4461987 0.2780498 0.0000000
0.4956222 0.2879043 0.0000000
0.5446557 0.2967148 0.0000000
0.5925554 0.3043531 0.0000000
0.6386383 0.3107223 0.0000000
0.6825264 0.3158092 0.0000000
0.7242788 0.3196824 0.0000000
0.7642459 0.3224743 0.0000000
0.8029205 0.3243341 0.0000000
0.8407905 0.3254247 0.0000000
0.8782552 0.3258993 0.0000000
0.9155920 0.3258881 0.0000000
0.9529496 0.3255228 0.0000000
0.9903747 0.3249491 0.0000000
1.0000000 0.3242994 0.0000000
0.0000000 0.0900163 0.0000000
0.0000000 0.1000485 0.0000000
0.0000000 0.1100840 0.0000000
0.0000000 0.1201398 0.0000000
0.0000000 0.1302358 0.0000000
0.0000000 0.1403929 0.0000000
0.0000000 0.1506272 0.0000000
0.0000000 0.1609723 0.0000000
0.0007118 0.1715099 0.0000000
0.0366390 0.1823637 0.0000000
0.0740514 0.1936645 0.0000000
0.1131681 0.2054948 0.0000000
0.1540643 0.2178379 0.0000000
0.1966491 0.2305619 0.0000000
0.2407133 0.2434286 0.0000000
0.2860253 0.2561489 0.0000000
0.3323705 0.2684395 0.0000000
0.3795631 0.2800802 0.0000000
0.4273716 0.2908989 0.0000000
0.4754423 0.3007565 0.0000000
0.5232790 0.3095592 0.0000000
0.5703045 0.3172644 0.0000000
0.6159694 0.3238846 0.0000000
0.6599500 0.3294905 0.0000000
0.7022646 0.3341903 0.0000000
0.7431655 0.3380875 0.0000000
0.7830350 0.3412655 0.0000000
0.8222769 0.3437820 0.0000000
0.8612227 0.3456898 0.0000000
0.9001043 0.3470426 0.0000000
0.9390332 0.3479401 0.0000000
0.9780445 0.3485324 0.0000000
1.0000000 0.3489985 0.0000000
0.0000000 0.1000068 0.0000000
0.0000000 0.1106335 0.0000000
0.0000000 0.1212561 0.0000000
0.0000000 0.1318725 0.0000000
0.0000000 0.1424861 0.0000000
0.0000000 0.1530980 0.0000000
0.0000000 0.1637055 0.0000000
0.0000000 0.1743274 0.0000000
0.0000000 0.1850237 0.0000000
0.0330223 0.1959027 0.0000000
0.0688030 0.2070876 0.0000000
0.1060814 0.2186817 0.0000000
0.1450207 0.2307193 0.0000000
0.1856457 0.2431383 0.0000000
0.2278573 0.2557715 0.0000000
0.2714746 0.2683757 0.0000000
0.3162676 0.2806740 0.0000000
0.3619854 0.2924050 0.0000000
0.4083572 0.3033475 0.0000000
0.4550556 0.3133439 0.0000000
0.5016806 0.3223210 0.0000000
0.5478009 0.3302962 0.0000000
0.5929999 0.3373533 0.0000000
0.6370178 0.3436303 0.0000000
0.6798361 0.3492733 0.0000000
0.7216377 0.3543899 0.0000000
0.7627026 0.3590169 0.0000000
0.8033445 0.3631337 0.0000000
0.8438265 0.3666893 0.0000000
0.8843141 0.3696634 0.0000000
0.9248896 0.3721156 0.0000000
0.9655652 0.3741995 0.0000000
1.0000000 0.3761211 0.0000000
0.0000000 0.1101448 0.0000000
0.0000000 0.1212976 0.0000000
0.0000000 0.1324414 0.0000000
0.0000000 0.1435638 0.0000000
0.0000000 0.1546599 0.0000000
0.0000000 0.1657157 0.0000000
0.0000000 0.1767185 0.0000000
0.0000000 0.1876711 0.0000000
0.0000000 0.1986110 0.0000000
0.0300565 0.2096126 0.0000000
0.0643704 0.2207666 0.0000000
0.0999375 0.2321657 0.0000000
0.1369465 0.2438769 0.0000000
0.1755160 0.2558966 0.0000000
0.2156709 0.2681479 0.0000000
0.2573283 0.2804661 0.0000000
0.3003178 0.2926304 0.0000000
0.3443940 0.3043863 0.0000000
0.3892769 0.3154940 0.0000000
0.4346481 0.3257785 0.0000000
0.4801624 0.3351608 0.0000000
0.5254798 0.3436698 0.0000000
0.5702734 0.3514197 0.0000000
0.6143235 0.3585733 0.0000000
0.6575786 0.3652956 0.0000000
0.7001724 0.3717046 0.0000000
0.7423262 0.3778343 0.0000000
0.7842871 0.3836277 0.0000000
0.8262559 0.3889728 0.0000000
0.8683558 0.3937750 0.0000000
0.9106096 0.3980503 0.0000000
0.9529948 0.4019434 0.0000000
0.9954547 0.4056697 0.0000000
0.0000000 0.1204551 0.0000000
0.0000000 0.1320659 0.0000000
0.0000000 0.1436643 0.0000000
0.0000000 0.1552363 0.0000000
0.0000000 0.1667631 0.0000000
0.0000000 0.1782317 0.0000000
0.0000000 0.1896234 0.0000000
0.0000000 0.2009304 0.0000000
0.0000000 0.2121626 0.0000000
0.0275810 0.2233459 0.0000000
0.0605800 0.2345364 0.0000000
0.0945677 0.2458005 0.0000000
0.1297478 0.2572213 0.0000000
0.1662933 0.2688489 0.0000000
0.2043283 0.2806783 0.0000000
0.2438912 0.2926374 0.0000000
0.2849016 0.3045835 0.0000000
0.3271886 0.3163152 0.0000000
0.3705262 0.3276232 0.0000000
0.4146201 0.3383293 0.0000000
0.4591504 0.3483355 0.0000000
0.5038161 0.3576434 0.0000000
0.5483164 0.3663488 0.0000000
0.5924263 0.3746004 0.0000000
0.6360693 0.3825555 0.0000000
0.6793356 0.3903372 0.0000000
0.7224225 0.3979962 0.0000000
0.7655490 0.4054950 0.0000000
0.8088858 0.4127034 0.0000000
0.8525111 0.4194919 0.0000000
0.8963920 0.4258332 0.0000000
0.9404580 0.4318387 0.0000000
0.9846123 0.4376940 0.0000000
0.0000000 0.1309433 0.0000000
0.0000000 0.1429482 0.0000000
0.0000000 0.1549450 0.0000000
0.0000000 0.1669110 0.0000000
0.0000000 0.1788211 0.0000000
0.0000000 0.1906591 0.0000000
0.0000000 0.2024127 0.0000000
0.0000000 0.2140610 0.0000000
0.0000000 0.2255829 0.0000000
0.0254636 0.2369721 0.0000000
0.0572704 0.2482446 0.0000000
0.0898268 0.2594518 0.0000000
0.1233324 0.2706758 0.0000000
0.1579910 0.2820028 0.0000000
0.1940000 0.2934859 0.0000000
0.2314961 0.3051237 0.0000000
0.2704970 0.3168583 0.0000000
0.3109449 0.3285703 0.0000000
0.3527090 0.3401110 0.0000000
0.3955539 0.3513400 0.0000000
0.4391848 0.3621389 0.0000000
0.4833034 0.3724650 0.0000000
0.5275986 0.3823568 0.0000000
0.5718092 0.3919117 0.0000000
0.6158194 0.4012573 0.0000000
0.6596780 0.4105148 0.0000000
0.7035675 0.4197614 0.0000000
0.7477007 0.4289951 0.0000000
0.7922364 0.4381249 0.0000000
0.8372257 0.4470230 0.0000000
0.8825889 0.4556287 0.0000000
0.9281904 0.4639913 0.0000000
0.9738907 0.4722358 0.0000000
0.0000000 0.1416185 0.0000000
0.0000000 0.1539645 0.0000000
0.0000000 0.1663032 0.0000000
0.0000000 0.1786096 0.0000000
0.0000000 0.1908564 0.0000000
0.0000000 0.2030240 0.0000000
0.0000000 0.2150946 0.0000000
0.0000000 0.2270437 0.0000000
0.0000000 0.2388297 0.0000000
0.0236165 0.2504192 0.0000000
0.0543370 0.2618104 0.0000000
0.0856108 0.2730441 0.0000000
0.1176314 0.2841981 0.0000000
0.1506150 0.2953735 0.0000000
0.1848074 0.3066549 0.0000000
0.2204064 0.3180983 0.0000000
0.2575265 0.3297182 0.0000000
0.2962162 0.3414848 0.0000000
0.3364409 0.3533317 0.0000000
0.3780523 0.3651557 0.0000000
0.4207955 0.3768463 0.0000000
0.4643887 0.3883260 0.0000000
0.5085015 0.3995676 0.0000000
0.5528270 0.4105985 0.0000000
0.5972017 0.4214955 0.0000000
0.6416285 0.4323676 0.0000000
0.6862524 0.4433065 0.0000000
0.7312817 0.4543596 0.0000000
0.7768620 0.4654906 0.0000000
0.8230173 0.4765995 0.0000000
0.8696327 0.4875973 0.0000000
0.9165204 0.4984676 0.0000000
0.9635058 0.5092658 0.0000000
0.0000000 0.1524994 0.0000000
0.0000000 0.1651274 0.0000000
0.0000000 0.1777489 0.0000000
0.0000000 0.1903450 0.0000000
0.0000000 0.2028838 0.0000000
0.0000000 0.2153384 0.0000000
0.0000000 0.2276859 0.0000000
0.0000000 0.2398876 0.0000000
0.0000000 0.2519006 0.0000000
0.0219828 0.2636800 0.0000000
0.0517188 0.2752214 0.0000000
0.0818638 0.2865631 0.0000000
0.1126023 0.2977747 0.0000000
0.1441603 0.3089581 0.0000000
0.1768003 0.3202163 0.0000000
0.2107652 0.3316411 0.0000000
0.2462415 0.3433113 0.0000000
0.2833503 0.3552726 0.0000000
0.3221423 0.3675268 0.0000000
0.3625519 0.3800167 0.0000000
0.4043903 0.3926525 0.0000000
0.4474147 0.4053424 0.0000000
0.4912974 0.4180133 0.0000000
0.5357096 0.4306356 0.0000000
0.5804406 0.4432399 0.0000000
0.6254371 0.4558914 0.0000000
0.6707886 0.4686853 0.0000000
0.7166661 0.4816945 0.0000000
0.7631781 0.4949306 0.0000000
0.8103102 0.5083238 0.0000000
0.8579210 0.5217717 0.0000000
0.9057943 0.5351974 0.0000000
0.9537514 0.5485975 0.0000000
0.0000000 0.1635799 0.0000000
0.0000000 0.1764416 0.0000000
0.0000000 0.1893004 0.0000000
0.0000000 0.2021377 0.0000000
0.0000000 0.2149240 0.0000000
0.0000000 0.2276264 0.0000000
0.0000000 0.2402052 0.0000000
0.0000000 0.2526176 0.0000000
0.0000000 0.2648169 0.0000000
0.0205465 0.2767773 0.0000000
0.0493899 0.2884998 0.0000000
0.0785502 0.3000188 0.0000000
0.1082102 0.3114008 0.0000000
0.1385900 0.3227400 0.0000000
0.1699581 0.3341502 0.0000000
0.2025787 0.3457539 0.0000000
0.2366807 0.3576650 0.0000000
0.2724353 0.3699839 0.0000000
0.3099475 0.3827614 0.0000000
0.3492298 0.3959880 0.0000000
0.3901714 0.4096016 0.0000000
0.4325714 0.4235153 0.0000000
0.4761428 0.4376492 0.0000000
0.5205729 0.4519397 0.0000000
0.5656222 0.4663683 0.0000000
0.6111877 0.4809612 0.0000000
0.6572772 0.4957856 0.0000000
0.7039891 0.5109150 0.0000000
0.7513603 0.5263715 0.0000000
0.7993297 0.5421082 0.0000000
0.8477261 0.5580055 0.0000000
0.8963338 0.5739596 0.0000000
0.9449957 0.5899112 0.0000000
0.0000000 0.1748402 0.0000000
0.0000000 0.1879074 0.0000000
0.0000000 0.2009652 0.0000000
0.0000000 0.2140031 0.0000000
0.0000000 0.2269931 0.0000000
