styles/series/movie/series-movie-studio-cut/look.cube
# series-movie-studio-cut tuned
LUT_3D_SIZE 5
DOMAIN_MIN 0 0 0
DOMAIN_MAX 1 1 1
0.0660475 0.0756172 0.0725888
0.1851313 0.0325247 0.0000000
0.6201731 0.0188416 0.0000000
0.8006229 0.0000000 0.0000000
0.9287609 0.0000000 0.0000041
0.0005738 0.1779269 0.0000000
0.1672708 0.1776095 0.0397811
0.3762814 0.1750150 0.0652457
0.6020176 0.2094499 0.0625530
0.9013308 0.1687966 0.0116179
0.0739387 0.4309197 0.0960690
0.2024303 0.3959458 0.0953528
0.4069974 0.4020201 0.1212086
0.7000394 0.4540626 0.1450091
0.8419966 0.3682406 0.0754232
0.0871201 0.6659758 0.1256019
0.2393302 0.6633998 0.0430465
0.3188016 0.5532767 0.0000000
0.5809947 0.5905033 0.0463825
0.9076533 0.6266009 0.0000000
0.1255972 0.9020898 0.1727739
0.2659067 0.9109179 0.0779296
0.4046447 0.9110614 0.0457076
0.6398407 0.9098275 0.0219800
0.9281934 0.8887448 0.2788581
0.0834222 0.0576553 0.2978060
0.0817470 0.0500379 0.0786688
0.4115771 0.0701965 0.2003908
0.7162938 0.0830306 0.2882344
0.9187020 0.2664050 0.3691272
0.0540768 0.1945881 0.1841226
0.1857782 0.1877573 0.1956803
0.3462433 0.1709785 0.1613974
0.6548076 0.2661378 0.2581693
0.9002125 0.2907011 0.2780331
0.0397872 0.3832506 0.2382746
0.2586226 0.3963534 0.2598029
0.3989871 0.3871596 0.2248632
0.5811831 0.3977276 0.2484252
0.8450183 0.4237201 0.2592077
0.0603666 0.6531052 0.3055554
0.3112941 0.6593318 0.3241773
0.3769368 0.6116056 0.2358158
0.5939882 0.5984063 0.2670031
0.8286678 0.6252562 0.3943610
0.1082516 0.8916091 0.3616619
0.3604433 0.9028807 0.3822397
0.4418953 0.9072366 0.3197190
0.6559433 0.9105565 0.2894419
0.9208413 0.9020434 0.5222256
0.1371310 0.0548912 0.4966233
0.1677189 0.0411696 0.2596255
0.3323289 0.0413957 0.3179906
0.6200668 0.0393559 0.4039435
0.8557898 0.0347943 0.4306886
0.0504091 0.1884269 0.4282170
0.1862018 0.1696611 0.3272272
0.3250849 0.1658426 0.3068946
0.6671367 0.2788530 0.4259193
0.8871796 0.3061896 0.4510132
0.1951835 0.4804965 0.4869907
0.3098636 0.4428326 0.4525495
0.4448394 0.4433739 0.4290609
0.6734676 0.4584975 0.4544076
0.9044516 0.4785223 0.4545477
0.0429703 0.6460806 0.4188368
0.3007727 0.6446182 0.4406250
0.4599047 0.6117452 0.4342941
0.6741542 0.6523422 0.4894476
0.8283482 0.6436452 0.4940948
0.0848231 0.8837478 0.4676221
0.3534203 0.8939408 0.5035446
0.5087693 0.8977902 0.5151364
0.6678642 0.8979516 0.4617183
0.9334886 0.8880331 0.6813884
0.2588726 0.1864406 0.7392567
0.2572665 0.0418682 0.5485329
0.3620428 0.0441672 0.5322465
0.5681393 0.0459221 0.5627251
0.7866932 0.0428755 0.6009642
0.1426294 0.2522331 0.6870822
0.2635423 0.2359502 0.5715813
0.3686139 0.2358417 0.5487678
0.5732388 0.2533526 0.5656659
0.8165570 0.2673055 0.6187688
0.0150071 0.2945832 0.4702450
0.3129879 0.3853683 0.5199858
0.5344539 0.4970032 0.6655454
0.6544782 0.4447065 0.6288773
0.8491298 0.4258452 0.6420523
0.1179326 0.6472247 0.6254640
0.2878158 0.6293571 0.6176247
0.4881925 0.6113752 0.5974892
0.7325446 0.6899052 0.6861606
0.9054728 0.7033912 0.6915766
0.0554155 0.8701858 0.6370315
0.3186467 0.8768426 0.6563459
0.4906980 0.8605167 0.6633242
0.7078394 0.8374188 0.6785369
0.9304171 0.9022986 0.7592453
0.2069525 0.1303775 0.7877650
0.2916048 0.0513907 0.7446769
0.3946597 0.0457768 0.7346818
0.5671803 0.0489265 0.7341324
0.7544966 0.0503067 0.7540842
0.1174977 0.2427751 0.8193449
0.2801152 0.2375915 0.7518662
0.3914368 0.2384944 0.7342407
0.5608985 0.2457956 0.7248162
0.7517036 0.2562292 0.7476975
0.1790804 0.4177956 0.8059923
0.2766510 0.3443451 0.7626603
0.4270281 0.3875625 0.7500393
0.5835464 0.3855525 0.7404657
0.7600477 0.3936877 0.7527928
0.2766507 0.5475912 0.7327915
0.3919329 0.5661666 0.7811386
0.5087325 0.5834199 0.7455429
0.7291025 0.6766542 0.8157581
0.8287497 0.6526669 0.8101561
0.0807989 0.8541899 0.8314787
0.3322605 0.8515502 0.8401831
0.4933500 0.8357249 0.8349096
0.7088394 0.8246569 0.8192721
0.9633210 0.9572872 0.9392185
