styles/series/movie/series-movie-studio-cut/look.cube
# series-movie-studio-cut tuned
LUT_3D_SIZE 9
DOMAIN_MIN 0 0 0
DOMAIN_MAX 1 1 1
0.0660475 0.0756172 0.0725888
0.0966130 0.0762587 0.0763542
0.1851313 0.0325247 0.0000000
0.5327089 0.0419922 0.0000000
0.6201731 0.0188416 0.0000000
0.7209628 0.0000000 0.0000000
0.8006229 0.0000000 0.0000000
0.8582756 0.0000000 0.0000000
0.9287609 0.0000000 0.0000041
0.0000000 0.0581484 0.0000000
0.0647736 0.0729228 0.0240279
0.1852366 0.1219707 0.0156726
0.3068119 0.1221517 0.0607603
0.4120803 0.1707697 0.0771878
0.5471560 0.1653555 0.0372104
0.6125754 0.1414403 0.0353678
0.7454140 0.1451232 0.0309215
0.9147476 0.0546999 0.0020235
0.0005738 0.1779269 0.0000000
0.1953819 0.2729942 0.0843504
0.1672708 0.1776095 0.0397811
0.4811515 0.3316241 0.0752633
0.3762814 0.1750150 0.0652457
0.5582995 0.2071548 0.0771165
0.6020176 0.2094499 0.0625530
0.7250130 0.2505866 0.0434820
0.9013308 0.1687966 0.0116179
0.0853466 0.3489992 0.0693801
0.1570478 0.3515137 0.0854820
0.2563132 0.3406738 0.0813707
0.3096645 0.3221200 0.1139996
0.4116518 0.3173134 0.2127776
0.4920186 0.2858622 0.1219119
0.6387770 0.2964226 0.0530529
0.8298269 0.3884955 0.0808830
0.8160468 0.3711687 0.1344940
0.0739387 0.4309197 0.0960690
0.1366629 0.4264608 0.0707138
0.2024303 0.3959458 0.0953528
0.3041959 0.4093490 0.1071015
0.4069974 0.4020201 0.1212086
0.5420334 0.4267261 0.1169338
0.7000394 0.4540626 0.1450091
0.7168035 0.4175791 0.1180236
0.8419966 0.3682406 0.0754232
0.0703024 0.5434878 0.1035726
0.1298108 0.5434506 0.0552505
0.2212415 0.5199346 0.0480275
0.2931051 0.4801919 0.0832650
0.4031793 0.4807448 0.0912760
0.4943175 0.4660151 0.1194930
0.6460316 0.5400104 0.1553337
0.7719848 0.5462052 0.1255930
0.8399775 0.5229547 0.1682316
0.0871201 0.6659758 0.1256019
0.1373820 0.6691792 0.0611639
0.2393302 0.6633998 0.0430465
0.2909381 0.6287205 0.0211007
0.3188016 0.5532767 0.0000000
0.4423580 0.5565661 0.0000000
0.5809947 0.5905033 0.0463825
0.7364102 0.6422128 0.1669273
0.9076533 0.6266009 0.0000000
0.1056411 0.7821912 0.1489344
0.1478581 0.7879826 0.0760397
0.2534672 0.7900667 0.0572691
0.3192220 0.7844978 0.0402151
0.3838730 0.7709071 0.0209742
0.4927870 0.7601817 0.0017710
0.6202493 0.7637616 0.0128910
0.7438572 0.7595587 0.0786801
0.9121055 0.7489257 0.0075323
0.1255972 0.9020898 0.1727739
0.1593527 0.9067955 0.0937539
0.2659067 0.9109179 0.0779296
0.3341645 0.9119819 0.0630439
0.4046447 0.9110614 0.0457076
0.5170698 0.9105159 0.0274978
0.6398407 0.9098275 0.0219800
0.7638709 0.8998254 0.0570138
0.9281934 0.8887448 0.2788581
0.0818018 0.0839031 0.2038772
0.0627063 0.0543382 0.0796413
0.1207392 0.0144658 0.0223002
0.3739709 0.0851050 0.0819265
0.5126026 0.1067225 0.1174943
0.6725587 0.0804576 0.1440131
0.8024719 0.0778948 0.1434576
0.8568140 0.0825321 0.1163657
0.8562630 0.1861681 0.1370111
0.0185473 0.0956591 0.0739467
0.0855308 0.0787169 0.0923005
0.1259862 0.0834024 0.0849088
0.2544520 0.1104881 0.1141148
0.4590588 0.1723814 0.1562807
0.5564357 0.1646305 0.1518722
0.6757585 0.1641017 0.1460117
0.7887713 0.1767740 0.1451308
0.8976931 0.1875929 0.1454705
0.0356334 0.1460181 0.0804866
0.1864558 0.2423910 0.1594313
0.2238355 0.2273005 0.1350438
0.2838040 0.2123598 0.1605990
0.3460862 0.1694442 0.1021593
0.4720806 0.2046679 0.1441642
0.6136459 0.2340978 0.1470161
0.7578954 0.2599208 0.1458125
0.8875393 0.2606588 0.1457494
0.0293129 0.2793466 0.1035848
0.1527243 0.2956174 0.1392000
0.2513288 0.3386872 0.1281984
0.2987165 0.3085328 0.1563764
0.3797516 0.2922664 0.2037045
0.4616397 0.2750943 0.1529751
0.5538236 0.2799622 0.1609086
0.7066044 0.3156550 0.1737668
0.8394084 0.3403870 0.1964753
0.0500060 0.4049594 0.1663159
0.1675373 0.4078661 0.1796876
0.2419209 0.4187072 0.1560952
0.3196335 0.4148525 0.1679338
0.4125230 0.4038897 0.2175744
0.5102971 0.4083723 0.2308098
0.6191476 0.4298627 0.2447123
0.6790234 0.4093184 0.2229365
0.8140294 0.4055207 0.2202539
0.0605768 0.5336932 0.1954036
0.1804941 0.5364357 0.2017447
0.2486237 0.5356709 0.1628815
0.3106971 0.5111593 0.1531282
0.3972345 0.4908124 0.1745466
0.5002699 0.4904627 0.2192305
0.6023884 0.5048784 0.2636018
0.7220106 0.5369588 0.3096604
0.8148237 0.5270540 0.2887545
0.0787936 0.6601700 0.2208427
0.1999647 0.6635957 0.2243619
0.2603831 0.6644250 0.1722830
0.3180853 0.6480843 0.1533844
0.3686082 0.6128997 0.1252929
0.4798327 0.6051094 0.1294399
0.5968055 0.6094609 0.1690988
0.7162674 0.6305814 0.2669378
0.8502081 0.6361833 0.3770165
0.0997502 0.7782585 0.2462788
0.2211274 0.7828723 0.2495076
0.2743704 0.7872113 0.1897355
0.3384061 0.7849565 0.1757441
0.4017694 0.7766766 0.1555512
0.5092722 0.7711986 0.1340261
0.6321979 0.7724930 0.1395168
0.7498545 0.7663752 0.1939425
0.9096410 0.7833891 0.3570269
0.1218416 0.8971518 0.2731776
0.2432849 0.9022848 0.2766601
0.2878203 0.9075926 0.2094056
0.3542960 0.9098294 0.1992600
0.4217413 0.9103632 0.1843858
0.5293036 0.9116085 0.1618929
0.6483787 0.9118163 0.1521002
0.7701644 0.9061068 0.1897886
0.9249256 0.9123495 0.3518472
0.0834222 0.0576553 0.2978060
0.0572586 0.0474790 0.1174723
0.0817470 0.0500379 0.0786688
0.2249374 0.0405203 0.1311091
0.4115771 0.0701965 0.2003908
0.5916872 0.0941169 0.2581571
0.7162938 0.0830306 0.2882344
0.8171022 0.1169809 0.3114115
0.9187020 0.2664050 0.3691272
0.0115257 0.0750287 0.0829715
0.1396948 0.1350560 0.2032461
0.1704361 0.1273601 0.1738560
0.2290927 0.0936221 0.1291647
0.4560932 0.1640672 0.2016181
0.6068873 0.1920529 0.2335892
0.6945421 0.1790504 0.2775222
0.7934155 0.1843593 0.2851834
0.9057931 0.2250147 0.3058112
0.0540768 0.1945881 0.1841226
0.1687879 0.2587957 0.2734662
0.1857782 0.1877573 0.1956803
0.2624140 0.1922669 0.1809563
0.3462433 0.1709785 0.1613974
0.5405262 0.2513531 0.2381439
0.6548076 0.2661378 0.2581693
0.7795392 0.2807139 0.2692590
0.9002125 0.2907011 0.2780331
0.0382984 0.2413901 0.1665697
0.1353886 0.2486722 0.1838644
0.2021525 0.2838428 0.1847879
0.2591209 0.2613727 0.1806717
0.3830040 0.2974811 0.2452405
0.4418890 0.2393257 0.1237072
0.6504401 0.3436220 0.2506594
0.7488740 0.3374949 0.2552997
0.8626933 0.3378499 0.2654638
0.0397872 0.3832506 0.2382746
0.1535784 0.3828188 0.2487747
0.2586226 0.3963534 0.2598029
0.3069368 0.3925450 0.2221219
0.3989871 0.3871596 0.2248632
0.5392686 0.4200035 0.2388673
0.5811831 0.3977276 0.2484252
0.6940147 0.4085927 0.2519102
0.8450183 0.4237201 0.2592077
0.0419257 0.5236928 0.2764127
0.1709851 0.5256178 0.2904982
0.2871534 0.5293020 0.2952136
0.3236647 0.5148460 0.2497792
0.3737960 0.4753085 0.2029564
0.5037396 0.4850010 0.2601648
0.5958600 0.4962984 0.2904397
0.7281322 0.5397724 0.3288889
0.8232043 0.5253558 0.2994204
0.0603666 0.6531052 0.3055554
0.1924533 0.6561267 0.3202584
0.3112941 0.6593318 0.3241773
0.3391258 0.6506506 0.2786010
0.3769368 0.6116056 0.2358158
0.4705850 0.5898898 0.2180278
0.5939882 0.5984063 0.2670031
0.7008574 0.6138970 0.3361680
0.8286678 0.6252562 0.3943610
0.0835611 0.7722300 0.3329346
0.2156632 0.7764890 0.3478815
0.3359795 0.7818349 0.3531201
0.3597400 0.7819812 0.3060322
0.4184185 0.7740703 0.2878755
0.5151481 0.7655998 0.2620161
0.6335954 0.7669933 0.2657735
0.7450716 0.7595168 0.3159320
0.8888465 0.7629046 0.4567667
0.1082516 0.8916091 0.3616619
0.2399764 0.8964008 0.3764060
0.3604433 0.9028807 0.3822397
0.3765912 0.9058261 0.3289122
0.4418953 0.9072366 0.3197190
0.5426525 0.9093573 0.3000214
0.6559433 0.9105565 0.2894419
0.7735766 0.9053175 0.3287928
0.9208413 0.9020434 0.5222256
0.0978827 0.0375480 0.4214351
0.0895442 0.0527009 0.2075002
0.0940409 0.0523842 0.1178150
0.1941551 0.0493545 0.1737212
0.3471113 0.0369762 0.2535087
0.5278494 0.0543573 0.3210435
0.6564609 0.0501911 0.3477230
0.7675347 0.0546049 0.3628959
0.8840843 0.0796932 0.3825035
0.0000000 0.1140516 0.2853880
0.1412482 0.1358269 0.2867681
0.1638253 0.1224879 0.2246325
0.1968524 0.0872579 0.1769408
0.3495238 0.1025386 0.2349355
0.5628493 0.1680480 0.3198171
0.6839002 0.1770184 0.3551727
0.7802040 0.1774476 0.3656071
0.8915555 0.1941366 0.3795624
0.0974283 0.2025560 0.2873924
0.1629471 0.2261675 0.3552293
0.1930043 0.1857394 0.2586522
0.2252150 0.1464294 0.2040756
0.3569484 0.1651029 0.2265496
0.5821496 0.2696484 0.3214926
0.6936756 0.2985538 0.3583951
0.7890436 0.3031107 0.3656576
0.8982153 0.3290985 0.3834707
0.0755500 0.2529382 0.2502963
0.1582135 0.2796242 0.2993991
0.2554185 0.3163087 0.3104369
0.2910955 0.3015872 0.3019678
0.4185419 0.3257066 0.3240492
0.5492910 0.3391835 0.3172397
0.6612449 0.3473109 0.3282096
0.7692068 0.3557180 0.3383204
0.8886347 0.3720094 0.3552620
0.0803673 0.3756679 0.3148127
0.1711385 0.3789691 0.3137220
0.2548456 0.3848455 0.3180155
0.2871019 0.3726606 0.2811340
0.4000470 0.3787120 0.2873367
0.5131745 0.4208228 0.3420593
0.6432978 0.4346029 0.2492190
0.7530772 0.4324393 0.3382262
0.8719261 0.4378172 0.3492964
0.0428487 0.5178645 0.3362371
0.1659214 0.5193850 0.3455830
0.2852279 0.5193425 0.3559471
0.3576843 0.5149113 0.3492064
0.4666648 0.5485684 0.3610478
0.5342701 0.5092838 0.3363861
0.6366199 0.5284931 0.3728562
0.7286595 0.5441651 0.3844817
0.8332324 0.5357690 0.3685210
0.0480622 0.6491776 0.3599942
0.1810134 0.6505923 0.3735574
0.3091707 0.6526684 0.3872017
0.3804813 0.6475959 0.3828831
0.4113977 0.6279425 0.3354317
0.4893627 0.5969407 0.3042638
0.6049887 0.5992909 0.3430866
0.7077544 0.6083403 0.3890084
0.8414240 0.6348868 0.4181594
0.0703639 0.7683857 0.3860401
0.2052395 0.7718457 0.4022201
0.3346739 0.7769267 0.4177025
0.4080675 0.7782764 0.4182872
0.4355795 0.7725967 0.3735100
0.5225787 0.7589119 0.3457091
0.6349175 0.7584543 0.3469723
0.7378425 0.7462011 0.3848537
0.8616879 0.7289106 0.4843616
0.0963966 0.8877856 0.4148527
0.2315805 0.8922845 0.4320097
0.3605025 0.8987432 0.4476811
0.4346558 0.9028000 0.4502144
0.4566771 0.9037976 0.4022366
0.5535476 0.9055579 0.3873915
0.6604329 0.9059453 0.3763634
0.7738780 0.8982948 0.4123559
0.9254096 0.8939301 0.6040112
0.1371310 0.0548912 0.4966233
0.1342603 0.0475561 0.3356206
0.1677189 0.0411696 0.2596255
0.2189622 0.0433357 0.2555851
0.3323289 0.0413957 0.3179906
0.4934548 0.0476948 0.3820710
0.6200668 0.0393559 0.4039435
0.7369751 0.0350029 0.4182543
0.8557898 0.0347943 0.4306886
0.0599100 0.1159737 0.4072007
0.1412640 0.1218241 0.3575828
0.1794125 0.1070570 0.2991546
0.2143055 0.0917750 0.2630831
0.3256264 0.1066395 0.3094994
0.5128150 0.1554751 0.3905437
0.6400559 0.1539010 0.4119632
0.7541885 0.1535102 0.4244258
0.8703657 0.1568855 0.4346529
0.0504091 0.1884269 0.4282170
0.1571161 0.2006845 0.4110600
0.1862018 0.1696611 0.3272272
0.2264380 0.1546080 0.2888394
0.3250849 0.1658426 0.3068946
0.5256303 0.2503793 0.3937951
0.6671367 0.2788530 0.4259193
0.7773791 0.2880437 0.4374171
0.8871796 0.3061896 0.4510132
0.1180771 0.3243214 0.4294994
0.2413947 0.3460432 0.4667631
0.1783156 0.2036211 0.3129653
0.3300505 0.3014492 0.3948823
0.3553051 0.2671224 0.3445037
0.5395305 0.3320422 0.4122452
0.6789409 0.3646740 0.4425445
0.7878977 0.3726921 0.4427625
0.8987146 0.4066419 0.4664773
0.1951835 0.4804965 0.4869907
0.2413307 0.4577449 0.4641591
0.3098636 0.4428326 0.4525495
0.5604631 0.5792282 0.5719391
0.4448394 0.4433739 0.4290609
0.5525290 0.4546862 0.4579085
0.6734676 0.4584975 0.4544076
0.7953957 0.4568312 0.4417403
0.9044516 0.4785223 0.4545477
0.0666845 0.5242790 0.4127336
0.1761419 0.5279887 0.4174559
0.2932208 0.5203049 0.4216733
0.3413334 0.4761596 0.3935154
0.4072708 0.4684158 0.3753577
0.7486680 0.7035902 0.6326951
0.6189467 0.5194302 0.4347101
0.8158878 0.6098966 0.4584391
0.8645289 0.5472104 0.4488537
0.0429703 0.6460806 0.4188368
0.1714265 0.6467399 0.4285159
0.3007727 0.6446182 0.4406250
0.3813117 0.6276729 0.4393981
0.4599047 0.6117452 0.4342941
0.5922033 0.6588046 0.4838721
0.6741542 0.6523422 0.4894476
0.7103143 0.6127732 0.4723037
0.8283482 0.6436452 0.4940948
0.0600139 0.7644083 0.4407819
0.1926359 0.7668711 0.4541389
0.3256563 0.7707614 0.4718801
0.4087475 0.7692963 0.4803733
0.4832955 0.7637077 0.4785953
0.5517433 0.7576378 0.4428984
0.6475272 0.7498392 0.4345160
0.7356317 0.7359254 0.4588727
0.8442286 0.7104472 0.5098855
0.0848231 0.8837478 0.4676221
0.2202839 0.8878086 0.4841834
0.3534203 0.8939408 0.5035446
0.4352421 0.8969698 0.5139740
0.5087693 0.8977902 0.5151364
0.5688864 0.8981448 0.4718711
0.6678642 0.8979516 0.4617183
0.7740901 0.8896117 0.4898646
0.9334886 0.8880331 0.6813884
0.1961598 0.1201443 0.6281993
0.1797369 0.0588614 0.4810234
0.2273108 0.0391155 0.4254955
0.2736963 0.0422460 0.4069081
0.3442063 0.0471785 0.4224150
0.4659215 0.0475260 0.4563304
0.5906565 0.0458051 0.4865120
0.7009435 0.0386098 0.5014081
0.8189067 0.0361919 0.5183561
0.1282692 0.1432935 0.5757136
0.1731694 0.1347852 0.4841018
0.2248938 0.1200771 0.4343703
0.2703381 0.1190170 0.4154958
0.3417524 0.1268821 0.4277277
0.4665528 0.1440721 0.4578860
0.5970921 0.1514509 0.4892283
0.7166812 0.1506105 0.5101534
0.8369836 0.1505640 0.5264228
0.1395922 0.2360905 0.6547366
0.1712605 0.2158113 0.5243210
0.2501089 0.2262041 0.4780623
0.2735632 0.2003217 0.4302841
0.3375290 0.2070156 0.4320754
0.4855734 0.2550069 0.4774587
0.6199269 0.2704105 0.5064287
0.7373304 0.2703772 0.5228086
0.8594509 0.2754263 0.5390444
0.1725638 0.3283334 0.5057957
0.2925047 0.3929911 0.6120215
0.3825433 0.4176270 0.6203437
0.3371202 0.3190409 0.4951131
0.3736416 0.2999551 0.4672408
0.5252486 0.3508966 0.5148855
0.6492822 0.3589506 0.5327651
0.7573117 0.3544116 0.5373559
0.8765904 0.3637842 0.5518901
0.3367491 0.5313458 0.6171339
0.2658442 0.4551168 0.5578332
0.4852183 0.5727816 0.6487990
0.3295799 0.3992210 0.5527698
0.5867409 0.5296445 0.6094847
0.5867300 0.4704765 0.5521396
0.6846824 0.4595066 0.5651545
0.7733923 0.4416570 0.5504770
0.8857958 0.4446781 0.5570245
0.1735694 0.5759200 0.5578090
0.2024313 0.5452313 0.5359822
0.3104196 0.5478385 0.5418099
0.4683084 0.5921622 0.5783342
0.8068365 0.8119939 0.8061300
0.6187696 0.5698208 0.5477608
0.6720305 0.5497868 0.5495837
0.7454496 0.5429795 0.5291985
0.8694838 0.5475320 0.5479410
0.0557129 0.6474423 0.5185235
0.1681289 0.6434157 0.5197761
0.2882332 0.6392578 0.5236470
0.3801333 0.6144827 0.5171386
0.4715455 0.5816423 0.5017075
0.6344948 0.6640283 0.5844276
0.8230606 0.7974700 0.7368377
0.7193573 0.5996523 0.5208483
0.8378237 0.6498600 0.5692750
0.0477170 0.7568507 0.5248472
0.1754802 0.7593571 0.5342227
0.3073654 0.7617883 0.5472421
0.3965714 0.7547336 0.5538913
0.4879039 0.7329736 0.5518377
0.5892431 0.7159885 0.5471046
0.6659454 0.7265858 0.5398624
0.7488907 0.7436442 0.5791636
0.8935367 0.7609552 0.6234868
0.0681038 0.8772697 0.5482873
0.2015458 0.8806529 0.5606408
0.3357809 0.8860492 0.5784541
0.4222226 0.8866804 0.5903181
0.5069731 0.8808975 0.5982649
0.6152687 0.8763242 0.6022950
0.6827846 0.8783362 0.5783301
0.7774955 0.8801788 0.5999620
0.9305302 0.8934288 0.7137391
0.2588726 0.1864406 0.7392567
0.2130990 0.0758641 0.5997347
0.2572665 0.0418682 0.5485329
0.3084082 0.0441947 0.5367771
0.3620428 0.0441672 0.5322465
0.4591232 0.0465616 0.5442147
0.5681393 0.0459221 0.5627251
0.6819684 0.0455084 0.5876245
0.7866932 0.0428755 0.6009642
0.1529944 0.1421677 0.6714055
0.1935279 0.1458661 0.5881820
0.2545036 0.1326033 0.5519731
0.3045414 0.1335963 0.5394144
0.3617582 0.1358354 0.5370882
0.4569569 0.1429656 0.5433664
0.5662105 0.1462008 0.5598985
0.6833754 0.1504476 0.5870291
0.8017166 0.1530626 0.6099346
0.1426294 0.2522331 0.6870822
0.1663702 0.2102367 0.6080591
0.2635423 0.2359502 0.5715813
0.3130610 0.2336449 0.5540571
0.3686139 0.2358417 0.5487678
0.4631970 0.2465781 0.5507807
0.5732388 0.2533526 0.5656659
0.6921076 0.2608628 0.5929234
0.8165570 0.2673055 0.6187688
0.1149912 0.3198910 0.7295899
0.2020306 0.3104049 0.6321631
0.2871095 0.3135860 0.6067935
0.3596560 0.3386883 0.5971143
0.4110517 0.3347244 0.5883838
0.4986017 0.3371356 0.5814996
0.5974947 0.3353408 0.5863464
0.7060546 0.3371994 0.6042541
0.8310488 0.3445417 0.6287812
0.0150071 0.2945832 0.4702450
0.2863352 0.4517336 0.6712931
0.3129879 0.3853683 0.5199858
0.4105571 0.4598112 0.6592157
0.5344539 0.4970032 0.6655454
0.6066701 0.4880719 0.6551246
0.6544782 0.4447065 0.6288773
0.7300396 0.4222835 0.6236442
0.8491298 0.4258452 0.6420523
0.3653436 0.6506376 0.7200942
0.2393070 0.5469026 0.6531798
0.2780485 0.5187365 0.6499686
0.2221086 0.3861283 0.5094753
0.7328269 0.7386906 0.8053745
0.7158235 0.6356877 0.6932692
0.7182324 0.5861150 0.6696459
0.7792022 0.5596847 0.6630450
0.8827975 0.5595377 0.6689688
0.1179326 0.6472247 0.6254640
0.1908964 0.6323669 0.6171757
0.2878158 0.6293571 0.6176247
0.3713694 0.6196545 0.6104841
0.4881925 0.6113752 0.5974892
0.6194624 0.6434119 0.6268621
0.7325446 0.6899052 0.6861606
0.8035533 0.6859362 0.6722300
0.9054728 0.7033912 0.6915766
0.0528573 0.7503512 0.6221110
0.1748363 0.7488457 0.6249219
0.2985752 0.7513825 0.6310338
0.3848233 0.7449756 0.6319038
0.4758593 0.7132862 0.6181408
0.5870097 0.6782503 0.6047626
0.6840337 0.7027542 0.6270350
0.7887304 0.7784111 0.7171194
0.8515397 0.7378332 0.6666461
0.0554155 0.8701858 0.6370315
0.1878272 0.8725401 0.6448214
0.3186467 0.8768426 0.6563459
0.4039599 0.8753858 0.6631691
0.4906980 0.8605167 0.6633242
0.6102715 0.8372651 0.6658640
0.7078394 0.8374188 0.6785369
0.7792966 0.8601267 0.6924420
0.9304171 0.9022986 0.7592453
0.4096009 0.3342103 0.7604665
0.2312550 0.0831996 0.6777964
0.2752998 0.0452444 0.6483022
0.3259604 0.0434324 0.6415520
0.3798138 0.0431269 0.6370203
0.4664220 0.0449648 0.6368078
0.5644983 0.0489719 0.6447379
0.6639095 0.0470703 0.6597798
0.7754400 0.0491664 0.6848021
0.1990337 0.1998809 0.7671951
0.2094885 0.1563048 0.6778085
0.2709499 0.1371021 0.6495127
0.3225140 0.1367849 0.6412346
0.3764991 0.1378129 0.6345158
0.4633570 0.1421648 0.6336006
0.5575061 0.1464937 0.6380359
0.6602122 0.1481540 0.6552569
0.7759494 0.1541736 0.6830114
0.1797534 0.2871907 0.7607990
0.1691453 0.2091332 0.6912225
0.2672962 0.2334730 0.6582803
0.3244340 0.2359299 0.6490101
0.3804971 0.2388281 0.6409113
0.4652168 0.2428165 0.6352649
0.5568100 0.2473607 0.6366998
0.6612045 0.2522655 0.6550680
0.7802454 0.2622196 0.6847723
0.1817189 0.3604707 0.7586222
0.1776263 0.2854961 0.7007021
0.2516727 0.2742040 0.6708216
0.3391633 0.3121514 0.6628614
0.4014479 0.3180520 0.6592915
0.4814649 0.3176542 0.6492649
0.5666804 0.3178425 0.6449096
0.6671363 0.3217523 0.6597550
0.7872510 0.3337232 0.6898385
0.1976530 0.4677080 0.7612527
0.2204923 0.3837764 0.7126127
0.2948415 0.3671534 0.6712018
0.3509753 0.3725156 0.6694263
0.4566213 0.4239927 0.6926288
0.5348785 0.4230150 0.6838308
0.6015627 0.4076430 0.6706336
0.6835677 0.3993290 0.6729335
0.8003596 0.4100817 0.7002040
0.1732130 0.4146613 0.5748854
0.2713266 0.4802962 0.6722112
0.3353596 0.5043719 0.7105099
0.4404107 0.5352326 0.7475314
0.5265943 0.5611162 0.7264823
0.6536485 0.6095043 0.7561237
0.6897683 0.5677977 0.7311159
0.7287297 0.5293583 0.7077247
0.8358197 0.5384432 0.7298486
0.1861539 0.6104294 0.6879478
0.2563245 0.5964547 0.6801719
0.3370743 0.5962644 0.6759858
0.4081380 0.5999132 0.6812439
0.5339150 0.6372163 0.7225199
0.7446943 0.7744300 0.8575503
0.8102719 0.7584210 0.8214450
0.8128257 0.6860263 0.7768712
0.9085663 0.7073385 0.7965611
0.0950511 0.7350761 0.7138894
0.2086979 0.7302929 0.7164252
0.3200083 0.7317014 0.7176531
0.3969867 0.7274594 0.7127626
0.4806257 0.7162376 0.6999543
0.5900984 0.7005090 0.6849971
0.7096391 0.7344775 0.7241139
0.7922272 0.7632022 0.7552746
0.9525334 0.8833139 0.8534418
0.0584830 0.8621380 0.7290660
0.1910687 0.8626920 0.7338484
0.3180413 0.8650689 0.7402875
0.4003079 0.8622687 0.7421512
0.4831721 0.8491512 0.7357752
0.5952203 0.8121626 0.7173092
0.7008153 0.8045457 0.7277420
0.7890176 0.8329297 0.7559460
0.9326858 0.9010547 0.8088126
0.2069525 0.1303775 0.7877650
0.2298429 0.0728263 0.7609847
0.2916048 0.0513907 0.7446769
0.3466160 0.0528913 0.7395839
0.3946597 0.0457768 0.7346818
0.4771086 0.0458534 0.7320242
0.5671803 0.0489265 0.7341324
0.6558620 0.0503316 0.7396198
0.7544966 0.0503067 0.7540842
0.1251830 0.1426042 0.8050304
0.2159692 0.1567464 0.7653436
0.2851260 0.1411190 0.7452121
0.3379632 0.1406273 0.7383646
0.3907856 0.1399660 0.7316792
0.4737294 0.1425721 0.7273255
0.5626592 0.1470413 0.7279991
0.6514127 0.1499741 0.7335254
0.7520413 0.1524993 0.7498399
0.1174977 0.2427751 0.8193449
0.1698555 0.2050490 0.7791932
0.2801152 0.2375915 0.7518662
0.3359016 0.2374212 0.7429653
0.3914368 0.2384944 0.7342407
0.4736688 0.2409050 0.7265513
0.5608985 0.2457956 0.7248162
0.6492766 0.2510476 0.7298422
0.7517036 0.2562292 0.7476975
0.1214562 0.3147261 0.8139767
0.1726882 0.2751757 0.7849551
0.2493354 0.2647471 0.7611044
0.3404832 0.3063757 0.7501409
0.3991753 0.3071544 0.7414516
0.4811325 0.3082744 0.7318614
0.5654352 0.3112500 0.7280635
0.6509949 0.3162325 0.7303041
0.7537347 0.3234022 0.7486177
0.1790804 0.4177956 0.8059923
0.1994038 0.3556217 0.7841928
0.2766510 0.3443451 0.7626603
0.3330267 0.3465079 0.7508289
0.4270281 0.3875625 0.7500393
0.5068969 0.3882335 0.7441070
0.5835464 0.3855525 0.7404657
0.6600314 0.3868858 0.7363666
0.7600477 0.3936877 0.7527928
0.1441270 0.4552274 0.7319673
0.2473207 0.4549975 0.7541121
0.3423532 0.4826391 0.7586702
0.3919389 0.4764376 0.7498878
0.4525588 0.4727959 0.7508902
0.5637156 0.5142954 0.7594663
0.6373255 0.5185172 0.7689051
0.6925401 0.5067493 0.7586290
0.7808896 0.5087245 0.7687630
0.2766507 0.5475912 0.7327915
0.3544092 0.5669542 0.7917599
0.3919329 0.5661666 0.7811386
0.4361061 0.5609980 0.7500600
0.5087325 0.5834199 0.7455429
0.5626301 0.5744183 0.7367965
0.7291025 0.6766542 0.8157581
0.7700636 0.6639153 0.8154281
0.8287497 0.6526669 0.8101561
0.1599869 0.7224036 0.8170222
0.2798294 0.7159489 0.8284703
0.3967068 0.7084992 0.8456433
0.4921028 0.6779765 0.8560178
0.5521730 0.6740251 0.8226613
0.6134184 0.6839947 0.8046486
0.6945213 0.7059216 0.7773756
0.8108167 0.7763376 0.8335759
0.8895204 0.8098148 0.8696431
0.0807989 0.8541899 0.8314787
0.2059351 0.8527586 0.8353902
0.3322605 0.8515502 0.8401831
0.4116353 0.8451631 0.8408226
0.4933500 0.8357249 0.8349096
0.5996147 0.8272525 0.8151316
0.7088394 0.8246569 0.8192721
0.8015188 0.8353751 0.8514226
0.9633210 0.9572872 0.9392185
