styles/series/movie/series-movie-studio-cut/look.cube
# series-movie-studio-cut tuned
LUT_3D_SIZE 33
DOMAIN_MIN 0 0 0
DOMAIN_MAX 1 1 1
0.0660475 0.0756172 0.0725888
0.1333215 0.0932399 0.0165039
0.1063833 0.0942666 0.0333115
0.0873542 0.0833904 0.0499364
0.0966130 0.0762587 0.0763542
0.1435811 0.0805386 0.0121841
0.1370799 0.0617193 0.0000000
0.1607723 0.0488313 0.0000000
0.1851313 0.0325247 0.0000000
0.2247083 0.0260957 0.0000000
0.2949794 0.0431141 0.0000000
0.4235852 0.0525535 0.0000000
0.5327089 0.0419922 0.0000000
0.5852249 0.0187424 0.0000000
0.5979393 0.0228566 0.0000000
0.6104135 0.0227248 0.0000000
0.6201731 0.0188416 0.0000000
0.6566173 0.0199686 0.0007228
0.6262782 0.0333228 0.0072675
0.6829658 0.0000000 0.0000000
0.7209628 0.0000000 0.0000000
0.7351802 0.0000000 0.0000000
0.7625905 0.0000000 0.0000000
0.7806571 0.0000000 0.0000000
0.8006229 0.0000000 0.0000000
0.8178127 0.0000000 0.0000000
0.8317683 0.0000000 0.0000000
0.8386939 0.0000000 0.0000000
0.8582756 0.0000000 0.0000000
0.8603934 0.0000000 0.0000000
0.8684786 0.0000000 0.0000000
0.8876866 0.0000000 0.0000913
0.9287609 0.0000000 0.0000041
0.0857840 0.0806918 0.0612701
0.0690099 0.0779042 0.0944107
0.1081709 0.0960847 0.0332807
0.1322725 0.0780933 0.0000000
0.0863341 0.0605636 0.0000000
0.0451868 0.0512868 0.0457945
0.1379716 0.1083475 0.0574447
0.1342803 0.0892667 0.0278779
0.1630387 0.0912366 0.0254895
0.1718702 0.0931736 0.0284365
0.2321059 0.1085000 0.0358576
0.2787856 0.1262667 0.0592201
0.3158951 0.1278257 0.0631222
0.3541159 0.1147807 0.0558286
0.4004220 0.1154237 0.0533996
0.4394359 0.1136979 0.0477505
0.4622506 0.1074522 0.0422487
0.4826480 0.1012258 0.0384333
0.4943016 0.1019165 0.0353648
0.5344741 0.0919572 0.0243832
0.5747763 0.0727607 0.0092595
0.6083898 0.0586910 0.0000000
0.6510164 0.0408363 0.0000000
0.6882936 0.0234184 0.0000000
0.7194867 0.0076183 0.0000000
0.7479581 0.0000000 0.0000000
0.7678274 0.0011901 0.0000000
0.7895059 0.0140357 0.0000000
0.8161279 0.0255834 0.0000000
0.8362310 0.0273424 0.0000000
0.8570923 0.0206758 0.0000000
0.8845111 0.0000000 0.0000000
0.9196175 0.0000000 0.0004637
0.0244613 0.0393496 0.0033704
0.0592838 0.0496468 0.0082435
0.0484352 0.0571022 0.0584408
0.0702665 0.0645653 0.0081337
0.1291984 0.0736713 0.0000000
0.0978399 0.0584325 0.0000000
0.0938815 0.0666919 0.0192744
0.1676348 0.1032759 0.0268959
0.1408708 0.0897623 0.0423367
0.1762950 0.0979273 0.0557612
0.2511784 0.1078816 0.0542281
0.2951992 0.1274076 0.0528289
0.2932386 0.1380160 0.0631252
0.3101946 0.1463786 0.0740265
0.3418309 0.1508241 0.0778723
0.3779368 0.1528892 0.0726122
0.4058203 0.1497243 0.0629425
0.4266882 0.1378026 0.0515121
0.4600996 0.1364555 0.0450664
0.4956507 0.1312252 0.0383706
0.5263801 0.1203885 0.0306041
0.5540853 0.1114659 0.0213548
0.5890689 0.1021085 0.0151319
0.6245319 0.0915578 0.0135691
0.6619925 0.0828647 0.0126784
0.6983810 0.0785729 0.0107028
0.7259318 0.0785426 0.0102057
0.7568984 0.0801104 0.0106192
0.7891484 0.0820654 0.0111662
0.8182781 0.0798967 0.0101044
0.8448590 0.0683354 0.0091751
0.8789120 0.0451010 0.0063819
0.9192086 0.0180637 0.0062540
0.0009392 0.0478263 0.0054410
0.0435095 0.0350768 0.0015525
0.0549271 0.0460543 0.0245057
0.0627081 0.0694206 0.0438065
0.0856144 0.0643828 0.0000000
0.1816493 0.0880431 0.0000000
0.1175522 0.0670684 0.0000000
0.0961891 0.0707384 0.0000000
0.1378743 0.0846916 0.0164856
0.1666281 0.0931565 0.0582880
0.2314564 0.1030391 0.0761563
0.3087260 0.1159075 0.0511127
0.3480028 0.1312187 0.0383410
0.3361834 0.1371700 0.0532294
0.3393504 0.1511016 0.0755879
0.3718131 0.1656942 0.0814000
0.3944927 0.1661012 0.0692938
0.4164397 0.1558404 0.0546490
0.4559245 0.1540162 0.0460934
0.4917692 0.1495153 0.0405962
0.5202766 0.1417270 0.0368042
0.5444496 0.1333875 0.0303300
0.5686187 0.1301301 0.0286110
0.5853413 0.1200874 0.0278772
0.6208505 0.1173320 0.0278766
0.6598522 0.1193314 0.0263654
0.6877985 0.1201252 0.0252365
0.7256948 0.1200137 0.0246564
0.7626847 0.1201300 0.0232245
0.7980119 0.1114041 0.0170145
0.8312301 0.0964330 0.0125132
0.8718047 0.0730523 0.0088168
0.9157207 0.0410559 0.0049324
0.0000000 0.0581484 0.0000000
0.0324871 0.0577670 0.0000000
0.0359994 0.0371606 0.0127235
0.0557434 0.0604570 0.0241361
0.0647736 0.0729228 0.0240279
0.1100685 0.0753342 0.0000000
0.2313304 0.1173467 0.0000000
0.1874223 0.1059117 0.0000000
0.1852366 0.1219707 0.0156726
0.1701944 0.1039751 0.0555544
0.1895035 0.1011954 0.0862851
0.2559152 0.1145994 0.0831312
0.3068119 0.1221517 0.0607603
0.3690481 0.1337187 0.0396354
0.3726284 0.1416959 0.0592147
0.3789417 0.1538846 0.0793237
0.4120803 0.1707697 0.0771878
0.4428421 0.1734180 0.0605658
0.4726828 0.1725287 0.0504406
0.5062365 0.1693098 0.0445064
0.5471560 0.1653555 0.0372104
0.5815637 0.1664337 0.0342025
0.5959745 0.1593437 0.0332351
0.5970081 0.1474866 0.0328904
0.6125754 0.1414403 0.0353678
0.6478530 0.1475466 0.0355057
0.6777466 0.1500473 0.0352533
0.7127406 0.1496782 0.0343251
0.7454140 0.1451232 0.0309215
0.7841541 0.1344081 0.0231284
0.8233883 0.1159964 0.0152114
0.8662596 0.0914640 0.0086353
0.9147476 0.0546999 0.0020235
0.0000000 0.0748050 0.0000000
0.0329382 0.1132007 0.0000000
0.0373142 0.0704021 0.0054457
0.0494040 0.0677103 0.0129797
0.0635671 0.0746891 0.0158011
0.0720361 0.0825002 0.0076006
0.1738716 0.1165071 0.0000000
0.3383456 0.1911428 0.0000000
0.2974527 0.1839136 0.0000000
0.2981804 0.1767861 0.0298711
0.2166169 0.1349257 0.0787960
0.2245535 0.1245080 0.0950638
0.3004073 0.1355897 0.0796891
0.3356705 0.1369530 0.0681911
0.3695145 0.1374030 0.0602317
0.3988587 0.1428500 0.0650848
0.4071937 0.1502293 0.0823079
0.4419590 0.1674847 0.0774373
0.4743281 0.1779839 0.0644048
0.5220518 0.1901347 0.0605536
0.5661467 0.1925190 0.0525819
0.6012147 0.1964378 0.0482689
0.6212812 0.1948998 0.0435810
0.6292298 0.1861356 0.0383338
0.6427284 0.1848044 0.0452482
0.6657807 0.1845025 0.0440105
0.6908543 0.1817825 0.0409910
0.7163674 0.1747465 0.0365355
0.7456590 0.1663681 0.0329687
0.7824660 0.1559831 0.0275972
0.8225469 0.1377500 0.0187755
0.8657439 0.1122903 0.0099598
0.9139748 0.0728507 0.0012622
0.0000000 0.0981573 0.0000000
0.0675190 0.1821994 0.0000000
0.0459640 0.1240041 0.0085000
0.0736104 0.1237725 0.0350992
0.0713282 0.1088303 0.0169562
0.0781819 0.0931522 0.0203494
0.1016244 0.1067644 0.0269610
0.2494208 0.1897226 0.0000000
0.3640884 0.2357522 0.0000000
0.3828309 0.2311726 0.0000000
0.3767893 0.2421448 0.0680724
0.2874303 0.1898028 0.1191785
0.2555416 0.1264273 0.0886925
0.3248158 0.1495685 0.0870960
0.3484601 0.1470756 0.0647275
0.4012255 0.1522884 0.0514138
0.4160287 0.1508223 0.0577638
0.3995452 0.1464068 0.0808253
0.4265714 0.1595886 0.0791774
0.4848768 0.1792633 0.0739236
0.5301353 0.1871175 0.0707774
0.5636834 0.1956648 0.0678461
0.5939599 0.2014754 0.0566426
0.6220629 0.2009595 0.0451873
0.6467146 0.2079098 0.0483069
0.6727847 0.2169262 0.0514140
0.6945109 0.2146775 0.0471626
0.7175379 0.2057019 0.0424979
0.7446204 0.1940249 0.0377899
0.7787696 0.1802348 0.0311666
0.8187786 0.1604277 0.0204032
0.8613801 0.1350273 0.0110739
0.9104269 0.0948617 0.0016935
0.0000000 0.1286099 0.0000000
0.0921409 0.2288251 0.0032273
0.0914710 0.1931673 0.0209020
0.1231918 0.1995659 0.0540123
0.1544257 0.2160547 0.0571437
0.1400459 0.1825507 0.0326167
0.1128787 0.1331144 0.0355384
0.1332341 0.1348460 0.0467437
0.2917325 0.2411589 0.0595004
0.4259609 0.3125689 0.0297235
0.4546329 0.3060858 0.0147070
0.4245994 0.2884936 0.0873336
0.3216211 0.2028220 0.1101806
0.2745761 0.1374626 0.0943524
0.3324453 0.1625176 0.0941612
0.3676154 0.1608330 0.0649680
0.4189739 0.1641787 0.0453082
0.4425589 0.1692842 0.0594935
0.4320580 0.1607867 0.0807339
0.4709808 0.1711720 0.0801578
0.5185366 0.1880041 0.0808729
0.5270721 0.1888524 0.0827640
0.5484401 0.1916842 0.0754041
0.5897985 0.2011042 0.0606566
0.6339647 0.2179018 0.0542991
0.6694649 0.2378835 0.0551898
0.6879096 0.2397828 0.0494817
0.7097460 0.2376822 0.0476904
0.7377551 0.2306217 0.0446144
0.7684467 0.2159226 0.0388122
0.8066764 0.1919144 0.0249920
0.8529058 0.1651084 0.0139270
0.9096929 0.1271487 0.0052042
0.0005738 0.1779269 0.0000000
0.1008513 0.2667358 0.0034773
0.1182885 0.2459192 0.0231877
0.1441905 0.2415829 0.0541870
0.1953819 0.2729942 0.0843504
0.2327975 0.2958279 0.0810267
0.2169601 0.2606626 0.0551124
0.1694897 0.1943936 0.0362231
0.1672708 0.1776095 0.0397811
0.2793785 0.2578895 0.0788715
0.4467509 0.3517272 0.0614014
0.5049680 0.3602427 0.0259676
0.4811515 0.3316241 0.0752633
0.3481658 0.2184212 0.1052134
0.2909833 0.1512832 0.0899590
0.3430256 0.1736867 0.0858280
0.3762814 0.1750150 0.0652457
0.4411420 0.1838481 0.0548285
0.5023142 0.1952137 0.0503572
0.5308295 0.1972871 0.0607748
0.5582995 0.2071548 0.0771165
0.5558286 0.2062702 0.0780372
0.5493574 0.2002989 0.0768429
0.5623469 0.2003748 0.0739212
0.6020176 0.2094499 0.0625530
0.6413400 0.2272171 0.0540550
0.6666950 0.2355223 0.0452629
0.6953657 0.2421973 0.0420532
0.7250130 0.2505866 0.0434820
0.7533693 0.2541211 0.0454058
0.7941179 0.2396470 0.0372776
0.8427914 0.2149823 0.0280132
0.9013308 0.1687966 0.0116179
0.0336202 0.2320861 0.0000000
0.1090540 0.2999188 0.0154221
0.1253526 0.2828120 0.0263862
0.1381608 0.2640441 0.0412905
0.1776266 0.2748118 0.0771544
0.2293260 0.3029650 0.0935024
0.2678738 0.3259917 0.0840964
0.2764162 0.3205961 0.0628002
0.2506934 0.2767288 0.0525719
0.2184775 0.2332742 0.0497529
0.2544344 0.2412304 0.0519538
0.4287069 0.3447354 0.0715504
0.5261982 0.3850334 0.0532530
0.4894500 0.3413487 0.0659523
0.3874722 0.2433892 0.0736525
0.3561958 0.1963509 0.0974295
0.3726971 0.2000386 0.0977536
0.3861022 0.1910657 0.0828364
0.4224759 0.1875513 0.0623143
0.4928991 0.2050313 0.0472837
0.5574536 0.2154358 0.0398173
0.6102909 0.2343376 0.0599334
0.6094995 0.2305260 0.0697449
0.5870778 0.2159714 0.0727633
0.6088362 0.2162708 0.0726675
0.6323445 0.2188174 0.0654680
0.6519999 0.2201911 0.0499948
0.6798786 0.2284667 0.0410256
0.7072849 0.2387838 0.0355090
0.7362691 0.2591755 0.0451079
0.7760848 0.2714713 0.0518784
0.8262741 0.2715639 0.0550979
0.8802991 0.2271744 0.0382697
0.0565718 0.2758565 0.0085735
0.1093268 0.3246496 0.0320897
0.1306513 0.3191206 0.0429014
0.1394561 0.2995048 0.0496578
0.1596954 0.2907654 0.0691275
0.1880229 0.2857295 0.0845386
0.2437256 0.3098424 0.0944540
0.2810353 0.3300704 0.0770397
0.3077592 0.3461051 0.0669391
0.2966770 0.3289959 0.0629818
0.2733231 0.2872483 0.0613288
0.2638224 0.2545472 0.0529689
0.3610343 0.3031197 0.0692824
0.5228403 0.4011827 0.0386529
0.5617382 0.4179470 0.0680097
0.4116667 0.2731379 0.1321463
0.4120365 0.2499803 0.1260214
0.4297032 0.2495586 0.1194969
0.4293331 0.2290342 0.0990635
0.4434092 0.2114194 0.0770706
0.4859115 0.2219110 0.0700911
0.5430313 0.2315717 0.0624685
0.6271908 0.2567474 0.0541322
0.6589424 0.2657200 0.0558019
0.6526462 0.2530885 0.0687826
0.6438181 0.2349593 0.0725794
0.6549045 0.2307103 0.0569113
0.6799808 0.2368493 0.0480172
0.7081246 0.2437551 0.0390104
0.7355273 0.2619833 0.0449670
0.7650038 0.2811583 0.0576346
0.8037492 0.3031785 0.0724439
0.8490918 0.3119482 0.0901417
0.0725850 0.3125779 0.0406825
0.1062037 0.3461036 0.0478559
0.1334607 0.3492198 0.0600307
0.1456878 0.3363365 0.0661591
0.1544322 0.3206185 0.0734073
0.1669139 0.3029272 0.0785948
0.1997585 0.3016316 0.0878561
0.2488039 0.3200871 0.0857297
0.2945466 0.3469430 0.0614120
0.3161098 0.3609409 0.0489767
0.3252482 0.3511555 0.0654832
0.3058900 0.3181178 0.0860487
0.2919269 0.2882296 0.0859813
0.3464346 0.3045496 0.1010446
0.4013589 0.3321803 0.1709467
0.3898909 0.3033461 0.2320885
0.4301212 0.2937650 0.1592911
0.4598273 0.2843826 0.0998883
0.4708283 0.2812628 0.1190076
0.4686726 0.2611662 0.1081473
0.4713714 0.2433507 0.0945584
0.5165034 0.2489815 0.0868856
0.5714692 0.2569199 0.0608609
0.6311052 0.2725634 0.0476636
0.7004596 0.3010536 0.0436658
0.6912607 0.2826037 0.0708647
0.6795119 0.2640761 0.0681518
0.7132481 0.2840593 0.0681801
0.7289901 0.2774657 0.0483843
0.7483764 0.2853470 0.0569776
0.7588726 0.2896891 0.0652040
0.7850393 0.3127771 0.0826308
0.8198285 0.3635899 0.1304286
0.0853466 0.3489992 0.0693801
0.1039074 0.3699507 0.0623030
0.1279527 0.3694109 0.0699907
0.1458296 0.3629553 0.0785603
0.1570478 0.3515137 0.0854820
0.1682751 0.3382811 0.0925132
0.1793781 0.3230656 0.0959069
0.2053755 0.3194588 0.1007952
0.2563132 0.3406738 0.0813707
0.3048995 0.3730323 0.0615735
0.3226495 0.3712583 0.0623774
0.3239380 0.3519160 0.0902583
0.3096645 0.3221200 0.1139996
0.3285180 0.3189136 0.1393668
0.3477138 0.3168069 0.1756499
0.3721070 0.3199497 0.2255986
0.4116518 0.3173134 0.2127776
0.4657123 0.3125112 0.1175373
0.4939327 0.3099403 0.0936423
0.5139453 0.3150242 0.1267076
0.4920186 0.2858622 0.1219119
0.5163832 0.2795608 0.1070141
0.5746293 0.2875317 0.0682404
0.6269406 0.3028435 0.0475982
0.6387770 0.2964226 0.0530529
0.6931458 0.3224408 0.0588793
0.7412867 0.3303914 0.0377132
0.8433676 0.4134908 0.0980580
0.8298269 0.3884955 0.0808830
0.8088918 0.3634482 0.0882171
0.7743104 0.3256854 0.0894826
0.7811719 0.3246288 0.0955367
0.8160468 0.3711687 0.1344940
0.0891083 0.3753735 0.0888402
0.1005641 0.3902078 0.0738835
0.1222710 0.3892663 0.0759740
0.1429670 0.3855654 0.0835487
0.1585453 0.3784627 0.0909678
0.1683830 0.3653857 0.0992268
0.1756437 0.3518981 0.1046831
0.1894667 0.3397219 0.1109028
0.2148169 0.3372451 0.1009093
0.2578333 0.3608200 0.0855818
0.2998769 0.3789704 0.0760541
0.3199925 0.3741650 0.0909470
0.3183280 0.3536417 0.1188977
0.3289654 0.3390243 0.1451068
0.3517259 0.3345001 0.1516897
0.3765883 0.3359410 0.1638923
0.4107631 0.3426650 0.1766811
0.4575915 0.3466105 0.1619644
0.5029791 0.3484386 0.1308376
0.5362527 0.3511040 0.1299738
0.5618821 0.3549107 0.1403614
0.5272787 0.3220281 0.1416142
0.5661391 0.3321098 0.1373313
0.5929544 0.3225545 0.0976862
0.6143964 0.3186827 0.0807629
0.6337501 0.3179781 0.0837213
0.6859968 0.3356060 0.0819575
0.7414488 0.3534570 0.0646512
0.8801447 0.4689702 0.1112694
0.9143685 0.5083405 0.1787331
0.8041071 0.3870957 0.1374455
0.7714895 0.3265547 0.1005968
0.8183638 0.3462890 0.1086288
0.0850425 0.3952239 0.0942600
0.0908914 0.4035512 0.0755964
0.1141798 0.4055212 0.0770228
0.1352157 0.4023107 0.0820344
0.1536460 0.3972664 0.0881753
0.1687116 0.3895621 0.0964640
0.1782187 0.3787808 0.1046863
0.1856688 0.3656560 0.1104042
0.2047234 0.3644253 0.1193670
0.2213478 0.3598122 0.1118481
0.2587920 0.3681181 0.1000483
0.3028883 0.3811123 0.1048777
0.3196607 0.3803065 0.1121735
0.3337004 0.3664348 0.1335080
0.3567542 0.3579501 0.1481750
0.3932538 0.3646422 0.1386067
0.4160746 0.3657477 0.1291236
0.4477469 0.3657985 0.1374989
0.5020269 0.3825029 0.1369127
0.5340642 0.3784763 0.1313625
0.5769397 0.3880608 0.1294342
0.5988226 0.3919072 0.1385127
0.5905405 0.3733736 0.1504462
0.6372008 0.3886944 0.1506552
0.6282079 0.3582922 0.1128504
0.6213305 0.3384866 0.1077716
0.6431125 0.3401502 0.1281333
0.6796411 0.3426519 0.1096831
0.7257424 0.3624465 0.1134578
0.8838546 0.5242836 0.1983804
0.8131936 0.4405409 0.1763805
0.7445910 0.3166625 0.0875401
0.8139593 0.3286461 0.0850007
0.0803766 0.4140109 0.0957603
0.0820844 0.4173577 0.0740225
0.1019131 0.4174344 0.0717432
0.1249467 0.4157425 0.0759413
0.1446603 0.4113317 0.0803612
0.1631210 0.4053505 0.0880894
0.1801058 0.3999815 0.0978077
0.1903185 0.3908151 0.1046262
0.1989377 0.3801348 0.1079712
0.2129864 0.3791823 0.1108276
0.2464767 0.3833193 0.1109902
0.2770625 0.3842805 0.1069704
0.3169204 0.3970223 0.1115167
0.3364869 0.3914159 0.1265944
0.3601900 0.3890579 0.1393362
0.3929990 0.3873992 0.1389454
0.4188185 0.3903014 0.1215113
0.4474099 0.3883303 0.1183148
0.4781200 0.3921173 0.1146607
0.5194152 0.4030614 0.1270119
0.5608845 0.4068230 0.1149753
0.6115832 0.4182688 0.0997803
0.6375992 0.4220731 0.1132247
0.6731609 0.4358545 0.1593252
0.6833316 0.4213600 0.1416561
0.6720527 0.3894958 0.0921577
0.6750583 0.3818626 0.0953341
0.6929575 0.3888746 0.1099148
0.7040052 0.3777998 0.1148243
0.7604990 0.3990615 0.1198026
0.7859313 0.4088280 0.1288438
0.7418960 0.3332935 0.0852356
0.8185970 0.3370919 0.0709283
0.0739387 0.4309197 0.0960690
0.0742337 0.4328571 0.0711772
0.0912278 0.4315025 0.0652163
0.1149742 0.4297655 0.0677457
0.1366629 0.4264608 0.0707138
0.1573688 0.4222499 0.0757063
0.1766249 0.4172978 0.0826720
0.1929292 0.4106534 0.0908617
0.2024303 0.3959458 0.0953528
0.2072226 0.3866262 0.0943081
0.2342884 0.3953669 0.0915382
0.2691052 0.4052422 0.0972058
0.3041959 0.4093490 0.1071015
0.3352478 0.4093421 0.1160319
0.3576244 0.4079879 0.1195046
0.3900390 0.4093048 0.1210746
0.4069974 0.4020201 0.1212086
0.4475433 0.4091437 0.1149987
0.4694280 0.4048322 0.1092621
0.5032658 0.4135152 0.1095563
0.5420334 0.4267261 0.1169338
0.5927256 0.4370322 0.0993777
0.6335335 0.4443757 0.1002947
0.6650001 0.4493320 0.1275429
0.7000394 0.4540626 0.1450091
0.7190676 0.4500105 0.1493552
0.7167911 0.4285324 0.0999155
0.7125923 0.4130748 0.0655609
0.7168035 0.4175791 0.1180236
0.7390843 0.4099734 0.1266569
0.7909107 0.4250815 0.1156165
0.7903001 0.4022582 0.1090679
0.8419966 0.3682406 0.0754232
0.0705737 0.4577250 0.0970809
0.0695513 0.4586212 0.0698227
0.0851417 0.4580113 0.0615297
0.1092669 0.4566893 0.0624696
0.1320206 0.4540958 0.0637495
0.1535827 0.4505680 0.0662868
0.1755245 0.4465727 0.0712771
0.1948492 0.4378993 0.0775685
0.2091270 0.4221932 0.0854770
0.2174054 0.4090509 0.0975442
0.2359073 0.4086376 0.0940119
0.2540596 0.4095132 0.0763516
0.2834788 0.4136254 0.0818529
0.3230103 0.4251958 0.0907016
0.3527851 0.4247092 0.0986661
0.3833520 0.4284500 0.1037710
0.4071601 0.4293989 0.1078852
0.4372716 0.4228778 0.1087783
0.4726407 0.4312333 0.1075437
0.4961119 0.4303668 0.1043930
0.5346478 0.4472786 0.1057504
0.5774248 0.4608169 0.1041637
0.6224134 0.4753354 0.1172220
0.6623302 0.4813391 0.1132676
0.6902692 0.4778575 0.1166822
0.7227087 0.4798140 0.1507901
0.7422427 0.4768092 0.1457988
0.7382835 0.4549387 0.0934735
0.7377816 0.4427556 0.0775528
0.7453611 0.4466983 0.1320169
0.7692029 0.4475247 0.1398430
0.8031708 0.4604769 0.1303450
0.8620270 0.4202523 0.0820908
0.0686990 0.4858089 0.0981077
0.0679430 0.4863923 0.0704546
0.0815961 0.4861256 0.0592071
0.1064667 0.4853081 0.0594050
0.1302909 0.4835240 0.0595866
0.1529218 0.4803696 0.0601923
0.1755521 0.4759605 0.0622879
0.1958147 0.4672254 0.0646507
0.2118888 0.4512806 0.0674426
0.2228027 0.4366072 0.0822585
0.2565095 0.4416426 0.1176518
0.2834190 0.4485142 0.1218969
0.2968556 0.4401456 0.1071565
0.3086294 0.4305208 0.0876584
0.3426106 0.4358911 0.0897389
0.3769276 0.4461986 0.0868407
0.4067938 0.4490430 0.0905803
0.4350096 0.4440634 0.0970232
0.4548719 0.4386579 0.1070602
0.4908288 0.4477264 0.1083041
0.5177573 0.4532104 0.1088896
0.5573427 0.4722107 0.1027972
0.5983309 0.4902492 0.1154280
0.6416328 0.5022104 0.1235015
0.6784997 0.5044143 0.1197553
0.7073128 0.5027651 0.1345402
0.7342330 0.4982697 0.1418878
0.7576666 0.4949385 0.1413043
0.7587273 0.4811092 0.1050425
0.7648817 0.4722656 0.0749759
0.7637740 0.4705151 0.1494359
0.7826204 0.4801466 0.1663935
0.8355990 0.4744640 0.1333550
0.0688104 0.5151739 0.1007992
0.0682867 0.5151448 0.0726857
0.0799037 0.5152467 0.0581677
0.1052530 0.5147088 0.0576984
0.1296314 0.5132615 0.0569202
0.1531182 0.5106138 0.0561452
0.1759337 0.5059852 0.0558142
0.1972187 0.4977502 0.0554458
0.2173430 0.4856338 0.0563058
0.2255786 0.4684266 0.0624581
0.2456542 0.4593109 0.0845303
0.2885149 0.4741599 0.1230759
0.3215026 0.4838225 0.1329492
0.3288114 0.4656821 0.1009626
0.3472605 0.4517562 0.0873910
0.3773617 0.4583894 0.0851890
0.3992265 0.4571725 0.0852537
0.4280580 0.4590525 0.0972243
0.4518939 0.4560449 0.1080604
0.4750196 0.4534825 0.1180954
0.5119094 0.4668779 0.1227834
0.5355027 0.4746625 0.1243353
0.5748925 0.4953514 0.1251083
0.6186354 0.5156178 0.1415120
0.6553749 0.5218910 0.1469407
0.6926525 0.5264365 0.1408554
0.7208761 0.5228287 0.1380973
0.7547245 0.5225007 0.1404752
0.7726442 0.5189652 0.1384980
0.7759361 0.5064560 0.0881927
0.7833841 0.4999530 0.0858067
0.7809726 0.5048244 0.1717742
0.8164072 0.5062763 0.2018479
0.0703024 0.5434878 0.1035726
0.0701237 0.5445163 0.0758748
0.0794028 0.5449568 0.0578914
0.1049527 0.5445578 0.0567299
0.1298108 0.5434506 0.0552505
0.1540288 0.5413520 0.0535846
0.1776169 0.5374375 0.0518534
0.2002401 0.5306475 0.0498590
0.2212415 0.5199346 0.0480275
0.2304247 0.5046282 0.0493421
0.2406579 0.4872610 0.0538597
0.2622495 0.4791285 0.0696971
0.2931051 0.4801919 0.0832650
0.3317556 0.4878037 0.0985804
0.3542385 0.4801076 0.0974056
0.3751202 0.4748497 0.0882501
0.4031793 0.4807448 0.0912760
0.4243392 0.4761316 0.0980417
0.4529984 0.4770544 0.1111303
0.4785450 0.4771433 0.1190041
0.4943175 0.4660151 0.1194930
0.5376318 0.4932675 0.1269810
0.5629534 0.5006269 0.1283042
0.6076698 0.5260596 0.1369240
0.6460316 0.5400104 0.1553337
0.6739029 0.5433273 0.1648090
0.7085747 0.5483181 0.1429974
0.7415070 0.5472569 0.1243556
0.7719848 0.5462052 0.1255930
0.7867583 0.5436700 0.1411810
0.7883841 0.5299142 0.0992199
0.8007989 0.5197717 0.0668587
0.8399775 0.5229547 0.1682316
0.0741933 0.5739102 0.1092731
0.0733288 0.5747878 0.0803188
0.0800348 0.5753405 0.0592797
0.1057619 0.5751609 0.0571492
0.1309691 0.5744079 0.0549389
0.1556915 0.5728187 0.0526067
0.1799502 0.5697539 0.0499865
0.2036555 0.5646007 0.0470736
0.2261555 0.5562875 0.0438432
0.2367726 0.5433412 0.0421635
0.2452881 0.5260135 0.0396276
0.2528241 0.5047341 0.0356954
0.2655678 0.4873598 0.0340027
0.2914023 0.4806463 0.0427335
0.3155612 0.4726275 0.0476054
0.3468548 0.4751220 0.0527743
0.3783099 0.4837109 0.0641636
0.4136248 0.4905510 0.0820016
0.4449422 0.4944979 0.0933492
0.4712536 0.4902740 0.0984237
0.4865447 0.4826712 0.0971446
0.5079480 0.4834380 0.1019533
0.5554074 0.5147817 0.1004362
0.5928473 0.5346866 0.1076602
0.6344502 0.5547376 0.1239498
0.6655154 0.5637110 0.1541221
0.6964423 0.5674252 0.1559280
0.7299180 0.5691698 0.1407861
0.7525741 0.5659884 0.1612486
0.7754599 0.5670291 0.1753268
0.7878689 0.5598471 0.1582348
0.8155151 0.5495174 0.0843911
0.8731694 0.5447605 0.0235496
0.0777937 0.6046376 0.1136686
0.0770604 0.6055062 0.0850606
0.0812975 0.6061434 0.0613009
0.1072141 0.6061469 0.0588692
0.1327165 0.6057457 0.0558257
0.1578484 0.6046617 0.0527342
0.1826610 0.6024139 0.0495482
0.2071480 0.5986159 0.0459659
0.2309085 0.5925284 0.0419330
0.2433861 0.5830187 0.0391827
0.2537723 0.5692905 0.0348590
0.2615455 0.5503136 0.0278740
0.2682820 0.5282035 0.0181200
0.2766073 0.5056828 0.0098655
0.2869190 0.4844074 0.0000000
0.3112033 0.4785686 0.0017574
0.3348950 0.4779431 0.0086842
0.3710268 0.4839242 0.0249903
0.4141073 0.4977136 0.0491852
0.4444140 0.4996210 0.0610024
0.4663022 0.4995590 0.0630532
0.4890920 0.4989452 0.0647742
0.5147470 0.5027788 0.0664472
0.5743396 0.5418257 0.0710886
0.6190426 0.5651035 0.0896767
0.6575533 0.5814912 0.1111206
0.6913463 0.5874698 0.1296541
0.7233486 0.5910882 0.1375458
0.7433381 0.5922893 0.1746812
0.7627352 0.5900677 0.1971834
0.7820576 0.5849674 0.1961360
0.8126270 0.5781383 0.1476314
0.8790998 0.5782070 0.0256879
0.0823913 0.6362152 0.1200349
0.0814018 0.6366353 0.0906384
0.0831069 0.6373241 0.0640733
0.1091851 0.6375180 0.0614523
0.1349254 0.6374303 0.0581922
0.1603854 0.6368377 0.0542856
0.1856360 0.6353492 0.0503990
0.2106905 0.6326789 0.0463784
0.2352487 0.6282999 0.0418049
0.2489571 0.6213198 0.0384207
0.2612806 0.6113600 0.0338172
0.2713865 0.5972638 0.0269686
0.2793218 0.5790139 0.0173510
0.2848764 0.5565933 0.0053641
0.2933459 0.5353323 0.0000000
0.3050132 0.5188313 0.0000000
0.3157416 0.5054423 0.0000000
0.3427710 0.4999122 0.0000000
0.3789231 0.5041419 0.0000000
0.4170720 0.5152384 0.0142726
0.4488200 0.5215215 0.0267355
0.4756702 0.5240649 0.0328067
0.5075246 0.5313376 0.0405544
0.5425296 0.5408046 0.0475316
0.6071165 0.5828558 0.0630397
0.6457679 0.5991093 0.0820514
0.6818364 0.6076986 0.1046065
0.7141937 0.6139523 0.1317744
0.7421556 0.6184983 0.1675562
0.7640034 0.6218114 0.1930499
0.7843461 0.6139481 0.2065900
0.8188531 0.6053486 0.1527891
0.9027852 0.6070435 0.0000000
0.0871201 0.6659758 0.1256019
0.0859770 0.6675488 0.0963298
0.0851836 0.6685522 0.0671791
0.1114295 0.6689768 0.0645033
0.1373820 0.6691792 0.0611639
