catalog/styles/experimental/experimental-lamp/look.cube
# experimental-lamp iteration 6
LUT_3D_SIZE 5
DOMAIN_MIN 0 0 0
DOMAIN_MAX 1 1 1
0.0373554 0.0344429 0.0325829
0.0790914 0.0501746 0.0455520
0.3472599 0.1821410 0.1621367
0.5464315 0.2123943 0.2059988
0.7420910 0.2061484 0.2215401
0.0392471 0.0737523 0.0413897
0.1798307 0.1593968 0.0964849
0.3879179 0.2873837 0.1999968
0.5986519 0.3779248 0.2575841
0.8037727 0.4520301 0.2926066
0.0851715 0.1620402 0.0874614
0.2586883 0.2889647 0.1876831
0.4723341 0.4411383 0.2922812
0.6488329 0.5046476 0.2866894
0.8034285 0.5574830 0.2612058
0.0388774 0.1726589 0.0874672
0.1654039 0.2568164 0.1212322
0.3138571 0.3464361 0.1513960
0.5098527 0.4551128 0.1628521
0.7218093 0.5708668 0.1654291
0.0000000 0.1693224 0.0832683
0.0871756 0.2298703 0.0646556
0.2180087 0.3049404 0.0498772
0.3923744 0.4207612 0.0531014
0.5999000 0.5658014 0.0654443
0.0636857 0.0583201 0.0849810
0.0868966 0.0596230 0.0682006
0.2090822 0.1147440 0.1330910
0.4654761 0.2469881 0.2588944
0.7456622 0.3949264 0.3661820
0.1250167 0.1401916 0.1217504
0.1588557 0.1457835 0.1338937
0.2140498 0.1556650 0.1436803
0.4079587 0.2552168 0.2231394
0.6956719 0.3854410 0.3223094
0.1525133 0.2060898 0.1612853
0.2300501 0.2515087 0.1931876
0.3072858 0.2881531 0.2313113
0.4523126 0.3651442 0.2849062
0.6793574 0.4638182 0.3390132
0.1879738 0.2942230 0.2225270
0.2652666 0.3334008 0.2306627
0.3531077 0.3783471 0.2439555
0.5199784 0.4847034 0.3208229
0.7417894 0.6141435 0.3701821
0.1924110 0.3517557 0.2584305
0.2829090 0.3969424 0.2528417
0.3970115 0.4638304 0.2658229
0.5677453 0.5802432 0.3168219
0.8173408 0.7690044 0.4266982
0.1152460 0.1096903 0.2076935
0.0939355 0.0762456 0.1022574
0.1594607 0.0954101 0.1321944
0.3612876 0.1984425 0.2514858
0.6460561 0.3920820 0.4283124
0.1419868 0.1538899 0.1636685
0.1969027 0.1829041 0.1956080
0.2241190 0.1633013 0.1839260
0.4482994 0.3084314 0.3220643
0.6809200 0.4511694 0.4525513
0.2816138 0.3228648 0.2917757
0.3091925 0.3199961 0.2946066
0.3925358 0.3690483 0.3379402
0.5299304 0.4444747 0.4062236
0.7139163 0.5353833 0.4986853
0.3649410 0.4440253 0.3837265
0.3840639 0.4321842 0.3637105
0.4708004 0.4813869 0.4014392
0.6317009 0.5991254 0.5119379
0.7646254 0.6697809 0.5807191
0.4106295 0.5271459 0.4375903
0.4491103 0.5341705 0.4161988
0.5317420 0.5817805 0.4373692
0.7050731 0.7080826 0.5400494
0.9583036 0.9051240 0.7397328
0.2190510 0.1967274 0.3088658
0.1589271 0.1337617 0.2019763
0.1737519 0.1156279 0.1796125
0.3138173 0.1877272 0.2751927
0.5262230 0.3231165 0.4302689
0.2208266 0.2424616 0.3065030
0.2530399 0.2355110 0.2774880
0.2786442 0.2225328 0.2698888
0.4635444 0.3510745 0.4036783
0.6754060 0.5082012 0.5611658
0.3023683 0.3474337 0.3429850
0.3987236 0.4007399 0.4020520
0.5437493 0.5128591 0.5112813
0.6180398 0.5347120 0.5372707
0.7778802 0.6446684 0.6381597
0.5436415 0.5913505 0.5446853
0.4939491 0.5292907 0.4947370
0.5998971 0.6042976 0.5540316
0.7488290 0.7099602 0.6530952
0.8795546 0.7830802 0.7111743
0.6436086 0.7152015 0.6527639
0.6147489 0.6714144 0.5913988
0.6182091 0.6539115 0.5621183
0.7462904 0.7465573 0.6463580
0.9645514 0.9161307 0.8111053
0.4586288 0.4068838 0.5396029
0.2962779 0.2485891 0.3646684
0.2264480 0.1645307 0.2690728
0.2926186 0.1970461 0.3181317
0.4093649 0.2728788 0.4324910
0.5245732 0.5119035 0.5866535
0.3544644 0.3324740 0.3992314
0.4156439 0.3637468 0.4271649
0.5249324 0.4418252 0.5202401
0.6416926 0.5239282 0.6231585
0.5324904 0.5747341 0.6036012
0.3752215 0.3672127 0.3905052
0.5447283 0.5127276 0.5359871
0.7584464 0.6907188 0.7168389
0.8565019 0.7568217 0.7964747
0.4086378 0.4859171 0.4958642
0.5428582 0.5577283 0.5491221
0.5951513 0.5922263 0.5800772
0.8266251 0.7858393 0.7583243
1.0000000 0.9676914 0.9478612
0.9420169 0.9695912 0.9508696
0.8488717 0.8828596 0.8592155
0.7830072 0.8069483 0.7690999
0.8114051 0.8006481 0.7408448
1.0000000 1.0000000 0.9530277
