catalog/styles/experimental/experimental-lamp/look.cube
# experimental-lamp iteration 6
LUT_3D_SIZE 9
DOMAIN_MIN 0 0 0
DOMAIN_MAX 1 1 1
0.0373554 0.0344429 0.0325829
0.0628121 0.0507282 0.0411492
0.0790914 0.0501746 0.0455520
0.1976983 0.1078834 0.0978546
0.3472599 0.1821410 0.1621367
0.4586071 0.2127701 0.1932600
0.5464315 0.2123943 0.2059988
0.6412685 0.2082435 0.2147417
0.7420910 0.2061484 0.2215401
0.0212791 0.0318862 0.0250084
0.0569798 0.0545787 0.0505195
0.1424205 0.1029786 0.0637670
0.2214434 0.1450311 0.1036742
0.3073328 0.1838277 0.1421476
0.4216991 0.2341264 0.1816390
0.5522917 0.2865481 0.2216311
0.6710780 0.3198295 0.2475976
0.7782287 0.3393721 0.2627955
0.0392471 0.0737523 0.0413897
0.1044045 0.1139452 0.0753746
0.1798307 0.1593968 0.0964849
0.3951796 0.3337626 0.2344817
0.3879179 0.2873837 0.1999968
0.4768163 0.3203016 0.2220800
0.5986519 0.3779248 0.2575841
0.7065559 0.4200097 0.2789408
0.8037727 0.4520301 0.2926066
0.0717582 0.1261030 0.0694514
0.1744754 0.2027334 0.1292531
0.2673350 0.2702060 0.1850115
0.3289667 0.3042353 0.2063124
0.5254363 0.4540436 0.3137745
0.5980193 0.4711173 0.3169972
0.6523138 0.4663347 0.2938673
0.7282056 0.4891278 0.2891829
0.8113059 0.5221306 0.2915257
0.0851715 0.1620402 0.0874614
0.1696920 0.2243361 0.1343069
0.2586883 0.2889647 0.1876831
0.3513996 0.3553919 0.2407660
0.4723341 0.4411383 0.2922812
0.5843565 0.4996032 0.3133927
0.6488329 0.5046476 0.2866894
0.7213711 0.5245473 0.2699119
0.8034285 0.5574830 0.2612058
0.0696331 0.1733588 0.0906503
0.1380367 0.2219325 0.1207743
0.2126162 0.2750575 0.1560971
0.2964770 0.3330312 0.1948954
0.3827878 0.3852881 0.2188584
0.4818038 0.4377624 0.2295441
0.5835158 0.4850411 0.2293392
0.6796265 0.5277044 0.2227486
0.7748687 0.5718146 0.2161391
0.0388774 0.1726589 0.0874672
0.1010828 0.2143188 0.1041311
0.1654039 0.2568164 0.1212322
0.2346701 0.3001566 0.1376964
0.3138571 0.3464361 0.1513960
0.4068712 0.3987097 0.1598903
0.5098527 0.4551128 0.1628521
0.6153674 0.5123019 0.1632743
0.7218093 0.5708668 0.1654291
0.0052691 0.1706242 0.0847696
0.0646462 0.2064815 0.0885457
0.1245538 0.2420569 0.0914196
0.1886070 0.2794183 0.0939245
0.2629570 0.3232349 0.0979793
0.3505182 0.3759253 0.1027305
0.4489859 0.4360621 0.1061665
0.5535175 0.5006920 0.1099072
0.6600911 0.5671503 0.1154435
0.0000000 0.1693224 0.0832683
0.0293049 0.1992971 0.0741225
0.0871756 0.2298703 0.0646556
0.1486402 0.2637013 0.0557931
0.2180087 0.3049404 0.0498772
0.2989794 0.3571476 0.0490504
0.3923744 0.4207612 0.0531014
0.4945058 0.4919852 0.0592675
0.5999000 0.5658014 0.0654443
0.0638714 0.0609448 0.0683902
0.0669154 0.0562702 0.0616887
0.0870058 0.0577618 0.0599370
0.1548878 0.0875222 0.0902339
0.2630332 0.1417805 0.1426429
0.3890247 0.1995594 0.1974775
0.5192195 0.2496848 0.2473156
0.6374002 0.2788772 0.2758030
0.7401889 0.2900005 0.2816543
0.0667211 0.0747133 0.0649498
0.1008410 0.0937144 0.0856579
0.1000973 0.0828107 0.0860081
0.1309866 0.0869392 0.0887653
0.2236207 0.1345902 0.1237061
0.3397999 0.1939743 0.1719972
0.4740654 0.2559605 0.2211829
0.6103129 0.3124927 0.2635591
0.7469182 0.3664904 0.3030696
0.0829887 0.1031159 0.0773591
0.1384393 0.1402090 0.1133111
0.1425407 0.1309342 0.1094995
0.1465845 0.1162873 0.0994108
0.2038229 0.1398055 0.1109799
0.3185802 0.2056116 0.1605131
0.4622916 0.2833315 0.2134475
0.6051069 0.3541546 0.2615246
0.7451539 0.4179471 0.3062594
0.1036820 0.1421954 0.1002058
0.1749775 0.1954667 0.1447979
0.2140601 0.2174794 0.1651462
0.2301068 0.2140602 0.1656026
0.3072372 0.2634109 0.2028707
0.3742587 0.2870306 0.2097010
0.5093026 0.3545205 0.2424724
0.6460118 0.4298267 0.2900505
0.7438169 0.4648743 0.3055014
0.1216229 0.1852701 0.1266809
0.1789870 0.2244710 0.1543314
0.2241407 0.2532691 0.1725138
0.2627219 0.2729744 0.1866262
0.3271154 0.3077265 0.2168409
0.4298262 0.3694486 0.2571688
0.5394521 0.4216676 0.2722795
0.6604246 0.4820555 0.2968784
0.7389498 0.5078821 0.2977105
0.1225066 0.2134928 0.1432763
0.1728910 0.2456038 0.1601311
0.2224053 0.2772637 0.1755515
0.2739341 0.3087440 0.1907739
0.3347412 0.3409707 0.2105210
0.4215366 0.3892235 0.2381858
0.5342053 0.4538925 0.2666656
0.6365485 0.5028997 0.2755573
0.7292538 0.5446401 0.2794484
0.1118535 0.2317439 0.1535760
0.1621136 0.2622356 0.1635782
0.2138869 0.2936388 0.1738773
0.2679423 0.3251356 0.1833680
0.3284835 0.3584018 0.1938319
0.4086116 0.4044394 0.2135192
0.5131719 0.4679478 0.2406547
0.6235826 0.5325354 0.2596473
0.7275484 0.5897867 0.2687711
0.0975735 0.2468418 0.1623601
0.1487072 0.2757032 0.1650491
0.2009282 0.3050897 0.1677945
0.2559953 0.3358803 0.1706152
0.3185083 0.3716413 0.1760309
0.3965297 0.4193030 0.1896104
0.4946071 0.4827034 0.2123709
0.6073716 0.5570066 0.2368822
0.7239867 0.6336075 0.2584478
0.0825691 0.2610531 0.1708369
0.1342278 0.2877519 0.1655152
0.1870425 0.3153882 0.1606077
0.2441757 0.3469104 0.1579539
0.3097616 0.3862657 0.1600705
0.3873582 0.4366157 0.1688254
0.4806357 0.5010438 0.1860845
0.5909647 0.5806626 0.2125015
0.7115928 0.6692852 0.2440587
0.0636857 0.0583201 0.0849810
0.0764970 0.0628646 0.0778426
0.0868966 0.0596230 0.0682006
0.1245820 0.0716442 0.0848694
0.2090822 0.1147440 0.1330910
0.3258823 0.1747498 0.1929032
0.4654761 0.2469881 0.2588944
0.6075271 0.3203696 0.3177187
0.7456622 0.3949264 0.3661820
0.0753572 0.0799141 0.0786290
0.1133243 0.1041163 0.1059383
0.1400302 0.1195074 0.1236455
0.1466070 0.1073701 0.1151767
0.2040590 0.1281004 0.1339766
0.3179314 0.1916732 0.1909728
0.4380602 0.2510469 0.2420458
0.5689793 0.3139486 0.2908561
0.7194856 0.3953028 0.3522659
0.1250167 0.1401916 0.1217504
0.1552556 0.1525869 0.1369092
0.1588557 0.1457835 0.1338937
0.1738549 0.1443184 0.1365737
0.2140498 0.1556650 0.1436803
0.2980559 0.1988817 0.1783633
0.4079587 0.2552168 0.2231394
0.5402528 0.3173771 0.2693371
0.6956719 0.3854410 0.3223094
0.1294131 0.1597612 0.1303887
0.1878436 0.2006485 0.1653452
0.2170358 0.2173250 0.1812887
0.2316775 0.2150098 0.1837260
0.2623766 0.2252340 0.1958763
0.3110321 0.2410502 0.1965135
0.4013998 0.2789385 0.2156423
0.5516638 0.3600832 0.2766701
0.6914580 0.4137998 0.3188832
0.1525133 0.2060898 0.1612853
0.1992643 0.2350017 0.1827682
0.2300501 0.2515087 0.1931876
0.2531725 0.2594232 0.1988793
0.3072858 0.2881531 0.2313113
0.3900829 0.3426809 0.2802101
0.4523126 0.3651442 0.2849062
0.5569182 0.3990413 0.2784870
0.6793574 0.4638182 0.3390132
0.1760262 0.2553716 0.1960283
0.2144483 0.2759856 0.2059711
0.2490734 0.2939591 0.2127403
0.2827076 0.3104566 0.2184128
0.3303999 0.3346583 0.2367788
0.4048445 0.3796803 0.2814731
0.5106654 0.4486930 0.3259068
0.6051208 0.4965319 0.3536288
0.6907015 0.5248316 0.3590838
0.1879738 0.2942230 0.2225270
0.2257559 0.3130489 0.2260758
0.2652666 0.3334008 0.2306627
0.3077269 0.3556939 0.2365854
0.3531077 0.3783471 0.2439555
0.4183238 0.4160379 0.2702453
0.5199784 0.4847034 0.3208229
0.6379691 0.5608138 0.3678076
0.7417894 0.6141435 0.3701821
0.1915765 0.3245801 0.2418399
0.2323923 0.3446483 0.2416652
0.2754570 0.3665954 0.2430604
0.3226189 0.3917676 0.2470926
0.3760652 0.4217440 0.2555489
0.4441220 0.4637055 0.2757418
0.5383872 0.5277999 0.3157885
0.6567194 0.6097401 0.3619687
0.7870512 0.6969347 0.3952661
0.1924110 0.3517557 0.2584305
0.2365783 0.3733788 0.2547615
0.2829090 0.3969424 0.2528417
0.3349927 0.4258275 0.2555593
0.3970115 0.4638304 0.2658229
0.4729936 0.5140707 0.2855402
0.5677453 0.5802432 0.3168219
0.6852359 0.6671782 0.3646331
0.8173408 0.7690044 0.4266982
0.0925898 0.0786669 0.1483597
0.0786769 0.0661060 0.0970486
0.0784862 0.0573453 0.0722772
0.1082082 0.0682768 0.0866695
0.1757897 0.0994586 0.1291257
0.2747005 0.1468460 0.1833119
0.4061522 0.2205333 0.2532023
0.5546130 0.3149203 0.3327379
0.7072742 0.4203482 0.4166331
0.0871247 0.0887109 0.1073303
0.1352368 0.1254235 0.1401655
0.1506453 0.1310275 0.1416043
0.1521830 0.1148134 0.1277709
0.1953382 0.1240886 0.1419443
0.2989298 0.1807723 0.1988292
0.4250577 0.2550606 0.2676157
0.5516739 0.3278325 0.3297184
0.6898545 0.4105013 0.3976399
0.1497035 0.1600717 0.1515650
0.1666648 0.1627626 0.1590363
0.1857937 0.1724525 0.1705845
0.1952597 0.1643828 0.1651646
0.2284714 0.1669997 0.1695749
0.3240815 0.2222808 0.2196387
0.4381362 0.2908728 0.2809308
0.5493709 0.3458805 0.3279328
0.6834126 0.4093694 0.3818395
0.1687869 0.1973685 0.1746453
0.2199497 0.2271744 0.2042908
0.2446233 0.2407954 0.2179857
0.2563862 0.2379598 0.2181434
0.2915893 0.2510378 0.2324897
0.3539020 0.2805195 0.2542252
0.4522124 0.3344587 0.2958031
0.5547374 0.3800194 0.3359559
0.6814965 0.4248384 0.3761592
0.1932014 0.2405147 0.2048043
0.2428586 0.2699857 0.2316367
0.2740516 0.2864851 0.2460868
0.2879480 0.2870749 0.2451398
0.3298156 0.3093796 0.2668730
0.4054710 0.3577946 0.3109533
0.4929702 0.4051917 0.3376426
0.5802737 0.4451755 0.3770826
0.6829463 0.4774405 0.4103249
0.2405340 0.3098942 0.2586896
0.2698974 0.3213593 0.2651666
0.2964260 0.3310457 0.2700820
0.3250584 0.3427016 0.2771841
0.3740194 0.3708669 0.3006269
0.4596426 0.4320436 0.3581359
0.5213579 0.4688431 0.3948830
0.5882957 0.5046285 0.4297594
0.7093824 0.5588723 0.4734920
0.2713236 0.3642022 0.2983849
0.2953209 0.3705273 0.2951860
0.3221210 0.3793396 0.2943492
0.3570613 0.3952654 0.3005540
0.4086712 0.4258812 0.3221492
0.4741630 0.4687014 0.3595286
0.5474127 0.5182890 0.4070806
0.6355183 0.5768210 0.4613260
0.7606104 0.6483492 0.5104837
0.2889657 0.4050979 0.3252166
0.3159830 0.4135613 0.3192660
0.3473230 0.4259618 0.3170636
0.3878531 0.4466673 0.3231145
0.4405709 0.4783219 0.3406852
0.5068904 0.5218852 0.3717692
0.5921929 0.5817665 0.4203569
0.6999981 0.6572734 0.4793311
0.8352141 0.7460565 0.5330991
0.3016022 0.4404583 0.3467433
0.3340216 0.4533579 0.3403963
0.3701517 0.4698434 0.3376195
0.4149960 0.4944939 0.3430037
0.4723999 0.5305661 0.3596286
0.5476693 0.5819764 0.3904968
0.6470166 0.6531741 0.4390787
0.7707235 0.7461992 0.5103865
0.9079014 0.8577187 0.6082340
0.1152460 0.1096903 0.2076935
0.0953276 0.0838886 0.1341433
0.0939355 0.0762456 0.1022574
0.1094854 0.0777421 0.1017069
0.1594607 0.0954101 0.1321944
0.2433891 0.1313313 0.1813995
0.3612876 0.1984425 0.2514858
0.4999311 0.2900908 0.3365328
0.6460561 0.3920820 0.4283124
0.1029496 0.1085310 0.1536943
0.1405833 0.1340602 0.1655165
0.1556112 0.1377705 0.1605405
0.1519162 0.1171996 0.1412991
0.1855606 0.1198271 0.1511268
0.2783185 0.1697633 0.2057165
0.4040305 0.2500687 0.2842653
0.5338472 0.3351826 0.3630797
0.6628555 0.4192363 0.4390968
0.1419868 0.1538899 0.1636685
0.1848808 0.1830870 0.1948878
0.1969027 0.1829041 0.1956080
0.1896411 0.1585007 0.1749479
0.2241190 0.1633013 0.1839260
0.3226331 0.2232238 0.2424451
0.4482994 0.3084314 0.3220643
0.5658237 0.3823913 0.3901564
0.6809200 0.4511694 0.4525513
0.2160178 0.2354085 0.2243094
0.2553471 0.2603195 0.2512273
0.2453675 0.2405837 0.2353320
0.2928946 0.2717734 0.2667052
0.3129966 0.2670760 0.2648832
0.3837660 0.3060858 0.3026488
0.4937545 0.3779825 0.3671006
0.5966081 0.4364165 0.4205626
0.6992838 0.4905612 0.4720468
0.2816138 0.3228648 0.2917757
0.3041499 0.3262231 0.2997211
0.3091925 0.3199961 0.2946066
0.3678750 0.3639818 0.3326653
0.3925358 0.3690483 0.3379402
0.4437381 0.3940405 0.3635023
0.5299304 0.4444747 0.4062236
0.6388874 0.5088307 0.4621832
0.7139163 0.5353833 0.4986853
0.3285238 0.3888159 0.3430312
0.3369774 0.3809199 0.3366099
0.3463070 0.3753946 0.3306692
0.3739539 0.3867951 0.3386410
0.4257534 0.4189414 0.3646907
0.5329305 0.5000061 0.4403709
0.5454357 0.4917712 0.4327191
0.6644317 0.5702383 0.4950363
0.7255210 0.5957375 0.5368847
0.3649410 0.4440253 0.3837265
0.3708279 0.4349541 0.3709771
0.3840639 0.4321842 0.3637105
0.4138613 0.4443356 0.3705291
0.4708004 0.4813869 0.4014392
0.5698559 0.5586661 0.4721205
0.6317009 0.5991254 0.5119379
0.6534984 0.5972999 0.5121189
0.7646254 0.6697809 0.5807191
0.3908798 0.4889268 0.4139591
0.4004266 0.4832345 0.3992930
0.4169297 0.4837841 0.3905573
0.4496053 0.4990548 0.3962849
0.5059756 0.5362150 0.4243352
0.5858771 0.5949960 0.4753256
0.6711915 0.6575507 0.5327825
0.7482475 0.7074874 0.5807888
0.8458475 0.7641970 0.6377402
0.4106295 0.5271459 0.4375903
0.4277332 0.5286342 0.4247472
0.4491103 0.5341705 0.4161988
0.4816393 0.5500530 0.4185331
0.5317420 0.5817805 0.4373692
0.6039110 0.6326621 0.4759481
0.7050731 0.7080826 0.5400494
0.8306890 0.8042630 0.6306630
0.9583036 0.9051240 0.7397328
0.1492584 0.1397165 0.2447462
0.1313634 0.1171914 0.1854088
0.1198508 0.1006291 0.1454466
0.1259192 0.0946970 0.1329609
0.1592727 0.1010362 0.1483119
0.2294652 0.1299508 0.1921799
0.3323002 0.1884884 0.2597416
0.4540885 0.2673646 0.3412225
0.5837379 0.3542069 0.4287601
0.1432978 0.1489845 0.2200905
0.1594929 0.1535578 0.2047924
0.1662996 0.1482209 0.1872126
0.1636543 0.1291479 0.1673495
0.1906244 0.1292318 0.1741959
0.2724461 0.1744624 0.2260906
0.3890130 0.2519251 0.3058139
0.5131372 0.3378595 0.3909706
0.6357905 0.4228946 0.4743684
0.1464564 0.1671507 0.2053542
0.1975468 0.1983852 0.2297637
0.2157767 0.2003538 0.2285425
0.2063946 0.1738873 0.2050867
0.2336340 0.1755592 0.2119684
0.3265318 0.2345031 0.2726034
0.4517109 0.3238845 0.3594255
0.5706234 0.4088400 0.4406289
0.6819034 0.4869002 0.5151251
0.2281965 0.2525906 0.2635264
0.2719159 0.2778447 0.2865305
0.2682655 0.2608518 0.2722193
0.3020222 0.2789604 0.2903836
0.3348189 0.2882105 0.3029232
0.4051805 0.3281688 0.3448789
0.5147776 0.4042498 0.4174944
0.6205709 0.4772231 0.4852848
0.7200081 0.5448999 0.5483485
0.3576414 0.3911681 0.3727373
0.3462458 0.3652420 0.3524954
0.3255165 0.3364851 0.3285760
0.4042762 0.3988051 0.3866981
0.4827382 0.4516833 0.4356631
0.4990099 0.4438514 0.4300721
0.5610039 0.4760862 0.4626289
0.6554556 0.5363474 0.5159931
0.7523899 0.5992802 0.5739495
0.4292643 0.4786749 0.4380247
0.3991130 0.4369151 0.4041101
0.3975358 0.4241687 0.3937148
0.4375717 0.4486737 0.4147090
0.5307324 0.5203659 0.4779517
0.5710257 0.5378037 0.4924157
0.5820390 0.5258233 0.4843638
0.6797333 0.5880888 0.5356376
0.7804731 0.6546713 0.5984584
0.4661979 0.5298463 0.4750159
0.4457700 0.4993733 0.4473246
0.4397208 0.4813330 0.4290769
0.4714583 0.4974195 0.4396288
0.5400466 0.5466935 0.4818373
0.6418463 0.6274343 0.5570800
0.7260376 0.6881160 0.6151954
0.7104949 0.6469188 0.5715488
0.8087821 0.7126480 0.6312097
0.4946135 0.5730720 0.5058932
0.4862113 0.5540378 0.4828242
0.4849309 0.5409571 0.4647205
0.5044866 0.5462440 0.4634256
0.5589200 0.5832464 0.4929764
0.6529702 0.6567299 0.5595473
0.7590853 0.7404388 0.6388431
0.7977002 0.7559118 0.6563873
0.8763767 0.7995785 0.6967629
0.5220966 0.6154269 0.5361296
0.5229831 0.6050616 0.5146811
0.5269703 0.5973328 0.4964556
0.5409752 0.5984439 0.4884208
0.5754933 0.6178600 0.4998949
0.6378119 0.6619503 0.5372865
0.7315659 0.7335377 0.6049601
0.8537219 0.8292719 0.7016832
0.9635436 0.9132834 0.7939556
0.2190510 0.1967274 0.3088658
0.1889598 0.1666003 0.2541481
0.1589271 0.1337617 0.2019763
0.1503277 0.1143636 0.1742866
0.1737519 0.1156279 0.1796125
0.2298857 0.1394327 0.2156063
0.3138173 0.1877272 0.2751927
0.4158947 0.2522935 0.3496576
0.5262230 0.3231165 0.4302689
0.2363007 0.2313393 0.3254281
0.2135492 0.2025479 0.2724612
0.1970121 0.1756992 0.2324389
0.1924660 0.1556220 0.2094198
0.2180891 0.1587363 0.2169907
0.2873354 0.1990558 0.2641290
0.3860608 0.2660275 0.3367687
0.4944593 0.3421572 0.4176001
0.6037763 0.4192948 0.4992734
0.2208266 0.2424616 0.3065030
0.2424633 0.2430082 0.2924380
0.2530399 0.2355110 0.2774880
0.2517276 0.2170567 0.2597330
0.2786442 0.2225328 0.2698888
0.3574612 0.2741981 0.3253673
0.4635444 0.3510745 0.4036783
0.5713366 0.4308771 0.4837168
0.6754060 0.5082012 0.5611658
0.1813076 0.2346049 0.2688779
0.2873412 0.2968628 0.3214761
0.3321785 0.3209247 0.3423603
0.3563189 0.3304006 0.3533653
0.3909160 0.3448859 0.3715655
0.4518837 0.3792377 0.4092881
0.5432587 0.4424033 0.4728458
0.6399036 0.5135252 0.5414955
0.7334367 0.5830795 0.6077706
0.3023683 0.3474337 0.3429850
0.3410532 0.3590148 0.3582421
0.3987236 0.4007399 0.4020520
0.4898888 0.4813689 0.4808720
0.5437493 0.5128591 0.5112813
0.5644245 0.5074185 0.5085241
0.6180398 0.5347120 0.5372707
0.6934430 0.5850500 0.5848297
0.7778802 0.6446684 0.6381597
0.4869248 0.5311395 0.4994596
0.4189380 0.4497809 0.4288592
0.4372387 0.4606504 0.4480503
0.4875249 0.4972817 0.4777605
0.6215875 0.6088598 0.5807234
0.6848111 0.6460834 0.6146412
0.6869059 0.6254643 0.5967620
0.7291417 0.6423907 0.6123529
0.8242128 0.7085744 0.6679753
0.5436415 0.5913505 0.5446853
0.5062824 0.5488117 0.5103480
0.4939491 0.5292907 0.4947370
0.5074111 0.5303027 0.4916730
0.5998971 0.6042976 0.5540316
0.7630189 0.7425522 0.6820773
0.7488290 0.7099602 0.6530952
0.7555276 0.6924916 0.6347326
0.8795546 0.7830802 0.7111743
0.5914416 0.6486199 0.5933727
0.5691339 0.6221587 0.5667770
0.5525541 0.5983673 0.5404136
0.5578828 0.5926451 0.5293629
0.5994635 0.6190849 0.5489791
0.6890990 0.6895616 0.6125694
0.7775723 0.7578190 0.6775513
0.8118438 0.7695803 0.6883764
0.9110397 0.8364692 0.7488220
0.6436086 0.7152015 0.6527639
0.6285394 0.6928164 0.6212243
0.6147489 0.6714144 0.5913988
0.6082328 0.6556374 0.5689442
0.6182091 0.6539115 0.5621183
0.6586435 0.6793140 0.5829305
0.7462904 0.7465573 0.6463580
0.8587242 0.8345373 0.7324714
0.9645514 0.9161307 0.8111053
0.3319568 0.2948654 0.4179178
0.2745832 0.2400516 0.3464167
0.2207145 0.1854240 0.2776721
0.1918030 0.1482392 0.2324846
0.1984555 0.1383167 0.2222766
0.2373643 0.1541494 0.2455889
0.3014699 0.1913670 0.2950725
0.3821258 0.2422634 0.3608723
0.4684889 0.2976362 0.4320315
0.3740363 0.3531239 0.4542085
0.3000938 0.2795719 0.3646548
0.2570625 0.2298161 0.3040606
0.2440351 0.2037731 0.2734466
0.2652738 0.2070738 0.2782673
0.3188851 0.2389236 0.3163002
0.3938212 0.2895902 0.3754938
0.4785471 0.3487188 0.4441537
0.5662664 0.4102820 0.5156951
0.3579737 0.3637590 0.4378975
0.3215798 0.3165918 0.3788659
0.3023809 0.2826469 0.3370172
0.3093700 0.2733158 0.3258673
0.3462290 0.2920996 0.3475931
0.4102687 0.3353706 0.3960477
0.4897485 0.3923663 0.4585344
0.5746214 0.4546599 0.5259811
0.6604640 0.5182610 0.5945943
0.3363817 0.3768319 0.4242370
0.3252824 0.3347781 0.3718636
0.3494074 0.3368222 0.3685380
0.3941835 0.3660181 0.3978940
0.4506090 0.4053462 0.4405041
0.5144561 0.4480626 0.4872867
0.5888752 0.5002966 0.5430881
0.6673561 0.5578814 0.6029410
0.7438066 0.6145069 0.6613173
0.2298814 0.2983982 0.3217702
0.3335383 0.3493583 0.3602364
0.3763801 0.3750292 0.3864621
0.4856886 0.4731369 0.4851290
0.5654687 0.5340571 0.5445871
0.6270250 0.5727385 0.5848583
0.6896220 0.6129690 0.6276907
0.7526624 0.6557084 0.6720139
0.8115717 0.6956062 0.7122396
0.3392987 0.4071025 0.3985455
0.4161025 0.4348399 0.4258003
0.4992278 0.5140061 0.5153410
0.5413007 0.5498620 0.5515434
0.6353745 0.6192526 0.6069187
0.7430652 0.7045599 0.6853457
0.7896946 0.7286746 0.7122421
0.8168730 0.7358216 0.7228829
0.8736495 0.7727146 0.7578464
0.5510199 0.5835830 0.5523564
0.5271086 0.5593664 0.5360905
0.5430578 0.5681668 0.5483174
0.5621608 0.5788955 0.5565984
0.6240533 0.6243959 0.5923021
0.7700443 0.7509596 0.7110107
0.8229789 0.7815026 0.7396329
0.8452510 0.7836384 0.7437843
0.9439883 0.8594749 0.8125237
0.6681246 0.7073514 0.6707541
0.6404948 0.6806031 0.6445530
0.6200491 0.6559880 0.6179043
0.6175681 0.6444890 0.6013191
0.6381432 0.6529689 0.6037235
0.6813271 0.6806118 0.6272695
0.7559291 0.7361843 0.6765742
0.8481756 0.8067982 0.7451063
0.9861305 0.9170489 0.8429006
0.7842658 0.8350838 0.7941786
0.7527476 0.8009408 0.7534859
0.7238726 0.7686302 0.7149852
0.7022357 0.7408532 0.6812996
0.6893012 0.7190326 0.6538980
0.7025451 0.7195426 0.6482847
0.7747786 0.7712792 0.6916499
0.8871285 0.8539342 0.7644304
0.9898552 0.9335678 0.8341522
0.4586288 0.4068838 0.5396029
0.3726029 0.3240078 0.4483124
0.2962779 0.2485891 0.3646684
0.2439438 0.1920038 0.3006262
0.2264480 0.1645307 0.2690728
0.2457747 0.1690358 0.2771670
0.2926186 0.1970461 0.3181317
0.3504133 0.2343951 0.3738118
0.4093649 0.2728788 0.4324910
0.4920958 0.4588585 0.5604031
0.3998470 0.3681297 0.4656335
0.3326643 0.2980851 0.3892924
0.3078574 0.2640456 0.3494920
0.3204216 0.2633172 0.3475281
0.3567493 0.2843560 0.3738936
0.4064057 0.3170631 0.4175721
0.4642506 0.3565048 0.4710348
0.5258695 0.3990005 0.5284654
0.5245732 0.5119035 0.5866535
0.4143327 0.4004811 0.4722797
0.3544644 0.3324740 0.3992314
0.3660997 0.3297151 0.3924530
0.4156439 0.3637468 0.4271649
0.4710861 0.4039172 0.4732395
0.5249324 0.4418252 0.5202401
0.5815062 0.4813817 0.5701043
0.6416926 0.5239282 0.6231585
0.5696264 0.5807240 0.6324534
0.4055528 0.4089619 0.4571275
0.3541183 0.3419748 0.3860250
0.4088823 0.3799387 0.4218605
0.5007092 0.4563386 0.4991556
0.5832190 0.5232205 0.5701572
0.6467498 0.5704229 0.6240250
0.7013999 0.6086080 0.6698744
0.7538599 0.6446541 0.7138099
0.5324904 0.5747341 0.6036012
0.3803930 0.3936880 0.4211435
0.3752215 0.3672127 0.3905052
0.4383781 0.4191978 0.4427949
0.5447283 0.5127276 0.5359871
0.6641583 0.6148149 0.6375294
0.7584464 0.6907188 0.7168389
0.8176818 0.7333059 0.7655516
0.8565019 0.7568217 0.7964747
0.3167447 0.3816533 0.3967518
0.4062246 0.4204944 0.4289673
0.4325291 0.4307519 0.4362892
0.4748415 0.4692106 0.4741173
0.5337503 0.5180542 0.5216447
0.6695355 0.6345647 0.6344394
0.8310543 0.7753834 0.7733389
0.9100606 0.8372409 0.8400344
0.9490013 0.8621771 0.8725078
0.4086378 0.4859171 0.4958642
0.5229787 0.5438355 0.5355770
0.5428582 0.5577283 0.5491221
0.5671975 0.5763806 0.5656876
0.5951513 0.5922263 0.5800772
0.6479790 0.6284196 0.6106123
0.8266251 0.7858393 0.7583243
0.9539577 0.8965134 0.8708878
1.0000000 0.9676914 0.9478612
0.7196019 0.7519472 0.7439671
0.7026277 0.7329044 0.7181496
0.7000641 0.7260902 0.7128772
0.7074151 0.7265834 0.7073480
0.7172509 0.7260004 0.6977402
0.7301832 0.7272173 0.6944023
0.7923974 0.7701733 0.7297018
0.9631484 0.9183985 0.8646155
1.0000000 1.0000000 0.9894339
0.9420169 0.9695912 0.9508696
0.8907040 0.9235058 0.9033248
0.8488717 0.8828596 0.8592155
0.8173403 0.8474780 0.8180633
0.7830072 0.8069483 0.7690999
0.7605311 0.7733120 0.7273252
0.8114051 0.8006481 0.7408448
0.9612504 0.9191030 0.8390157
1.0000000 1.0000000 0.9530277
