catalog/styles/experimental/experimental-lamp/look.cube
# experimental-lamp iteration 6
LUT_3D_SIZE 33
DOMAIN_MIN 0 0 0
DOMAIN_MAX 1 1 1
0.0373554 0.0344429 0.0325829
0.0827479 0.0707187 0.0602429
0.0853390 0.0695959 0.0558072
0.0746543 0.0597352 0.0469567
0.0628121 0.0507282 0.0411492
0.0557642 0.0452803 0.0387934
0.0557105 0.0435199 0.0388476
0.0635446 0.0451046 0.0408665
0.0790914 0.0501746 0.0455520
0.1008326 0.0585452 0.0532486
0.1282916 0.0710460 0.0647835
0.1611197 0.0879886 0.0801706
0.1976983 0.1078834 0.0978546
0.2361432 0.1287649 0.1160536
0.2748015 0.1489231 0.1334190
0.3121851 0.1669816 0.1489595
0.3472599 0.1821410 0.1621367
0.3793346 0.1941763 0.1729397
0.4084076 0.2031618 0.1815393
0.4347194 0.2092573 0.1882126
0.4586071 0.2127701 0.1932600
0.4809342 0.2142405 0.1971808
0.5026046 0.2143074 0.2004423
0.5242813 0.2135375 0.2033318
0.5464315 0.2123943 0.2059988
0.5692380 0.2111704 0.2084731
0.5926951 0.2100177 0.2107462
0.6167324 0.2090272 0.2128240
0.6412685 0.2082435 0.2147417
0.6662005 0.2076348 0.2165466
0.6913946 0.2071186 0.2182656
0.7167212 0.2066319 0.2199190
0.7420910 0.2061484 0.2215401
0.0695968 0.0648458 0.0579624
0.0801149 0.0719591 0.0619201
0.0857132 0.0742887 0.0612979
0.0872380 0.0740653 0.0595387
0.0818816 0.0689466 0.0554907
0.0732753 0.0606985 0.0499198
0.0676884 0.0532255 0.0448912
0.0702498 0.0502623 0.0429964
0.0821694 0.0529459 0.0453979
0.1022431 0.0609926 0.0521543
0.1290910 0.0740582 0.0632307
0.1607414 0.0908908 0.0776987
0.1951110 0.1098090 0.0941375
0.2302560 0.1290003 0.1108854
0.2650095 0.1472141 0.1267712
0.2987713 0.1637569 0.1411660
0.3312380 0.1782904 0.1538035
0.3621090 0.1906871 0.1646620
0.3913019 0.2009810 0.1738928
0.4189311 0.2092984 0.1817405
0.4452615 0.2158360 0.1884609
0.4707458 0.2208994 0.1943513
0.4958411 0.2248231 0.1996652
0.5208864 0.2279023 0.2045488
0.5460774 0.2303623 0.2090460
0.5714599 0.2323488 0.2131351
0.5969919 0.2339593 0.2167849
0.6226205 0.2352812 0.2199995
0.6483137 0.2363974 0.2228286
0.6740533 0.2373709 0.2253530
0.6998207 0.2382444 0.2276621
0.7255969 0.2390554 0.2298427
0.7513735 0.2398405 0.2319723
0.0555467 0.0538540 0.0482170
0.0619945 0.0581580 0.0511233
0.0711405 0.0644903 0.0553996
0.0817399 0.0721870 0.0606323
0.0864991 0.0749075 0.0619309
0.0833439 0.0701082 0.0573395
0.0783678 0.0619987 0.0500338
0.0791687 0.0569565 0.0451241
0.0888716 0.0580564 0.0452824
0.1076293 0.0659299 0.0511267
0.1337600 0.0795272 0.0620710
0.1641122 0.0964208 0.0763644
0.1957831 0.1142294 0.0919831
0.2271963 0.1315185 0.1074262
0.2579192 0.1476507 0.1218554
0.2880470 0.1624959 0.1349779
0.3178426 0.1761562 0.1468429
0.3472835 0.1886491 0.1575348
0.3763327 0.2000108 0.1672118
0.4050485 0.2103307 0.1760875
0.4335171 0.2196769 0.1843251
0.4618437 0.2281252 0.1920467
0.4900958 0.2357265 0.1993098
0.5182758 0.2425028 0.2061026
0.5463220 0.2484539 0.2123605
0.5741339 0.2535767 0.2180018
0.6016207 0.2578991 0.2229714
0.6287383 0.2614969 0.2272714
0.6555057 0.2644948 0.2309706
0.6819897 0.2670460 0.2341894
0.7082790 0.2693060 0.2370751
0.7344588 0.2714098 0.2397735
0.7605985 0.2734576 0.2424027
0.0339101 0.0379001 0.0334027
0.0404833 0.0420774 0.0379119
0.0492865 0.0482187 0.0439677
0.0620397 0.0579331 0.0523373
0.0754411 0.0678917 0.0593740
0.0843207 0.0725735 0.0603747
0.0894034 0.0718487 0.0559969
0.0954497 0.0701716 0.0507818
0.1061447 0.0718923 0.0492517
0.1243184 0.0800190 0.0543480
0.1487681 0.0934460 0.0652873
0.1760189 0.1091390 0.0793804
0.2033043 0.1246096 0.0939972
0.2299036 0.1390498 0.1078055
0.2560550 0.1524390 0.1203740
0.2823245 0.1651160 0.1318465
0.3091868 0.1774152 0.1425309
0.3369184 0.1895661 0.1527117
0.3655178 0.2016178 0.1625603
0.3949636 0.2135849 0.1722237
0.4251392 0.2253850 0.1817450
0.4558295 0.2368512 0.1910680
0.4867573 0.2477658 0.2000654
0.5176108 0.2578934 0.2085668
0.5480923 0.2670273 0.2163958
0.5779629 0.2750277 0.2234084
0.6070814 0.2818561 0.2295283
0.6354164 0.2875830 0.2347670
0.6630407 0.2923761 0.2392232
0.6901003 0.2964641 0.2430602
0.7167747 0.3000911 0.2464737
0.7432372 0.3034738 0.2496530
0.7696229 0.3067710 0.2527477
0.0212791 0.0318862 0.0250084
0.0273504 0.0347485 0.0297722
0.0337941 0.0381922 0.0349572
0.0429741 0.0444068 0.0420292
0.0569798 0.0545787 0.0505195
0.0764991 0.0680094 0.0579713
0.0993618 0.0817751 0.0620492
0.1223404 0.0936590 0.0629930
0.1424205 0.1029786 0.0637670
0.1618691 0.1127594 0.0692391
0.1817330 0.1236243 0.0794074
0.2015858 0.1345890 0.0915987
0.2214434 0.1450311 0.1036742
0.2415248 0.1548082 0.1145781
0.2621241 0.1641455 0.1242360
0.2838899 0.1736622 0.1332444
0.3073328 0.1838277 0.1421476
0.3328928 0.1949926 0.1513483
0.3606233 0.2072160 0.1610096
0.3903409 0.2203536 0.1711430
0.4216991 0.2341264 0.1816390
0.4541700 0.2481112 0.1922556
0.4871422 0.2618142 0.2026735
0.5200162 0.2747558 0.2125608
0.5522917 0.2865481 0.2216311
0.5836228 0.2969479 0.2296896
0.6138437 0.3058832 0.2366597
0.6429530 0.3134407 0.2425830
0.6710780 0.3198295 0.2475976
0.6984299 0.3253333 0.2519070
0.7252568 0.3302556 0.2557409
0.7517947 0.3348680 0.2593147
0.7782287 0.3393721 0.2627955
0.0191856 0.0363994 0.0241084
0.0254427 0.0384282 0.0286746
0.0311369 0.0402810 0.0328223
0.0375085 0.0431935 0.0375790
0.0464710 0.0483132 0.0433463
0.0645348 0.0601138 0.0506801
0.1001523 0.0849212 0.0621421
0.1514144 0.1212219 0.0782333
0.1990247 0.1539296 0.0929676
0.2241194 0.1689299 0.1016615
0.2347906 0.1735473 0.1091474
0.2433598 0.1764751 0.1172433
0.2533331 0.1792345 0.1244799
0.2648382 0.1818141 0.1301756
0.2782745 0.1850267 0.1351102
0.2943987 0.1898857 0.1404429
0.3138171 0.1969936 0.1468835
0.3367343 0.2064659 0.1546081
0.3631064 0.2182233 0.1636359
0.3925752 0.2319386 0.1738334
0.4245012 0.2470649 0.1848977
0.4580350 0.2628995 0.1963863
0.4922523 0.2786735 0.2077797
0.5263020 0.2936816 0.2185814
0.5595301 0.3073955 0.2284098
0.5915394 0.3195217 0.2370505
0.6221801 0.3299997 0.2444574
0.6514960 0.3389514 0.2507199
0.6796614 0.3466206 0.2560175
0.7069335 0.3533227 0.2605832
0.7336018 0.3593892 0.2646643
0.7599390 0.3651157 0.2684839
0.7861558 0.3707229 0.2722110
0.0235467 0.0469821 0.0280031
0.0317294 0.0499535 0.0331137
0.0394171 0.0527707 0.0376382
0.0467126 0.0556119 0.0416563
0.0537574 0.0583644 0.0450661
0.0642888 0.0633479 0.0479421
0.0943525 0.0835570 0.0570761
0.1570040 0.1304644 0.0819201
0.2341497 0.1896172 0.1167973
0.2798837 0.2234464 0.1395648
0.2939675 0.2327895 0.1506699
0.2985962 0.2335822 0.1571744
0.2994318 0.2284408 0.1579389
0.3005533 0.2213275 0.1556326
0.3051361 0.2162227 0.1538222
0.3146676 0.2150898 0.1544306
0.3294748 0.2182174 0.1577535
0.3493639 0.2252968 0.1635021
0.3739902 0.2359463 0.1714325
0.4026944 0.2495641 0.1812231
0.4344834 0.2652739 0.1923403
0.4681922 0.2820705 0.2041180
0.5026408 0.2989436 0.2158456
0.5368094 0.3150268 0.2268951
0.5699777 0.3297254 0.2368369
0.6017631 0.3427580 0.2454802
0.6320626 0.3541061 0.2528325
0.6609627 0.3639258 0.2590309
0.6886673 0.3724782 0.2642854
0.7154536 0.3800831 0.2688415
0.7416229 0.3870681 0.2729444
0.7674531 0.3937212 0.2768071
0.7931606 0.4002572 0.2805857
0.0308872 0.0600628 0.0342676
0.0423607 0.0655307 0.0407658
0.0537235 0.0711435 0.0468951
0.0649757 0.0769640 0.0524636
0.0760402 0.0828944 0.0572232
0.0854430 0.0870409 0.0589720
0.0987681 0.0929979 0.0586958
0.1394293 0.1214567 0.0729357
0.2114150 0.1780171 0.1101706
0.2864419 0.2397584 0.1560568
0.3361328 0.2813942 0.1901713
0.3552132 0.2947801 0.2038149
0.3533814 0.2864978 0.1997861
0.3453362 0.2704748 0.1889183
0.3413633 0.2571699 0.1800884
0.3443316 0.2497404 0.1756756
0.3543698 0.2483288 0.1754265
0.3710969 0.2524687 0.1787659
0.3937597 0.2614484 0.1852029
0.4212117 0.2742416 0.1941015
0.4520481 0.2895800 0.2046265
0.4848335 0.3061765 0.2158882
0.5182652 0.3228820 0.2270527
0.5513106 0.3388050 0.2374621
0.5833014 0.3533944 0.2467259
0.6139250 0.3664297 0.2547154
0.6431267 0.3779306 0.2614862
0.6710131 0.3880617 0.2672005
0.6977881 0.3970707 0.2720728
0.7237158 0.4052482 0.2763370
0.7490765 0.4128849 0.2802158
0.7741268 0.4202333 0.2838945
0.7990642 0.4274799 0.2875046
0.0392471 0.0737523 0.0413897
0.0546548 0.0826155 0.0498455
0.0704384 0.0920352 0.0583467
0.0870491 0.1024951 0.0669631
0.1044045 0.1139452 0.0753746
0.1196262 0.1235751 0.0810475
0.1279294 0.1261546 0.0794581
0.1398646 0.1303293 0.0777732
0.1798307 0.1593968 0.0964849
0.2497771 0.2172516 0.1406376
0.3259915 0.2824194 0.1930955
0.3791480 0.3260365 0.2287032
0.3951796 0.3337626 0.2344817
0.3906265 0.3209881 0.2242006
0.3839283 0.3051910 0.2124757
0.3821226 0.2930870 0.2039043
0.3879179 0.2873837 0.1999968
0.4016830 0.2884609 0.2007645
0.4222892 0.2953671 0.2054719
0.4479415 0.3065358 0.2129790
0.4768163 0.3203016 0.2220800
0.5073525 0.3352313 0.2317429
0.5383427 0.3502389 0.2411787
0.5689421 0.3646021 0.2498763
0.5986519 0.3779248 0.2575841
0.6272453 0.3900567 0.2642421
0.6546902 0.4010202 0.2699195
0.6810727 0.4109416 0.2747590
0.7065559 0.4200097 0.2789408
0.7313521 0.4284474 0.2826570
0.7556895 0.4364774 0.2860858
0.7797762 0.4442914 0.2893700
0.8037727 0.4520301 0.2926066
0.0478650 0.0873936 0.0487116
0.0670325 0.0997486 0.0592252
0.0868986 0.1129194 0.0701192
0.1081898 0.1276571 0.0817374
0.1309177 0.1440149 0.0939431
0.1529689 0.1600221 0.1051425
0.1687228 0.1702744 0.1111493
0.1733664 0.1695084 0.1077610
0.1821292 0.1712658 0.1063476
0.2193963 0.1990842 0.1267813
0.2827540 0.2513278 0.1678017
0.3496734 0.3067491 0.2114685
0.3974745 0.3440104 0.2400421
0.4206193 0.3577854 0.2503016
0.4255252 0.3531472 0.2463219
0.4245388 0.3416616 0.2369720
0.4283318 0.3338158 0.2305521
0.4399848 0.3326574 0.2292628
0.4584716 0.3373564 0.2321987
0.4816036 0.3460158 0.2377196
0.5072948 0.3567830 0.2443289
0.5341183 0.3683744 0.2510647
0.5612386 0.3800644 0.2574547
0.5881883 0.3914972 0.2633268
0.6146928 0.4024868 0.2686264
0.6405961 0.4129286 0.2733409
0.6658337 0.4227855 0.2774936
0.6904147 0.4320817 0.2811486
0.7144146 0.4408973 0.2844060
0.7379596 0.4493507 0.2873840
0.7611975 0.4575687 0.2901942
0.7842674 0.4656628 0.2929244
0.8072773 0.4737145 0.2956298
0.0563814 0.1007915 0.0559429
0.0785419 0.1160980 0.0682417
0.1014378 0.1322082 0.0810376
0.1257999 0.1498741 0.0948097
0.1517533 0.1692484 0.1096590
0.1780429 0.1891850 0.1247849
0.2009211 0.2061797 0.1375313
0.2138676 0.2138793 0.1427097
0.2158018 0.2105499 0.1386386
0.2236021 0.2115157 0.1375921
0.2548273 0.2336358 0.1533399
0.3083683 0.2764148 0.1857965
0.3693131 0.3261105 0.2241367
0.4204429 0.3662741 0.2551624
0.4499652 0.3849940 0.2686811
0.4625942 0.3865601 0.2682626
0.4710706 0.3832006 0.2642989
0.4829320 0.3822629 0.2626837
0.4994559 0.3850620 0.2639899
0.5192563 0.3904031 0.2668142
0.5405803 0.3968284 0.2697769
0.5624614 0.4036218 0.2723264
0.5846343 0.4106857 0.2745363
0.6071088 0.4181459 0.2766798
0.6298489 0.4260350 0.2789131
0.6527285 0.4342491 0.2812343
0.6755897 0.4426297 0.2835677
0.6983101 0.4510441 0.2858475
0.7208385 0.4594213 0.2880502
0.7431858 0.4677435 0.2901876
0.7653988 0.4760214 0.2922852
0.7875335 0.4842737 0.2943649
0.8096383 0.4925165 0.2964396
0.0644772 0.1137864 0.0629185
0.0885537 0.1311247 0.0764775
0.1131961 0.1490619 0.0904735
0.1389859 0.1681898 0.1053787
0.1660631 0.1886586 0.1213880
0.1936772 0.2097647 0.1380625
0.2195083 0.2293208 0.1537091
0.2392990 0.2432792 0.1649448
0.2490450 0.2476661 0.1682828
0.2512567 0.2442439 0.1646685
0.2596407 0.2456763 0.1638688
0.2890608 0.2662913 0.1778920
0.3396518 0.3064590 0.2077007
0.3981425 0.3536289 0.2433665
0.4486522 0.3924694 0.2721939
0.4837248 0.4156761 0.2882322
0.5065510 0.4262723 0.2944732
0.5236015 0.4305700 0.2962941
0.5395814 0.4330219 0.2968918
0.5559608 0.4350257 0.2967122
0.5724560 0.4365678 0.2953512
0.5889907 0.4379717 0.2930675
0.6059549 0.4399389 0.2906176
0.6237927 0.4430585 0.2886715
0.6427069 0.4475663 0.2875593
0.6625999 0.4533544 0.2872876
0.6831993 0.4601291 0.2876799
0.7042245 0.4675794 0.2885221
0.7254710 0.4754593 0.2896396
0.7468156 0.4835960 0.2909119
0.7681933 0.4918728 0.2922622
0.7895739 0.5002133 0.2936440
0.8109504 0.5085727 0.2950334
0.0717582 0.1261030 0.0694514
0.0966154 0.1444282 0.0836204
0.1218201 0.1631133 0.0980999
0.1477381 0.1825181 0.1132491
0.1744754 0.2027334 0.1292531
0.2015886 0.2233161 0.1458576
0.2277497 0.2429817 0.1620418
0.2506060 0.2594961 0.1758868
0.2673350 0.2702060 0.1850115
0.2765035 0.2736779 0.1879841
0.2821102 0.2733526 0.1869256
0.2960188 0.2801636 0.1901330
0.3289667 0.3042353 0.2063124
0.3790815 0.3438710 0.2347939
0.4354224 0.3886623 0.2674437
0.4864625 0.4275417 0.2954327
0.5254363 0.4540436 0.3137745
0.5520793 0.4679328 0.3224957
0.5706662 0.4731088 0.3244805
0.5853057 0.4734302 0.3221900
0.5980193 0.4711173 0.3169972
0.6101079 0.4679464 0.3103243
0.6227291 0.4655205 0.3036775
0.6366744 0.4648544 0.2980560
0.6523138 0.4663347 0.2938673
0.6696322 0.4698918 0.2911397
0.6883132 0.4751680 0.2896627
0.7079535 0.4817159 0.2891164
0.7282056 0.4891278 0.2891829
0.7488111 0.4970779 0.2896044
0.7695928 0.5053258 0.2901989
0.7904419 0.5137084 0.2908563
0.8113059 0.5221306 0.2915257
0.0777922 0.1373746 0.0753385
0.1024586 0.1557667 0.0894816
0.1272897 0.1743201 0.1038073
0.1524710 0.1932011 0.1185486
0.1780676 0.2124398 0.1338470
0.2038772 0.2318016 0.1496069
0.2292683 0.2506520 0.1653383
0.2530806 0.2678915 0.1800851
0.2736828 0.2820479 0.1924795
0.2895749 0.2918160 0.2011939
0.3010641 0.2973980 0.2058136
0.3132472 0.3032292 0.2090839
0.3353091 0.3177103 0.2176343
0.3731031 0.3463248 0.2366457
0.4236838 0.3862861 0.2646160
0.4781274 0.4290738 0.2951189
0.5262700 0.4649425 0.3204310
0.5619989 0.4879166 0.3356611
0.5856992 0.4981492 0.3406320
0.6015086 0.4996011 0.3381306
0.6129506 0.4959558 0.3308600
0.6227656 0.4904005 0.3213986
0.6329423 0.4854137 0.3119406
0.6445738 0.4823879 0.3037557
0.6581195 0.4818387 0.2973030
0.6736533 0.4837723 0.2926337
0.6909408 0.4878807 0.2895720
0.7095777 0.4936924 0.2877815
0.7291382 0.5007070 0.2868633
0.7492592 0.5084830 0.2864545
0.7696721 0.5166790 0.2862861
0.7902031 0.5250624 0.2861974
0.8107625 0.5334995 0.2861203
0.0821961 0.1472627 0.0803898
0.1059750 0.1650426 0.0939793
0.1298050 0.1828603 0.1076608
0.1537600 0.2007590 0.1215710
0.1778932 0.2187464 0.1358308
0.2021791 0.2367497 0.1504788
0.2264347 0.2545628 0.1654005
0.2502115 0.2717713 0.1802377
0.2727006 0.2876872 0.1942909
0.2928882 0.3014653 0.2065658
0.3103040 0.3126876 0.2161867
0.3265384 0.3226481 0.2234681
0.3463638 0.3355367 0.2313376
0.3758009 0.3568633 0.2445864
0.4169956 0.3885800 0.2655918
0.4658458 0.4266993 0.2917974
0.5140963 0.4632152 0.3169708
0.5540881 0.4906071 0.3348852
0.5827886 0.5058123 0.3427476
0.6019248 0.5105558 0.3416988
0.6149330 0.5084678 0.3345867
0.6252553 0.5033883 0.3245885
0.6354008 0.4982828 0.3142499
0.6466980 0.4948124 0.3050141
0.6596873 0.4936396 0.2974343
0.6745258 0.4948854 0.2916152
0.6911275 0.4983727 0.2874497
0.7092091 0.5037241 0.2846636
0.7283786 0.5104560 0.2828683
0.7482430 0.5180873 0.2816655
0.7684829 0.5262204 0.2807406
0.7888814 0.5345782 0.2799042
0.8093219 0.5430013 0.2790784
0.0846949 0.1555195 0.0844542
0.1071951 0.1722894 0.0971314
0.1296964 0.1890411 0.1098521
0.1522268 0.2057668 0.1227039
0.1748513 0.2224831 0.1358089
0.1976622 0.2392314 0.1493029
0.2207274 0.2560494 0.1632865
0.2439873 0.2728932 0.1777238
0.2671417 0.2895351 0.1923050
0.2896434 0.3055384 0.2063759
0.3109897 0.3204717 0.2191040
0.3314267 0.3344840 0.2300159
0.3527760 0.3490806 0.2398514
0.3786062 0.3674086 0.2511657
0.4119460 0.3921480 0.2666455
0.4522008 0.4225494 0.2862991
0.4947730 0.4540294 0.3067419
0.5336918 0.4806878 0.3231670
0.5648975 0.4985497 0.3321479
0.5877944 0.5071554 0.3331617
0.6044020 0.5087757 0.3280647
0.6176409 0.5066980 0.3196400
0.6299334 0.5037447 0.3102835
0.6427115 0.5016741 0.3014874
0.6566296 0.5013128 0.2939366
0.6719364 0.5029291 0.2878365
0.6886825 0.5064979 0.2831626
0.7067494 0.5117948 0.2797356
0.7258726 0.5184476 0.2772491
0.7457176 0.5260244 0.2753475
0.7659758 0.5341349 0.2737279
0.7864207 0.5424919 0.2722000
0.8069201 0.5509229 0.2706838
0.0851715 0.1620402 0.0874614
0.1062715 0.1776547 0.0990444
0.1273633 0.1932396 0.1106531
0.1484740 0.2087857 0.1223626
0.1696920 0.2243361 0.1343069
0.1911738 0.2399992 0.1466718
0.2131050 0.2559270 0.1596516
0.2356183 0.2722468 0.1733561
0.2586883 0.2889647 0.1876831
0.2820702 0.3058949 0.2022239
0.3053710 0.3226980 0.2162995
0.3283467 0.3391132 0.2292185
0.3513996 0.3553919 0.2407660
0.3760307 0.3727460 0.2517689
0.4042848 0.3928749 0.2638114
0.4369383 0.4162739 0.2776973
0.4723341 0.4411383 0.2922812
0.5071392 0.4641214 0.3049675
0.5381320 0.4821038 0.3131959
0.5637293 0.4936966 0.3157978
0.5843565 0.4996032 0.3133927
0.6016591 0.5018085 0.3077077
0.6174083 0.5024353 0.3005580
0.6328921 0.5030752 0.2932955
0.6488329 0.5046476 0.2866894
0.6655713 0.5075621 0.2810586
0.6832519 0.5119274 0.2764628
0.7018904 0.5176645 0.2728133
0.7213711 0.5245473 0.2699119
0.7414810 0.5322589 0.2675004
0.7619818 0.5404767 0.2653388
0.7826743 0.5489405 0.2632651
0.8034285 0.5574830 0.2612058
0.0836807 0.1668777 0.0894452
0.1034490 0.1813693 0.0998882
0.1232195 0.1958432 0.1103572
0.1430377 0.2103120 0.1209317
0.1630169 0.2248470 0.1317543
0.1833387 0.2395874 0.1430226
0.2042264 0.2547192 0.1549484
0.2258811 0.2704210 0.1676830
0.2483959 0.2867841 0.1812158
0.2716765 0.3037350 0.1952845
0.2954262 0.3210041 0.2093548
0.3192656 0.3382116 0.2227381
0.3430124 0.3550989 0.2348661
0.3670251 0.3718372 0.2456517
0.3922607 0.3891080 0.2556386
0.4196177 0.4075233 0.2655059
0.4490280 0.4268077 0.2752748
0.4792590 0.4456549 0.2840800
0.5084937 0.4623186 0.2906164
0.5352376 0.4754899 0.2938828
0.5589620 0.4849013 0.2937286
0.5800887 0.4912780 0.2908322
0.5995195 0.4958305 0.2862618
0.6181588 0.4997394 0.2810426
0.6366591 0.5038607 0.2759052
0.6554007 0.5086785 0.2712383
0.6745850 0.5143992 0.2671763
0.6943039 0.5210505 0.2637045
0.7145556 0.5285330 0.2607215
0.7352530 0.5366591 0.2580773
0.7562586 0.5452063 0.2556199
0.7774312 0.5539727 0.2532363
0.7986627 0.5628132 0.2508683
0.0804118 0.1702076 0.0905236
0.0990218 0.1837080 0.0998648
0.1176521 0.1972115 0.1092404
0.1363687 0.2107556 0.1187354
0.1552983 0.2244305 0.1284905
0.1746226 0.2383797 0.1386884
0.1945568 0.2527783 0.1495179
0.2153008 0.2677908 0.1611168
0.2369705 0.2835083 0.1734965
0.2595269 0.2998830 0.1864701
0.2827448 0.3166885 0.1996205
0.3062557 0.3335466 0.2123465
0.3297039 0.3500491 0.2240120
0.3529757 0.3659578 0.2341737
0.3763808 0.3813835 0.2427930
0.4005488 0.3967256 0.2502187
0.4259838 0.4122939 0.2568496
0.4526272 0.4279344 0.2627564
0.4797943 0.4429941 0.2675885
0.5065039 0.4566339 0.2707967
0.5319590 0.4682742 0.2720019
0.5558505 0.4778628 0.2712387
0.5783521 0.4858379 0.2689388
0.5998989 0.4928797 0.2657235
0.6209439 0.4996387 0.2621680
0.6418287 0.5065784 0.2586603
0.6627665 0.5139531 0.2553865
0.6838803 0.5218565 0.2523914
0.7052288 0.5302750 0.2496445
0.7268137 0.5391223 0.2470812
0.7485882 0.5482712 0.2446284
0.7704795 0.5575888 0.2422258
0.7924160 0.5669675 0.2398367
0.0756304 0.1722771 0.0908641
0.0932991 0.1849560 0.0991814
0.1110036 0.1976567 0.1075404
0.1288239 0.2104356 0.1160275
0.1468877 0.2233887 0.1247697
0.1653608 0.2366453 0.1339194
0.1844254 0.2503471 0.1436237
0.2042464 0.2646151 0.1539828
0.2249180 0.2795039 0.1649975
0.2464158 0.2949570 0.1765185
0.2685682 0.3107781 0.1882202
0.2910791 0.3266425 0.1996167
0.3136136 0.3421661 0.2101428
0.3359494 0.3570369 0.2193026
0.3581379 0.3711713 0.2268490
0.3805646 0.3847923 0.2328948
0.4037804 0.3983027 0.2378225
0.4281622 0.4119931 0.2420151
0.4536550 0.4258136 0.2456122
0.4797731 0.4393726 0.2484567
0.5058379 0.4521570 0.2502494
0.5312900 0.4638136 0.2507864
0.5558797 0.4743108 0.2501127
0.5796558 0.4839075 0.2485040
0.6028314 0.4929976 0.2463338
0.6256436 0.5019476 0.2439300
0.6482786 0.5110085 0.2415004
0.6708588 0.5203066 0.2391359
0.6934622 0.5298763 0.2368554
0.7161322 0.5396919 0.2346464
0.7388783 0.5496929 0.2324864
0.7616831 0.5598048 0.2303527
0.7845136 0.5699590 0.2282281
0.0696331 0.1733588 0.0906503
0.0865760 0.1853821 0.0980293
0.1035626 0.1974384 0.1054522
0.1206767 0.2095916 0.1129985
0.1380367 0.2219325 0.1207743
0.1557832 0.2345659 0.1288956
0.1740583 0.2475929 0.1374640
0.1929814 0.2610854 0.1465374
0.2126162 0.2750575 0.1560971
0.2329404 0.2894400 0.1660167
0.2538328 0.3040682 0.1760454
0.2750894 0.3186943 0.1858169
0.2964770 0.3330312 0.1948954
0.3178253 0.3468387 0.2028708
0.3391356 0.3600282 0.2094838
0.3606481 0.3727358 0.2147297
0.3827878 0.3852881 0.2188584
0.4059666 0.3980344 0.2222341
0.4303588 0.4111428 0.2251344
0.4557896 0.4244973 0.2276186
0.4818038 0.4377624 0.2295441
0.5078747 0.4505678 0.2307062
0.5336028 0.4626886 0.2309956
0.5588113 0.4741219 0.2304736
0.5835158 0.4850411 0.2293392
0.6078329 0.4956878 0.2278363
0.6318926 0.5062717 0.2261666
0.6557988 0.5169250 0.2244527
0.6796265 0.5277044 0.2227486
0.7034256 0.5386143 0.2210693
0.7272279 0.5496289 0.2194132
0.7510437 0.5607086 0.2177728
0.7748687 0.5718146 0.2161391
0.0627155 0.1737202 0.0900612
0.0791175 0.1852246 0.0965751
0.0955637 0.1967639 0.1031285
0.1121318 0.2083998 0.1097879
0.1289240 0.2202084 0.1166343
0.1460501 0.2322671 0.1237475
0.1636151 0.2446389 0.1311885
0.1817005 0.2573553 0.1389803
0.2003463 0.2704015 0.1470889
0.2195359 0.2837068 0.1554083
0.2391991 0.2971463 0.1637542
0.2592252 0.3105550 0.1718715
0.2794981 0.3237593 0.1794629
0.2999441 0.3366274 0.1862428
0.3205893 0.3491252 0.1920106
0.3415989 0.3613550 0.1967170
0.3632577 0.3735426 0.2004835
0.3858698 0.3859541 0.2035459
0.4096214 0.3987704 0.2061382
0.4344720 0.4119907 0.2083826
0.4601521 0.4254287 0.2102517
0.4862632 0.4388027 0.2116204
0.5124236 0.4518653 0.2123689
0.5383752 0.4644985 0.2124699
0.5640139 0.4767329 0.2120129
0.5893550 0.4886983 0.2111662
0.6144689 0.5005468 0.2101093
0.6394324 0.5123972 0.2089802
0.6643040 0.5243135 0.2078572
0.6891266 0.5363123 0.2067697
0.7139297 0.5483813 0.2057187
0.7387289 0.5604945 0.2046925
0.7635290 0.5726256 0.2036768
0.0551432 0.1736010 0.0892548
0.0711484 0.1846824 0.0949546
0.0871922 0.1957946 0.1006852
0.1033403 0.2069879 0.1064957
0.1196731 0.2183192 0.1124412
0.1362730 0.2298397 0.1185698
0.1532131 0.2415824 0.1249108
0.1705488 0.2535522 0.1314634
0.1883095 0.2657222 0.1381885
0.2064959 0.2780357 0.1450038
0.2250873 0.2904126 0.1517849
0.2440544 0.3027654 0.1583725
0.2633791 0.3150196 0.1645873
0.2830734 0.3271370 0.1702566
0.3031999 0.3391369 0.1752471
0.3238847 0.3511071 0.1794989
0.3453037 0.3631931 0.1830431
0.3676412 0.3755588 0.1859871
0.3910169 0.3883252 0.1884656
0.4154216 0.4015130 0.1905776
0.4406938 0.4150224 0.1923448
0.4665623 0.4286675 0.1937170
0.4927249 0.4422485 0.1946202
0.5189311 0.4556262 0.1950195
0.5450298 0.4687613 0.1949587
0.5709698 0.4817041 0.1945560
0.5967716 0.4945515 0.1939645
0.6224802 0.5073974 0.1933229
0.6481391 0.5203028 0.1927223
0.6737770 0.5332886 0.1921997
0.6994118 0.5463456 0.1917518
0.7250497 0.5594482 0.1913534
0.7506900 0.5725690 0.1909753
0.0471388 0.1731979 0.0883590
0.0628502 0.1839132 0.0932728
0.0785913 0.1946512 0.0982069
0.0944126 0.2054474 0.1031919
0.1103722 0.2163381 0.1082589
0.1265293 0.2273520 0.1134304
0.1429333 0.2385014 0.1187137
0.1596265 0.2497794 0.1240958
0.1766389 0.2611620 0.1295417
0.1939949 0.2726158 0.1349959
0.2117190 0.2841064 0.1403863
0.2298452 0.2956109 0.1456290
0.2484241 0.3071273 0.1506332
0.2675249 0.3186812 0.1553084
0.2872339 0.3303256 0.1595745
0.3076540 0.3421377 0.1633745
0.3288894 0.3542078 0.1666859
0.3510349 0.3666222 0.1695250
0.3741415 0.3794385 0.1719354
0.3981868 0.3926616 0.1739636
0.4230620 0.4062298 0.1756337
0.4485847 0.4200252 0.1769384
0.4745340 0.4339071 0.1778532
0.5007034 0.4477563 0.1783699
0.5269398 0.4615111 0.1785277
0.5531601 0.4751757 0.1784211
0.5793463 0.4888016 0.1781804
0.6055155 0.5024539 0.1779341
0.6316945 0.5161834 0.1777748
0.6578998 0.5300102 0.1777417
0.6841358 0.5439244 0.1778259
0.7103946 0.5578962 0.1779883
0.7366630 0.5718920 0.1781830
0.0388774 0.1726589 0.0874672
0.0543626 0.1830337 0.0916050
0.0698686 0.1934224 0.0957528
0.0854292 0.2038447 0.0999245
0.1010828 0.2143188 0.1041311
