presets/experimental/experimental-cinema/look.cube
# experimental-cinema tuned
LUT_3D_SIZE 9
DOMAIN_MIN 0 0 0
DOMAIN_MAX 1 1 1
0.1746855 0.2271845 0.2242779
0.2032605 0.1406823 0.0645031
0.2536227 0.0869999 0.0060834
0.3492217 0.0672831 0.0297912
0.4416720 0.0992308 0.0822408
0.4980956 0.1000225 0.0941727
0.6255740 0.0849995 0.0791419
0.7649208 0.0890122 0.0624893
0.8563957 0.0910334 0.0724398
0.0176827 0.1517452 0.0367199
0.0916425 0.1213038 0.0538164
0.0823911 0.0910872 0.0032079
0.2491581 0.1264066 0.0467033
0.3681642 0.1794987 0.0893847
0.3629919 0.1589192 0.0895919
0.3882649 0.1418058 0.0979052
0.6096389 0.1528311 0.0866001
0.8275236 0.1318797 0.0745560
0.0009963 0.1849056 0.0013980
0.0949997 0.1433675 0.0338149
0.0938349 0.0918656 0.0601834
0.2115784 0.1501438 0.0597345
0.2948333 0.1654376 0.0937081
0.4133870 0.1797492 0.0915056
0.4352713 0.1912930 0.1008622
0.6113641 0.1974725 0.0950259
0.8621011 0.1401135 0.0747677
0.0000000 0.3240974 0.0000000
0.1041128 0.2420093 0.0343880
0.1978439 0.1969233 0.0831480
0.2056097 0.2025665 0.0721278
0.2558817 0.2248714 0.1769560
0.3453269 0.2312754 0.1380619
0.4895512 0.2177669 0.0788941
0.6993295 0.2658208 0.0880028
0.7363330 0.2987338 0.1008339
0.0084486 0.5378949 0.0111777
0.1181128 0.4537336 0.0254723
0.1621246 0.2590711 0.0860887
0.2261867 0.2567895 0.1067065
0.2771921 0.2561834 0.1200490
0.3684157 0.2890850 0.1316287
0.5298330 0.3342557 0.1599257
0.6127916 0.3085946 0.1163975
0.7628165 0.3074462 0.1043771
0.0426609 0.6508535 0.0345959
0.1738186 0.6094182 0.0403761
0.2344643 0.4815466 0.0410855
0.2487766 0.3181949 0.1069221
0.3022444 0.3291583 0.1070394
0.3594629 0.3288203 0.1055401
0.5032645 0.3874588 0.1429409
0.6579688 0.4079322 0.1354660
0.7615625 0.4205328 0.1536786
0.0529068 0.7133163 0.0394277
0.1945368 0.6932077 0.0421706
0.3209790 0.6511859 0.0434419
0.4289413 0.5597125 0.0238708
0.3566039 0.3811940 0.0000000
0.3855407 0.3912095 0.0001009
0.4981545 0.4563942 0.0368739
0.6336829 0.5129702 0.1124427
0.8175387 0.5333159 0.0851625
0.0558333 0.7352645 0.0395563
0.2004063 0.7236796 0.0425368
0.3526383 0.7095889 0.0481892
0.5524676 0.7013899 0.0594891
0.6304770 0.6540635 0.0666457
0.6093458 0.6135464 0.0542621
0.6453605 0.6262878 0.0734562
0.6976492 0.6456347 0.0840573
0.7844139 0.6393841 0.0000000
0.0527645 0.7597029 0.0382873
0.2005143 0.7451993 0.0418424
0.3585466 0.7362592 0.0492561
0.5768970 0.7433915 0.0679878
0.7039962 0.7433829 0.0946407
0.7010379 0.7209820 0.0947560
0.7091866 0.7105759 0.0969072
0.7286302 0.7103803 0.0833458
0.7675455 0.7409124 0.0000000
0.0995582 0.1303468 0.2223325
0.1288774 0.0882076 0.1095112
0.1765633 0.0501830 0.0375045
0.3618833 0.0345146 0.0305957
0.5251306 0.0728707 0.0568697
0.6235772 0.0788596 0.0523303
0.7373298 0.0757625 0.0423023
0.7981090 0.0821905 0.0407300
0.8321163 0.1430699 0.0642659
0.0561180 0.2012593 0.1218363
0.1057099 0.0879018 0.0893017
0.1758061 0.1419415 0.1066892
0.2117613 0.1416875 0.1065003
0.2981948 0.1516221 0.1180566
0.4163990 0.1512104 0.0990043
0.5972496 0.1532534 0.0882487
0.7089443 0.1859885 0.1073367
0.7752726 0.2030749 0.1164975
0.0018463 0.1633220 0.0239631
0.1173188 0.1610465 0.1025359
0.1551169 0.1610461 0.0884606
0.3166261 0.2236622 0.1012864
0.2847205 0.1409423 0.0852136
0.3001240 0.1514741 0.1097166
0.4882756 0.1710946 0.1053793
0.6879975 0.2077853 0.1121791
0.7714419 0.2344839 0.1287116
0.0001881 0.2989439 0.0428813
0.0618940 0.2741729 0.0375776
0.2023380 0.2083418 0.1086785
0.2185617 0.2089767 0.0962767
0.3898794 0.2822993 0.1107823
0.3039113 0.1890557 0.1124455
0.4360617 0.2179585 0.1147621
0.6148702 0.2556178 0.1192691
0.7092357 0.2992592 0.1281086
0.0010415 0.5476215 0.1012441
0.0390194 0.5015888 0.0127897
0.1485388 0.3835561 0.0306962
0.2074083 0.2641061 0.0777587
0.2796338 0.2627651 0.1491437
0.3701697 0.2887624 0.1668174
0.4625477 0.3074339 0.1801346
0.5569688 0.3062093 0.1625079
0.6908389 0.3627234 0.1622727
0.0293453 0.6672608 0.1376629
0.0680929 0.6297215 0.0332556
0.2105476 0.5536393 0.0367397
0.3583938 0.4584133 0.0568779
0.3786943 0.3582997 0.0977550
0.3841060 0.3502469 0.1346155
0.4562791 0.3569896 0.1627373
0.6358372 0.4153446 0.2258299
0.7404842 0.4328568 0.2062815
0.0350202 0.7324355 0.1449845
0.0800616 0.7070556 0.0383670
0.2542169 0.6704662 0.0405354
0.4713911 0.6283657 0.0514484
0.5284932 0.5386394 0.0723066
0.5193996 0.5093377 0.0811084
0.5630626 0.5189447 0.1108310
0.6342148 0.5148077 0.1053320
0.7250876 0.5354829 0.2248810
0.0355382 0.7568523 0.1456131
0.0831990 0.7357172 0.0392638
0.2712997 0.7153362 0.0440041
0.5267881 0.7080079 0.0592883
0.6593277 0.6866066 0.1073126
0.6489794 0.6535121 0.1058455
0.6691864 0.6504571 0.1161834
0.7114628 0.6600892 0.1069110
0.7507622 0.6539515 0.1550219
0.0343837 0.7775492 0.1446988
0.0826906 0.7567738 0.0386009
0.2732932 0.7397934 0.0444675
0.5384857 0.7407547 0.0636483
0.7075120 0.7549793 0.1168702
0.7064185 0.7313407 0.1216405
0.7136087 0.7185716 0.1257607
0.7320858 0.7182549 0.1181242
0.7600302 0.7243394 0.1114165
0.1051276 0.1071114 0.2574159
0.1182204 0.0798248 0.1946910
0.0952716 0.0686679 0.0889734
0.2398470 0.0283808 0.0580130
0.4964219 0.0410254 0.0779435
0.6260549 0.0612481 0.1064078
0.7540689 0.0800123 0.1064787
0.8034848 0.1011188 0.1120868
0.8661359 0.1865260 0.1229394
0.0628047 0.1285463 0.1447917
0.0682100 0.1026963 0.1254875
0.0963473 0.0946565 0.0911259
0.2229336 0.0966615 0.0659375
0.3583863 0.1191821 0.0991948
0.4733060 0.1386039 0.1162525
0.6752739 0.1381604 0.1109950
0.7564151 0.1558236 0.1242343
0.7847116 0.1746257 0.1382093
0.0343259 0.1567458 0.0858853
0.1189880 0.1782300 0.1268869
0.1294693 0.1152749 0.1156601
0.1950762 0.1626598 0.1280277
0.2317501 0.1398709 0.1104458
0.3766389 0.1824358 0.1489667
0.5428224 0.1981592 0.1480173
0.7041865 0.2309896 0.1622627
0.7622704 0.2525964 0.1795759
0.0072542 0.1944273 0.0479646
0.0883134 0.1944887 0.0814004
0.1668046 0.1899152 0.1125178
0.1917623 0.1853588 0.1303410
0.2541485 0.1933146 0.1378967
0.2901965 0.1732979 0.0992061
0.4920400 0.2462944 0.1710452
0.6639607 0.2623457 0.1410551
0.7529733 0.2863869 0.1548945
0.0024779 0.4666025 0.1398328
0.0421184 0.4507043 0.0874252
0.1424961 0.3372371 0.0958449
0.2290239 0.2534984 0.1331382
0.2678396 0.2450281 0.1229720
0.3708420 0.2730458 0.1444562
0.4312806 0.2799365 0.1681090
0.6165143 0.3012794 0.1579766
0.7368677 0.3803068 0.1922735
0.0319584 0.6565415 0.2348433
0.0529856 0.6285506 0.1394824
0.1877603 0.5542418 0.1137130
0.3575703 0.4554115 0.1211906
0.3357159 0.3268366 0.0742937
0.3812013 0.3471709 0.1329175
0.4700750 0.3641095 0.1905309
0.6325141 0.4273512 0.2325868
0.7454258 0.4279120 0.2050749
0.0343475 0.7467434 0.2614364
0.0459715 0.7239826 0.1494290
0.2111073 0.6824457 0.1230307
0.4702975 0.6409246 0.1476138
0.5484141 0.5623121 0.1486175
0.5176549 0.5115609 0.1374811
0.5526871 0.5132104 0.1654248
0.6089628 0.5047789 0.1765123
0.7401741 0.5359294 0.2566280
0.0335954 0.7768329 0.2673871
0.0406464 0.7560421 0.1480048
0.2173126 0.7263501 0.1253839
0.5098524 0.7096524 0.1632006
0.6681130 0.7020799 0.2053755
0.6509354 0.6612023 0.1959809
0.6657403 0.6524331 0.1997779
0.7053827 0.6590653 0.1779141
0.7426705 0.6409455 0.2164802
0.0326451 0.7978893 0.2671835
0.0341931 0.7773128 0.1421274
0.2129135 0.7500596 0.1202769
0.5136964 0.7383127 0.1611335
0.7060383 0.7607126 0.2162729
0.7067160 0.7380695 0.2183692
0.7125833 0.7234489 0.2183367
0.7325288 0.7242994 0.2054768
0.7593358 0.7288305 0.2261925
0.1146461 0.1145659 0.2859245
0.1164380 0.1013549 0.2282437
0.1031819 0.0484122 0.1521847
0.2061496 0.0296510 0.1349189
0.4521478 0.0009549 0.1791210
0.6406761 0.0116109 0.2856717
0.7549390 0.0349794 0.3269167
0.7983576 0.0477511 0.3383408
0.8220894 0.0669554 0.3439016
0.0450689 0.1004545 0.1838569
0.1008158 0.1122726 0.1589235
0.0956069 0.1051858 0.1336047
0.1750264 0.0843305 0.1125027
0.3695828 0.0487994 0.1294437
0.5684983 0.1117181 0.2410009
0.7062602 0.1377524 0.2864929
0.7674605 0.1517414 0.3085823
0.7910264 0.1660723 0.3140206
0.0587670 0.1402081 0.1394099
0.1379852 0.1589880 0.1425107
0.1550038 0.1637641 0.1691304
0.1455338 0.1402373 0.1103706
0.2455010 0.1058432 0.0810972
0.4301348 0.1613236 0.1619546
0.6157316 0.2088147 0.2203874
0.7178918 0.2211511 0.2670300
0.7626428 0.2418991 0.2737705
0.0537786 0.1855636 0.1283226
0.1298597 0.1854381 0.1501626
0.1426298 0.1903100 0.1485146
0.1868986 0.1901844 0.1749933
0.2563180 0.2059048 0.1618176
0.3651865 0.2192971 0.1709414
0.5280140 0.2378774 0.1915807
0.6587319 0.2796712 0.2196120
0.7685334 0.3152935 0.2437070
0.0601709 0.2981834 0.1545536
0.1075907 0.3282176 0.1659878
0.1806414 0.2627548 0.1649101
0.2201969 0.2365958 0.1672410
0.2193073 0.2002322 0.1018617
0.3717738 0.2910905 0.2146007
0.4287262 0.2505196 0.1349505
0.6752163 0.3269425 0.1895558
0.7769219 0.3883730 0.2314679
0.0415537 0.6089226 0.3452042
0.1011287 0.5942059 0.3084296
0.1820223 0.4994689 0.2363841
0.3183738 0.4001394 0.1945221
0.3817286 0.3942924 0.1662120
0.4282748 0.3963523 0.1878986
0.5126001 0.3867109 0.2036822
0.6244451 0.4219258 0.2576860
0.7350215 0.4360792 0.2396607
0.0324136 0.7619490 0.4260746
0.0899664 0.7424206 0.3694728
0.2070820 0.6914889 0.3091359
0.4215832 0.6156411 0.2599583
0.5335099 0.5671507 0.2511057
0.5002406 0.5116282 0.2193586
0.5379668 0.5067318 0.2199884
0.6093306 0.5034545 0.2362265
0.7535166 0.5419863 0.2839273
0.0312546 0.8043418 0.4420754
0.0846121 0.7885507 0.3824039
0.2181370 0.7551976 0.3340399
0.4700574 0.7042132 0.3052493
0.6554978 0.7020399 0.3325225
0.6360178 0.6588254 0.3144296
0.6467966 0.6426809 0.3028184
0.6918054 0.6482102 0.2510843
0.7375159 0.6195088 0.2463519
0.0306486 0.8269887 0.4429102
0.0768877 0.8117909 0.3785059
0.2144523 0.7821918 0.3333397
0.4758902 0.7381852 0.3115994
0.6802544 0.7435961 0.3499619
0.6978952 0.7389430 0.3506466
0.7023812 0.7208172 0.3422289
0.7266624 0.7216892 0.3097032
0.7582759 0.7227893 0.3122526
0.1329377 0.1434969 0.3294983
0.1253383 0.1275670 0.3236165
0.1853863 0.0229007 0.3368662
0.2787521 0.0011814 0.3171766
0.4605297 0.0000000 0.3538942
0.6795400 0.0050610 0.5117095
0.7824385 0.0365052 0.5712006
0.8288284 0.0477831 0.5951115
0.8464793 0.0510634 0.5994549
0.1014003 0.1163749 0.2432093
0.1421237 0.1325946 0.2896588
0.1551998 0.0962171 0.2896874
0.2249190 0.0395946 0.2684939
0.4107407 0.0199245 0.3110352
0.6295200 0.1079585 0.4697505
0.7695882 0.1539106 0.5566126
0.8195696 0.1689252 0.5836755
0.8354259 0.1736062 0.5840526
0.0986807 0.1530126 0.2205538
0.1127235 0.1334713 0.2676385
0.1527264 0.1611933 0.2497661
0.1629972 0.1143612 0.2075042
0.2585363 0.0735309 0.2026101
0.4933886 0.1483588 0.3626187
0.7040388 0.2359141 0.4922797
0.7921548 0.2733877 0.5475301
0.8151956 0.2891851 0.5330947
0.0913886 0.2194308 0.2545254
0.1657035 0.1968770 0.2014088
0.1527006 0.1648810 0.1895448
0.1665940 0.1734187 0.1931164
0.2496333 0.1782683 0.2084244
0.3808782 0.1986044 0.2672124
0.5828187 0.2740431 0.3771210
0.7292354 0.3473535 0.4455900
0.7860541 0.3767266 0.4536322
0.1535737 0.3058645 0.2471879
0.1665753 0.3545265 0.3053966
0.1570078 0.2869231 0.2614385
0.2672255 0.3703635 0.3055891
0.3121415 0.2993110 0.2545752
0.3900265 0.3071612 0.2763178
0.5097509 0.3163257 0.2956187
0.7357270 0.3001685 0.2563423
0.8083690 0.3980775 0.3364469
0.0668697 0.5337978 0.4602785
0.1557898 0.5653997 0.4859330
0.2000540 0.4468684 0.3699606
0.2514917 0.3429578 0.2536189
0.2830265 0.3277472 0.2019688
0.5368047 0.5055823 0.3510457
0.5013186 0.3955684 0.2807992
0.6958234 0.4391306 0.2390023
0.7349389 0.4546150 0.3490353
0.0328950 0.7569220 0.6149498
0.1513106 0.7479631 0.5992944
0.2494140 0.6884505 0.5278625
0.3434735 0.5703426 0.3790171
0.4263052 0.5075927 0.3151436
0.5189520 0.5527677 0.3788293
0.5819230 0.5534522 0.3549912
0.6027456 0.4884548 0.2668248
0.7435391 0.5522099 0.3361090
0.0303512 0.8204619 0.6508709
0.1509943 0.8147825 0.6355979
0.2822081 0.7930044 0.6025549
0.4473923 0.7245164 0.5142667
0.5866111 0.6602993 0.4668068
0.6004268 0.6492170 0.4513555
0.6250464 0.6340319 0.4335693
0.6817810 0.6451444 0.3738335
0.7468012 0.6278413 0.3373510
0.0290733 0.8483106 0.6547732
0.1447889 0.8438339 0.6383161
0.2840099 0.8295228 0.6138065
0.4690147 0.7732010 0.5435118
0.6344357 0.7160008 0.5128625
0.6584616 0.7147922 0.5118684
0.6854832 0.7152688 0.5025332
0.7162440 0.7173151 0.4556807
0.7593395 0.7196503 0.4133391
0.1127685 0.1364347 0.2290777
0.1635138 0.1633560 0.3994475
0.3038630 0.0693564 0.4933708
0.4694464 0.0029592 0.5030965
0.5963967 0.0000000 0.4774296
0.7137118 0.0201142 0.5580393
0.7960446 0.0412414 0.6061822
0.8241147 0.0461775 0.6182232
0.8400983 0.0478309 0.6224539
0.1123564 0.1301749 0.3350086
0.1981352 0.1711697 0.4117400
0.2726431 0.1373632 0.4510242
0.4114497 0.0872775 0.4542168
0.5669643 0.0711126 0.4525103
0.6939962 0.1224929 0.5414812
0.7864372 0.1575161 0.5976549
0.8261495 0.1696362 0.6200407
0.8407899 0.1718320 0.6221152
0.1668584 0.2107067 0.3667998
0.1487991 0.1531643 0.3991178
0.2135343 0.1793109 0.3721700
0.2756717 0.1136204 0.3347104
0.4097942 0.0913943 0.3288459
0.5796932 0.1746930 0.4525807
0.7326687 0.2474815 0.5478486
0.8066795 0.2833730 0.5997777
0.8281552 0.2917997 0.6050795
0.1486529 0.2268901 0.3121427
0.1958716 0.2565925 0.3798830
0.2037039 0.2611130 0.4110295
0.2168404 0.1959082 0.2858620
0.2689270 0.1466321 0.2454746
0.4337479 0.2161891 0.3477225
0.6347249 0.3231470 0.4614164
0.7496757 0.4028452 0.5365748
0.7875319 0.4267479 0.5512216
0.1693775 0.3931833 0.4187157
0.2270554 0.3919117 0.4149061
0.3401286 0.5104417 0.5783922
0.2423827 0.2508223 0.2736559
0.3707810 0.3403045 0.3852113
0.3871551 0.2962840 0.3273881
0.5307929 0.3702616 0.3773985
0.6662081 0.4767716 0.4557824
0.7269154 0.5251796 0.4923121
0.1034716 0.5942774 0.5511969
0.1791327 0.5845033 0.5429749
0.2258068 0.5093768 0.4661135
0.3365760 0.4904173 0.4287043
0.5414534 0.6106270 0.5591161
0.3984684 0.3723756 0.3056961
0.5204674 0.3950610 0.3535128
0.6224137 0.4225618 0.3632792
0.7194090 0.4957719 0.4177886
0.0506604 0.7426180 0.6279490
0.1605060 0.7394127 0.6204545
0.2423968 0.6709669 0.5372829
0.3005409 0.5364459 0.3613802
0.3291695 0.4749840 0.2839640
0.4765380 0.5483286 0.3703742
0.6235206 0.5933846 0.4319884
0.6260736 0.5109240 0.3806537
0.7238361 0.5479219 0.3929177
0.0313671 0.8144038 0.6687882
0.1571412 0.8108753 0.6589271
0.2806787 0.7845168 0.6194057
0.4194666 0.7086536 0.5122795
0.4936885 0.6270736 0.4138106
0.5195147 0.6191677 0.3970655
0.5997334 0.6253723 0.4209776
0.6822167 0.6552274 0.4218946
0.7744659 0.6548351 0.4295228
0.0283529 0.8482419 0.6784287
0.1513165 0.8443547 0.6659306
0.2890879 0.8300611 0.6414505
0.4670580 0.7759337 0.5702579
0.6011865 0.7040449 0.5117097
0.6208433 0.7009863 0.5047830
0.6626559 0.7048219 0.5008118
0.7034886 0.7091843 0.4690693
0.7593405 0.7252609 0.4410489
0.1778048 0.1917230 0.4042324
0.2131911 0.2135421 0.5084961
0.3705396 0.1029983 0.5920883
0.5885902 0.0522454 0.6388560
0.7189922 0.0353304 0.6081236
0.7656699 0.0423332 0.6256628
0.8129653 0.0482700 0.6464774
0.8386563 0.0505563 0.6563750
0.8333542 0.0489353 0.6411366
0.1317574 0.1398061 0.4188008
0.2524311 0.2053973 0.5220889
0.3681130 0.1859754 0.5832453
0.5661749 0.1617906 0.6253463
0.7124775 0.1467010 0.6054017
0.7698750 0.1597573 0.6323166
0.8121138 0.1692335 0.6475552
0.8359882 0.1741237 0.6566401
0.8465471 0.1744376 0.6557468
0.1604963 0.2060760 0.4577466
0.1920273 0.1876681 0.5159722
0.3314695 0.2531171 0.5364703
0.5079755 0.2473351 0.5791853
0.6539564 0.2310280 0.5643115
0.7223470 0.2537561 0.6010395
0.7834797 0.2766740 0.6270386
0.8215743 0.2942079 0.6466996
0.8367687 0.2986142 0.6491337
0.1829736 0.2818427 0.4798855
0.2214959 0.3015845 0.5063878
0.2482203 0.2696460 0.4815418
0.4391683 0.3540792 0.5250100
0.5562395 0.3302879 0.5087753
0.6291170 0.3547699 0.5440085
0.7169620 0.3945945 0.5785151
0.7761789 0.4380722 0.6101640
0.8005644 0.4542202 0.6194686
0.1599568 0.3217925 0.3915165
0.2339914 0.3519098 0.4759512
0.2030457 0.2487258 0.2801232
0.3609081 0.4239472 0.5199922
0.4321914 0.3997187 0.4737120
0.5087804 0.4137833 0.4815812
0.6044583 0.4451037 0.4943138
0.6865236 0.5254966 0.5355588
0.7267562 0.5635448 0.5573350
0.2186061 0.6058647 0.6288373
0.2105101 0.5420744 0.5748217
0.2215503 0.4343507 0.4849585
0.1907979 0.2747792 0.3066576
0.4866210 0.5672363 0.6174513
0.5034304 0.4438761 0.5012569
0.5731255 0.4446588 0.4949297
0.6713026 0.5303965 0.5241159
0.7282355 0.5921174 0.5524639
0.0933271 0.7240317 0.6548409
0.1872001 0.7162236 0.6449410
0.2679394 0.6690338 0.5968016
0.3646772 0.5873324 0.5060386
0.3986226 0.5033901 0.4247196
0.4413013 0.5346867 0.4534480
0.5768208 0.5486001 0.5087218
0.6433327 0.5213089 0.4453107
0.7399570 0.6051426 0.4892164
0.0478190 0.8014073 0.6878544
0.1708389 0.8009393 0.6840550
0.2917478 0.7785453 0.6529891
0.4340185 0.7167811 0.5718344
0.4572990 0.6132471 0.4554276
0.4610553 0.6216752 0.4520028
0.5822245 0.6389072 0.4954996
0.6660063 0.6534247 0.5190496
0.7409222 0.6270724 0.5120315
0.0309343 0.8452708 0.7035029
0.1600504 0.8421371 0.6941639
0.2969459 0.8294227 0.6732148
0.4731973 0.7822617 0.6106912
0.5690009 0.6958223 0.5285124
0.5723558 0.6933610 0.5190690
0.6352316 0.7013655 0.5321959
0.6922802 0.7053914 0.5326205
0.7604215 0.7290497 0.5378116
0.2758850 0.2665485 0.5609009
0.2980054 0.1815730 0.6075195
0.4231025 0.1013481 0.6543542
0.6395603 0.0693514 0.6988015
0.7770801 0.0536240 0.6695790
0.8021313 0.0523752 0.6676383
0.8319334 0.0541387 0.6748052
0.8456093 0.0531330 0.6746717
0.8546166 0.0514300 0.6732154
0.1681733 0.1735284 0.5336278
0.2812568 0.2163355 0.5790318
0.4057590 0.2011745 0.6351204
0.6268549 0.1910940 0.6941591
0.7721438 0.1763245 0.6703645
0.8022891 0.1761744 0.6728005
0.8287016 0.1767224 0.6748126
0.8423558 0.1770932 0.6751879
0.8515061 0.1762658 0.6730878
0.1855607 0.2432095 0.5399010
0.2114692 0.2102567 0.5721614
0.3768275 0.2866706 0.6005375
0.6015013 0.3077419 0.6783503
0.7531273 0.2956690 0.6629607
0.7844691 0.2958804 0.6657456
0.8143829 0.2978937 0.6679520
0.8312876 0.3016418 0.6697931
0.8416046 0.3023848 0.6680312
0.2027605 0.3373391 0.5614331
0.2387293 0.3484817 0.5828509
0.2952235 0.3256232 0.5586647
0.5555839 0.4448592 0.6359483
0.7144020 0.4494859 0.6485842
0.7434434 0.4480709 0.6484909
0.7745161 0.4508076 0.6455144
0.7982605 0.4625835 0.6492144
0.8104480 0.4660989 0.6474406
0.1738847 0.3925863 0.5556067
0.2466369 0.4536091 0.5564377
0.2875424 0.4165434 0.4969944
0.4547503 0.4852784 0.5670743
0.6014002 0.5364269 0.5988177
0.6412018 0.5475618 0.6008508
0.6831151 0.5497868 0.5927923
0.7201267 0.5753792 0.5968638
0.7397951 0.5906930 0.5986199
0.1472438 0.3332482 0.4041205
0.2742060 0.4442666 0.5332842
0.2902523 0.3979813 0.5033385
0.3309171 0.4274892 0.5732995
0.4743877 0.5232324 0.6146942
0.5870812 0.5654730 0.6295869
0.6585606 0.5680766 0.6235017
0.7074466 0.5980363 0.6158403
0.7424211 0.6387004 0.6229146
0.1714301 0.6127333 0.6110913
0.2425457 0.6074107 0.6039698
0.2984011 0.5800626 0.5815928
0.3761897 0.5516342 0.5600845
0.4244696 0.5395401 0.5669498
0.5064772 0.5922443 0.6761702
0.6657113 0.6309422 0.6810763
0.6921354 0.5764422 0.6216565
0.7415314 0.6499388 0.6095924
0.0902647 0.7628541 0.6974868
0.2023073 0.7609036 0.6917612
0.3101590 0.7447818 0.6752483
0.4551512 0.7094685 0.6345604
0.5168659 0.6315293 0.5665388
0.5251835 0.6444336 0.5788467
0.5867415 0.6476623 0.5945165
0.6816932 0.6560328 0.6091910
0.7519970 0.6887830 0.6086870
0.0464812 0.8325715 0.7174125
0.1734152 0.8283222 0.7079264
0.3050762 0.8160835 0.6923247
0.4811363 0.7780105 0.6457967
0.5735363 0.6959054 0.5726963
0.5678177 0.7010118 0.5749721
0.6300388 0.7071875 0.5913411
0.6851572 0.7035795 0.6047436
0.7544513 0.7268552 0.6161257
0.2505724 0.1759501 0.6113367
0.3208082 0.1273275 0.6383863
0.4382519 0.0962373 0.6760884
0.6514727 0.0788153 0.7189461
0.7938942 0.0588294 0.6954478
0.8182547 0.0558009 0.6932954
0.8388784 0.0551104 0.6924119
0.8500663 0.0538535 0.6912442
0.8592973 0.0525622 0.6896413
0.1506252 0.1537034 0.6112810
0.2901930 0.2140628 0.6066649
0.4166343 0.2027040 0.6550606
0.6406405 0.1971003 0.7170572
0.7903260 0.1846172 0.6980955
0.8136328 0.1807852 0.6947651
0.8340723 0.1790230 0.6923035
0.8457105 0.1788367 0.6906250
0.8545831 0.1777422 0.6883173
0.1804725 0.2613448 0.6189483
0.2173304 0.2199724 0.6021710
0.3885794 0.2964555 0.6238711
0.6215842 0.3207311 0.7069491
0.7797273 0.3125020 0.6978134
0.8018074 0.3071764 0.6931045
0.8229138 0.3042299 0.6891710
0.8364466 0.3059603 0.6873992
0.8453501 0.3052726 0.6844407
0.1987680 0.3717934 0.6095757
0.2442569 0.3729976 0.6217351
0.3113863 0.3544843 0.5993625
0.5814878 0.4707049 0.6716462
0.7537911 0.4815761 0.6924430
0.7754510 0.4765965 0.6862327
0.7951353 0.4706949 0.6774359
0.8104202 0.4753114 0.6741761
0.8188314 0.4747714 0.6694480
0.2117626 0.4663507 0.6258082
0.2600588 0.5008925 0.6196538
0.3279937 0.5104922 0.6108387
0.5044615 0.5367946 0.6200068
0.6779267 0.5986352 0.6612476
0.6948555 0.5980883 0.6451154
0.7203602 0.5952200 0.6353427
0.7419457 0.6063684 0.6318822
0.7522201 0.6087344 0.6265863
0.1861369 0.3660541 0.5631906
0.3061165 0.4117488 0.5706353
0.3260463 0.4039840 0.5662101
0.3911245 0.4506297 0.5728319
0.5229632 0.5130022 0.6008337
0.6149428 0.5883905 0.6388558
0.6948799 0.6301173 0.6595132
0.7339254 0.6515783 0.6603409
0.7506012 0.6620045 0.6543388
0.2745799 0.4974869 0.6268022
0.3511253 0.4967370 0.6397877
0.3459917 0.4983632 0.6382070
0.3634185 0.5001967 0.6267366
0.4159667 0.5135930 0.6275031
0.4822670 0.5285917 0.6211395
0.6520294 0.6403786 0.6831733
0.7244899 0.6713948 0.6852510
0.7530801 0.6898101 0.6705706
0.2074650 0.6816393 0.7195437
0.2762694 0.6777595 0.7120323
0.3517655 0.6405975 0.7120354
0.4028046 0.6023663 0.7125608
0.4504838 0.6397517 0.6917627
0.5171477 0.6307808 0.6899891
0.5773479 0.6339740 0.6617994
0.6957472 0.6786852 0.7003310
0.7544509 0.7126054 0.7009626
0.0672490 0.8161763 0.7312225
0.1897498 0.8104366 0.7223403
0.3129575 0.7956051 0.7108801
0.4816729 0.7648838 0.6783579
0.5750727 0.6935071 0.6151344
0.5949267 0.6987256 0.6247137
0.6398740 0.7027393 0.6430731
0.6904950 0.7154579 0.6917294
0.7813495 0.7659895 0.7365789
