presets/experimental/experimental-cinema/look.cube
# experimental-cinema tuned
LUT_3D_SIZE 5
DOMAIN_MIN 0 0 0
DOMAIN_MAX 1 1 1
0.1746855 0.2271845 0.2242779
0.2536227 0.0869999 0.0060834
0.4416720 0.0992308 0.0822408
0.6255740 0.0849995 0.0791419
0.8563957 0.0910334 0.0724398
0.0009963 0.1849056 0.0013980
0.0938349 0.0918656 0.0601834
0.2948333 0.1654376 0.0937081
0.4352713 0.1912930 0.1008622
0.8621011 0.1401135 0.0747677
0.0084486 0.5378949 0.0111777
0.1621246 0.2590711 0.0860887
0.2771921 0.2561834 0.1200490
0.5298330 0.3342557 0.1599257
0.7628165 0.3074462 0.1043771
0.0529068 0.7133163 0.0394277
0.3209790 0.6511859 0.0434419
0.3566039 0.3811940 0.0000000
0.4981545 0.4563942 0.0368739
0.8175387 0.5333159 0.0851625
0.0527645 0.7597029 0.0382873
0.3585466 0.7362592 0.0492561
0.7039962 0.7433829 0.0946407
0.7091866 0.7105759 0.0969072
0.7675455 0.7409124 0.0000000
0.1051276 0.1071114 0.2574159
0.0952716 0.0686679 0.0889734
0.4964219 0.0410254 0.0779435
0.7540689 0.0800123 0.1064787
0.8661359 0.1865260 0.1229394
0.0343259 0.1567458 0.0858853
0.1294693 0.1152749 0.1156601
0.2317501 0.1398709 0.1104458
0.5428224 0.1981592 0.1480173
0.7622704 0.2525964 0.1795759
0.0024779 0.4666025 0.1398328
0.1424961 0.3372371 0.0958449
0.2678396 0.2450281 0.1229720
0.4312806 0.2799365 0.1681090
0.7368677 0.3803068 0.1922735
0.0343475 0.7467434 0.2614364
0.2111073 0.6824457 0.1230307
0.5484141 0.5623121 0.1486175
0.5526871 0.5132104 0.1654248
0.7401741 0.5359294 0.2566280
0.0326451 0.7978893 0.2671835
0.2129135 0.7500596 0.1202769
0.7060383 0.7607126 0.2162729
0.7125833 0.7234489 0.2183367
0.7593358 0.7288305 0.2261925
0.1329377 0.1434969 0.3294983
0.1853863 0.0229007 0.3368662
0.4605297 0.0000000 0.3538942
0.7824385 0.0365052 0.5712006
0.8464793 0.0510634 0.5994549
0.0986807 0.1530126 0.2205538
0.1527264 0.1611933 0.2497661
0.2585363 0.0735309 0.2026101
0.7040388 0.2359141 0.4922797
0.8151956 0.2891851 0.5330947
0.1535737 0.3058645 0.2471879
0.1570078 0.2869231 0.2614385
0.3121415 0.2993110 0.2545752
0.5097509 0.3163257 0.2956187
0.8083690 0.3980775 0.3364469
0.0328950 0.7569220 0.6149498
0.2494140 0.6884505 0.5278625
0.4263052 0.5075927 0.3151436
0.5819230 0.5534522 0.3549912
0.7435391 0.5522099 0.3361090
0.0290733 0.8483106 0.6547732
0.2840099 0.8295228 0.6138065
0.6344357 0.7160008 0.5128625
0.6854832 0.7152688 0.5025332
0.7593395 0.7196503 0.4133391
0.1778048 0.1917230 0.4042324
0.3705396 0.1029983 0.5920883
0.7189922 0.0353304 0.6081236
0.8129653 0.0482700 0.6464774
0.8333542 0.0489353 0.6411366
0.1604963 0.2060760 0.4577466
0.3314695 0.2531171 0.5364703
0.6539564 0.2310280 0.5643115
0.7834797 0.2766740 0.6270386
0.8367687 0.2986142 0.6491337
0.1599568 0.3217925 0.3915165
0.2030457 0.2487258 0.2801232
0.4321914 0.3997187 0.4737120
0.6044583 0.4451037 0.4943138
0.7267562 0.5635448 0.5573350
0.0933271 0.7240317 0.6548409
0.2679394 0.6690338 0.5968016
0.3986226 0.5033901 0.4247196
0.5768208 0.5486001 0.5087218
0.7399570 0.6051426 0.4892164
0.0309343 0.8452708 0.7035029
0.2969459 0.8294227 0.6732148
0.5690009 0.6958223 0.5285124
0.6352316 0.7013655 0.5321959
0.7604215 0.7290497 0.5378116
0.2505724 0.1759501 0.6113367
0.4382519 0.0962373 0.6760884
0.7938942 0.0588294 0.6954478
0.8388784 0.0551104 0.6924119
0.8592973 0.0525622 0.6896413
0.1804725 0.2613448 0.6189483
0.3885794 0.2964555 0.6238711
0.7797273 0.3125020 0.6978134
0.8229138 0.3042299 0.6891710
0.8453501 0.3052726 0.6844407
0.2117626 0.4663507 0.6258082
0.3279937 0.5104922 0.6108387
0.6779267 0.5986352 0.6612476
0.7203602 0.5952200 0.6353427
0.7522201 0.6087344 0.6265863
0.2745799 0.4974869 0.6268022
0.3459917 0.4983632 0.6382070
0.4159667 0.5135930 0.6275031
0.6520294 0.6403786 0.6831733
0.7530801 0.6898101 0.6705706
0.0672490 0.8161763 0.7312225
0.3129575 0.7956051 0.7108801
0.5750727 0.6935071 0.6151344
0.6398740 0.7027393 0.6430731
0.7813495 0.7659895 0.7365789
