presets/experimental/experimental-cinema/look.cube
# experimental-cinema tuned
LUT_3D_SIZE 33
DOMAIN_MIN 0 0 0
DOMAIN_MAX 1 1 1
0.1746855 0.2271845 0.2242779
0.2333255 0.2405502 0.2063341
0.2433179 0.2184363 0.1662805
0.2253180 0.1802836 0.1145074
0.2032605 0.1406823 0.0645031
0.2031923 0.1171971 0.0355092
0.2201527 0.1106591 0.0252913
0.2414347 0.1007860 0.0163259
0.2536227 0.0869999 0.0060834
0.2751015 0.0679009 0.0015026
0.3013556 0.0604748 0.0012251
0.3257934 0.0593701 0.0116771
0.3492217 0.0672831 0.0297912
0.3751218 0.0759839 0.0476120
0.3968527 0.0856538 0.0645212
0.4197967 0.0935348 0.0748392
0.4416720 0.0992308 0.0822408
0.4532136 0.1000354 0.0880466
0.4619971 0.1004230 0.0950507
0.4765280 0.1011602 0.0963452
0.4980956 0.1000225 0.0941727
0.5195545 0.0953574 0.0923652
0.5536430 0.0916496 0.0887462
0.5881867 0.0871680 0.0813977
0.6255740 0.0849995 0.0791419
0.6571839 0.0877391 0.0770703
0.6892425 0.0946276 0.0733859
0.7206481 0.0984341 0.0718139
0.7649208 0.0890122 0.0624893
0.7870470 0.0858583 0.0626129
0.8031616 0.0914547 0.0634907
0.8244140 0.0911037 0.0660898
0.8563957 0.0910334 0.0724398
0.1422365 0.2165546 0.1700186
0.1904081 0.2119252 0.1583482
0.2254496 0.2137789 0.1368649
0.2043198 0.1769723 0.0888907
0.1756661 0.1371125 0.0504930
0.1826822 0.1206239 0.0395204
0.2059393 0.1182864 0.0226032
0.2283288 0.1120831 0.0146365
0.2346362 0.0977154 0.0022209
0.2516351 0.0792394 0.0016435
0.2769461 0.0707945 0.0013416
0.3059484 0.0739789 0.0122320
0.3363637 0.0855050 0.0318352
0.3653510 0.0970262 0.0496168
0.3927787 0.1077057 0.0645723
0.4186581 0.1155566 0.0730851
0.4422657 0.1210189 0.0789889
0.4473901 0.1212313 0.0840788
0.4519011 0.1207705 0.0881188
0.4600738 0.1206097 0.0888966
0.4719094 0.1191698 0.0882653
0.4884852 0.1160622 0.0867636
0.5118110 0.1138238 0.0841615
0.5381676 0.1127666 0.0813524
0.5616370 0.1135183 0.0804325
0.5876426 0.1174487 0.0805497
0.6210568 0.1235205 0.0803749
0.6580744 0.1264288 0.0790009
0.6966810 0.1250137 0.0747406
0.7371693 0.1229799 0.0706951
0.7674969 0.1233053 0.0682622
0.7960911 0.1226476 0.0689429
0.8219221 0.1258052 0.0725176
0.0844181 0.1811992 0.1115078
0.1096512 0.1510316 0.0870263
0.1400626 0.1551251 0.0657004
0.1417002 0.1456658 0.0503645
0.1370352 0.1292580 0.0578922
0.1583092 0.1239175 0.0478190
0.1827659 0.1259827 0.0260737
0.1930574 0.1194964 0.0105803
0.1875283 0.1031566 0.0023192
0.1974722 0.0858951 0.0018925
0.2261364 0.0776708 0.0015683
0.2656110 0.0851405 0.0122300
0.3031291 0.1008899 0.0347884
0.3373662 0.1148770 0.0523422
0.3687363 0.1270295 0.0660271
0.3925911 0.1345873 0.0738212
0.4155912 0.1402607 0.0791789
0.4160692 0.1397491 0.0833725
0.4145370 0.1380792 0.0861610
0.4110426 0.1359482 0.0875841
0.4129072 0.1334077 0.0880932
0.4241487 0.1302336 0.0878421
0.4461192 0.1286154 0.0866469
0.4750931 0.1273004 0.0847636
0.5036696 0.1288059 0.0848609
0.5374691 0.1316367 0.0853834
0.5691229 0.1361139 0.0858305
0.6105963 0.1422316 0.0850267
0.6578294 0.1429429 0.0810413
0.7078125 0.1389726 0.0749209
0.7475360 0.1360948 0.0705907
0.7816624 0.1345809 0.0709539
0.8134781 0.1380055 0.0744621
0.0415823 0.1587482 0.0659727
0.0666274 0.1372215 0.0543419
0.0881666 0.1300285 0.0471582
0.0973830 0.1293837 0.0493202
0.1195978 0.1371056 0.0588151
0.1360793 0.1300534 0.0490627
0.1361905 0.1198226 0.0230028
0.1313250 0.1122642 0.0079486
0.1219942 0.0968684 0.0027442
0.1400891 0.0875569 0.0022227
0.1772764 0.0858220 0.0019021
0.2221387 0.0961793 0.0150378
0.2685921 0.1166322 0.0401679
0.3055747 0.1326769 0.0580925
0.3389410 0.1457100 0.0720419
0.3652214 0.1553979 0.0809195
0.3866463 0.1602645 0.0846077
0.3846446 0.1582497 0.0864845
0.3780130 0.1543849 0.0881922
0.3726944 0.1501604 0.0890894
0.3728381 0.1456088 0.0897505
0.3798813 0.1404787 0.0906116
0.3975753 0.1369274 0.0906318
0.4224638 0.1367102 0.0915573
0.4505091 0.1380169 0.0929022
0.4916193 0.1420405 0.0920088
0.5320895 0.1480805 0.0918683
0.5779390 0.1542768 0.0909071
0.6292371 0.1514649 0.0857185
0.6867113 0.1443821 0.0783685
0.7363833 0.1387097 0.0729021
0.7763023 0.1353538 0.0712735
0.8175435 0.1371838 0.0734503
0.0176827 0.1517452 0.0367199
0.0439101 0.1345400 0.0328277
0.0642901 0.1208480 0.0404094
0.0802036 0.1184165 0.0524532
0.0916425 0.1213038 0.0538164
0.1075433 0.1272164 0.0423476
0.0958428 0.1150451 0.0174974
0.0850399 0.1034980 0.0070796
0.0823911 0.0910872 0.0032079
0.1113368 0.0907846 0.0026251
0.1537047 0.0916459 0.0023106
0.2019840 0.1022940 0.0177736
0.2491581 0.1264066 0.0467033
0.2908251 0.1469577 0.0658015
0.3234024 0.1632086 0.0802397
0.3470718 0.1758117 0.0896511
0.3681642 0.1794987 0.0893847
0.3654935 0.1769890 0.0883255
0.3603619 0.1721492 0.0881689
0.3618577 0.1663837 0.0882184
0.3629919 0.1589192 0.0895919
0.3640566 0.1525651 0.0920029
0.3697597 0.1470427 0.0933157
0.3758546 0.1414744 0.0954456
0.3882649 0.1418058 0.0979052
0.4470783 0.1461616 0.0949742
0.5033541 0.1543548 0.0941060
0.5552393 0.1592597 0.0924525
0.6096389 0.1528311 0.0866001
0.6736765 0.1444208 0.0802382
0.7324199 0.1359613 0.0734651
0.7787449 0.1293217 0.0704665
0.8275236 0.1318797 0.0745560
0.0077696 0.1518504 0.0212902
0.0326552 0.1363706 0.0206024
0.0508295 0.1206003 0.0281971
0.0665635 0.1119626 0.0405297
0.0813427 0.1157398 0.0519471
0.0842145 0.1149987 0.0505742
0.0805643 0.1164492 0.0300401
0.0783310 0.1065847 0.0059707
0.0859864 0.0960373 0.0037023
0.1144279 0.0944673 0.0031804
0.1513677 0.0934527 0.0029275
0.1885897 0.1035348 0.0206217
0.2272902 0.1250991 0.0584726
0.2717540 0.1452570 0.0762267
0.3116933 0.1658261 0.0883306
0.3399100 0.1823664 0.0963681
0.3668309 0.1934019 0.0956150
0.3685255 0.1958570 0.0912903
0.3689067 0.1945276 0.0911870
0.3759196 0.1860107 0.0895033
0.3871239 0.1763921 0.0886574
0.3996188 0.1718428 0.0915614
0.4050492 0.1667203 0.0949907
0.3968716 0.1567971 0.0980325
0.4041391 0.1515005 0.0985124
0.4426910 0.1483324 0.0946588
0.5031174 0.1545082 0.0937568
0.5578749 0.1599338 0.0929560
0.6140977 0.1528993 0.0892609
0.6777699 0.1407963 0.0840698
0.7384904 0.1330887 0.0791972
0.7881566 0.1266476 0.0750761
0.8407786 0.1255623 0.0758832
0.0018732 0.1556186 0.0087787
0.0278340 0.1439637 0.0104554
0.0469203 0.1291497 0.0183257
0.0593233 0.1131881 0.0279941
0.0678622 0.1000706 0.0514126
0.0824966 0.0990094 0.0642238
0.0783238 0.0965225 0.0647307
0.0916845 0.1100887 0.0421195
0.1145097 0.1173202 0.0108874
0.1469669 0.1146618 0.0039219
0.1651844 0.1109404 0.0037866
0.1836496 0.1115322 0.0160096
0.2118889 0.1211879 0.0525504
0.2517804 0.1384966 0.0769200
0.2946789 0.1574990 0.0910091
0.3292200 0.1739845 0.1034090
0.3560906 0.1846884 0.1032514
0.3588131 0.1905023 0.0974741
0.3665125 0.1973347 0.0967313
0.3755364 0.1974073 0.0939567
0.3895123 0.1903615 0.0914337
0.4142171 0.1910090 0.0937018
0.4289225 0.1878969 0.0968162
0.4381766 0.1804504 0.0987934
0.4512073 0.1733242 0.0994787
0.4776768 0.1663889 0.0958430
0.5240750 0.1691660 0.0954458
0.5741710 0.1693629 0.0934968
0.6265594 0.1578525 0.0899573
0.6845958 0.1396662 0.0836081
0.7435727 0.1313926 0.0810393
0.7973017 0.1266037 0.0786535
0.8560738 0.1226214 0.0781107
0.0012766 0.1651019 0.0017418
0.0288493 0.1576522 0.0059160
0.0508757 0.1451477 0.0151133
0.0636665 0.1284409 0.0216457
0.0712396 0.1126078 0.0417714
0.0836229 0.1018043 0.0681484
0.0814291 0.0904556 0.0753975
0.0800870 0.0846144 0.0633069
0.1183399 0.1182451 0.0406567
0.1784855 0.1456224 0.0156408
0.1856084 0.1399859 0.0048298
0.1829174 0.1253821 0.0257503
0.1940433 0.1220413 0.0518348
0.2198205 0.1347242 0.0747044
0.2591290 0.1520582 0.0884644
0.3035143 0.1658879 0.0944301
0.3474688 0.1761424 0.0949066
0.3547772 0.1792628 0.0945444
0.3561520 0.1795029 0.0942479
0.3706012 0.1837134 0.0929146
0.3832599 0.1843182 0.0900960
0.3930958 0.1884133 0.0898885
0.4035559 0.1892943 0.0926642
0.4321408 0.1945599 0.0962820
0.4633756 0.1919626 0.0936031
0.4956507 0.1874659 0.0906181
0.5368176 0.1880651 0.0902601
0.5813886 0.1890993 0.0916799
0.6266544 0.1746639 0.0872057
0.6803504 0.1529531 0.0805918
0.7381500 0.1400025 0.0774431
0.7983335 0.1313930 0.0746914
0.8627104 0.1257767 0.0751008
0.0009963 0.1849056 0.0013980
0.0336437 0.1805613 0.0071334
0.0603403 0.1699497 0.0172140
0.0795583 0.1556020 0.0256955
0.0949997 0.1433675 0.0338149
0.1211431 0.1452922 0.0625795
0.1233139 0.1334734 0.0810043
0.0962616 0.0972416 0.0802689
0.0938349 0.0918656 0.0601834
0.1379541 0.1203148 0.0264534
0.1908986 0.1538640 0.0205008
0.2292575 0.1670679 0.0365738
0.2115784 0.1501438 0.0597345
0.1948014 0.1383404 0.0816242
0.2215510 0.1484162 0.0968375
0.2626705 0.1633437 0.1018275
0.2948333 0.1654376 0.0937081
0.3444179 0.1754160 0.0904642
0.3720227 0.1770462 0.0886896
0.3978688 0.1782371 0.0888717
0.4133870 0.1797492 0.0915056
0.4128035 0.1833000 0.0968594
0.4018609 0.1817637 0.1015884
0.4067430 0.1869649 0.1057404
0.4352713 0.1912930 0.1008622
0.4721817 0.1947136 0.0945832
0.5258689 0.2034845 0.0945580
0.5718200 0.2089789 0.0992414
0.6113641 0.1974725 0.0950259
0.6667926 0.1787842 0.0871849
0.7272833 0.1606010 0.0808095
0.7914698 0.1493950 0.0765528
0.8621011 0.1401135 0.0747677
0.0007013 0.2172104 0.0010082
0.0363461 0.2146696 0.0081636
0.0662493 0.2037132 0.0185457
0.0894997 0.1874539 0.0282136
0.1077210 0.1702952 0.0369857
0.1321020 0.1629691 0.0509564
0.1531318 0.1662318 0.0634069
0.1570258 0.1613756 0.0782800
0.1251022 0.1294586 0.0763978
0.1160922 0.1159093 0.0536300
0.1425327 0.1282004 0.0246003
0.1927255 0.1626241 0.0330552
0.2182157 0.1749066 0.0595960
0.2047606 0.1614249 0.0865424
0.1974124 0.1532431 0.1076990
0.2285639 0.1705929 0.1217854
0.2580102 0.1752961 0.1122334
0.2760907 0.1698208 0.1002552
0.3061309 0.1666645 0.0857007
0.3726002 0.1734517 0.0742155
0.4220235 0.1802968 0.0725132
0.4667849 0.1889388 0.0801964
0.4581170 0.1934665 0.0945915
0.4415150 0.1950312 0.1039085
0.4394152 0.1903289 0.1011966
0.4564613 0.1874004 0.0939670
0.5016225 0.1958720 0.0905198
0.5393648 0.2055560 0.0913673
0.5798517 0.2067183 0.0865698
0.6358398 0.2026581 0.0800120
0.6990844 0.1934413 0.0706509
0.7676291 0.1928070 0.0666265
0.8391598 0.1860330 0.0639552
0.0004126 0.2506299 0.0006343
0.0345046 0.2482160 0.0064395
0.0654822 0.2356589 0.0159756
0.0898414 0.2153910 0.0253579
0.1086931 0.1902773 0.0352212
0.1282895 0.1680468 0.0485572
0.1519052 0.1641376 0.0606659
0.1801892 0.1783714 0.0696544
0.1939426 0.1960222 0.0768643
0.1584222 0.1603421 0.0712924
0.1476148 0.1460820 0.0478724
0.1530608 0.1441196 0.0308806
0.1792483 0.1611002 0.0512021
0.2319562 0.1918991 0.0892292
0.2388149 0.1967335 0.1233067
0.2220622 0.1839799 0.1316377
0.2576383 0.1931408 0.1227729
0.2734056 0.1961923 0.1182052
0.2751229 0.1846546 0.1040724
0.2954183 0.1710500 0.0871684
0.3402706 0.1744052 0.0794500
0.4108287 0.1853299 0.0779958
0.4756195 0.1913551 0.0720315
0.5005909 0.2029989 0.0838320
0.4823644 0.2039415 0.0941695
0.4880059 0.2001009 0.0954006
0.5072014 0.1971396 0.0869350
0.5299800 0.1959274 0.0811521
0.5671610 0.2022567 0.0785021
0.6150629 0.2130273 0.0726914
0.6717269 0.2180276 0.0615475
0.7342818 0.2283887 0.0570392
0.7996359 0.2401841 0.0526666
0.0001258 0.2850318 0.0003043
0.0302686 0.2825862 0.0043308
0.0626058 0.2686153 0.0139182
0.0874086 0.2444551 0.0232733
0.1064308 0.2122484 0.0345846
0.1263674 0.1798507 0.0520405
0.1486740 0.1641680 0.0667438
0.1823091 0.1811927 0.0737178
0.2078772 0.2103110 0.0705600
0.2255944 0.2278566 0.0633436
0.1909487 0.1977282 0.0649743
0.1846652 0.1784066 0.0494195
0.1746677 0.1696803 0.0541180
0.1913993 0.1834270 0.0925435
0.2029555 0.1960127 0.1434001
0.2217038 0.2032321 0.1679589
0.2553963 0.2062722 0.1471186
0.2779107 0.2048018 0.1235028
0.3063025 0.2166055 0.1294375
0.3047716 0.2067430 0.1252686
0.3068986 0.1916417 0.1100278
0.3331939 0.1855488 0.0973953
0.3898696 0.1890303 0.0879730
0.4605758 0.2000099 0.0834853
0.5192652 0.2158856 0.0814591
0.5314207 0.2230457 0.1028256
0.5303834 0.2198028 0.1140827
0.5547120 0.2128607 0.0954718
0.5866334 0.2134808 0.0832597
0.6244113 0.2217381 0.0779450
0.6608025 0.2340446 0.0745823
0.7037245 0.2594884 0.0780802
0.7650917 0.2894615 0.0746240
0.0000000 0.3240974 0.0000000
0.0263890 0.3198371 0.0036537
0.0594380 0.3056753 0.0128519
0.0841466 0.2781214 0.0219550
0.1041128 0.2420093 0.0343880
0.1241290 0.2024351 0.0539731
0.1476407 0.1748620 0.0753233
0.1770833 0.1775121 0.0896828
0.1978439 0.1969233 0.0831480
0.2283261 0.2290257 0.0611737
0.2353436 0.2387153 0.0550921
0.2253127 0.2212552 0.0591765
0.2056097 0.2025665 0.0721278
0.1963711 0.1965585 0.1020098
0.2091704 0.2104751 0.1437629
0.2300372 0.2216850 0.1737002
0.2558817 0.2248714 0.1769560
0.2744621 0.2200105 0.1471844
0.2994105 0.2131623 0.1164275
0.3336783 0.2305526 0.1332451
0.3453269 0.2312754 0.1380619
0.3433407 0.2097708 0.1178101
0.3720905 0.2033238 0.1004361
0.4334259 0.2077329 0.0850235
0.4895512 0.2177669 0.0788941
0.5465516 0.2312569 0.0814516
0.5723356 0.2360616 0.0901915
0.6491020 0.2542044 0.0894545
0.6993295 0.2658208 0.0880028
0.6919873 0.2586140 0.0820073
0.6767124 0.2535450 0.0857435
0.6796862 0.2599516 0.0994418
0.7363330 0.2987338 0.1008339
0.0000000 0.3681210 0.0000000
0.0249111 0.3627357 0.0048874
0.0576313 0.3480850 0.0123627
0.0827123 0.3201266 0.0204199
0.1015567 0.2807027 0.0324136
0.1204810 0.2368503 0.0516471
0.1441783 0.1997895 0.0800183
0.1746231 0.1855390 0.1091870
0.1963588 0.1936201 0.1164076
0.2155152 0.2157903 0.0922631
0.2409227 0.2462527 0.0627924
0.2407453 0.2428914 0.0691979
0.2379925 0.2375640 0.0930073
0.2212888 0.2200930 0.1134055
0.2216657 0.2163937 0.1307462
0.2382979 0.2238434 0.1451479
0.2629950 0.2313595 0.1535997
0.2835119 0.2383521 0.1597299
0.3070180 0.2345074 0.1358017
0.3247485 0.2275570 0.1153169
0.3711025 0.2531112 0.1403573
0.3657255 0.2368070 0.1335370
0.3709237 0.2272867 0.1283672
0.4105834 0.2314030 0.1180702
0.4653958 0.2306495 0.0927102
0.5180722 0.2372319 0.0850565
0.5546085 0.2461613 0.0897446
0.6039621 0.2535332 0.0877122
0.7345951 0.2960045 0.0765242
0.8193037 0.3412627 0.0956580
0.7687759 0.3181223 0.1108993
0.6782342 0.2641333 0.1330371
0.7174978 0.2771989 0.1329461
0.0000000 0.4206163 0.0004470
0.0277197 0.4134829 0.0068851
0.0605544 0.3989724 0.0136680
0.0850537 0.3706337 0.0196460
0.1028863 0.3303981 0.0287897
0.1196159 0.2842904 0.0462073
0.1372487 0.2382280 0.0721876
0.1676388 0.2103180 0.1062720
0.1962091 0.2067336 0.1324823
0.2137807 0.2145676 0.1284189
0.2225597 0.2294096 0.1024700
0.2444336 0.2522695 0.0837693
0.2373714 0.2405266 0.1007227
0.2388089 0.2386935 0.1191155
0.2352016 0.2279863 0.1285398
0.2458146 0.2272657 0.1311710
0.2723546 0.2352220 0.1315409
0.2871815 0.2421984 0.1363946
0.3225990 0.2525813 0.1393889
0.3449076 0.2560840 0.1399188
0.3743247 0.2658187 0.1446662
0.4108340 0.2792692 0.1539815
0.3996534 0.2604427 0.1461276
0.4257862 0.2625473 0.1454818
0.4523900 0.2588916 0.1311967
0.4621137 0.2425788 0.1062260
0.5166965 0.2506097 0.1008180
0.5656996 0.2658985 0.1117967
0.5938865 0.2608541 0.1084682
0.7393854 0.3304120 0.0893834
0.8138102 0.3823591 0.1195690
0.6725604 0.2660902 0.1132642
0.7289285 0.2700049 0.1209993
0.0000000 0.4789078 0.0048230
0.0342807 0.4711115 0.0098364
0.0660179 0.4558446 0.0152166
0.0912075 0.4292504 0.0197885
0.1082527 0.3896056 0.0256181
0.1218492 0.3418464 0.0373155
0.1317040 0.2901038 0.0556036
0.1528750 0.2478847 0.0846539
0.1830631 0.2298226 0.1172011
0.2084625 0.2266777 0.1309776
0.2157056 0.2313760 0.1274788
0.2220812 0.2374045 0.1102222
0.2373443 0.2495586 0.1045854
0.2346287 0.2423697 0.1214231
0.2439331 0.2441104 0.1319607
0.2545152 0.2407477 0.1311160
0.2767028 0.2433269 0.1265047
0.2921456 0.2499726 0.1218568
0.3156094 0.2580722 0.1253377
0.3440817 0.2671609 0.1343780
0.3736178 0.2758209 0.1413738
0.4140081 0.2861381 0.1362305
0.4498412 0.2968931 0.1424760
0.4691398 0.2958228 0.1515855
0.5111904 0.3065017 0.1635539
0.5066197 0.2836644 0.1295526
0.5104389 0.2656082 0.1032860
0.5648966 0.2772307 0.1087137
0.6094124 0.2839937 0.1126134
0.6455869 0.2851604 0.1084491
0.7252134 0.3394252 0.1200302
0.6572885 0.2769801 0.1056011
0.7490944 0.2795103 0.0949995
0.0084486 0.5378949 0.0111777
0.0440656 0.5299254 0.0147282
0.0756305 0.5155416 0.0187099
0.1006293 0.4903985 0.0219574
0.1181128 0.4537336 0.0254723
0.1297046 0.4069459 0.0314568
0.1359674 0.3535469 0.0423248
0.1457576 0.3000054 0.0590882
0.1621246 0.2590711 0.0860887
0.1944713 0.2439053 0.1119194
0.2101327 0.2451147 0.1180112
0.2179394 0.2496715 0.1169207
0.2261867 0.2567895 0.1067065
0.2391183 0.2635874 0.1091937
0.2409228 0.2561660 0.1256004
0.2572285 0.2579037 0.1248964
0.2771921 0.2561834 0.1200490
0.2899081 0.2610583 0.1174861
0.3106012 0.2668406 0.1164992
0.3340838 0.2748572 0.1207537
0.3684157 0.2890850 0.1316287
0.4075763 0.2995937 0.1314513
0.4430978 0.3058313 0.1256055
0.4814387 0.3168675 0.1331748
0.5298330 0.3342557 0.1599257
0.5582178 0.3281529 0.1645409
0.5587143 0.3087212 0.1297039
0.5650831 0.2972426 0.1045233
0.6127916 0.3085946 0.1163975
0.6557967 0.3089215 0.1090286
0.6904092 0.3162340 0.1112076
0.6692262 0.3006424 0.1135523
0.7628165 0.3074462 0.1043771
0.0207969 0.5729549 0.0201506
0.0564409 0.5647909 0.0223288
0.0881172 0.5509683 0.0249961
0.1144279 0.5289637 0.0272633
0.1342482 0.4980579 0.0299579
0.1465685 0.4565948 0.0330630
0.1527410 0.4069075 0.0383195
0.1570816 0.3489171 0.0477512
0.1602348 0.2899175 0.0650101
0.1861752 0.2541444 0.0959014
0.2096127 0.2491648 0.1138044
0.2220520 0.2585335 0.1124837
0.2276611 0.2635579 0.1072961
0.2390004 0.2707908 0.1065572
0.2485889 0.2684972 0.1186312
0.2630697 0.2685732 0.1203095
0.2849561 0.2667778 0.1134098
0.2968154 0.2689996 0.1111961
0.3163671 0.2758655 0.1158484
0.3357901 0.2784455 0.1168742
0.3654337 0.2905144 0.1176569
0.4000940 0.3048980 0.1272183
0.4455045 0.3212423 0.1325150
0.4867482 0.3318475 0.1346890
0.5278371 0.3423988 0.1423048
0.5717590 0.3481769 0.1540602
0.6045636 0.3501480 0.1679027
0.6016416 0.3372558 0.1379503
0.6110961 0.3246699 0.1111069
0.6506688 0.3292319 0.1223557
0.6998491 0.3371642 0.1123426
0.7137780 0.3422282 0.1157372
0.8115648 0.3481048 0.1150370
0.0309157 0.6041305 0.0272646
0.0667400 0.5961733 0.0287580
0.0992367 0.5840366 0.0307517
0.1274438 0.5658541 0.0325214
0.1504279 0.5411148 0.0347624
0.1657523 0.5066077 0.0363744
0.1746419 0.4643656 0.0387320
0.1795358 0.4114103 0.0429455
0.1770399 0.3484462 0.0511141
0.1871107 0.2908156 0.0741599
0.2092872 0.2640746 0.1114126
0.2277638 0.2699746 0.1244356
0.2282505 0.2733534 0.1104075
0.2336482 0.2808379 0.0968861
0.2458351 0.2833774 0.1069631
0.2656319 0.2851566 0.1100210
0.2918134 0.2852414 0.1059682
0.3014204 0.2858152 0.1018209
0.3187744 0.2919147 0.1066546
0.3391970 0.2960510 0.1133383
0.3632206 0.3018162 0.1171425
0.3935875 0.3155428 0.1207641
0.4315765 0.3305962 0.1265148
0.4783812 0.3484381 0.1401479
0.5244186 0.3584613 0.1411194
0.5639966 0.3636178 0.1461195
0.6055158 0.3660232 0.1454105
0.6355191 0.3693729 0.1614804
0.6434668 0.3577702 0.1407813
0.6547169 0.3552737 0.1216729
0.6810368 0.3594085 0.1373346
0.7036771 0.3673789 0.1365040
0.7710198 0.3673867 0.1139958
0.0376606 0.6295505 0.0315909
0.0740237 0.6223307 0.0329688
0.1077562 0.6123945 0.0348456
0.1380327 0.5980367 0.0365642
0.1636598 0.5783172 0.0382171
0.1835743 0.5518467 0.0396908
0.1962544 0.5173758 0.0405890
0.2048413 0.4728217 0.0416536
0.2048123 0.4175747 0.0438677
0.2072874 0.3559862 0.0519676
0.2120873 0.3048568 0.0792141
0.2355958 0.2930997 0.1254966
0.2493252 0.3024741 0.1320650
0.2461370 0.3036080 0.1072101
0.2473929 0.2997307 0.1025466
0.2653987 0.3018457 0.1067266
0.2913469 0.3018391 0.0981920
0.3029357 0.3045532 0.0980823
0.3154496 0.3045863 0.0960931
0.3358226 0.3102592 0.1037576
0.3601238 0.3164926 0.1166355
0.3834449 0.3254121 0.1270291
0.4181627 0.3392832 0.1275813
0.4658788 0.3588151 0.1371120
0.5096115 0.3710663 0.1449324
0.5562041 0.3795276 0.1457365
0.5918919 0.3813910 0.1374086
0.6338090 0.3865754 0.1411479
0.6690648 0.3897645 0.1636308
0.6799390 0.3784806 0.1317637
0.6931992 0.3807704 0.1166038
0.7044761 0.3970811 0.1662920
0.7477114 0.3952657 0.1485807
0.0426609 0.6508535 0.0345959
0.0794661 0.6447564 0.0359505
0.1139691 0.6364617 0.0374966
0.1457837 0.6249574 0.0389591
0.1738186 0.6094182 0.0403761
0.1971244 0.5887943 0.0414711
0.2143017 0.5618643 0.0419743
0.2280928 0.5260655 0.0416372
0.2344643 0.4815466 0.0410855
0.2415852 0.4272843 0.0414414
0.2387313 0.3699007 0.0479501
0.2381302 0.3252467 0.0742652
0.2487766 0.3181949 0.1069221
0.2591904 0.3283026 0.1139890
0.2646148 0.3268491 0.1082349
0.2735039 0.3213008 0.1079511
0.3022444 0.3291583 0.1070394
0.3040344 0.3228370 0.0986350
0.3186659 0.3254100 0.0992931
0.3362545 0.3240951 0.0961728
0.3594629 0.3288203 0.1055401
0.3828871 0.3397064 0.1255746
0.4033415 0.3448000 0.1337156
0.4543861 0.3687290 0.1340056
0.5032645 0.3874588 0.1429409
0.5455583 0.3981117 0.1499515
0.5883464 0.4040247 0.1468593
0.6224366 0.4049451 0.1326265
0.6579688 0.4079322 0.1354660
0.6907903 0.4152747 0.1617584
0.7098790 0.4043140 0.1201323
0.7343160 0.4122999 0.1014734
0.7615625 0.4205328 0.1536786
0.0468592 0.6696872 0.0371815
0.0837108 0.6644805 0.0380616
0.1186289 0.6573286 0.0391972
0.1514946 0.6478620 0.0403187
0.1813937 0.6355243 0.0414524
0.2075432 0.6194469 0.0423033
0.2285685 0.5984486 0.0424862
0.2481248 0.5709697 0.0420077
0.2614818 0.5359941 0.0402609
0.2776352 0.4929709 0.0381290
0.2804557 0.4418420 0.0349297
0.2677499 0.3835134 0.0315232
0.2538938 0.3433333 0.0416505
0.2479499 0.3276946 0.0587667
0.2632821 0.3335428 0.0750132
0.2737229 0.3272991 0.0820942
0.3019382 0.3342377 0.0922998
0.3152445 0.3446063 0.0970453
0.3273605 0.3462212 0.0953287
0.3455283 0.3485290 0.0960817
0.3614803 0.3457874 0.0942212
0.3812266 0.3486474 0.1000027
0.4075511 0.3604917 0.1127624
0.4406011 0.3746644 0.1159460
0.4931001 0.4004416 0.1217888
0.5396255 0.4171932 0.1315465
0.5768407 0.4235762 0.1428978
0.6173894 0.4292558 0.1393983
0.6506585 0.4308504 0.1343067
0.6827313 0.4331312 0.1406041
0.7132895 0.4315126 0.1592429
0.7436336 0.4388575 0.1065989
0.7806519 0.4345021 0.0877950
0.0498179 0.6867231 0.0386667
0.0865453 0.6816227 0.0392019
0.1218688 0.6754014 0.0400970
0.1556640 0.6676085 0.0410175
0.1871510 0.6578237 0.0419850
0.2157195 0.6453436 0.0427123
0.2402733 0.6292538 0.0428474
0.2649500 0.6084713 0.0424989
0.2857146 0.5825982 0.0412053
0.3113672 0.5502962 0.0388672
0.3249192 0.5099966 0.0332798
0.3208588 0.4587648 0.0213472
0.2996409 0.4061547 0.0084151
0.2774770 0.3658602 0.0033819
0.2692633 0.3440418 0.0116666
0.2652751 0.3190565 0.0225720
0.2836370 0.3126505 0.0301347
0.3027515 0.3298232 0.0451464
0.3229987 0.3454394 0.0568202
0.3433968 0.3548375 0.0646715
0.3602647 0.3573415 0.0657892
0.3787930 0.3597076 0.0673727
0.4004709 0.3654160 0.0693842
0.4334675 0.3815584 0.0740234
0.4780236 0.4067447 0.0824926
0.5268121 0.4303308 0.0950046
0.5753787 0.4492263 0.1168384
0.6134942 0.4550701 0.1274052
0.6444350 0.4557259 0.1294467
0.6741500 0.4595059 0.1357832
0.7044546 0.4586392 0.1374903
0.7359540 0.4567291 0.1243009
0.7928389 0.4650354 0.0781601
0.0516345 0.7013329 0.0392010
0.0883366 0.6966772 0.0396435
0.1240240 0.6913002 0.0404312
0.1586109 0.6848630 0.0412635
0.1914284 0.6770896 0.0421698
0.2220398 0.6674451 0.0428921
0.2496438 0.6552846 0.0431483
0.2787253 0.6398023 0.0431170
0.3054640 0.6207394 0.0422991
0.3395018 0.5974343 0.0408381
0.3647633 0.5686147 0.0364673
0.3764827 0.5316439 0.0268016
0.3658699 0.4858610 0.0103448
0.3457923 0.4421250 0.0000000
0.3263110 0.4033353 0.0000540
0.3044925 0.3578450 0.0006837
0.2957781 0.3214715 0.0015508
0.3010632 0.3234441 0.0020742
0.3177667 0.3377379 0.0032181
0.3422270 0.3557224 0.0151377
0.3632472 0.3666439 0.0234056
0.3833456 0.3739159 0.0277490
0.4061814 0.3824109 0.0332915
0.4374870 0.3985534 0.0395130
0.4758064 0.4211278 0.0491245
0.5170784 0.4444044 0.0640724
0.5620112 0.4640624 0.0857950
0.6040589 0.4768326 0.1081046
0.6434955 0.4878202 0.1186265
0.6737855 0.4925017 0.1286273
0.6892942 0.4877137 0.1398329
0.7210967 0.4811719 0.1150074
0.8078244 0.5027008 0.0802903
0.0529068 0.7133163 0.0394277
0.0895886 0.7094318 0.0398493
0.1255176 0.7048053 0.0405596
0.1606805 0.6994331 0.0413069
0.1945368 0.6932077 0.0421706
