presets/film/film-grain/look.cube
# film-grain tuned
LUT_3D_SIZE 33
DOMAIN_MIN 0 0 0
DOMAIN_MAX 1 1 1
0.1260570 0.1204732 0.1148105
0.2765623 0.1825734 0.1415912
0.1231746 0.1350528 0.1197353
0.1643520 0.1544720 0.1358888
0.1836148 0.1532232 0.1341190
0.2031599 0.1510074 0.1051979
0.2152540 0.1404921 0.0759828
0.2113214 0.1296452 0.0380877
0.2159270 0.1113658 0.0285623
0.1819891 0.1139425 0.0378697
0.2026630 0.1198529 0.0407723
0.2708852 0.1145564 0.0366036
0.2973347 0.1283636 0.0344157
0.3625839 0.1410875 0.0436024
0.4630735 0.1459257 0.0560579
0.5522707 0.1367601 0.0606177
0.5987942 0.1283452 0.0636642
0.6389214 0.1116987 0.0605600
0.6616519 0.1036133 0.0548774
0.6560737 0.1051045 0.0553326
0.6365554 0.1066620 0.0589328
0.6607865 0.1005229 0.0568268
0.6851645 0.0903758 0.0511171
0.7249131 0.0742497 0.0397588
0.7947165 0.0472716 0.0204903
0.8457240 0.0015150 0.0000000
0.8672174 0.0000000 0.0000000
0.8944521 0.0000000 0.0000000
0.9057411 0.0000000 0.0000000
0.9039048 0.0000000 0.0000000
0.9140759 0.0000000 0.0000000
0.9191047 0.0000000 0.0000000
0.9236414 0.0000000 0.0000000
0.1616022 0.1526997 0.1309975
0.1648597 0.1769407 0.1719239
0.2376378 0.1870686 0.0441742
0.1791843 0.1492204 0.0349167
0.0380533 0.1214753 0.1531699
0.1346344 0.1768413 0.2225957
0.1149035 0.1852136 0.1760066
0.0324403 0.1727013 0.1543907
0.0287057 0.1608651 0.1341016
0.0792142 0.1630453 0.1285950
0.1187651 0.1615925 0.1133855
0.1528231 0.1551824 0.1006002
0.1988632 0.1581484 0.0851495
0.2744601 0.1647176 0.0718281
0.3440027 0.1595317 0.0687133
0.3792002 0.1596630 0.0663739
0.3971119 0.1511946 0.0658208
0.4292496 0.1268717 0.0627165
0.4619954 0.1140333 0.0577688
0.4989063 0.1007664 0.0558313
0.5463613 0.0886529 0.0554800
0.5786490 0.0901551 0.0539552
0.6169331 0.0891311 0.0487086
0.6577017 0.0849184 0.0410192
0.7155916 0.0704498 0.0313126
0.7806419 0.0468635 0.0212170
0.8220240 0.0182469 0.0115770
0.8544714 0.0000000 0.0025498
0.8825451 0.0000000 0.0000000
0.9029680 0.0000000 0.0000000
0.9218013 0.0000000 0.0000000
0.9364780 0.0000000 0.0000000
0.9366160 0.0000000 0.0000000
0.0867619 0.1198668 0.0595623
0.1040847 0.1268721 0.0828849
0.0980296 0.1123990 0.0593079
0.2424068 0.1769512 0.0329273
0.2213077 0.1879529 0.0465401
0.0514559 0.1197801 0.1989779
0.1735168 0.1737867 0.2146086
0.1917859 0.1733403 0.1432466
0.1264237 0.1497877 0.1294486
0.0794225 0.1442390 0.1432821
0.1010803 0.1528922 0.1367613
0.1447533 0.1614153 0.1263249
0.2038712 0.1693412 0.1132123
0.2863757 0.1827993 0.0945417
0.3478385 0.1830504 0.0763000
0.3751469 0.1876604 0.0752207
0.3889058 0.1962001 0.0765869
0.4009336 0.1931589 0.0715043
0.4207671 0.1871731 0.0638298
0.4543661 0.1761423 0.0596713
0.5088882 0.1316572 0.0551001
0.5423228 0.1117864 0.0522249
0.5873929 0.0984870 0.0475309
0.6288173 0.0905495 0.0420731
0.6800152 0.0877672 0.0368911
0.7396124 0.0750732 0.0331100
0.7888546 0.0579840 0.0290342
0.8312047 0.0404702 0.0247766
0.8725078 0.0235536 0.0209321
0.9007223 0.0063120 0.0170824
0.9246354 0.0000000 0.0111330
0.9436943 0.0000000 0.0056943
0.9448674 0.0000000 0.0034374
0.0778065 0.1015864 0.0681805
0.1926519 0.1960572 0.0984185
0.0960716 0.1228967 0.1156360
0.0722027 0.0911939 0.0983568
0.2518296 0.1772433 0.0358683
0.2447711 0.1914528 0.0313929
0.0944395 0.1221897 0.2069867
0.2306396 0.1690469 0.1703969
0.2555331 0.1610356 0.1006755
0.1910915 0.1355159 0.1038620
0.1408286 0.1268601 0.1218605
0.1407432 0.1325288 0.1277363
0.2113062 0.1572094 0.1273690
0.3200325 0.1845172 0.1097349
0.3822318 0.1874913 0.0858076
0.3978652 0.1863733 0.0796974
0.4057403 0.1945330 0.0862464
0.4102179 0.1935203 0.0839045
0.4295497 0.1981071 0.0755672
0.4601065 0.1983340 0.0676195
0.5040930 0.1801072 0.0610823
0.5397273 0.1683583 0.0555593
0.5871477 0.1661636 0.0492665
0.6327111 0.1591234 0.0420506
0.6709657 0.1483133 0.0384048
0.7127821 0.1254754 0.0368152
0.7681407 0.1018427 0.0355983
0.8155820 0.0770883 0.0333910
0.8634662 0.0511407 0.0299481
0.8949987 0.0272325 0.0227937
0.9216913 0.0045635 0.0154146
0.9445302 0.0000000 0.0095364
0.9486212 0.0000000 0.0074775
0.0920123 0.1130339 0.0728688
0.1269215 0.1271970 0.0852599
0.1761768 0.1603779 0.1041715
0.1294920 0.1392093 0.1345509
0.0880040 0.0983784 0.1127129
0.2515161 0.1815017 0.0315286
0.2578182 0.2011686 0.0766778
0.1964501 0.1573526 0.1820491
0.2987843 0.1893102 0.1108028
0.2579703 0.1524390 0.0477993
0.2177809 0.1316786 0.0641638
0.1929500 0.1363618 0.1032403
0.2070470 0.1397042 0.1316808
0.2784795 0.1567579 0.1314159
0.3275102 0.1665159 0.1182031
0.3641572 0.1728044 0.1046308
0.3976821 0.1850129 0.1024186
0.4294649 0.1939369 0.0970680
0.4567326 0.2072887 0.0876106
0.4860297 0.2094044 0.0768523
0.5163459 0.1964583 0.0672950
0.5526910 0.1910110 0.0580541
0.5998438 0.1887755 0.0486863
0.6481142 0.1866680 0.0399280
0.6853319 0.1793761 0.0358222
0.7196631 0.1665515 0.0361456
0.7760486 0.1493193 0.0370366
0.8181441 0.1286736 0.0355211
0.8586797 0.1029119 0.0314074
0.8918728 0.0645940 0.0247183
0.9206904 0.0175394 0.0175733
0.9435545 0.0035413 0.0123921
0.9496381 0.0039482 0.0124862
0.1012313 0.1406608 0.0613990
0.1264880 0.1424145 0.0955913
0.1177818 0.1113590 0.0890340
0.1653808 0.1526953 0.0987699
0.1708444 0.1801466 0.1234960
0.1041102 0.1177092 0.1102364
0.2503206 0.1981890 0.0675340
0.3295807 0.2329278 0.0912473
0.3459967 0.2181796 0.0958260
0.3635348 0.2207917 0.0306075
0.2743678 0.1731036 0.0424502
0.2825673 0.1662295 0.0761421
0.3044616 0.1528361 0.1004063
0.3229205 0.1493661 0.1125657
0.3321665 0.1571977 0.1232947
0.3441788 0.1626549 0.1260038
0.3555367 0.1622804 0.1205060
0.4098759 0.1743560 0.1111524
0.4660136 0.2024133 0.0997791
0.5082931 0.2232160 0.0912825
0.5286213 0.2100521 0.0796084
0.5609826 0.2029557 0.0667855
0.6098669 0.1983752 0.0536282
0.6740550 0.2048477 0.0427846
0.7228077 0.2087193 0.0380027
0.7564419 0.2023208 0.0381274
0.7917647 0.1842946 0.0375584
0.8278102 0.1627963 0.0360899
0.8598429 0.1352179 0.0307748
0.8896959 0.1011010 0.0250649
0.9182911 0.0625208 0.0189421
0.9436990 0.0238751 0.0140243
0.9515009 0.0223939 0.0161142
0.0989156 0.1816031 0.0297429
0.1607466 0.2035928 0.1034223
0.1505843 0.1726619 0.1179367
0.1487379 0.1586304 0.1115635
0.1782387 0.1751577 0.0955085
0.2026000 0.2044417 0.0941987
0.1537778 0.1508713 0.0842374
0.2553855 0.2074873 0.1009252
0.3722076 0.2669033 0.0884745
0.4046134 0.2583528 0.0366913
0.4105117 0.2653426 0.0268162
0.3122814 0.2167079 0.0948794
0.2426978 0.1546572 0.1194823
0.3141997 0.1569657 0.1101815
0.3722613 0.1632933 0.1096433
0.3984724 0.1754684 0.1156520
0.3785010 0.1728105 0.1268562
0.3950313 0.1722550 0.1215663
0.4384870 0.1790882 0.1065032
0.4945561 0.1974102 0.1007198
0.5254687 0.2049354 0.0979244
0.5441143 0.2072963 0.0813115
0.6008954 0.2115171 0.0664848
0.6757855 0.2245417 0.0536992
0.7255334 0.2298093 0.0441048
0.7594639 0.2252454 0.0395849
0.7906450 0.2123880 0.0377592
0.8214764 0.1915281 0.0354199
0.8492564 0.1666259 0.0310950
0.8785074 0.1368019 0.0253205
0.9110305 0.1012158 0.0214594
0.9428974 0.0709292 0.0182127
0.9532267 0.0486234 0.0209295
0.0986239 0.2005233 0.0000000
0.1877883 0.2592502 0.0901950
0.1970266 0.2478109 0.1293078
0.1976588 0.2334931 0.1508929
0.2018243 0.2183943 0.1319577
0.2136405 0.2177774 0.0858320
0.2186594 0.2188516 0.0795712
0.2060188 0.1934756 0.1112816
0.2804579 0.2368908 0.0960819
0.3960823 0.2956266 0.0612691
0.4485785 0.3068205 0.0310903
0.4529769 0.3065529 0.0418288
0.3951994 0.2702370 0.1156912
0.2703440 0.1745991 0.1380680
0.2764716 0.1495367 0.1249242
0.3732481 0.1758746 0.1135383
0.4126653 0.1811514 0.1103311
0.3977628 0.1740779 0.1181600
0.4381063 0.1889039 0.1144887
0.4712171 0.1934650 0.1070798
0.4853550 0.1841541 0.0958272
0.5119618 0.1910900 0.0888142
0.5605093 0.2025942 0.0825776
0.6204299 0.2080348 0.0680073
0.6785158 0.2212563 0.0545452
0.7402863 0.2470597 0.0450587
0.7804057 0.2439676 0.0391962
0.8071589 0.2291591 0.0359275
0.8339563 0.2095450 0.0325467
0.8637273 0.1846248 0.0281316
0.8991985 0.1510107 0.0270235
0.9344219 0.1182305 0.0255478
0.9469250 0.0897885 0.0314127
0.1140418 0.2120859 0.0118195
0.1955656 0.2796214 0.0869755
0.2160697 0.2836832 0.1234775
0.2339407 0.2832348 0.1552672
0.2610437 0.2934472 0.1645462
0.2708631 0.2891245 0.1324629
0.2674041 0.2709332 0.0836741
0.2550867 0.2491368 0.0990311
0.2445920 0.2256432 0.1164571
0.3031491 0.2608377 0.1073509
0.4228742 0.3280228 0.0639726
0.4731851 0.3357918 0.0412121
0.4864452 0.3335511 0.0644077
0.4365133 0.2934390 0.1139809
0.3448447 0.2136342 0.1316607
0.3155237 0.1731415 0.1290796
0.3706167 0.1828492 0.1033468
0.4281927 0.1904717 0.0875066
0.4553061 0.1926474 0.0906909
0.4544141 0.1986233 0.1094136
0.4730920 0.1935123 0.0995276
0.5367942 0.1984772 0.0851410
0.5812954 0.2063781 0.0815496
0.5973727 0.1959246 0.0770532
0.6389163 0.1970332 0.0644773
0.6989122 0.2296386 0.0511541
0.7558993 0.2491987 0.0393304
0.7846501 0.2617962 0.0349343
0.8124016 0.2672946 0.0363034
0.8412798 0.2462163 0.0346226
0.8779245 0.2150115 0.0364821
0.9156562 0.1752639 0.0377692
0.9315823 0.1393491 0.0460157
0.1302962 0.2438201 0.0334100
0.1954705 0.2946886 0.0848603
0.2205080 0.3037476 0.1132998
0.2411562 0.3034031 0.1388583
0.2711459 0.3102175 0.1528711
0.3050725 0.3258900 0.1502044
0.3257303 0.3308388 0.1170268
0.3148597 0.3198714 0.0953819
0.2909427 0.2849132 0.1087736
0.2733233 0.2578508 0.1184747
0.2952774 0.2592794 0.1051582
0.4161525 0.3300934 0.0956959
0.4966201 0.3617631 0.0585545
0.5124650 0.3557834 0.0419851
0.4841997 0.3199653 0.0836357
0.3842172 0.2311241 0.1205052
0.3507366 0.1906942 0.1136797
0.3994378 0.2016395 0.0947026
0.4338783 0.2011663 0.0816546
0.4861349 0.2072446 0.0881648
0.5172073 0.2206652 0.0997948
0.5706480 0.2253581 0.0823489
0.6433218 0.2323659 0.0672039
0.6479278 0.2239936 0.0692806
0.6593836 0.2142403 0.0741622
0.6973456 0.2165386 0.0616864
0.7395381 0.2244933 0.0421528
0.7646503 0.2505956 0.0333658
0.7861122 0.2829149 0.0376671
0.8111205 0.2997418 0.0439913
0.8483120 0.2883906 0.0500702
0.8844880 0.2499598 0.0526830
0.9012260 0.2206564 0.0639086
0.1335823 0.2751923 0.0435754
0.1835720 0.3069284 0.0788951
0.2059358 0.3113966 0.0982208
0.2250247 0.3092344 0.1161204
0.2492915 0.3092743 0.1312969
0.2815481 0.3141706 0.1337001
0.3179020 0.3309549 0.1216787
0.3287597 0.3399267 0.1021497
0.3340732 0.3368362 0.0973738
0.3173985 0.3155017 0.1075444
0.2920177 0.2764579 0.1094434
0.2924245 0.2582684 0.0862629
0.3858115 0.3090114 0.0630286
0.4964483 0.3667403 0.0445286
0.5318270 0.3743784 0.0494699
0.4934813 0.3333546 0.0872515
0.3896354 0.2407668 0.1138406
0.4009837 0.2271437 0.1282783
0.4010635 0.2149341 0.1134659
0.4386418 0.2181261 0.0994603
0.4988492 0.2186885 0.0816529
0.5462171 0.2207592 0.0697207
0.6063166 0.2360866 0.0606381
0.6779701 0.2482663 0.0584239
0.6830007 0.2382925 0.0751179
0.7087391 0.2356489 0.0776527
0.7441585 0.2359635 0.0525621
0.7699056 0.2497085 0.0417527
0.7858836 0.2730779 0.0489894
0.8002693 0.2985810 0.0536644
0.8276099 0.3181643 0.0581081
0.8514935 0.3284877 0.0734133
0.8557286 0.3211426 0.0991313
0.1298526 0.3017249 0.0458153
0.1706382 0.3223729 0.0713442
0.1888137 0.3208790 0.0831380
0.2039510 0.3144485 0.0949113
0.2227206 0.3084279 0.1081450
0.2481092 0.3079123 0.1183914
0.2872150 0.3194549 0.1183525
0.3202437 0.3319824 0.1039605
0.3425769 0.3468758 0.0908619
0.3498040 0.3534216 0.0924411
0.3397157 0.3346025 0.0965139
0.3155910 0.2975724 0.0877801
0.3054317 0.2729058 0.0729506
0.3494448 0.2893592 0.0783758
0.4795574 0.3672138 0.0787777
0.5649528 0.4095777 0.0529387
0.5569829 0.3933250 0.0866674
0.4199970 0.2587259 0.1067740
0.4455683 0.2624537 0.1183178
0.4427310 0.2503784 0.1144121
0.4691912 0.2444775 0.0948951
0.5307279 0.2467817 0.0720831
0.5839015 0.2494046 0.0617748
0.6584084 0.2581436 0.0451120
0.7296770 0.2772176 0.0229681
0.7848308 0.3080224 0.0626017
0.8305194 0.3229565 0.0881708
0.8240275 0.3068558 0.0644392
0.8051427 0.2835865 0.0704140
0.8103564 0.2928659 0.0666039
0.8310200 0.3173903 0.0657105
0.8460794 0.3511082 0.0785465
0.8233037 0.4109593 0.1477046
0.1212162 0.3264141 0.0436763
0.1593413 0.3426919 0.0655804
0.1772860 0.3395061 0.0738295
0.1884590 0.3292905 0.0817186
0.2000543 0.3152465 0.0923484
0.2185297 0.3060492 0.1052299
0.2441820 0.3029770 0.1126240
0.2928514 0.3191359 0.1064129
0.3395237 0.3471373 0.0967541
0.3568960 0.3641648 0.0799946
0.3599245 0.3625075 0.0809352
0.3560445 0.3460726 0.0927597
0.3334159 0.3166559 0.1032644
0.3096515 0.2818338 0.1072136
0.3450555 0.2908272 0.1103955
0.4561202 0.3603210 0.1087647
0.4221111 0.3165236 0.1360876
0.3743308 0.2544146 0.1542728
0.4679746 0.2959559 0.1000373
0.4884479 0.2936724 0.1029330
0.5076085 0.2886417 0.1045014
0.5112769 0.2727455 0.0948659
0.5792073 0.2871560 0.0838137
0.6438242 0.2892795 0.0575008
0.6873100 0.2796959 0.0266885
0.7564266 0.3107501 0.0013419
0.8588492 0.3753334 0.0456718
0.8816788 0.4069629 0.1033865
0.8234354 0.3092089 0.0892258
0.8262939 0.2907763 0.0676935
0.8465991 0.3189354 0.0683417
0.8548438 0.3529027 0.0751090
0.8177810 0.4011954 0.1225935
0.1149501 0.3537996 0.0450214
0.1498712 0.3666110 0.0622803
0.1677894 0.3630237 0.0686115
0.1804310 0.3525634 0.0753625
0.1925195 0.3379598 0.0855906
0.2052902 0.3212869 0.0973819
0.2192119 0.3043294 0.1084892
0.2502711 0.3024069 0.1123009
0.3002843 0.3280404 0.1103807
0.3426977 0.3631292 0.0895827
0.3717080 0.3837160 0.0870317
0.3705905 0.3726998 0.0990637
0.3470796 0.3380067 0.1162816
0.3215230 0.3030040 0.1290071
0.3234023 0.2908915 0.1384034
0.3308429 0.2830669 0.1389538
0.3509999 0.2893205 0.1781507
0.4002489 0.3050949 0.2027912
0.4718336 0.3229212 0.1554990
0.5185873 0.3285032 0.1140453
0.5646336 0.3401226 0.1037171
0.5541428 0.3227638 0.0979489
0.6019233 0.3311868 0.0971707
0.6318954 0.3189832 0.0703654
0.6705583 0.3153998 0.0571336
0.7168116 0.3066994 0.0410049
0.7806660 0.3289559 0.0485836
0.8591608 0.4457067 0.1595784
0.8154870 0.3206273 0.0923847
0.8398017 0.2815214 0.0428988
0.8625902 0.3150627 0.0563484
0.8750734 0.3525675 0.0769510
0.8471334 0.3659005 0.0871639
0.1112841 0.3863597 0.0496101
0.1412477 0.3938549 0.0597620
0.1590445 0.3887006 0.0637784
0.1748388 0.3794965 0.0705485
0.1890545 0.3658201 0.0796917
0.2032894 0.3496216 0.0914902
0.2147322 0.3282194 0.1034335
0.2262166 0.3083517 0.1116396
0.2452781 0.2996136 0.1138648
0.2861667 0.3221411 0.1020221
0.3299192 0.3573926 0.0957432
0.3462843 0.3659184 0.0997334
0.3389838 0.3482462 0.1131075
0.3211921 0.3182734 0.1251817
0.3308865 0.3109810 0.1366368
0.3548219 0.3152739 0.1380356
0.3814791 0.3236091 0.1413238
0.4200877 0.3356478 0.1478876
0.4819361 0.3551071 0.1473828
0.5275131 0.3544703 0.1275723
0.5800136 0.3634219 0.0932362
0.6266148 0.3787475 0.0883469
0.6684635 0.3868855 0.1073207
0.6811313 0.3678810 0.0828503
0.6888439 0.3561727 0.0578341
0.7324507 0.3635544 0.0504119
0.7796227 0.3514355 0.0308930
0.8120501 0.3643641 0.0434358
0.7962186 0.3189784 0.0713887
0.8377426 0.3153433 0.0573137
0.8700426 0.3320992 0.0507381
0.8928877 0.3696712 0.0857622
0.8833118 0.3763008 0.0916089
0.1010479 0.4160459 0.0500785
0.1289352 0.4193892 0.0546156
0.1503276 0.4158754 0.0580097
0.1679160 0.4072131 0.0630131
0.1853211 0.3960917 0.0704992
0.2028505 0.3817264 0.0810385
0.2179079 0.3642402 0.0939967
0.2301045 0.3433258 0.1051661
0.2419507 0.3257765 0.1112052
0.2582039 0.3188527 0.1163502
0.2803809 0.3259624 0.1133926
0.3073511 0.3426590 0.1121235
0.3325170 0.3555829 0.1161797
0.3379722 0.3499339 0.1195366
0.3453735 0.3406907 0.1206719
0.3703869 0.3438823 0.1178639
0.3985209 0.3476221 0.1069172
0.4320394 0.3553783 0.1009254
0.4635317 0.3611397 0.1026534
0.5180882 0.3820085 0.1036714
0.5741883 0.3899863 0.0803592
0.6308461 0.4040967 0.0756154
0.6866449 0.4121695 0.0821174
0.7254619 0.4139067 0.0960833
0.7236904 0.3958780 0.0695740
0.7419074 0.3952058 0.0577868
0.7757332 0.3974358 0.0656082
0.8180739 0.4004205 0.0553091
0.8176746 0.3755410 0.0780045
0.8356017 0.3642567 0.0629807
0.8670090 0.3694185 0.0517189
0.8974638 0.3936728 0.0803853
0.9026700 0.3976405 0.0873906
0.0905565 0.4446300 0.0438538
0.1151445 0.4438997 0.0458739
0.1374278 0.4402870 0.0483318
0.1588103 0.4340584 0.0531031
0.1789955 0.4251571 0.0593587
0.1995828 0.4132031 0.0683697
0.2186025 0.3989075 0.0792001
0.2371637 0.3827827 0.0902508
0.2498895 0.3616688 0.0985962
0.2622561 0.3449004 0.1079582
0.2780741 0.3425139 0.1039941
0.3008361 0.3516375 0.0978449
0.3235319 0.3609874 0.0925984
0.3438080 0.3680360 0.0941609
0.3585349 0.3673999 0.0962984
0.3832249 0.3731971 0.0982735
0.4023398 0.3682502 0.0913087
0.4373646 0.3793373 0.0908056
0.4669424 0.3838233 0.0881656
0.5070318 0.4014947 0.0834291
0.5610235 0.4230940 0.0788983
0.6196252 0.4385917 0.0754382
0.6750767 0.4411495 0.0672938
0.7245529 0.4415187 0.0716768
0.7543817 0.4401936 0.0839798
0.7590073 0.4241102 0.0497346
0.7701932 0.4264953 0.0909122
0.8010219 0.4364159 0.1421111
0.8258439 0.4208055 0.1048385
0.8387918 0.4069018 0.0571378
0.8687408 0.4139571 0.0508701
0.9027745 0.4261471 0.0707931
0.9132384 0.4242830 0.0758003
0.0773061 0.4713446 0.0355309
0.1030906 0.4701469 0.0370794
0.1272681 0.4671329 0.0394701
0.1508172 0.4623360 0.0432033
0.1734276 0.4559305 0.0484076
0.1955240 0.4473793 0.0544607
0.2185020 0.4371095 0.0627137
0.2403672 0.4222693 0.0713316
0.2582459 0.3996124 0.0796546
0.2839294 0.3849875 0.0987466
0.3114512 0.3848988 0.1007821
0.3222009 0.3835894 0.0824838
0.3257407 0.3787652 0.0719727
0.3437486 0.3849116 0.0730774
0.3714653 0.3945595 0.0709329
0.3946089 0.3979227 0.0746921
0.4131457 0.3945066 0.0745570
0.4369616 0.3978540 0.0761335
0.4648219 0.4019362 0.0845789
0.4974217 0.4181039 0.0871865
0.5494250 0.4446237 0.0820406
0.5997358 0.4601244 0.0838504
0.6525367 0.4688286 0.0733419
0.7111989 0.4740695 0.0550580
0.7549461 0.4702719 0.0608875
0.7817372 0.4707635 0.0550977
0.7962805 0.4519241 0.0000000
0.8229517 0.4481043 0.0000000
0.8317608 0.4444557 0.0000000
0.8424709 0.4457023 0.0168171
0.8728748 0.4610359 0.0458328
0.9068736 0.4604567 0.0556209
0.9176043 0.4557024 0.0585321
0.0686171 0.4999664 0.0296428
0.0953975 0.4980749 0.0308718
0.1209421 0.4957448 0.0331986
0.1456322 0.4924231 0.0358981
0.1697381 0.4878379 0.0396938
0.1932336 0.4816750 0.0437561
0.2169875 0.4735052 0.0489965
0.2385553 0.4603821 0.0528626
0.2579224 0.4409460 0.0551920
0.2843751 0.4249316 0.0644993
0.3357941 0.4318273 0.0861269
0.3752979 0.4445811 0.0916099
0.3763663 0.4366897 0.0821101
0.3691981 0.4180879 0.0703166
0.3879181 0.4226077 0.0604750
0.4057186 0.4220674 0.0560510
0.4201664 0.4182573 0.0607406
0.4419210 0.4185704 0.0632228
0.4647737 0.4193456 0.0723618
0.4948027 0.4332653 0.0802043
0.5365673 0.4555484 0.0714742
0.5973630 0.4845084 0.0605906
0.6459897 0.4965880 0.0574831
0.6990491 0.5026158 0.0402880
0.7491160 0.5056931 0.0526108
0.7870833 0.5083675 0.0473609
0.8100389 0.4977787 0.0000000
0.8469234 0.4811392 0.0000000
0.8419616 0.4809724 0.0000000
0.8418905 0.4833227 0.0000000
0.8734776 0.4913938 0.0142050
0.9048075 0.4846978 0.0295702
0.9161739 0.4827156 0.0358330
0.0633277 0.5266922 0.0252068
0.0907181 0.5256548 0.0265028
0.1170190 0.5240968 0.0283632
0.1425140 0.5218612 0.0304296
0.1674549 0.5186752 0.0331990
0.1919439 0.5144038 0.0359165
0.2159809 0.5080878 0.0390540
0.2382183 0.4981354 0.0404351
0.2593557 0.4843137 0.0404831
0.2802831 0.4677903 0.0376611
0.3047002 0.4522644 0.0398422
0.3336121 0.4459617 0.0404124
0.3561030 0.4437776 0.0473599
0.3623862 0.4327667 0.0442463
0.3778190 0.4316475 0.0334300
0.4013070 0.4379933 0.0308914
0.4231379 0.4419552 0.0342979
0.4436646 0.4406284 0.0374819
0.4628199 0.4393926 0.0357875
0.4869518 0.4448344 0.0373826
0.5286471 0.4675005 0.0338544
0.5817512 0.4967083 0.0244675
0.6457247 0.5260989 0.0165647
0.6987894 0.5373198 0.0208792
0.7528235 0.5504368 0.0302038
0.7848883 0.5443243 0.0099236
0.8066256 0.5341647 0.0000000
0.8303697 0.5288415 0.0000000
0.8264509 0.5221767 0.0000000
0.8278609 0.5194621 0.0000000
0.8533695 0.5017805 0.0000000
0.8862375 0.5004376 0.0000000
0.8995826 0.5033006 0.0116820
0.0613179 0.5548208 0.0231311
0.0884785 0.5536242 0.0236293
0.1149967 0.5523779 0.0248517
0.1410218 0.5509038 0.0264149
0.1665806 0.5488366 0.0284558
0.1917335 0.5460627 0.0302912
0.2164492 0.5418448 0.0323322
0.2401185 0.5355520 0.0330135
0.2629335 0.5267326 0.0326365
0.2839342 0.5147751 0.0292623
0.3023456 0.4988420 0.0219258
0.3177251 0.4817176 0.0150404
0.3281677 0.4635511 0.0077408
0.3403518 0.4497073 0.0019001
0.3549409 0.4423926 0.0000000
0.3765048 0.4435185 0.0000000
0.4066390 0.4537165 0.0000000
0.4369614 0.4639970 0.0048144
0.4632317 0.4697960 0.0087156
0.4952060 0.4817886 0.0130819
0.5316345 0.4964018 0.0135957
0.5768169 0.5191426 0.0098750
0.6345112 0.5484649 0.0058869
0.6940453 0.5742003 0.0213776
0.7480188 0.5907997 0.0000000
0.7860614 0.5871188 0.0000000
0.8098087 0.5778401 0.0000000
0.8165940 0.5610865 0.0000000
0.8103004 0.5619856 0.0000000
0.8197046 0.5669308 0.0000000
0.8430261 0.5209776 0.0000000
0.8591013 0.5105733 0.0000000
0.8744868 0.5191412 0.0000000
0.0609809 0.5829199 0.0215598
0.0878973 0.5814425 0.0215387
0.1145231 0.5804490 0.0222991
0.1408264 0.5795384 0.0234425
0.1667577 0.5783529 0.0249203
0.1923840 0.5767933 0.0262258
0.2176732 0.5743199 0.0276274
0.2422995 0.5706739 0.0280278
0.2662736 0.5653893 0.0276722
0.2888033 0.5580195 0.0251446
0.3090410 0.5477218 0.0198552
0.3262976 0.5349040 0.0107234
0.3402663 0.5198522 0.0018635
0.3545918 0.5065824 0.0000000
0.3654059 0.4920139 0.0000000
0.3817849 0.4849265 0.0000000
0.4119299 0.4935869 0.0000000
0.4459636 0.5062362 0.0000000
0.4793332 0.5168964 0.0000000
0.5156595 0.5309965 0.0032278
0.5544547 0.5471315 0.0072340
0.5901448 0.5592182 0.0071567
0.6368462 0.5795447 0.0045945
0.6853064 0.5992312 0.0012568
0.7318612 0.6126032 0.0000000
0.7725830 0.6134523 0.0000000
0.7994260 0.6086951 0.0000000
0.8040458 0.5956619 0.0000000
0.8134441 0.5977416 0.0000000
0.8237521 0.5815328 0.0000000
0.8395715 0.5529369 0.0000000
0.8426467 0.5351024 0.0000000
0.8433666 0.5327766 0.0000000
0.0612026 0.6098911 0.0200840
0.0881692 0.6088576 0.0198938
0.1149386 0.6082249 0.0203873
0.1414499 0.6077834 0.0212316
0.1676624 0.6072961 0.0223028
0.1936521 0.6066840 0.0232560
0.2193785 0.6055348 0.0242474
0.2446667 0.6037516 0.0245366
0.2694948 0.6009172 0.0243333
0.2933849 0.5968595 0.0227286
0.3160387 0.5912067 0.0196144
0.3370634 0.5840375 0.0145615
0.3560145 0.5751162 0.0076206
0.3742869 0.5663722 0.0000000
0.3915958 0.5574285 0.0000000
0.4121490 0.5528893 0.0000000
0.4391678 0.5559646 0.0000000
0.4684949 0.5621324 0.0000000
0.5017353 0.5708362 0.0000000
0.5376564 0.5828167 0.0000000
0.5747110 0.5958151 0.0023405
0.6131431 0.6094742 0.0006509
0.6484167 0.6182154 0.0000000
0.6879135 0.6300915 0.0000000
0.7277461 0.6402135 0.0000000
0.7658857 0.6448254 0.0000000
0.7916885 0.6457857 0.0000000
0.7946787 0.6383956 0.0000000
0.8072906 0.6220077 0.0000000
0.8174114 0.5947474 0.0000000
0.8327850 0.5738234 0.0000000
0.8394839 0.5609095 0.0000000
0.8276839 0.5455637 0.0000000
0.0617767 0.6367651 0.0185216
0.0890283 0.6360272 0.0184834
0.1159494 0.6357248 0.0188462
0.1426206 0.6356661 0.0194991
0.1690549 0.6357121 0.0203216
0.1953317 0.6358099 0.0210928
0.2214180 0.6356616 0.0218948
0.2472233 0.6352402 0.0221842
0.2727559 0.6341965 0.0221809
0.2977122 0.6324860 0.0212164
0.3220140 0.6298770 0.0193288
0.3454657 0.6264556 0.0162997
0.3681107 0.6223645 0.0121553
0.3904253 0.6182723 0.0073853
0.4129365 0.6147864 0.0022501
0.4370927 0.6133132 0.0000000
0.4636479 0.6145632 0.0000000
0.4926156 0.6185695 0.0000000
0.5250597 0.6257221 0.0000000
0.5573472 0.6327005 0.0000000
0.5897163 0.6393539 0.0000000
0.6274286 0.6515415 0.0000000
0.6641379 0.6621338 0.0000000
0.6954519 0.6671011 0.0000000
0.7288357 0.6748941 0.0000000
0.7575314 0.6801693 0.0000000
0.7735438 0.6831810 0.0000000
0.7861456 0.6688498 0.0000000
0.7989583 0.6419632 0.0000000
0.8108084 0.6158544 0.0000000
0.8246724 0.5875360 0.0000000
0.8414220 0.5760018 0.0000000
0.8230755 0.5601151 0.0000000
0.0633704 0.6631811 0.0175385
0.0903921 0.6629887 0.0173385
0.1173413 0.6630117 0.0175632
0.1441223 0.6632543 0.0180803
0.1707346 0.6636988 0.0187343
