presets/film/film-grain/look.cube
# film-grain tuned
LUT_3D_SIZE 5
DOMAIN_MIN 0 0 0
DOMAIN_MAX 1 1 1
0.1260570 0.1204732 0.1148105
0.2159270 0.1113658 0.0285623
0.5987942 0.1283452 0.0636642
0.7947165 0.0472716 0.0204903
0.9236414 0.0000000 0.0000000
0.1140418 0.2120859 0.0118195
0.2445920 0.2256432 0.1164571
0.3706167 0.1828492 0.1033468
0.6389163 0.1970332 0.0644773
0.9315823 0.1393491 0.0460157
0.0905565 0.4446300 0.0438538
0.2498895 0.3616688 0.0985962
0.4023398 0.3682502 0.0913087
0.7543817 0.4401936 0.0839798
0.9132384 0.4242830 0.0758003
0.0633704 0.6631811 0.0175385
0.2758768 0.6656735 0.0203941
0.4813894 0.6639898 0.0048611
0.7314487 0.7108745 0.0000000
0.8095790 0.5765321 0.0000000
0.0763966 0.8790354 0.0111908
0.2949976 0.8885992 0.0141682
0.5187820 0.9173603 0.0192632
0.7524003 0.9411942 0.0172897
0.8547761 0.8347227 0.0000000
0.1548919 0.1561735 0.1982583
0.2419674 0.1533555 0.2182483
0.4633208 0.1190988 0.1827269
0.7820011 0.1405951 0.2251987
0.9223338 0.2181451 0.3035424
0.1570487 0.2589475 0.2042626
0.2269002 0.2153724 0.1981079
0.3916554 0.1920022 0.1544392
0.7054218 0.2602816 0.2451053
0.9385980 0.2653558 0.2349859
0.0686719 0.4277629 0.1624336
0.2729991 0.3943098 0.2010071
0.4224006 0.4027018 0.2119069
0.6865175 0.4391815 0.2753484
0.8726132 0.3829208 0.1729383
0.0144562 0.6805636 0.1777561
0.2443556 0.6551602 0.1942686
0.4554996 0.6393022 0.1797069
0.7032692 0.6875298 0.2160137
0.8769086 0.6198180 0.0602558
0.0098710 0.8920213 0.1593744
0.2472751 0.8763889 0.1815000
0.4896568 0.8946244 0.2030546
0.7404757 0.9318480 0.2337755
0.8422308 0.8281443 0.0019394
0.0740170 0.1834319 0.4538944
0.1991689 0.1389120 0.2944380
0.3801780 0.0660029 0.3066802
0.7277649 0.0505704 0.4148719
0.9510381 0.0507030 0.4226701
0.0065364 0.3257896 0.3765419
0.2190826 0.2722885 0.3630345
0.3657447 0.1678481 0.2977906
0.7265102 0.2863921 0.4487765
0.9415661 0.3031488 0.4620483
0.1579521 0.5122007 0.4548676
0.2817840 0.4560220 0.4340300
0.4656550 0.4453271 0.4301854
0.7005395 0.4551547 0.4649659
0.9009078 0.4327386 0.4723138
0.0293924 0.7234744 0.4270316
0.2393086 0.6922619 0.4096523
0.4808773 0.6620305 0.4316316
0.7030879 0.7024438 0.4841495
0.8511018 0.6042543 0.3581345
0.0192094 0.9275732 0.3982624
0.2104592 0.8993610 0.3688198
0.4705084 0.8714953 0.4076203
0.7120595 0.9005573 0.4301508
0.7754732 0.7678366 0.1512223
0.1655040 0.3364723 0.6881546
0.2247060 0.1290424 0.6998661
0.4401158 0.0730969 0.6202849
0.7270735 0.0472215 0.6577609
0.9386718 0.0351267 0.6525362
0.0600663 0.4507436 0.6685308
0.2676397 0.3720294 0.6729719
0.4378608 0.2778835 0.6327917
0.7339094 0.2847377 0.6735898
0.9511978 0.2835576 0.6741881
0.0000000 0.4589843 0.5185011
0.2865941 0.4818446 0.5643703
0.5306023 0.5710623 0.7229490
0.7241361 0.4851142 0.6922698
0.9414280 0.5038307 0.6874519
0.0626138 0.7475724 0.6618978
0.2773787 0.7335505 0.6726720
0.4721607 0.6965726 0.6762724
0.7605269 0.7493901 0.7912436
0.8514175 0.6483762 0.6582968
0.0405030 0.9640724 0.6434727
0.2549114 0.9471421 0.6371497
0.4511571 0.9006871 0.6164845
0.6215960 0.8162621 0.5769840
0.7479774 0.7425384 0.4675734
0.1765410 0.3630089 0.9314458
0.1773382 0.0978958 0.9630726
0.4377928 0.0633576 0.9255538
0.7038566 0.0426954 0.9021671
0.9503855 0.0343559 0.9134935
0.1151097 0.5341546 0.9289857
0.3006683 0.4344372 0.9380906
0.4449761 0.3124243 0.9247057
0.7140876 0.2930362 0.9142096
0.9542823 0.2825573 0.9195575
0.0000000 0.6526184 0.8967511
0.3100989 0.6352521 0.9061205
0.5097744 0.5928729 0.9155008
0.7238046 0.5282217 0.9332316
0.9564002 0.5157681 0.9290119
0.0558271 0.8354203 0.9358350
0.2992817 0.8188144 0.9346836
0.3545600 0.7500673 0.9049694
0.6515166 0.7041959 0.8899157
0.9086347 0.6968399 0.9068023
0.0573000 0.9905100 0.8819226
0.2907844 0.9826230 0.8887944
0.4789334 0.9503854 0.8876958
0.6243630 0.8603325 0.8350940
0.7991107 0.7997907 0.8499488
