presets/film/film-grain/look.cube
# film-grain tuned
LUT_3D_SIZE 9
DOMAIN_MIN 0 0 0
DOMAIN_MAX 1 1 1
0.1260570 0.1204732 0.1148105
0.1836148 0.1532232 0.1341190
0.2159270 0.1113658 0.0285623
0.2973347 0.1283636 0.0344157
0.5987942 0.1283452 0.0636642
0.6365554 0.1066620 0.0589328
0.7947165 0.0472716 0.0204903
0.9057411 0.0000000 0.0000000
0.9236414 0.0000000 0.0000000
0.0920123 0.1130339 0.0728688
0.0880040 0.0983784 0.1127129
0.2987843 0.1893102 0.1108028
0.2070470 0.1397042 0.1316808
0.3976821 0.1850129 0.1024186
0.5163459 0.1964583 0.0672950
0.6853319 0.1793761 0.0358222
0.8586797 0.1029119 0.0314074
0.9496381 0.0039482 0.0124862
0.1140418 0.2120859 0.0118195
0.2610437 0.2934472 0.1645462
0.2445920 0.2256432 0.1164571
0.4864452 0.3335511 0.0644077
0.3706167 0.1828492 0.1033468
0.4730920 0.1935123 0.0995276
0.6389163 0.1970332 0.0644773
0.8124016 0.2672946 0.0363034
0.9315823 0.1393491 0.0460157
0.1212162 0.3264141 0.0436763
0.2000543 0.3152465 0.0923484
0.3395237 0.3471373 0.0967541
0.3334159 0.3166559 0.1032644
0.4221111 0.3165236 0.1360876
0.5076085 0.2886417 0.1045014
0.6873100 0.2796959 0.0266885
0.8234354 0.3092089 0.0892258
0.8177810 0.4011954 0.1225935
0.0905565 0.4446300 0.0438538
0.1789955 0.4251571 0.0593587
0.2498895 0.3616688 0.0985962
0.3235319 0.3609874 0.0925984
0.4023398 0.3682502 0.0913087
0.5610235 0.4230940 0.0788983
0.7543817 0.4401936 0.0839798
0.8258439 0.4208055 0.1048385
0.9132384 0.4242830 0.0758003
0.0613179 0.5548208 0.0231311
0.1665806 0.5488366 0.0284558
0.2629335 0.5267326 0.0326365
0.3281677 0.4635511 0.0077408
0.4066390 0.4537165 0.0000000
0.5316345 0.4964018 0.0135957
0.7480188 0.5907997 0.0000000
0.8103004 0.5619856 0.0000000
0.8744868 0.5191412 0.0000000
0.0633704 0.6631811 0.0175385
0.1707346 0.6636988 0.0187343
0.2758768 0.6656735 0.0203941
0.3771089 0.6630217 0.0149932
0.4813894 0.6639898 0.0048611
0.6051367 0.6838134 0.0000000
0.7314487 0.7108745 0.0000000
0.8048691 0.6707394 0.0000000
0.8095790 0.5765321 0.0000000
0.0690442 0.7712237 0.0131800
0.1784768 0.7730393 0.0146784
0.2865890 0.7806481 0.0165844
0.3964783 0.7923324 0.0175190
0.5112246 0.8066480 0.0181149
0.6319001 0.8222591 0.0146423
0.7494844 0.8314477 0.0000000
0.8268290 0.7902949 0.0000000
0.7778903 0.6427198 0.0000000
0.0763966 0.8790354 0.0111908
0.1864054 0.8808724 0.0123976
0.2949976 0.8885992 0.0141682
0.4050904 0.9014301 0.0162888
0.5187820 0.9173603 0.0192632
0.6362917 0.9330536 0.0234498
0.7524003 0.9411942 0.0172897
0.8469223 0.9192227 0.0000000
0.8547761 0.8347227 0.0000000
0.1135438 0.1460281 0.2350318
0.2065102 0.1270460 0.1552817
0.2386346 0.1421317 0.1677387
0.3168189 0.1038828 0.1179154
0.5894800 0.1621886 0.1678603
0.6765789 0.1471094 0.1470095
0.8320322 0.0879852 0.1283822
0.8927351 0.0581368 0.1141996
0.9050643 0.1065238 0.1719714
0.1451578 0.1719631 0.1186150
0.1730252 0.1423671 0.1499761
0.2709527 0.1937916 0.1494593
0.2921214 0.1692052 0.1830623
0.4458363 0.1849643 0.1572255
0.6022278 0.2205591 0.1638330
0.7424236 0.2177303 0.1336496
0.8611823 0.1812281 0.1212858
0.9414413 0.1590473 0.1186169
0.1366183 0.2521778 0.1189240
0.2599369 0.2843080 0.1906124
0.2270686 0.2154439 0.1522103
0.3207158 0.2226584 0.1553279
0.3793290 0.1867402 0.0853244
0.5078574 0.2223431 0.1588447
0.6664974 0.2243997 0.1381387
0.8287722 0.2486858 0.1368028
0.9261069 0.2422464 0.1280109
0.1018695 0.3021177 0.0887324
0.2108336 0.3225017 0.1325396
0.3014917 0.3294805 0.1593411
0.3118456 0.2934305 0.1700536
0.3591435 0.2736624 0.1863275
0.5039283 0.2963132 0.1640213
0.6533516 0.3006073 0.1777864
0.7869486 0.3094694 0.1833191
0.8859069 0.3470402 0.1747629
0.0487125 0.4387183 0.0805022
0.1602193 0.4250649 0.1027147
0.2735177 0.4135556 0.1150863
0.3684826 0.3972665 0.1255315
0.4180385 0.3847037 0.1789115
0.5327625 0.4062410 0.1809300
0.6956960 0.4452932 0.2240148
0.7966024 0.4227809 0.1936922
0.8995680 0.4501550 0.1573203
0.0197901 0.5595879 0.0731759
0.1373154 0.5466887 0.0887817
0.2502294 0.5353089 0.0969829
0.3432080 0.5054850 0.0879467
0.4260892 0.4835413 0.0902833
0.5402592 0.5111279 0.1180850
0.6959907 0.5583472 0.1850958
0.8243424 0.5742795 0.1529955
0.9157318 0.5493180 0.0691006
0.0120953 0.6680624 0.0642773
0.1320268 0.6607167 0.0788085
0.2484432 0.6589464 0.0856618
0.3616347 0.6584843 0.0923014
0.4740195 0.6612238 0.0965958
0.6002445 0.6817215 0.1049322
0.7227876 0.7002499 0.0772563
0.8231255 0.6841481 0.0232587
0.8844170 0.6308390 0.0125323
0.0096938 0.7752280 0.0552736
0.1314561 0.7700748 0.0697381
0.2504639 0.7722309 0.0764867
0.3713504 0.7820803 0.0882601
0.4957084 0.7977925 0.1027695
0.6233557 0.8163695 0.1170720
0.7458752 0.8286381 0.1136418
0.8335158 0.7994569 0.0368619
0.8329451 0.6973169 0.0000000
0.0084407 0.8825296 0.0469352
0.1314696 0.8782129 0.0615585
0.2511160 0.8807755 0.0674580
0.3725539 0.8910255 0.0790570
0.4970539 0.9074536 0.0950965
0.6236129 0.9260333 0.1133405
0.7461956 0.9381605 0.1216093
0.8459101 0.9221525 0.0669443
0.8635458 0.8443099 0.0000000
0.1548919 0.1561735 0.1982583
0.2072126 0.1328565 0.1929021
0.2419674 0.1533555 0.2182483
0.2884201 0.1107207 0.1413228
0.4633208 0.1190988 0.1827269
0.5932188 0.1642715 0.2112919
0.7820011 0.1405951 0.2251987
0.9046325 0.1627488 0.2474431
0.9223338 0.2181451 0.3035424
0.1356399 0.1858471 0.1430464
0.2258680 0.2242077 0.2465444
0.3177841 0.2414599 0.3043994
0.3948098 0.1913315 0.2251100
0.4978121 0.1777421 0.1996065
0.6007448 0.2267026 0.2349921
0.7476222 0.2199511 0.2427359
0.8675447 0.2198795 0.2456452
0.9404597 0.2189421 0.2411476
0.1570487 0.2589475 0.2042626
0.2279572 0.3090567 0.2786385
0.2269002 0.2153724 0.1981079
0.3302235 0.2546901 0.2226093
0.3916554 0.1920022 0.1544392
0.5534254 0.2465824 0.2210406
0.7054218 0.2602816 0.2451053
0.8499295 0.2673250 0.2445954
0.9385980 0.2653558 0.2349859
0.1236668 0.2834882 0.1495779
0.2030958 0.3016803 0.1779855
0.2811462 0.3056652 0.2095416
0.3139980 0.2960905 0.2140348
0.3972559 0.3081357 0.2477504
0.4728441 0.2648665 0.1277561
0.6881461 0.3329482 0.2559006
0.8047461 0.3141088 0.2426439
0.9104392 0.3366290 0.2553497
0.0686719 0.4277629 0.1624336
0.1557526 0.4153497 0.1656863
0.2729991 0.3943098 0.2010071
0.3644617 0.3898840 0.1977935
0.4224006 0.4027018 0.2119069
0.5628564 0.4278133 0.2415785
0.6865175 0.4391815 0.2753484
0.7987534 0.4118444 0.2574886
0.8726132 0.3829208 0.1729383
0.0283503 0.5676348 0.1822886
0.1125578 0.5522762 0.1626270
0.2503689 0.5331393 0.1972501
0.3435677 0.5061200 0.1764406
0.3930071 0.4450880 0.1086542
0.5207117 0.4932566 0.1780989
0.6826653 0.5525820 0.2465665
0.8138688 0.5736060 0.2881813
0.9010650 0.5319418 0.1598563
0.0144562 0.6805636 0.1777561
0.0919644 0.6677143 0.1493944
0.2443556 0.6551602 0.1942686
0.3543313 0.6484779 0.1923917
0.4554996 0.6393022 0.1797069
0.5727328 0.6544729 0.1896233
0.7032692 0.6875298 0.2160137
0.8105341 0.6801277 0.1747004
0.8769086 0.6198180 0.0602558
0.0116672 0.7860020 0.1685504
0.0803263 0.7755997 0.1320234
0.2460544 0.7675779 0.1887596
0.3639749 0.7705917 0.1952311
0.4862436 0.7839976 0.2068469
0.6130928 0.8043288 0.2237810
0.7383214 0.8225011 0.2363832
0.8287477 0.7974078 0.1803254
0.8305571 0.6983308 0.0105514
0.0098710 0.8920213 0.1593744
0.0703788 0.8827370 0.1144329
0.2472751 0.8763889 0.1815000
0.3663961 0.8803382 0.1888106
0.4896568 0.8946244 0.2030546
0.6165718 0.9153702 0.2221818
0.7404757 0.9318480 0.2337755
0.8388706 0.9170700 0.1816862
0.8422308 0.8281443 0.0019394
0.0794097 0.1635687 0.2717047
0.1423760 0.1355402 0.2371976
0.1798644 0.1370478 0.1826994
0.2546413 0.1134973 0.1808460
0.3999458 0.0806349 0.2284725
0.5718657 0.0707318 0.2741086
0.7447146 0.0789384 0.3086929
0.8714735 0.0825917 0.3150930
0.9505874 0.0897432 0.3226142
0.0522870 0.2262548 0.2285867
0.2233672 0.2397014 0.2910663
0.2786074 0.2380599 0.3199935
0.3039127 0.1658793 0.2413615
0.4067847 0.1317315 0.2232250
0.5843648 0.1741337 0.2858363
0.7507555 0.2063458 0.3360555
0.8587978 0.2077802 0.3420309
0.9432459 0.2159715 0.3447738
0.1920265 0.3030135 0.3033934
0.2044932 0.2612102 0.2885350
0.2533549 0.2372142 0.2800523
0.2800877 0.1847702 0.2242932
0.3870335 0.1647037 0.2017706
0.5716223 0.2465068 0.2947084
0.7402699 0.3129396 0.3758940
0.8552363 0.3068940 0.3696412
0.9345359 0.3147771 0.3689601
0.1156740 0.2990650 0.2302971
0.2191166 0.3367008 0.3027924
0.2806723 0.3486311 0.3297196
0.2879740 0.2922684 0.2621116
0.4261796 0.3285575 0.3226835
0.5624371 0.3464048 0.3457191
0.7022156 0.3429307 0.3558688
0.8429418 0.3467925 0.3684025
0.9207152 0.3584450 0.3630282
0.1262187 0.4100913 0.2539689
0.1969100 0.4135942 0.2699216
0.2845025 0.4044272 0.2786278
0.3522031 0.3780861 0.2786140
0.4386843 0.4093114 0.3227095
0.5490563 0.4230458 0.3371749
0.7297553 0.4917802 0.3326215
0.8191937 0.4341766 0.3627434
0.8861662 0.4265660 0.3506741
0.0439902 0.5837335 0.3000189
0.1350847 0.5678531 0.2875817
0.2419173 0.5430590 0.2825657
0.3679599 0.5279186 0.3105723
0.4743474 0.5245099 0.3201392
0.5911957 0.5616159 0.3750082
0.6808767 0.5557302 0.3800750
0.8097515 0.5902782 0.4266345
0.8400944 0.4848510 0.2674699
0.0213698 0.7001557 0.2997878
0.1059195 0.6855731 0.2779844
0.2185482 0.6660753 0.2752719
0.3550322 0.6489679 0.3035734
0.4573410 0.6363830 0.2907304
0.5470855 0.6239456 0.2721284
0.6890771 0.6801651 0.3351246
0.7924529 0.6665358 0.2871613
0.8257958 0.5721182 0.1617397
0.0165153 0.8040045 0.2886827
0.0908625 0.7908253 0.2589748
0.2069206 0.7756518 0.2600139
0.3580995 0.7653024 0.3024522
0.4759538 0.7699164 0.3077313
0.5992011 0.7875892 0.3212998
0.7259746 0.8118928 0.3410359
0.8120854 0.7842701 0.2828407
0.8171685 0.6733190 0.0560641
0.0132239 0.9077703 0.2766168
0.0791563 0.8953065 0.2394489
0.1976121 0.8826196 0.2430439
0.3607198 0.8746142 0.2970958
0.4801055 0.8809440 0.3054982
0.6056399 0.9002535 0.3226957
0.7300805 0.9202158 0.3357533
0.8239526 0.9030790 0.2811482
0.7995990 0.7889688 0.0143558
0.0740170 0.1834319 0.4538944
0.1399634 0.1640954 0.4041984
0.1991689 0.1389120 0.2944380
0.2625660 0.1151787 0.2698102
0.3801780 0.0660029 0.3066802
0.5539452 0.0455780 0.3701785
0.7277649 0.0505704 0.4148719
0.8608144 0.0498298 0.4203482
0.9510381 0.0507030 0.4226701
0.0000000 0.2439934 0.3367733
0.1803533 0.2712685 0.4111749
0.2454648 0.2429452 0.4050148
0.2737439 0.1688981 0.3115230
0.3785415 0.1264649 0.3084345
0.5636783 0.1484593 0.3809306
0.7328835 0.1739163 0.4303731
0.8602940 0.1785550 0.4384859
0.9480263 0.1805423 0.4394399
0.0065364 0.3257896 0.3765419
0.1691661 0.3099283 0.3919228
0.2190826 0.2722885 0.3630345
0.2457265 0.1948850 0.2857710
0.3657447 0.1678481 0.2977906
0.5451012 0.2221951 0.3769773
0.7265102 0.2863921 0.4487765
0.8556700 0.2999846 0.4623134
0.9415661 0.3031488 0.4620483
0.1301929 0.3798361 0.4054948
0.2070896 0.3764228 0.4310882
0.2011384 0.2981260 0.3454552
0.3039267 0.3055551 0.3742903
0.4049275 0.2792318 0.3652538
0.5555245 0.3306472 0.4280354
0.7113005 0.3781018 0.4695625
0.8538265 0.3994834 0.4907396
0.9319603 0.3969333 0.4807249
0.1579521 0.5122007 0.4548676
0.2166935 0.4805382 0.4385667
0.2817840 0.4560220 0.4340300
0.4469989 0.5368069 0.5413384
0.4656550 0.4453271 0.4301854
0.5699623 0.4500337 0.4875967
0.7005395 0.4551547 0.4649659
0.8366422 0.4523273 0.4848296
0.9009078 0.4327386 0.4723138
0.0468667 0.6065694 0.4312194
0.1528651 0.5988242 0.4308016
0.2634265 0.5698193 0.4161940
0.3624775 0.5417199 0.4023711
0.5781605 0.6264291 0.5463022
0.6734058 0.6463643 0.5998366
0.6957131 0.5613475 0.4878895
0.8274018 0.5815256 0.4806045
0.8581726 0.5049696 0.4189868
0.0293924 0.7234744 0.4270316
0.1258565 0.7117906 0.4162687
0.2393086 0.6922619 0.4096523
0.3492961 0.6705012 0.4040229
0.4808773 0.6620305 0.4316316
0.5680506 0.6362946 0.4031515
0.7030879 0.7024438 0.4841495
0.7711059 0.6632887 0.4419660
0.8511018 0.6042543 0.3581345
0.0239145 0.8253905 0.4129356
0.1087758 0.8136538 0.3937854
0.2229834 0.7968689 0.3896698
0.3315053 0.7769461 0.3854007
0.4682586 0.7637927 0.4130729
0.5844041 0.7695544 0.4166738
0.7059185 0.7934048 0.4367179
0.7848272 0.7656566 0.3855041
0.7995460 0.6707716 0.2284968
0.0192094 0.9275732 0.3982624
0.0944292 0.9150865 0.3713783
0.2104592 0.8993610 0.3688198
0.3219768 0.8824170 0.3678025
0.4705084 0.8714953 0.4076203
0.5897659 0.8805779 0.4167852
0.7120595 0.9005573 0.4301508
0.8048183 0.8863362 0.3856839
0.7754732 0.7678366 0.1512223
0.1349110 0.2871037 0.6279808
0.1240371 0.1550130 0.5747025
0.2180350 0.1352843 0.5124368
0.2955174 0.1037406 0.4448356
0.3901846 0.0669983 0.4328127
0.5663324 0.0468378 0.4981311
0.7253855 0.0467382 0.5335884
0.8482458 0.0396109 0.5323578
0.9421749 0.0391107 0.5347720
0.0726089 0.3366073 0.5481989
0.1695177 0.2914075 0.5518745
0.2086821 0.2157357 0.5312035
0.2805624 0.1681221 0.4544505
0.3976358 0.1419176 0.4492154
0.5778772 0.1530956 0.5131514
0.7296128 0.1673378 0.5431252
0.8592286 0.1668039 0.5484225
0.9490349 0.1661859 0.5484729
0.0006687 0.3361636 0.4650387
0.1482528 0.3536884 0.5257145
0.2405262 0.3222534 0.5037745
0.2482195 0.2184843 0.4244848
0.3692727 0.1992820 0.4272948
0.5676269 0.2470069 0.5148557
0.7285764 0.2804591 0.5535187
0.8581603 0.2867740 0.5608276
0.9483323 0.2874281 0.5612313
0.0941119 0.4135562 0.5064518
0.1999446 0.4776722 0.6008359
0.2698648 0.4323973 0.5524278
0.2968212 0.3386702 0.4698520
0.3908055 0.3134051 0.4713983
0.5835665 0.3526188 0.5498395
0.7185822 0.3812595 0.5627525
0.8499207 0.3941336 0.5701716
0.9402345 0.3967961 0.5709080
0.1587168 0.5696839 0.6020685
0.1831356 0.4949135 0.5455691
0.3905347 0.5846871 0.6288429
0.3578886 0.4982673 0.5830871
0.5290225 0.5306119 0.6445885
0.6188050 0.4693497 0.5910945
0.7050493 0.4695701 0.5735972
0.8359196 0.4836613 0.5780391
0.9216493 0.4808431 0.5750041
0.1023878 0.6466859 0.5818279
0.1424598 0.6272781 0.5691998
0.2737420 0.6047151 0.5598696
0.3760833 0.5721976 0.5454860
0.5320073 0.6076735 0.6109391
0.5727499 0.5683269 0.5888381
0.6962985 0.5708548 0.6183545
0.8030154 0.5648244 0.5668038
0.8747608 0.5360113 0.5599165
0.0430371 0.7445166 0.5541174
0.1480157 0.7360469 0.5524342
0.2610473 0.7206150 0.5496852
0.3659836 0.6984363 0.5423296
0.4706384 0.6910532 0.5443862
0.5695335 0.6461578 0.5216253
0.7209551 0.7130316 0.6047745
0.7596071 0.6954865 0.6223605
0.8578988 0.6341516 0.5309486
0.0353186 0.8456424 0.5362979
0.1326788 0.8378240 0.5297292
0.2467070 0.8241305 0.5276057
0.3515011 0.8034752 0.5198048
0.4458998 0.7770490 0.5050571
0.5608093 0.7525214 0.5082093
0.6736745 0.7620267 0.5184622
0.7495442 0.7486302 0.4973001
0.7824839 0.6592954 0.3854893
0.0285192 0.9476511 0.5217135
0.1156431 0.9379276 0.5062080
0.2309381 0.9232184 0.5027464
0.3382288 0.9032462 0.4958672
0.4388237 0.8787564 0.4860496
0.5666483 0.8592856 0.5062811
0.6798540 0.8675785 0.5121635
0.7749339 0.8613112 0.4879299
0.7651606 0.7734197 0.3018449
0.1655040 0.3364723 0.6881546
0.1087817 0.1502439 0.7269701
0.2247060 0.1290424 0.6998661
0.3264154 0.0942756 0.6474265
0.4401158 0.0730969 0.6202849
0.5701936 0.0571327 0.6247549
0.7270735 0.0472215 0.6577609
0.8581584 0.0383794 0.6609522
0.9386718 0.0351267 0.6525362
0.0855328 0.3698928 0.6711648
0.1845794 0.3248148 0.7047211
0.2092757 0.2199474 0.6999228
0.3179554 0.1926255 0.6548413
0.4409239 0.1752621 0.6342051
0.5843693 0.1703104 0.6463041
0.7332959 0.1680582 0.6670632
0.8599289 0.1641433 0.6673751
0.9471943 0.1621088 0.6639633
0.0600663 0.4507436 0.6685308
0.1745566 0.4168279 0.6892400
0.2676397 0.3720294 0.6729719
0.3120500 0.2907144 0.6502226
0.4378608 0.2778835 0.6327917
0.5872690 0.2825531 0.6540228
0.7339094 0.2847377 0.6735898
0.8610924 0.2846448 0.6755546
0.9511978 0.2835576 0.6741881
0.0656095 0.3693423 0.4694988
0.1811946 0.4931877 0.6813160
0.2868980 0.4792392 0.6717840
0.3730440 0.4496751 0.6666259
0.4553499 0.4034050 0.6634148
0.5979665 0.3979466 0.6747953
0.7321264 0.3935094 0.6818088
0.8574856 0.3969674 0.6819462
0.9505787 0.3991656 0.6825979
0.0000000 0.4589843 0.5185011
0.2037040 0.5814299 0.7338648
0.2865941 0.4818446 0.5643703
0.3784763 0.5786584 0.7148949
0.5306023 0.5710623 0.7229490
0.6295847 0.5164813 0.7177742
0.7241361 0.4851142 0.6922698
0.8468481 0.4969105 0.6866514
0.9414280 0.5038307 0.6874519
0.2072055 0.6727677 0.7021736
0.1693259 0.6386137 0.6747219
0.2474527 0.6197332 0.6659945
0.3618415 0.5855302 0.6319525
0.4651811 0.5957002 0.6667393
0.6267877 0.6050443 0.7295127
0.6937962 0.5560163 0.6995346
0.8192576 0.5825267 0.6873721
0.9119013 0.5886814 0.6828307
0.0626138 0.7475724 0.6618978
0.1684786 0.7421005 0.6661850
0.2773787 0.7335505 0.6726720
0.3704538 0.7142160 0.6718867
0.4721607 0.6965726 0.6762724
0.5613232 0.6711506 0.6652710
0.7605269 0.7493901 0.7912436
0.7994260 0.7091336 0.7077469
0.8514175 0.6483762 0.6582968
0.0503298 0.8601503 0.6538068
0.1590530 0.8557613 0.6567151
0.2713552 0.8466966 0.6598184
0.3704202 0.8297816 0.6568878
0.4533262 0.8001806 0.6412327
0.5013449 0.7431468 0.5852308
0.6205357 0.7157312 0.5914646
0.7271224 0.7615995 0.6534278
0.8102506 0.6864058 0.5731365
0.0405030 0.9640724 0.6434727
0.1398043 0.9579276 0.6380910
0.2549114 0.9471421 0.6371497
0.3595856 0.9290993 0.6314774
0.4511571 0.9006871 0.6164845
0.5263270 0.8576713 0.5858019
0.6215960 0.8162621 0.5769840
0.7229184 0.8137617 0.5779581
0.7479774 0.7425384 0.4675734
0.2055016 0.4144939 0.8204797
0.0850470 0.1362847 0.8552650
0.2002500 0.1020643 0.8467629
0.3264968 0.0838157 0.8159745
0.4488649 0.0656278 0.7838930
0.5750115 0.0529001 0.7674586
0.7138722 0.0458278 0.7727716
0.8638096 0.0371822 0.7911290
0.9456790 0.0348567 0.7813771
0.1143722 0.4218830 0.8036149
0.2001058 0.3540046 0.8428169
0.2019576 0.2228691 0.8493725
0.3268087 0.2042327 0.8191310
0.4512777 0.1876600 0.7895930
0.5817819 0.1762907 0.7780232
0.7175061 0.1694973 0.7791964
0.8634975 0.1633152 0.7939032
0.9471335 0.1605446 0.7848575
0.0874322 0.4996545 0.7858850
0.2005526 0.4639286 0.8338864
0.2979131 0.4167884 0.8291657
0.3328491 0.3221906 0.8208699
0.4552257 0.3073113 0.7913204
0.5874549 0.2970019 0.7838894
0.7229279 0.2900043 0.7873525
0.8652763 0.2851077 0.7993827
0.9526592 0.2827627 0.7936090
0.0097722 0.5867315 0.8088060
0.1913983 0.5489040 0.8136182
0.3083696 0.5265692 0.8127842
0.4065095 0.4952636 0.8126085
0.4689723 0.4291640 0.8058213
0.5991362 0.4178484 0.7984065
0.7280837 0.4062480 0.7973469
0.8653702 0.4024117 0.8048815
0.9549107 0.4010811 0.8009460
0.0000000 0.6334219 0.7853059
0.1436028 0.6096516 0.7935413
0.2743897 0.5794414 0.7684867
0.3944688 0.5930379 0.7892690
0.5239923 0.5841797 0.8143827
0.6110729 0.5377481 0.8135903
0.7304733 0.5164367 0.8086095
0.8604462 0.5119775 0.8087102
0.9525498 0.5128717 0.8061979
0.0000000 0.6392303 0.7549315
0.1423158 0.6570468 0.7861455
0.2528306 0.6470519 0.7805815
0.3577212 0.6598553 0.7977285
0.4844252 0.6753489 0.8193787
0.6366793 0.6744187 0.8452152
0.7183145 0.6188108 0.8181359
0.8396904 0.6078735 0.8064996
0.9372118 0.6122244 0.8050374
0.0714437 0.7942555 0.8038780
0.1955264 0.7854432 0.8034672
0.2928717 0.7725171 0.8052703
0.3593885 0.7571041 0.8095436
0.3571591 0.7630925 0.8611520
0.6676207 0.7819266 0.8222051
0.7034266 0.7464953 0.8427775
0.7938756 0.6950247 0.7963973
0.8947526 0.6864571 0.7842959
0.0632691 0.8720244 0.7682816
0.1815664 0.8677523 0.7725020
0.2920420 0.8601060 0.7772166
0.3808457 0.8470992 0.7811026
0.4449133 0.8212813 0.7774233
0.5074726 0.7806894 0.7564533
0.5907964 0.7219425 0.7082950
0.7048766 0.7116808 0.7172554
0.8300649 0.7182157 0.7163180
0.0514827 0.9781063 0.7633398
0.1613240 0.9743104 0.7639446
0.2766592 0.9666972 0.7657373
0.3785162 0.9524529 0.7649039
0.4650159 0.9273072 0.7555854
0.5324971 0.8811622 0.7241236
0.5662329 0.7978699 0.6552250
0.6277804 0.7135892 0.6103279
0.7501674 0.7399087 0.6069700
0.1765410 0.3630089 0.9314458
0.0838171 0.1495581 0.9602344
0.1773382 0.0978958 0.9630726
0.3099688 0.0828308 0.9455342
0.4377928 0.0633576 0.9255538
0.5681679 0.0508852 0.9078778
0.7038566 0.0426954 0.9021671
0.8397711 0.0370117 0.8997868
0.9503855 0.0343559 0.9134935
0.1332153 0.4463324 0.9338797
0.2049580 0.3712756 0.9489975
0.1814689 0.2206940 0.9622913
0.3105498 0.2046082 0.9457661
0.4403322 0.1898730 0.9264918
0.5720409 0.1779907 0.9116584
0.7080031 0.1697189 0.9070765
0.8431871 0.1638875 0.9046184
0.9514917 0.1602280 0.9151971
0.1151097 0.5341546 0.9289857
0.2075065 0.4831529 0.9398925
0.3006683 0.4344372 0.9380906
0.3179485 0.3252168 0.9427212
0.4449761 0.3124243 0.9247057
0.5782455 0.3015457 0.9168216
0.7140876 0.2930362 0.9142096
0.8482675 0.2868805 0.9117707
0.9542823 0.2825573 0.9195575
0.0604002 0.5957393 0.9071781
0.1984911 0.5746136 0.9227388
0.3116587 0.5480949 0.9223922
0.4068716 0.5120967 0.9214565
0.4514638 0.4295279 0.9237081
0.5852199 0.4218292 0.9232432
0.7206376 0.4127388 0.9236666
0.8531942 0.4066468 0.9202489
0.9566721 0.4016717 0.9248562
0.0000000 0.6526184 0.8967511
0.1669929 0.6499815 0.9114228
0.3100989 0.6352521 0.9061205
0.4107545 0.6221430 0.9052380
0.5097744 0.5928729 0.9155008
0.5858962 0.5360242 0.9255764
0.7238046 0.5282217 0.9332316
0.8552822 0.5212939 0.9279442
0.9564002 0.5157681 0.9290119
0.0000000 0.7255567 0.9201647
0.1676059 0.7221198 0.9213621
0.2965495 0.7145057 0.9140911
0.3822724 0.7049653 0.9065321
0.4591193 0.6885895 0.9044006
0.5958494 0.6705771 0.9222835
0.7059982 0.6308927 0.9298911
0.8454607 0.6251317 0.9292282
0.9465757 0.6195857 0.9276765
0.0558271 0.8354203 0.9358350
0.1921792 0.8285049 0.9359621
0.2992817 0.8188144 0.9346836
0.3631838 0.7980437 0.9252998
0.3545600 0.7500673 0.9049694
0.4983984 0.7313552 0.8875513
0.6515166 0.7041959 0.8899157
0.8064875 0.7031002 0.9097929
0.9086347 0.6968399 0.9068023
0.0616440 0.9376598 0.9334718
0.1853712 0.9294824 0.9330881
0.2987284 0.9178887 0.9312274
0.3857096 0.9001865 0.9282275
0.4410414 0.8676416 0.9177799
0.5115482 0.8251217 0.8912433
0.6076999 0.7750644 0.8459567
0.6963971 0.7200119 0.8356109
0.8301806 0.7390308 0.8605737
0.0573000 0.9905100 0.8819226
0.1749552 0.9889596 0.8858197
0.2907844 0.9826230 0.8887944
0.3919462 0.9708721 0.8906982
0.4789334 0.9503854 0.8876958
0.5596968 0.9171673 0.8725734
0.6243630 0.8603325 0.8350940
0.6463808 0.7593012 0.7677748
0.7991107 0.7997907 0.8499488
