presets/film/film-chrome/look.cube
# Approximate v0 colour conversion; calibrate before claiming visual parity.
LUT_3D_SIZE 9
DOMAIN_MIN 0 0 0
DOMAIN_MAX 1 1 1
0.0051005 0.0033515 0.0016325
0.1252662 0.0218207 0.0055055
0.2540974 0.0341905 0.0047883
0.3833044 0.0500974 0.0047200
0.5122572 0.0681800 0.0052433
0.5989330 0.0804826 0.0059566
0.6824881 0.0938702 0.0067515
0.8019905 0.1166243 0.0090909
0.9036882 0.1410689 0.0121001
0.0080326 0.1191107 0.0047638
0.1110006 0.1061185 0.0054828
0.2518606 0.1421257 0.0129533
0.3812506 0.1580372 0.0124198
0.5167248 0.1734973 0.0113561
0.6103035 0.1799341 0.0126755
0.6971063 0.1928587 0.0124218
0.8118360 0.2188593 0.0141173
0.9074516 0.2503400 0.0209040
0.0168044 0.2459427 0.0037518
0.1417745 0.2400975 0.0120475
0.2486677 0.2388923 0.0242378
0.3776675 0.2538531 0.0182302
0.5088656 0.2752440 0.0190350
0.6080526 0.2939418 0.0246314
0.7069989 0.3083865 0.0271661
0.8301354 0.3280802 0.0238870
0.9240230 0.3532617 0.0281099
0.0203491 0.3741822 0.0009041
0.1483051 0.3659867 0.0071033
0.2669100 0.3591021 0.0219493
0.3713582 0.3522050 0.0208531
0.5031601 0.3644875 0.0157670
0.6015495 0.3821035 0.0248560
0.7041426 0.4043855 0.0412625
0.8341303 0.4295948 0.0489591
0.9270463 0.4539156 0.0331655
0.0232785 0.5034108 0.0000000
0.1508799 0.4948720 0.0007417
0.2745000 0.4854936 0.0080905
0.3922989 0.4793199 0.0131448
0.4966936 0.4663361 0.0093806
0.5908321 0.4760226 0.0103623
0.6913415 0.4904832 0.0175539
0.8248176 0.5160266 0.0308485
0.9216019 0.5370473 0.0277790
0.0259460 0.5938832 0.0000000
0.1535410 0.5852992 0.0000000
0.2784505 0.5752464 0.0012186
0.4000939 0.5659065 0.0032720
0.5154642 0.5600931 0.0025028
0.5845224 0.5479445 0.0030491
0.6799227 0.5590983 0.0057573
0.8127312 0.5799775 0.0137552
0.9151129 0.5981665 0.0229770
0.0290539 0.6840002 0.0000000
0.1566292 0.6753545 0.0000000
0.2823577 0.6649978 0.0000000
0.4064580 0.6540995 0.0000000
0.5234723 0.6460424 0.0000000
0.6028259 0.6432001 0.0000000
0.6725190 0.6306396 0.0000418
0.8029288 0.6480658 0.0027614
0.9088636 0.6654884 0.0112554
0.0346122 0.8314665 0.0000000
0.1621622 0.8228109 0.0000000
0.2886052 0.8124827 0.0000000
0.4151135 0.8007209 0.0000000
0.5347817 0.7902311 0.0000000
0.6148536 0.7849733 0.0000000
0.6959629 0.7818433 0.0000000
0.7949108 0.7651860 0.0000000
0.9030052 0.7795764 0.0002091
0.0400902 0.9803247 0.0000000
0.1675953 0.9717304 0.0000000
0.2943823 0.9616760 0.0000000
0.4223625 0.9499849 0.0000000
0.5445321 0.9384634 0.0000000
0.6264432 0.9315668 0.0000000
0.7093012 0.9260668 0.0000000
0.8261318 0.9216955 0.0000000
0.9230562 0.9211719 0.0000000
0.0137752 0.0230074 0.1225503
0.1041096 0.0141066 0.1122622
0.2423405 0.0095634 0.1024096
0.3779423 0.0053115 0.0809245
0.5082384 0.0047239 0.0627796
0.5955456 0.0061098 0.0512038
0.6827086 0.0091827 0.0400337
0.8062014 0.0169590 0.0249109
0.9120220 0.0268854 0.0126402
0.0162041 0.1246262 0.1147998
0.1270051 0.1260522 0.1251657
0.2484759 0.1344136 0.1150435
0.3808643 0.1473759 0.1123414
0.5102508 0.1601320 0.1111248
0.5983850 0.1696218 0.1103941
0.6865957 0.1809540 0.1101547
0.8089407 0.2010331 0.1117176
0.9114953 0.2238391 0.1163659
0.0136558 0.2502261 0.1142671
0.1299959 0.2481118 0.1183876
0.2453730 0.2410680 0.1131050
0.3794101 0.2549530 0.1084006
0.5076724 0.2685728 0.1071758
0.6038028 0.2796883 0.1050879
0.6999879 0.2906997 0.1014336
0.8226343 0.3081659 0.1054717
0.9195207 0.3305712 0.1132098
0.0078334 0.3796138 0.1087675
0.1215198 0.3730962 0.1037447
0.2514001 0.3603839 0.1005333
0.3657679 0.3545632 0.1062249
0.5083970 0.3687655 0.1040491
0.5994834 0.3761261 0.0999401
0.7022468 0.3950366 0.1095691
0.8326722 0.4169559 0.1085534
0.9266929 0.4488995 0.1150685
0.0056007 0.5098671 0.1029613
0.1157544 0.5029306 0.0924969
0.2528838 0.4915169 0.0978406
0.3801301 0.4816561 0.1012174
0.4918756 0.4687395 0.0962071
0.5883339 0.4722829 0.0858878
0.6905929 0.4826128 0.0850411
0.8285773 0.5087598 0.1060223
0.9226629 0.5310928 0.1000537
0.0052497 0.6007800 0.0987218
0.1127616 0.5936934 0.0845208
0.2514006 0.5827960 0.0897422
0.3835796 0.5700156 0.0913601
0.5053887 0.5611092 0.0875788
0.5816037 0.5489989 0.0832389
0.6792648 0.5543816 0.0770056
0.8136990 0.5700657 0.0772167
0.9156957 0.5869846 0.0800224
0.0054868 0.6911352 0.0945276
0.1102868 0.6838986 0.0768227
0.2498586 0.6732160 0.0818072
0.3849559 0.6596784 0.0825306
0.5098103 0.6478840 0.0794151
0.5944246 0.6433095 0.0758391
0.6712672 0.6311326 0.0732473
0.8028022 0.6411422 0.0667218
0.9091733 0.6536925 0.0653781
0.0062360 0.8387981 0.0880903
0.1066654 0.8313762 0.0651339
0.2472117 0.8210859 0.0702442
0.3852705 0.8079716 0.0713122
0.5141238 0.7944476 0.0689200
0.5995827 0.7870025 0.0658977
0.6861069 0.7823362 0.0622597
0.7943386 0.7664032 0.0582268
0.9025252 0.7741271 0.0501811
0.0066275 0.9817199 0.0818839
0.1027609 0.9802516 0.0545375
0.2439200 0.9703278 0.0599918
0.3838008 0.9580109 0.0618749
0.5158618 0.9445074 0.0604838
0.6036807 0.9357101 0.0578923
0.6920453 0.9283284 0.0541017
0.8163594 0.9221401 0.0474291
0.9197879 0.9210883 0.0421730
0.0244446 0.0437586 0.2665036
0.1069600 0.0130521 0.2519783
0.2335407 0.0121651 0.2434983
0.3703471 0.0086223 0.2273051
0.5028947 0.0079501 0.2054994
0.5921678 0.0086785 0.1914046
0.6827033 0.0103879 0.1775854
0.8106403 0.0151547 0.1587370
0.9182872 0.0218237 0.1434002
0.0188428 0.1607039 0.2688010
0.1354393 0.1463856 0.2541236
0.2268600 0.1338655 0.2371784
0.3711847 0.1246189 0.2176333
0.5079666 0.1212078 0.1964405
0.5954873 0.1206418 0.1835531
0.6852653 0.1213044 0.1712450
0.8106087 0.1248915 0.1541143
0.9154638 0.1327411 0.1405958
0.0185239 0.2547951 0.2347407
0.1206174 0.2494463 0.2391535
0.2390674 0.2384723 0.2373480
0.3726471 0.2546252 0.2324017
0.5121449 0.2671832 0.2252084
0.5999221 0.2760235 0.2240235
0.6950451 0.2875821 0.2241957
0.8237061 0.3057053 0.2277091
0.9280923 0.3248576 0.2343498
0.0091207 0.3845259 0.2274066
0.0994497 0.3793677 0.2171872
0.2434681 0.3707018 0.2317035
0.3551794 0.3483020 0.2149184
0.5022262 0.3714063 0.2168551
0.5979059 0.3837153 0.2166053
0.7005651 0.3985955 0.2162132
0.8309239 0.4145142 0.2128243
0.9316868 0.4349510 0.2241012
0.0061521 0.5157745 0.2227074
0.0901908 0.5108724 0.2021270
0.2409934 0.5020382 0.2217256
0.3729760 0.4863199 0.2140353
0.4802613 0.4693847 0.2062402
0.5821903 0.4771056 0.2036802
0.6904239 0.4894694 0.1992615
0.8310924 0.5164475 0.2072691
0.9293429 0.5356545 0.2093211
0.0061835 0.6070988 0.2194410
0.0848390 0.6020332 0.1916880
0.2389600 0.5932723 0.2145857
0.3751682 0.5774447 0.2117630
0.4948537 0.5632679 0.2042405
0.5719997 0.5517026 0.1996625
0.6770726 0.5572530 0.1885663
0.8175362 0.5777389 0.1890955
0.9199637 0.5962285 0.1880799
0.0070363 0.6976418 0.2160613
0.0798929 0.6923233 0.1812598
0.2370677 0.6835889 0.2069908
0.3760103 0.6685645 0.2064883
0.5018193 0.6513698 0.2000595
0.5860312 0.6436595 0.1943210
0.6672163 0.6329775 0.1884656
0.8035806 0.6443103 0.1761362
0.9091119 0.6576424 0.1610661
0.0085716 0.8454498 0.2106084
0.0717763 0.8397367 0.1646351
0.2338500 0.8311582 0.1948866
0.3754315 0.8178310 0.1966502
0.5070003 0.8012612 0.1928367
0.5933887 0.7905429 0.1880293
0.6806455 0.7833904 0.1822678
0.7929227 0.7690943 0.1731909
0.9018910 0.7761470 0.1502272
0.0090810 0.9812522 0.2027875
0.0622169 0.9815584 0.1475879
0.2297653 0.9800853 0.1837847
0.3727554 0.9679415 0.1868781
0.5076635 0.9530823 0.1852470
0.5971442 0.9421480 0.1817768
0.6867048 0.9322155 0.1765776
0.8121279 0.9232557 0.1664015
0.9166671 0.9210558 0.1556396
0.0377993 0.0632689 0.3992728
0.1075292 0.0153733 0.3871600
0.2253574 0.0120517 0.3757899
0.3637221 0.0085755 0.3721076
0.4993817 0.0085853 0.3608726
0.5889942 0.0096579 0.3459528
0.6813219 0.0113173 0.3300020
0.8136824 0.0146406 0.3078122
0.9250049 0.0177948 0.2898743
0.0272134 0.1802179 0.4097037
0.1418725 0.1646458 0.3906177
0.2259565 0.1305186 0.3773384
0.3634757 0.1262065 0.3700607
0.5003580 0.1250849 0.3524122
0.5916187 0.1253156 0.3358081
0.6843831 0.1261961 0.3197649
0.8160492 0.1287635 0.2988848
0.9266198 0.1316954 0.2828164
0.0165030 0.3209347 0.4184147
0.1140630 0.2883162 0.3981286
0.2531251 0.2717457 0.3875564
0.3597823 0.2469798 0.3662978
0.5069169 0.2465399 0.3446529
0.5997873 0.2428382 0.3253986
0.6900375 0.2417393 0.3107166
0.8210403 0.2429669 0.2935285
0.9291128 0.2457469 0.2810504
0.0114012 0.3936496 0.3619161
0.0923926 0.3888234 0.3656708
0.2358644 0.3894009 0.3820730
0.3744882 0.3718236 0.3718840
0.5058988 0.3824805 0.3614451
0.6010179 0.3894048 0.3525958
0.6977316 0.3972009 0.3468153
0.8284204 0.4120447 0.3446715
0.9334476 0.4293809 0.3477578
0.0081920 0.5216537 0.3491869
0.0752071 0.5194374 0.3355671
0.2202390 0.5137539 0.3472865
0.3688976 0.5006156 0.3589101
0.4762285 0.4667839 0.3332950
0.5788354 0.4823152 0.3342159
0.6949691 0.5043140 0.3360373
0.8309630 0.5244667 0.3327736
0.9323106 0.5390067 0.3296366
0.0088937 0.6134130 0.3443532
0.0700782 0.6104222 0.3208250
0.2166329 0.6045033 0.3347902
0.3679578 0.5914868 0.3505154
0.4850412 0.5610778 0.3294395
0.5629947 0.5501267 0.3227998
0.6709875 0.5634225 0.3215827
0.8229643 0.5930104 0.3243943
0.9251915 0.6105017 0.3220151
0.0106487 0.7042416 0.3403481
0.0663407 0.7005913 0.3086261
0.2129844 0.6943599 0.3232111
0.3679514 0.6824341 0.3431651
0.4947285 0.6581551 0.3319152
0.5752947 0.6434546 0.3213285
0.6581023 0.6341876 0.3159993
0.8060827 0.6545909 0.3102141
0.9153897 0.6755993 0.3091826
0.0135289 0.8521677 0.3348991
0.0601957 0.8478644 0.2912094
0.2057656 0.8414684 0.3052870
0.3663751 0.8307887 0.3310348
0.5008873 0.8130851 0.3276993
0.5880056 0.7982013 0.3209663
0.6746202 0.7862421 0.3129724
0.7906931 0.7736988 0.3042536
0.9023671 0.7840539 0.2860813
0.0140003 0.9805281 0.3234556
0.0513750 0.9809279 0.2709694
0.1949012 0.9812088 0.2858434
0.3624132 0.9799654 0.3192797
0.5000841 0.9653010 0.3193459
0.5913662 0.9527723 0.3158014
0.6820455 0.9395531 0.3096913
0.8080321 0.9262805 0.2976904
0.9137628 0.9225416 0.2831839
0.0591874 0.0907142 0.5346969
0.1108465 0.0235806 0.5225542
0.2253186 0.0178683 0.5110702
0.3507362 0.0124735 0.5016268
0.4879577 0.0092188 0.4984676
0.5882481 0.0096496 0.4995289
0.6795026 0.0110433 0.4847212
0.8124476 0.0137499 0.4613852
0.9257316 0.0159022 0.4415869
0.0630985 0.2093347 0.5530802
0.1586358 0.1899570 0.5288285
0.2283500 0.1365378 0.5153621
0.3518743 0.1299692 0.5027286
0.4900587 0.1253651 0.4975752
0.5881001 0.1255774 0.4930706
0.6806906 0.1269099 0.4765110
0.8148906 0.1295115 0.4521689
0.9280545 0.1314215 0.4322079
0.0271690 0.3277542 0.5577293
0.1241777 0.3139424 0.5346633
0.2637942 0.2954329 0.5264033
0.3547761 0.2533417 0.5079982
0.4945369 0.2478167 0.4989451
0.5907725 0.2467759 0.4878808
0.6841473 0.2464561 0.4679962
0.8181490 0.2475884 0.4428683
0.9306760 0.2488254 0.4242975
0.0238725 0.4644927 0.5554549
0.0809130 0.4377278 0.5425899
0.2448862 0.4235594 0.5396998
0.3800335 0.3988912 0.5261941
0.5007327 0.3770431 0.5049006
0.5946381 0.3741968 0.4824513
0.6894260 0.3704010 0.4593536
0.8219758 0.3673484 0.4345599
0.9318326 0.3684436 0.4193174
0.0148386 0.5301959 0.4869897
0.0760828 0.5289842 0.4925741
0.2165207 0.5277056 0.5053780
0.3690910 0.5291353 0.5229501
0.5027737 0.5002715 0.5026272
0.6052868 0.5122448 0.4972313
0.6919681 0.5135883 0.4795441
0.8254794 0.5237445 0.4704970
0.9327260 0.5345986 0.4691350
0.0156211 0.6184008 0.4737518
0.0646516 0.6172771 0.4642619
0.2066599 0.6151699 0.4766882
0.3547309 0.6092467 0.4875794
0.4999983 0.5941155 0.4958442
0.5730420 0.5646968 0.4714592
0.6819869 0.5841719 0.4731240
0.8245028 0.6074544 0.4673514
0.9270803 0.6172006 0.4615481
0.0181074 0.7098901 0.4666670
0.0573887 0.7082228 0.4442526
0.2027695 0.7049796 0.4577650
0.3518171 0.6980838 0.4714786
0.4979126 0.6832304 0.4856171
0.5767178 0.6557754 0.4676047
0.6562696 0.6402168 0.4549583
0.8042864 0.6639881 0.4509339
0.9220888 0.6945809 0.4578218
0.0217750 0.8585034 0.4588496
0.0497146 0.8557468 0.4201363
0.1973799 0.8512341 0.4351352
0.3462523 0.8441321 0.4504590
0.4983445 0.8316626 0.4720718
0.5878037 0.8153594 0.4665727
0.6723264 0.7946826 0.4547599
0.7867025 0.7770371 0.4433417
0.9045792 0.7959187 0.4390896
0.0219697 0.9798980 0.4414145
0.0406723 0.9801561 0.3922195
0.1855199 0.9803432 0.4092070
0.3333815 0.9810062 0.4270203
0.4945870 0.9808850 0.4590418
0.5881672 0.9688974 0.4582825
0.6804920 0.9531266 0.4532074
0.8056685 0.9326579 0.4418334
0.9112887 0.9275271 0.4335577
0.0752960 0.1107384 0.6153428
0.1132404 0.0302821 0.6003340
0.2259317 0.0229535 0.5880033
0.3479476 0.0161604 0.5776586
0.4770836 0.0115595 0.5701201
0.5896173 0.0102871 0.5845244
0.6794649 0.0110081 0.5712573
0.8117109 0.0132017 0.5492228
0.9242206 0.0151985 0.5289805
0.0999915 0.2419598 0.6406176
0.1721475 0.2062826 0.6063794
0.2305421 0.1420904 0.5930985
0.3500704 0.1338749 0.5798809
0.4783099 0.1276544 0.5695684
0.5886611 0.1260218 0.5796001
0.6795769 0.1267196 0.5648311
0.8132637 0.1291105 0.5411324
0.9265099 0.1311149 0.5201611
0.0450130 0.3373576 0.6395468
0.1474548 0.3277261 0.6132809
0.2715520 0.3081075 0.6020318
0.3542106 0.2574883 0.5860796
0.4811012 0.2489739 0.5712312
0.5885434 0.2463434 0.5752810
0.6808697 0.2464004 0.5583351
0.8157541 0.2481898 0.5327387
0.9292490 0.2497009 0.5117791
0.0279080 0.4723589 0.6328872
0.0927152 0.4470161 0.6193487
0.2510857 0.4369467 0.6162938
0.3882413 0.4149876 0.6078494
0.4897936 0.3808553 0.5825863
0.5913760 0.3748422 0.5744768
0.6844996 0.3714652 0.5510942
0.8191558 0.3713546 0.5243374
0.9309115 0.3719739 0.5048627
0.0323733 0.6000333 0.6196161
0.0902879 0.5810992 0.6199156
0.2153806 0.5671958 0.6228944
0.3903812 0.5720135 0.6427980
0.5143246 0.5257325 0.6036903
0.5941368 0.5044712 0.5756788
0.6879702 0.4991108 0.5439487
0.8228470 0.4932113 0.5173572
0.9315047 0.4922227 0.5013763
0.0226650 0.6200736 0.5485407
0.0728216 0.6197355 0.5519017
0.2091319 0.6196711 0.5667807
0.3584458 0.6200504 0.5828635
0.5127550 0.6229177 0.5979713
0.5757372 0.5731046 0.5576560
0.6943997 0.6013491 0.5675769
0.8271102 0.6157762 0.5544693
0.9292776 0.6205072 0.5478632
0.0253193 0.7122292 0.5396126
0.0602631 0.7114817 0.5272010
0.2019603 0.7100483 0.5408875
0.3482425 0.7059359 0.5538483
0.4946629 0.7007683 0.5672989
0.5884053 0.6796219 0.5662012
0.6655975 0.6538404 0.5444659
0.8172932 0.6840587 0.5434736
0.9194739 0.7084808 0.5519975
0.0288950 0.8615383 0.5298250
0.0475997 0.8597349 0.4969100
0.1944630 0.8564699 0.5111870
0.3429289 0.8513907 0.5268396
0.4876841 0.8428464 0.5422981
0.5911400 0.8309806 0.5559925
0.6779519 0.8083305 0.5456327
0.7889476 0.7832226 0.5286616
0.9092192 0.8054533 0.5280398
0.0284122 0.9795746 0.5078595
0.0362605 0.9798008 0.4619581
0.1807693 0.9797944 0.4787187
0.3285255 0.9803278 0.4975949
0.4739885 0.9821832 0.5172755
0.5878592 0.9802240 0.5423872
0.6820792 0.9647977 0.5401634
0.8065820 0.9388978 0.5298691
0.9104403 0.9309193 0.5252240
0.0862539 0.1286597 0.6904632
0.1138418 0.0366956 0.6760888
0.2259664 0.0283321 0.6636893
0.3457743 0.0204385 0.6529370
0.4714326 0.0146991 0.6446219
0.5636352 0.0122218 0.6407082
0.6803417 0.0115670 0.6554296
0.8113772 0.0129366 0.6354266
0.9232753 0.0146193 0.6158716
0.1323625 0.2782450 0.7206090
0.1844896 0.2225418 0.6825377
0.2320779 0.1478704 0.6692800
0.3488752 0.1385875 0.6558968
0.4733066 0.1312338 0.6452079
0.5656467 0.1280290 0.6400186
0.6797630 0.1271212 0.6503182
0.8120957 0.1286641 0.6287288
0.9247010 0.1305418 0.6078556
0.0675699 0.3535714 0.7082593
0.1684678 0.3431044 0.6898105
0.2805288 0.3210794 0.6765089
0.3539064 0.2619725 0.6620894
0.4763053 0.2525358 0.6476249
0.5680949 0.2479698 0.6399711
0.6795958 0.2464728 0.6452845
0.8135075 0.2478434 0.6219420
0.9272334 0.2496049 0.6003493
0.0505849 0.4840752 0.7106147
0.1308113 0.4589315 0.6963209
0.2608178 0.4486683 0.6888774
0.3941672 0.4271297 0.6798190
0.4840772 0.3830603 0.6573738
0.5735187 0.3758076 0.6438232
0.6816879 0.3725057 0.6418642
0.8157879 0.3719854 0.6151252
0.9294750 0.3729564 0.5931284
0.0514943 0.6147167 0.6956550
0.1083111 0.5888803 0.6971155
0.2174013 0.5742988 0.6988757
0.3841470 0.5689168 0.7050345
0.5187369 0.5403986 0.6815348
0.5862727 0.5120842 0.6578606
0.6841295 0.5021651 0.6403252
0.8191955 0.4999170 0.6090577
0.9308870 0.4977486 0.5873788
0.0478368 0.6860825 0.6746059
0.1001687 0.6853116 0.6883816
0.2209025 0.6709313 0.6927754
0.3576003 0.6541488 0.6945824
0.5311019 0.6553264 0.7051468
0.6020023 0.6106024 0.6706006
0.6838963 0.5888572 0.6380611
0.8233457 0.5897957 0.6079402
0.9315894 0.5834581 0.5868602
0.0357295 0.7137726 0.6118563
0.0723690 0.7135455 0.6116385
0.2090904 0.7134410 0.6269918
0.3502646 0.7120071 0.6419364
0.5040546 0.7195189 0.6630621
0.6041371 0.7130016 0.6685267
0.6602350 0.6539640 0.6201106
0.8278283 0.7005263 0.6393822
0.9309291 0.7110177 0.6335324
0.0382074 0.8639142 0.6003582
0.0509692 0.8629406 0.5758170
0.1956582 0.8609958 0.5896601
0.3412765 0.8581018 0.6048794
0.4865250 0.8530635 0.6216736
0.5863079 0.8458809 0.6332991
0.6865736 0.8276024 0.6406147
0.8009023 0.7995804 0.6274661
0.9194183 0.8211327 0.6197212
0.0362659 0.9791958 0.5734343
0.0349230 0.9794451 0.5325781
0.1776726 0.9792970 0.5481638
0.3236635 0.9797147 0.5665604
0.4686532 0.9815548 0.5882781
0.5713750 0.9839392 0.6053159
0.6854552 0.9785698 0.6286066
0.8107245 0.9484741 0.6222879
0.9106557 0.9352821 0.6243045
0.0907446 0.1507677 0.8181394
0.1080297 0.0449792 0.8084461
0.2227925 0.0372009 0.7975918
0.3413430 0.0286082 0.7870793
0.4633145 0.0215363 0.7781876
0.5515312 0.0178281 0.7730939
0.6468346 0.0151399 0.7689657
0.8123375 0.0136196 0.7868395
0.9226790 0.0142805 0.7698840
0.0999379 0.2768631 0.8267441
0.1963747 0.2461885 0.8132919
0.2299618 0.1564645 0.8032171
0.3457988 0.1471893 0.7906527
0.4662885 0.1388357 0.7800505
0.5540046 0.1342638 0.7738158
0.6494731 0.1308828 0.7689215
0.8122572 0.1290550 0.7823570
0.9225329 0.1297805 0.7635883
0.0937585 0.3883455 0.8282867
0.1928149 0.3693264 0.8189662
0.2967514 0.3443469 0.8079720
0.3523811 0.2696066 0.7961596
0.4709312 0.2603242 0.7834876
0.5576040 0.2546222 0.7756337
0.6526398 0.2501715 0.7693873
0.8125533 0.2478583 0.7782364
0.9243438 0.2486257 0.7588003
0.1164861 0.5201793 0.8351069
0.1788049 0.4877968 0.8226560
0.2862183 0.4721306 0.8168391
0.4052573 0.4461148 0.8057708
0.4789031 0.3883154 0.7905909
0.5638679 0.3812931 0.7802578
0.6575333 0.3753436 0.7716450
0.8135378 0.3716314 0.7750016
0.9262091 0.3721911 0.7543029
0.1124468 0.6505202 0.8248623
0.1635002 0.6134673 0.8236771
0.2447545 0.5946004 0.8271151
0.3972683 0.5739092 0.8144217
0.5217121 0.5549934 0.8042324
0.5758481 0.5154921 0.7907773
0.6663208 0.5069594 0.7783238
0.8150463 0.5002686 0.7729785
0.9279914 0.5001970 0.7506849
0.0918157 0.7272599 0.8184878
0.1476302 0.6973670 0.8156942
0.2534339 0.6786033 0.8169376
0.3732927 0.6660060 0.8252703
0.5162735 0.6484398 0.8106112
0.6104656 0.6370144 0.8067654
0.6743902 0.6014744 0.7851239
0.8161305 0.5920020 0.7721709
0.9291911 0.5927168 0.7499218
0.0860873 0.8129301 0.8178398
0.1266503 0.7925895 0.8161239
0.2596580 0.7733989 0.8136641
0.3741057 0.7566644 0.8168133
0.4961804 0.7482161 0.8261914
0.6205145 0.7468759 0.8293417
0.6918018 0.7041897 0.8029252
0.8175685 0.6832795 0.7727730
0.9323818 0.6869152 0.7538688
0.0618561 0.8663073 0.7264901
0.0756346 0.8661337 0.7217091
0.2184267 0.8654997 0.7367226
0.3543733 0.8654031 0.7531273
0.4907637 0.8661948 0.7714334
0.5919825 0.8654169 0.7848350
0.7083754 0.8678408 0.8054079
0.7951745 0.8010011 0.7592758
0.9263653 0.8348329 0.7821091
0.0543512 0.9783835 0.6909029
0.0498279 0.9785568 0.6657351
0.1827634 0.9784036 0.6777654
0.3217456 0.9786177 0.6938268
0.4596947 0.9798053 0.7129718
0.5602021 0.9816238 0.7301823
0.6713108 0.9846883 0.7537021
0.8304255 0.9768978 0.7912159
0.9155357 0.9424176 0.7940081
0.0939575 0.1736413 0.9627558
0.0967240 0.0519033 0.9556636
0.2149839 0.0457471 0.9461698
0.3341243 0.0375772 0.9362654
0.4542898 0.0299505 0.9273045
0.5403885 0.0254512 0.9218653
0.6326783 0.0215927 0.9170794
0.7722964 0.0175173 0.9122275
0.9062635 0.0155182 0.9205599
0.0987439 0.2980154 0.9677813
0.2048067 0.2707691 0.9589066
0.2220899 0.1641539 0.9514788
0.3394541 0.1561827 0.9401249
0.4581340 0.1477857 0.9298707
0.5435609 0.1425990 0.9235802
0.6355481 0.1380508 0.9180752
0.7753363 0.1331967 0.9125157
0.9100523 0.1309066 0.9204408
0.1022954 0.4185021 0.9697564
0.2085465 0.3960759 0.9631040
0.3104942 0.3692855 0.9541065
0.3473185 0.2774758 0.9451389
0.4640592 0.2689805 0.9334424
0.5483603 0.2631689 0.9261556
0.6395551 0.2578351 0.9197291
0.7788690 0.2520857 0.9131160
0.9143808 0.2494029 0.9209626
0.1133990 0.5456582 0.9703230
0.2070166 0.5167773 0.9640030
0.3099678 0.4960468 0.9585424
0.4185820 0.4681718 0.9488342
0.4729240 0.3946045 0.9385478
0.5558247 0.3886630 0.9300558
0.6456043 0.3826073 0.9225072
0.7834399 0.3756721 0.9148405
0.9193797 0.3723435 0.9226398
0.1234034 0.6739839 0.9683499
0.2008198 0.6378774 0.9639896
0.3010531 0.6146274 0.9590280
0.4211824 0.5969177 0.9514984
0.5317615 0.5717389 0.9419079
0.5674435 0.5180694 0.9352829
0.6558615 0.5124446 0.9269527
0.7900812 0.5037057 0.9180614
0.9247276 0.4990120 0.9255934
0.1113149 0.7537760 0.9672624
0.1825538 0.7205728 0.9645026
0.2981471 0.6986175 0.9581741
0.4169725 0.6807224 0.9515165
0.5343943 0.6636011 0.9417024
0.6212023 0.6528064 0.9408321
0.6692709 0.6077868 0.9325346
0.7971080 0.5957817 0.9213890
0.9280087 0.5893623 0.9274624
0.1062749 0.8387919 0.9684616
0.1597037 0.8080042 0.9663843
0.2994750 0.7895930 0.9609632
0.4105480 0.7674023 0.9533108
0.5334301 0.7545599 0.9509361
0.6453627 0.7628285 0.9536339
0.7296325 0.7426414 0.9479832
0.8075495 0.6908905 0.9264296
0.9288865 0.6809035 0.9277099
0.0961808 0.9780103 0.9655388
0.1125519 0.9667369 0.9704936
0.2570195 0.9490596 0.9695773
0.3824550 0.9301335 0.9687197
0.5132408 0.9144669 0.9704009
0.6174787 0.9091024 0.9746525
0.7470366 0.9076545 0.9790131
0.8536353 0.8660686 0.9585650
0.9291052 0.8249741 0.9284698
0.0791129 0.9777332 0.8238605
0.0780746 0.9777496 0.8182166
0.2101598 0.9772685 0.8315812
0.3402240 0.9773551 0.8473786
0.4670588 0.9785340 0.8650210
0.5604401 0.9806441 0.8794419
0.6696288 0.9838599 0.8967274
0.8315889 0.9899797 0.9285656
0.9393621 0.9733266 0.9400805
