presets/film/film-chrome/look.cube
# Approximate v0 colour conversion; calibrate before claiming visual parity.
LUT_3D_SIZE 5
DOMAIN_MIN 0 0 0
DOMAIN_MAX 1 1 1
0.0051005 0.0033515 0.0016325
0.2540974 0.0341905 0.0047883
0.5122572 0.0681800 0.0052433
0.6824881 0.0938702 0.0067515
0.9036882 0.1410689 0.0121001
0.0168044 0.2459427 0.0037518
0.2486677 0.2388923 0.0242378
0.5088656 0.2752440 0.0190350
0.7069989 0.3083865 0.0271661
0.9240230 0.3532617 0.0281099
0.0232785 0.5034108 0.0000000
0.2745000 0.4854936 0.0080905
0.4966936 0.4663361 0.0093806
0.6913415 0.4904832 0.0175539
0.9216019 0.5370473 0.0277790
0.0290539 0.6840002 0.0000000
0.2823577 0.6649978 0.0000000
0.5234723 0.6460424 0.0000000
0.6725190 0.6306396 0.0000418
0.9088636 0.6654884 0.0112554
0.0400902 0.9803247 0.0000000
0.2943823 0.9616760 0.0000000
0.5445321 0.9384634 0.0000000
0.7093012 0.9260668 0.0000000
0.9230562 0.9211719 0.0000000
0.0244446 0.0437586 0.2665036
0.2335407 0.0121651 0.2434983
0.5028947 0.0079501 0.2054994
0.6827033 0.0103879 0.1775854
0.9182872 0.0218237 0.1434002
0.0185239 0.2547951 0.2347407
0.2390674 0.2384723 0.2373480
0.5121449 0.2671832 0.2252084
0.6950451 0.2875821 0.2241957
0.9280923 0.3248576 0.2343498
0.0061521 0.5157745 0.2227074
0.2409934 0.5020382 0.2217256
0.4802613 0.4693847 0.2062402
0.6904239 0.4894694 0.1992615
0.9293429 0.5356545 0.2093211
0.0070363 0.6976418 0.2160613
0.2370677 0.6835889 0.2069908
0.5018193 0.6513698 0.2000595
0.6672163 0.6329775 0.1884656
0.9091119 0.6576424 0.1610661
0.0090810 0.9812522 0.2027875
0.2297653 0.9800853 0.1837847
0.5076635 0.9530823 0.1852470
0.6867048 0.9322155 0.1765776
0.9166671 0.9210558 0.1556396
0.0591874 0.0907142 0.5346969
0.2253186 0.0178683 0.5110702
0.4879577 0.0092188 0.4984676
0.6795026 0.0110433 0.4847212
0.9257316 0.0159022 0.4415869
0.0271690 0.3277542 0.5577293
0.2637942 0.2954329 0.5264033
0.4945369 0.2478167 0.4989451
0.6841473 0.2464561 0.4679962
0.9306760 0.2488254 0.4242975
0.0148386 0.5301959 0.4869897
0.2165207 0.5277056 0.5053780
0.5027737 0.5002715 0.5026272
0.6919681 0.5135883 0.4795441
0.9327260 0.5345986 0.4691350
0.0181074 0.7098901 0.4666670
0.2027695 0.7049796 0.4577650
0.4979126 0.6832304 0.4856171
0.6562696 0.6402168 0.4549583
0.9220888 0.6945809 0.4578218
0.0219697 0.9798980 0.4414145
0.1855199 0.9803432 0.4092070
0.4945870 0.9808850 0.4590418
0.6804920 0.9531266 0.4532074
0.9112887 0.9275271 0.4335577
0.0862539 0.1286597 0.6904632
0.2259664 0.0283321 0.6636893
0.4714326 0.0146991 0.6446219
0.6803417 0.0115670 0.6554296
0.9232753 0.0146193 0.6158716
0.0675699 0.3535714 0.7082593
0.2805288 0.3210794 0.6765089
0.4763053 0.2525358 0.6476249
0.6795958 0.2464728 0.6452845
0.9272334 0.2496049 0.6003493
0.0514943 0.6147167 0.6956550
0.2174013 0.5742988 0.6988757
0.5187369 0.5403986 0.6815348
0.6841295 0.5021651 0.6403252
0.9308870 0.4977486 0.5873788
0.0357295 0.7137726 0.6118563
0.2090904 0.7134410 0.6269918
0.5040546 0.7195189 0.6630621
0.6602350 0.6539640 0.6201106
0.9309291 0.7110177 0.6335324
0.0362659 0.9791958 0.5734343
0.1776726 0.9792970 0.5481638
0.4686532 0.9815548 0.5882781
0.6854552 0.9785698 0.6286066
0.9106557 0.9352821 0.6243045
0.0939575 0.1736413 0.9627558
0.2149839 0.0457471 0.9461698
0.4542898 0.0299505 0.9273045
0.6326783 0.0215927 0.9170794
0.9062635 0.0155182 0.9205599
0.1022954 0.4185021 0.9697564
0.3104942 0.3692855 0.9541065
0.4640592 0.2689805 0.9334424
0.6395551 0.2578351 0.9197291
0.9143808 0.2494029 0.9209626
0.1234034 0.6739839 0.9683499
0.3010531 0.6146274 0.9590280
0.5317615 0.5717389 0.9419079
0.6558615 0.5124446 0.9269527
0.9247276 0.4990120 0.9255934
0.1062749 0.8387919 0.9684616
0.2994750 0.7895930 0.9609632
0.5334301 0.7545599 0.9509361
0.7296325 0.7426414 0.9479832
0.9288865 0.6809035 0.9277099
0.0791129 0.9777332 0.8238605
0.2101598 0.9772685 0.8315812
0.4670588 0.9785340 0.8650210
0.6696288 0.9838599 0.8967274
0.9393621 0.9733266 0.9400805
