presets/film/film-chrome/look.cube
# Approximate v0 colour conversion; calibrate before claiming visual parity.
LUT_3D_SIZE 33
DOMAIN_MIN 0 0 0
DOMAIN_MAX 1 1 1
0.0051005 0.0033515 0.0016325
0.0365623 0.0080496 0.0032871
0.0675245 0.0124299 0.0044870
0.0960573 0.0171432 0.0050208
0.1252662 0.0218207 0.0055055
0.1568739 0.0249151 0.0049458
0.1885582 0.0281312 0.0045553
0.2213950 0.0311262 0.0046604
0.2540974 0.0341905 0.0047883
0.2864088 0.0378107 0.0048523
0.3186495 0.0415802 0.0048873
0.3507980 0.0457638 0.0047937
0.3833044 0.0500974 0.0047200
0.4168074 0.0547514 0.0047458
0.4497647 0.0593792 0.0048286
0.4817180 0.0638778 0.0050163
0.5122572 0.0681800 0.0052433
0.5345507 0.0713087 0.0054392
0.5568090 0.0744161 0.0056038
0.5779800 0.0774556 0.0057809
0.5989330 0.0804826 0.0059566
0.6198598 0.0835135 0.0061242
0.6396254 0.0867093 0.0062986
0.6593422 0.0899423 0.0064612
0.6824881 0.0938702 0.0067515
0.7161903 0.0997954 0.0074407
0.7480469 0.1056848 0.0080042
0.7745997 0.1109023 0.0084556
0.8019905 0.1166243 0.0090909
0.8297478 0.1226506 0.0098479
0.8572629 0.1292303 0.0106532
0.8845454 0.1361271 0.0114591
0.9036882 0.1410689 0.0121001
0.0078700 0.0349409 0.0055386
0.0354198 0.0321868 0.0049926
0.0650068 0.0361751 0.0047949
0.0954225 0.0417777 0.0054159
0.1264271 0.0471998 0.0060486
0.1579520 0.0511010 0.0059379
0.1894946 0.0550312 0.0059671
0.2223184 0.0581837 0.0062021
0.2550261 0.0613727 0.0064504
0.2869974 0.0654037 0.0065516
0.3188241 0.0695819 0.0066441
0.3509313 0.0738141 0.0064834
0.3835865 0.0778686 0.0063540
0.4171140 0.0818512 0.0064405
0.4501682 0.0857135 0.0065758
0.4825311 0.0898269 0.0067632
0.5132587 0.0938588 0.0068902
0.5353750 0.0968948 0.0069249
0.5574554 0.0999081 0.0069278
0.5786865 0.1029378 0.0070334
0.5997004 0.1059742 0.0071645
0.6207253 0.1090087 0.0072867
0.6402515 0.1124074 0.0074002
0.6597180 0.1158451 0.0075018
0.6826503 0.1199050 0.0076991
0.7164277 0.1257445 0.0082372
0.7484341 0.1317733 0.0088013
0.7752932 0.1372011 0.0093730
0.8023916 0.1430766 0.0100801
0.8296677 0.1492576 0.0109065
0.8568317 0.1559600 0.0118255
0.8839339 0.1630839 0.0128866
0.9029120 0.1682179 0.0137700
0.0102527 0.0660713 0.0089017
0.0385287 0.0622260 0.0069611
0.0627119 0.0586215 0.0051769
0.0939182 0.0639108 0.0056844
0.1249532 0.0692510 0.0062961
0.1564575 0.0744691 0.0067173
0.1891519 0.0806298 0.0074760
0.2214115 0.0848172 0.0079208
0.2534784 0.0891483 0.0083889
0.2853474 0.0933718 0.0085735
0.3173609 0.0974175 0.0086945
0.3503279 0.1009839 0.0083723
0.3835832 0.1042775 0.0081185
0.4170187 0.1073173 0.0082542
0.4502194 0.1105383 0.0083930
0.4831040 0.1147198 0.0085005
0.5140564 0.1187450 0.0085006
0.5360088 0.1217209 0.0083807
0.5581371 0.1248382 0.0082796
0.5798417 0.1279507 0.0084045
0.6014745 0.1309158 0.0086024
0.6232557 0.1336989 0.0088079
0.6432590 0.1370381 0.0089029
0.6631613 0.1403630 0.0089513
0.6864889 0.1441913 0.0090438
0.7202217 0.1496847 0.0094226
0.7517864 0.1558532 0.0098667
0.7776508 0.1620612 0.0103576
0.8039393 0.1685157 0.0110491
0.8306038 0.1751364 0.0119277
0.8573118 0.1822435 0.0130661
0.8840982 0.1897830 0.0144990
0.9026363 0.1951293 0.0156239
0.0089588 0.0922712 0.0066868
0.0353465 0.0869235 0.0050651
0.0610759 0.0824075 0.0038017
0.0874744 0.0822123 0.0048458
0.1177756 0.0873879 0.0059010
0.1520959 0.0956252 0.0072535
0.1880006 0.1052013 0.0089912
0.2199325 0.1105732 0.0096324
0.2515838 0.1159381 0.0102741
0.2835343 0.1202305 0.0105121
0.3156681 0.1242562 0.0106835
0.3494787 0.1273326 0.0102509
0.3830321 0.1305229 0.0100054
0.4163534 0.1337712 0.0101569
0.4498048 0.1375347 0.0101756
0.4835330 0.1421375 0.0100591
0.5154593 0.1461737 0.0099662
0.5382380 0.1487750 0.0100615
0.5611716 0.1511807 0.0102067
0.5836660 0.1534903 0.0104233
0.6060421 0.1556532 0.0106639
0.6285684 0.1576270 0.0109121
0.6487722 0.1606787 0.0108413
0.6687022 0.1638125 0.0106936
0.6918430 0.1674537 0.0105534
0.7244960 0.1728873 0.0106643
0.7550347 0.1793893 0.0109146
0.7799295 0.1863785 0.0113270
0.8057957 0.1935156 0.0120888
0.8325124 0.2007528 0.0132117
0.8592928 0.2084989 0.0147228
0.8860979 0.2167573 0.0166232
0.9043809 0.2226412 0.0180921
0.0080326 0.1191107 0.0047638
0.0322627 0.1120408 0.0033471
0.0568068 0.1057067 0.0024098
0.0856944 0.1063400 0.0040789
0.1110006 0.1061185 0.0054828
0.1476609 0.1163985 0.0077082
0.1860668 0.1285056 0.0104690
0.2184167 0.1350261 0.0116566
0.2518606 0.1421257 0.0129533
0.2840230 0.1463734 0.0130396
0.3157359 0.1501436 0.0127781
0.3486097 0.1540365 0.0125666
0.3812506 0.1580372 0.0124198
0.4149760 0.1619789 0.0122419
0.4489886 0.1660690 0.0119426
0.4837563 0.1701309 0.0115491
0.5167248 0.1734973 0.0113561
0.5402420 0.1753532 0.0116845
0.5639175 0.1770025 0.0120640
0.5871955 0.1785412 0.0123919
0.6103035 0.1799341 0.0126755
0.6331721 0.1821528 0.0129112
0.6535128 0.1857035 0.0127309
0.6736132 0.1891593 0.0125369
0.6971063 0.1928587 0.0124218
0.7295802 0.1982762 0.0124585
0.7604679 0.2045706 0.0127102
0.7859687 0.2115666 0.0132345
0.8118360 0.2188593 0.0141173
0.8378970 0.2267226 0.0154362
0.8639161 0.2350809 0.0171271
0.8898808 0.2439904 0.0192402
0.9074516 0.2503400 0.0209040
0.0103717 0.1506221 0.0045538
0.0374697 0.1459074 0.0042680
0.0643692 0.1410900 0.0043676
0.0922367 0.1392234 0.0062843
0.1193622 0.1390631 0.0081361
0.1466048 0.1401602 0.0097559
0.1813513 0.1492974 0.0125434
0.2167167 0.1580234 0.0143582
0.2538364 0.1678847 0.0163042
0.2854558 0.1720862 0.0158294
0.3160205 0.1754009 0.0148299
0.3477614 0.1800881 0.0148156
0.3793598 0.1848858 0.0148110
0.4134755 0.1894792 0.0143082
0.4477222 0.1934143 0.0137947
0.4828146 0.1970672 0.0134671
0.5158587 0.2006681 0.0134683
0.5394830 0.2031111 0.0138512
0.5632022 0.2057845 0.0141585
0.5868054 0.2085724 0.0143347
0.6104503 0.2114305 0.0144124
0.6343225 0.2144259 0.0144391
0.6560565 0.2169248 0.0144687
0.6774152 0.2189376 0.0145653
0.7022518 0.2209955 0.0147161
0.7350253 0.2248469 0.0145633
0.7662863 0.2298773 0.0146681
0.7920459 0.2364429 0.0151697
0.8177494 0.2437336 0.0160952
0.8431693 0.2522236 0.0176080
0.8685670 0.2612096 0.0194694
0.8940429 0.2705229 0.0216832
0.9112394 0.2768892 0.0233090
0.0127973 0.1823051 0.0043869
0.0425137 0.1796656 0.0051038
0.0717002 0.1765364 0.0063255
0.0991543 0.1733462 0.0088519
0.1258133 0.1713079 0.0110810
0.1533841 0.1723543 0.0131896
0.1772990 0.1710966 0.0147356
0.2150022 0.1811112 0.0170495
0.2556105 0.1933851 0.0195970
0.2862761 0.1971604 0.0186712
0.3165453 0.2003557 0.0174369
0.3475857 0.2045942 0.0169741
0.3786025 0.2083533 0.0160811
0.4119845 0.2129604 0.0159469
0.4452979 0.2176914 0.0160123
0.4801963 0.2226204 0.0160614
0.5132401 0.2275471 0.0162267
0.5372740 0.2311272 0.0163198
0.5614060 0.2349417 0.0163346
0.5857370 0.2386897 0.0162702
0.6103679 0.2423073 0.0161448
0.6352322 0.2460623 0.0159669
0.6583211 0.2477991 0.0161436
0.6809184 0.2484003 0.0165263
0.7067091 0.2490690 0.0172854
0.7393903 0.2527021 0.0170847
0.7709895 0.2580564 0.0169129
0.7967736 0.2646965 0.0174893
0.8225631 0.2716565 0.0184538
0.8483702 0.2792522 0.0200032
0.8741021 0.2871105 0.0217388
0.8994397 0.2959943 0.0237534
0.9164038 0.3019353 0.0251460
0.0149227 0.2141228 0.0041242
0.0455704 0.2120166 0.0049747
0.0760029 0.2096115 0.0063507
0.1055023 0.2072764 0.0089501
0.1338072 0.2054494 0.0116699
0.1614429 0.2054732 0.0146988
0.1888892 0.2067914 0.0175061
0.2153875 0.2063945 0.0190650
0.2518104 0.2156525 0.0218750
0.2843304 0.2204376 0.0215492
0.3171552 0.2251365 0.0207804
0.3478570 0.2283198 0.0191795
0.3781918 0.2308758 0.0170418
0.4105716 0.2360958 0.0175092
0.4428730 0.2415294 0.0181666
0.4775703 0.2476985 0.0185855
0.5106295 0.2534931 0.0187593
0.5351502 0.2575578 0.0186368
0.5597194 0.2617813 0.0188838
0.5844896 0.2657683 0.0193431
0.6094456 0.2693738 0.0198210
0.6343722 0.2730815 0.0204512
0.6577873 0.2752112 0.0211257
0.6805221 0.2767504 0.0217028
0.7069802 0.2789616 0.0222284
0.7414933 0.2837679 0.0206355
0.7745652 0.2892924 0.0194567
0.8007053 0.2946925 0.0200048
0.8269576 0.3001831 0.0208873
0.8533904 0.3061466 0.0223818
0.8795160 0.3126938 0.0239906
0.9047191 0.3211599 0.0258092
0.9214821 0.3267746 0.0269686
0.0168044 0.2459427 0.0037518
0.0483024 0.2442532 0.0047253
0.0799897 0.2425354 0.0062610
0.1115955 0.2412062 0.0088854
0.1417745 0.2400975 0.0120475
0.1702398 0.2399390 0.0160752
0.1979133 0.2404209 0.0196519
0.2256084 0.2416179 0.0224112
0.2486677 0.2388923 0.0242378
0.2824406 0.2439792 0.0244271
0.3177203 0.2499405 0.0240985
0.3480044 0.2521016 0.0213630
0.3776675 0.2538531 0.0182302
0.4093618 0.2591034 0.0183839
0.4413960 0.2640961 0.0181563
0.4760108 0.2698349 0.0184584
0.5088656 0.2752440 0.0190350
0.5335817 0.2800629 0.0203006
0.5583496 0.2850462 0.0219452
0.5831872 0.2897788 0.0235353
0.6080526 0.2939418 0.0246314
0.6328886 0.2982090 0.0258836
0.6566987 0.3015801 0.0266491
0.6799088 0.3045418 0.0269366
0.7069989 0.3083865 0.0271661
0.7433674 0.3143529 0.0242529
0.7777098 0.3197650 0.0225269
0.8038060 0.3236298 0.0233902
0.8301354 0.3280802 0.0238870
0.8564612 0.3334782 0.0249226
0.8823636 0.3398012 0.0258624
0.9072969 0.3479613 0.0272503
0.9240230 0.3532617 0.0281099
0.0179360 0.2779506 0.0030695
0.0496396 0.2762397 0.0039909
0.0815163 0.2744706 0.0054574
0.1133102 0.2728743 0.0078433
0.1442727 0.2714880 0.0110029
0.1740430 0.2708021 0.0152172
0.2024686 0.2705516 0.0189959
0.2295009 0.2707406 0.0220266
0.2563571 0.2716452 0.0246584
0.2807191 0.2679675 0.0247570
0.3146084 0.2733296 0.0245187
0.3454637 0.2757965 0.0222386
0.3764631 0.2782329 0.0198313
0.4083048 0.2824039 0.0187141
0.4403621 0.2863609 0.0172212
0.4745974 0.2917682 0.0180212
0.5070660 0.2968980 0.0191198
0.5319678 0.3024523 0.0217711
0.5569263 0.3081796 0.0248092
0.5818617 0.3136581 0.0276033
0.6066400 0.3179907 0.0286972
0.6315565 0.3225323 0.0304044
0.6558107 0.3266386 0.0316934
0.6793850 0.3303419 0.0324881
0.7067752 0.3348577 0.0338923
0.7433529 0.3403301 0.0323805
0.7778982 0.3455915 0.0309970
0.8048547 0.3502632 0.0294124
0.8318481 0.3553567 0.0277340
0.8582522 0.3611507 0.0276657
0.8843524 0.3674581 0.0276413
0.9095682 0.3749108 0.0286646
0.9264840 0.3797335 0.0292790
0.0189276 0.3099851 0.0023529
0.0508163 0.3082352 0.0032192
0.0828691 0.3063874 0.0046095
0.1148380 0.3045333 0.0067643
0.1462875 0.3026654 0.0098298
0.1768687 0.3010953 0.0139457
0.2057858 0.3001188 0.0176210
0.2329471 0.2999144 0.0206979
0.2599117 0.3003159 0.0231845
0.2884973 0.3013429 0.0239485
0.3114010 0.2971714 0.0245243
0.3430412 0.2998312 0.0230565
0.3753121 0.3027702 0.0213759
0.4073479 0.3058867 0.0191492
0.4393652 0.3090757 0.0165404
0.4732394 0.3142538 0.0174935
0.5055375 0.3189552 0.0182556
0.5303585 0.3242414 0.0206756
0.5551205 0.3292802 0.0229383
0.5799424 0.3341595 0.0252544
0.6052226 0.3393703 0.0285767
0.6306465 0.3447976 0.0325233
0.6553207 0.3498274 0.0358335
0.6789809 0.3543129 0.0380946
0.7064732 0.3597427 0.0412109
0.7431005 0.3655342 0.0408883
0.7779645 0.3710953 0.0396254
0.8057707 0.3765633 0.0356164
0.8334787 0.3822907 0.0317068
0.8595852 0.3878901 0.0309121
0.8853034 0.3937060 0.0296097
0.9104515 0.4005540 0.0302792
0.9273628 0.4052097 0.0306278
0.0196552 0.3420535 0.0015783
0.0515843 0.3402445 0.0023634
0.0836571 0.3383311 0.0036553
0.1156600 0.3363494 0.0055974
0.1473637 0.3343076 0.0085132
0.1784877 0.3323778 0.0124022
0.2080853 0.3307924 0.0162209
0.2360496 0.3298078 0.0198456
0.2635161 0.3295236 0.0224737
0.2916424 0.3300907 0.0234555
0.3194968 0.3309232 0.0240457
0.3413538 0.3243991 0.0230567
0.3733110 0.3272449 0.0213350
0.4054387 0.3302062 0.0190423
0.4379686 0.3334852 0.0167618
0.4719226 0.3377236 0.0169236
0.5043295 0.3415630 0.0169726
0.5288289 0.3459241 0.0187442
0.5533264 0.3501349 0.0204459
0.5779825 0.3544546 0.0226146
0.6037518 0.3605198 0.0281516
0.6296708 0.3668109 0.0343210
0.6548141 0.3727602 0.0397454
0.6784477 0.3778423 0.0428418
0.7058539 0.3835633 0.0458076
0.7425307 0.3895021 0.0457944
0.7777559 0.3955443 0.0460885
0.8059396 0.4007976 0.0428564
0.8337844 0.4060339 0.0402037
0.8592332 0.4116998 0.0361805
0.8845021 0.4175958 0.0319097
0.9101162 0.4249747 0.0320821
0.9273409 0.4299862 0.0320964
0.0203491 0.3741822 0.0009041
0.0523077 0.3723141 0.0015203
0.0843877 0.3703276 0.0026607
0.1164060 0.3682155 0.0043804
0.1483051 0.3659867 0.0071033
0.1798583 0.3637429 0.0107524
0.2100944 0.3616437 0.0148678
0.2389317 0.3599355 0.0191698
0.2669100 0.3591021 0.0219493
0.2949071 0.3593128 0.0229544
0.3225962 0.3595621 0.0232580
0.3503341 0.3589834 0.0218053
0.3713582 0.3522050 0.0208531
0.4036926 0.3549202 0.0188839
0.4366962 0.3581290 0.0169481
0.4707226 0.3614047 0.0164095
0.5031601 0.3644875 0.0157670
0.5272534 0.3682357 0.0168638
0.5514738 0.3720553 0.0180533
0.5758855 0.3760355 0.0196014
0.6015495 0.3821035 0.0248560
0.6271277 0.3878582 0.0296486
0.6521119 0.3932208 0.0336434
0.6760954 0.3983547 0.0369793
0.7041426 0.4043855 0.0412625
0.7415403 0.4119080 0.0459307
0.7774033 0.4194224 0.0511415
0.8059250 0.4245189 0.0500395
0.8341303 0.4295948 0.0489591
0.8589239 0.4353214 0.0417317
0.8836349 0.4412455 0.0342404
0.9096525 0.4488862 0.0336394
0.9270463 0.4539156 0.0331655
0.0209989 0.4063873 0.0003441
0.0529550 0.4044866 0.0006914
0.0850017 0.4024769 0.0015921
0.1169893 0.4003335 0.0030341
0.1488458 0.3980752 0.0052929
0.1803755 0.3957588 0.0082325
0.2110097 0.3935175 0.0119277
0.2406619 0.3914860 0.0160980
0.2694039 0.3902237 0.0192287
0.2980312 0.3898407 0.0212825
0.3260820 0.3894616 0.0220446
0.3537642 0.3887776 0.0210293
0.3814820 0.3884210 0.0198183
0.4025515 0.3804502 0.0185690
0.4352465 0.3832447 0.0164192
0.4689446 0.3862383 0.0153100
0.5011630 0.3893673 0.0142994
0.5252011 0.3925726 0.0149396
0.5494321 0.3958836 0.0157513
0.5737597 0.3991939 0.0165903
0.5990357 0.4041357 0.0202150
0.6242343 0.4087807 0.0233783
0.6491805 0.4134006 0.0265171
0.6737006 0.4187767 0.0309838
0.7023772 0.4250981 0.0365809
0.7405138 0.4340720 0.0456495
0.7765730 0.4426137 0.0535051
0.8049688 0.4471123 0.0516366
0.8332788 0.4518056 0.0499806
0.8578286 0.4570134 0.0407156
0.8826302 0.4622729 0.0327075
0.9086205 0.4701483 0.0325580
0.9260028 0.4754866 0.0326279
0.0216992 0.4386655 0.0000586
0.0536469 0.4367288 0.0001872
0.0856563 0.4346888 0.0007580
0.1176060 0.4325058 0.0017668
0.1493915 0.4302046 0.0035056
0.1808447 0.4278087 0.0057319
0.2117824 0.4254789 0.0088719
0.2420889 0.4233133 0.0125887
0.2715786 0.4217895 0.0161304
0.3010351 0.4209017 0.0193954
0.3295849 0.4200760 0.0207807
0.3574064 0.4193209 0.0203876
0.3852589 0.4186101 0.0193149
0.4136241 0.4174540 0.0169669
0.4339323 0.4089634 0.0155719
0.4672879 0.4115695 0.0141247
0.4993366 0.4145127 0.0128327
0.5232906 0.4171694 0.0130487
0.5475084 0.4199150 0.0134852
0.5717960 0.4226172 0.0138141
0.5965723 0.4266257 0.0159612
0.6213286 0.4306257 0.0180458
0.6460396 0.4348832 0.0206034
0.6706091 0.4403628 0.0253384
0.6990833 0.4464350 0.0303647
0.7370663 0.4548480 0.0372472
0.7734582 0.4627466 0.0431465
0.8023461 0.4677509 0.0433503
0.8313627 0.4729184 0.0442202
0.8563909 0.4779551 0.0370491
0.8816124 0.4829135 0.0307473
0.9075819 0.4912391 0.0314022
0.9249510 0.4968806 0.0320126
0.0224431 0.4710073 0.0000172
0.0543887 0.4690508 0.0000587
0.0863775 0.4670038 0.0002703
0.1183191 0.4648176 0.0006745
0.1501125 0.4625210 0.0019467
0.1816237 0.4601125 0.0037324
0.2127031 0.4577241 0.0062497
0.2432401 0.4554142 0.0091830
0.2731536 0.4536086 0.0122222
0.3031887 0.4522535 0.0153704
0.3322885 0.4509868 0.0169822
0.3606193 0.4499612 0.0174017
0.3888596 0.4488466 0.0166746
0.4172163 0.4475012 0.0146253
0.4457139 0.4465725 0.0127907
0.4661464 0.4375087 0.0126337
0.4978392 0.4401337 0.0111854
0.5214536 0.4424598 0.0111112
0.5452965 0.4449942 0.0113041
0.5691331 0.4476494 0.0114325
0.5936244 0.4511963 0.0131486
0.6181655 0.4547845 0.0148901
0.6426762 0.4584858 0.0167958
0.6670171 0.4630863 0.0202078
0.6952349 0.4681590 0.0236999
0.7334727 0.4755835 0.0285004
0.7702749 0.4827773 0.0325825
0.7996967 0.4882822 0.0348836
0.8291900 0.4939916 0.0379606
0.8545049 0.4990551 0.0331076
0.8800768 0.5039638 0.0289640
0.9059798 0.5119288 0.0296006
0.9233762 0.5171370 0.0300964
0.0232785 0.5034108 0.0000000
0.0552153 0.5014306 0.0000000
0.0871766 0.4993716 0.0000032
0.1190991 0.4971759 0.0000088
0.1508799 0.4948720 0.0007417
0.1824133 0.4924418 0.0019222
0.2135753 0.4899925 0.0036891
0.2442623 0.4875586 0.0057425
0.2745000 0.4854936 0.0080905
0.3049802 0.4837368 0.0106838
0.3346280 0.4820931 0.0123698
0.3635839 0.4807424 0.0134629
0.3922989 0.4793199 0.0131448
0.4208438 0.4779427 0.0117376
0.4495232 0.4768737 0.0104429
0.4786625 0.4760030 0.0093888
0.4966936 0.4663361 0.0093806
0.5198207 0.4683165 0.0091389
0.5432191 0.4705587 0.0091290
0.5666415 0.4729831 0.0090537
0.5908321 0.4760226 0.0103623
0.6151386 0.4791499 0.0117634
0.6394360 0.4823190 0.0131432
0.6635189 0.4860500 0.0152595
0.6913415 0.4904832 0.0175539
0.7294817 0.4975718 0.0212911
0.7662204 0.5047291 0.0250538
0.7955860 0.5104811 0.0280702
0.8248176 0.5160266 0.0308485
0.8512247 0.5208520 0.0286807
0.8777655 0.5255061 0.0270490
0.9040129 0.5324492 0.0274578
0.9216019 0.5370473 0.0277790
0.0239103 0.5264130 0.0000000
0.0558493 0.5244222 0.0000000
0.0878020 0.5223634 0.0000017
0.1197245 0.5201728 0.0000047
0.1515175 0.5178764 0.0004242
0.1830938 0.5154477 0.0011219
0.2143370 0.5129862 0.0024292
0.2451509 0.5105114 0.0040144
0.2755421 0.5082981 0.0059254
0.3062112 0.5062840 0.0080264
0.3361527 0.5043782 0.0094764
0.3654681 0.5027754 0.0106337
0.3944929 0.5011447 0.0104955
0.4232301 0.4996944 0.0095431
0.4520564 0.4984861 0.0085896
0.4811076 0.4974768 0.0076701
0.5086875 0.4968779 0.0069819
0.5188389 0.4869753 0.0077253
0.5419313 0.4889512 0.0075886
0.5650904 0.4911803 0.0074097
0.5890128 0.4939372 0.0084501
0.6130255 0.4968814 0.0095871
0.6369796 0.4999429 0.0106381
0.6607258 0.5035510 0.0124285
0.6882189 0.5077485 0.0143404
0.7262674 0.5143777 0.0175754
0.7630573 0.5210775 0.0209142
0.7925040 0.5264729 0.0235041
0.8217378 0.5316678 0.0258481
0.8488573 0.5363019 0.0253969
0.8760807 0.5407675 0.0255433
0.9026097 0.5470210 0.0259578
0.9203333 0.5511838 0.0261560
0.0245407 0.5488691 0.0000000
0.0564737 0.5468626 0.0000000
0.0884123 0.5447981 0.0000001
0.1203334 0.5426109 0.0000006
0.1521337 0.5403192 0.0000904
0.1837432 0.5378912 0.0003155
0.2150524 0.5354192 0.0011704
0.2459729 0.5329113 0.0022934
0.2765014 0.5305658 0.0038125
0.3073422 0.5283454 0.0055289
0.3375424 0.5262290 0.0067563
0.3671496 0.5243997 0.0078035
0.3964491 0.5225793 0.0077926
0.4254019 0.5210096 0.0072438
0.4543961 0.5196454 0.0066058
0.4834440 0.5185254 0.0059103
0.5110348 0.5178044 0.0054211
0.5312431 0.5174428 0.0053566
0.5409921 0.5071478 0.0061351
0.5638722 0.5091831 0.0058977
0.5873966 0.5117197 0.0066448
0.6110273 0.5144793 0.0074849
0.6346211 0.5173709 0.0082112
0.6580732 0.5207378 0.0096811
0.6852369 0.5246830 0.0112218
0.7231626 0.5308487 0.0139661
0.7599963 0.5370824 0.0168945
0.7895190 0.5421154 0.0190750
0.8187517 0.5469573 0.0209980
0.8464683 0.5516400 0.0221081
0.8741446 0.5564484 0.0234366
0.9008296 0.5626109 0.0243093
0.9186244 0.5667258 0.0251373
0.0252433 0.5713763 0.0000000
0.0571746 0.5693682 0.0000000
0.0891065 0.5672991 0.0000000
0.1210240 0.5651020 0.0000000
0.1528251 0.5628036 0.0000000
0.1844550 0.5603668 0.0000000
0.2158081 0.5578754 0.0004308
0.2468062 0.5553301 0.0010222
0.2774392 0.5528601 0.0019805
0.3084149 0.5504392 0.0031189
0.3388539 0.5481208 0.0040130
0.3687457 0.5460873 0.0049445
0.3983134 0.5441257 0.0051343
0.4274877 0.5424580 0.0049934
0.4566329 0.5409609 0.0046471
0.4856906 0.5397405 0.0041773
0.5132831 0.5388908 0.0038279
0.5333797 0.5384241 0.0036937
0.5534151 0.5381240 0.0035471
0.5627758 0.5274321 0.0043675
0.5858952 0.5297115 0.0048389
0.6091300 0.5322516 0.0053839
0.6323475 0.5349589 0.0058119
0.6554972 0.5380527 0.0069433
0.6823230 0.5417208 0.0081151
0.7200974 0.5474103 0.0103783
0.7569328 0.5534089 0.0131576
0.7864895 0.5584184 0.0152831
0.8157342 0.5633803 0.0173009
0.8438244 0.5682185 0.0189069
0.8718820 0.5730718 0.0206546
0.8988993 0.5787085 0.0225292
0.9168710 0.5824303 0.0240930
0.0259460 0.5938832 0.0000000
0.0578758 0.5918734 0.0000000
0.0898043 0.5898005 0.0000000
0.1217281 0.5875992 0.0000000
0.1535410 0.5852992 0.0000000
0.1852036 0.5828601 0.0000000
0.2166115 0.5803556 0.0002490
0.2476973 0.5777823 0.0006059
0.2784505 0.5752464 0.0012186
0.3095823 0.5727217 0.0019757
0.3402139 0.5702675 0.0025695
0.3703133 0.5680453 0.0031551
0.4000939 0.5659065 0.0032720
0.4294581 0.5640839 0.0032433
0.4587485 0.5624315 0.0030411
0.4878524 0.5610917 0.0027421
0.5154642 0.5600931 0.0025028
0.5354834 0.5595180 0.0023684
0.5554299 0.5591136 0.0022255
0.5754772 0.5589254 0.0023407
0.5845224 0.5479445 0.0030491
0.6074057 0.5502272 0.0034517
0.6303366 0.5527337 0.0037969
0.6532850 0.5555987 0.0047652
0.6799227 0.5590983 0.0057573
0.7174582 0.5646083 0.0077364
0.7538522 0.5703373 0.0099880
0.7834402 0.5751710 0.0118994
0.8127312 0.5799775 0.0137552
0.8411766 0.5848090 0.0156781
0.8696123 0.5896969 0.0178463
0.8969661 0.5948423 0.0206780
0.9151129 0.5981665 0.0229770
0.0266793 0.6163996 0.0000000
0.0586008 0.6143853 0.0000000
0.0905183 0.6123055 0.0000000
0.1224393 0.6100963 0.0000000
0.1542541 0.6077897 0.0000000
0.1859445 0.6053470 0.0000000
0.2173989 0.6028289 0.0000540
0.2485613 0.6002301 0.0001749
0.2794205 0.5976324 0.0004290
0.3106930 0.5950142 0.0007997
0.3415086 0.5924488 0.0011485
0.3718097 0.5900855 0.0015252
0.4017860 0.5878063 0.0016621
0.4313240 0.5858332 0.0017228
0.4607536 0.5840335 0.0016623
0.4899293 0.5825657 0.0015341
0.5175765 0.5814068 0.0014293
0.5375489 0.5807216 0.0013635
0.5574371 0.5802095 0.0012882
0.5774206 0.5799187 0.0014037
0.5974491 0.5798159 0.0016331
0.6061266 0.5684357 0.0023848
0.6287800 0.5707348 0.0025809
0.6514540 0.5733986 0.0031716
0.6777905 0.5767081 0.0037302
0.7148867 0.5819160 0.0051078
0.7508303 0.5873482 0.0068341
0.7804190 0.5919856 0.0085183
0.8097522 0.5966211 0.0102144
0.8385284 0.6014230 0.0124209
0.8673388 0.6063344 0.0150112
0.8950508 0.6110998 0.0186208
0.9134222 0.6142992 0.0211913
0.0274597 0.6389306 0.0000000
0.0593812 0.6369133 0.0000000
0.0912955 0.6348306 0.0000000
0.1232206 0.6326200 0.0000000
0.1550427 0.6303129 0.0000000
0.1867493 0.6278654 0.0000000
0.2182352 0.6253342 0.0000000
0.2494552 0.6227108 0.0000000
0.2803972 0.6200585 0.0000000
0.3117848 0.6173526 0.0000000
0.3427561 0.6146783 0.0000000
0.3732366 0.6121741 0.0000000
0.4033925 0.6097685 0.0000573
0.4331010 0.6076640 0.0002073
0.4626606 0.6057455 0.0003018
0.4919133 0.6041652 0.0003458
0.5195865 0.6028533 0.0003654
0.5395190 0.6020629 0.0003688
0.5593564 0.6014461 0.0003616
0.5792671 0.6010467 0.0004154
0.5991627 0.6008215 0.0004862
0.6190040 0.6007428 0.0005484
0.6273293 0.5889618 0.0013573
0.6497172 0.5913922 0.0015822
0.6757406 0.5944783 0.0017084
0.7123863 0.5993515 0.0024878
0.7478699 0.6044573 0.0036915
0.7774297 0.6088761 0.0051366
0.8070217 0.6134525 0.0070325
0.8361895 0.6183162 0.0094282
0.8652473 0.6232900 0.0118416
0.8933044 0.6281252 0.0152603
0.9119025 0.6313428 0.0178845
0.0282403 0.6614613 0.0000000
0.0601618 0.6594408 0.0000000
0.0920731 0.6573542 0.0000000
0.1240020 0.6551413 0.0000000
0.1558312 0.6528325 0.0000000
0.1875603 0.6503845 0.0000000
0.2190828 0.6478472 0.0000000
0.2503643 0.6452113 0.0000000
0.2813909 0.6425298 0.0000000
0.3128945 0.6397745 0.0000000
0.3440068 0.6370324 0.0000000
0.3746475 0.6344329 0.0000000
0.4049622 0.6319104 0.0000000
0.4348222 0.6296601 0.0000000
0.4645049 0.6275885 0.0000000
0.4938423 0.6258588 0.0000000
0.5215597 0.6243974 0.0000000
0.5414816 0.6235122 0.0000000
0.5612976 0.6227984 0.0000000
0.5811618 0.6222915 0.0000000
0.6009706 0.6219498 0.0000000
0.6207177 0.6217586 0.0000000
0.6403513 0.6217244 0.0000144
0.6480906 0.6096069 0.0000279
0.6738741 0.6124394 0.0000610
0.7102750 0.6169909 0.0009034
0.7456634 0.6218758 0.0022460
0.7754023 0.6262343 0.0036497
0.8049543 0.6307186 0.0048828
0.8341398 0.6354731 0.0067019
0.8632199 0.6403522 0.0086234
0.8915593 0.6451737 0.0118941
0.9103818 0.6484026 0.0145729
0.0290539 0.6840002 0.0000000
0.0609708 0.6819754 0.0000000
0.0928737 0.6798840 0.0000000
