presets/series/movie/series-movie-honey-hour/look.cube
# Approximate v0 colour conversion; calibrate before claiming visual parity.
LUT_3D_SIZE 5
DOMAIN_MIN 0 0 0
DOMAIN_MAX 1 1 1
0.0143048 0.0109070 0.0004883
0.2329487 0.0208196 0.0070931
0.4616162 0.0328652 0.0064444
0.6934108 0.0465910 0.0072352
0.8687956 0.0510896 0.0176908
0.0421367 0.2519481 0.0101991
0.2736013 0.2551148 0.0169282
0.5182980 0.2306011 0.0190253
0.7375955 0.2192075 0.0058374
0.9048462 0.2204644 0.0131680
0.0596528 0.5235372 0.0142767
0.3354656 0.5353380 0.0306011
0.5376402 0.4994004 0.0393535
0.7711910 0.4489386 0.0126828
0.9535494 0.4217694 0.0238602
0.0686855 0.7713957 0.0119964
0.3102615 0.7622369 0.0165053
0.5704621 0.7555680 0.0301604
0.7802564 0.7164416 0.0269930
0.9748568 0.6768998 0.0285944
0.0765378 1.0000000 0.0097943
0.3102063 0.9985069 0.0112011
0.5633939 0.9919803 0.0144266
0.8201977 0.9902526 0.0188005
0.9987585 0.9496086 0.0289330
0.0899731 0.1205441 0.1872415
0.1687591 0.0778257 0.1501847
0.3897058 0.0625664 0.1854473
0.6107422 0.0380908 0.1704739
0.8185274 0.0256641 0.1336127
0.0339211 0.2733937 0.1777360
0.2593307 0.2627489 0.2330417
0.4491728 0.2025057 0.1795200
0.6664283 0.1906685 0.1670740
0.8612465 0.1795042 0.1473945
0.0401642 0.5429821 0.1768973
0.2209908 0.5262809 0.1761102
0.5253519 0.5038566 0.1934305
0.7321569 0.4178118 0.1515269
0.9122788 0.3717297 0.1389489
0.0445956 0.7866006 0.1725644
0.1801835 0.7708137 0.1184744
0.5019770 0.7530415 0.1616692
0.7719218 0.7285646 0.1785811
0.9564892 0.6437507 0.1544457
0.0458636 1.0000000 0.1638854
0.1365033 1.0000000 0.0626171
0.4516882 0.9961501 0.1006176
0.7686133 0.9902630 0.1468185
0.9988626 0.9616707 0.1629204
0.1717025 0.2501619 0.4231662
0.2292223 0.1502669 0.3644292
0.3603522 0.1314301 0.3381867
0.5588073 0.1300519 0.3772118
0.7554308 0.1090040 0.3865681
0.1095075 0.4949172 0.5401575
0.2909483 0.3522978 0.4330972
0.3642734 0.2489327 0.3394724
0.5729974 0.2392143 0.3670102
0.7835777 0.2214206 0.3723972
0.0469393 0.5639004 0.3835411
0.2485323 0.5511321 0.4391980
0.4982118 0.4963358 0.4669700
0.6362466 0.3985656 0.3744781
0.8439667 0.3880430 0.3771686
0.0498525 0.8039988 0.3479595
0.1920175 0.7928099 0.3565111
0.4445921 0.7542010 0.4016594
0.7554426 0.7319937 0.4317776
0.9233266 0.6394005 0.3827144
0.0513336 0.9972531 0.3293873
0.1286110 0.9981732 0.2863467
0.4027403 0.9951025 0.3449051
0.7290609 0.9912023 0.3980954
0.9991034 0.9768681 0.4281270
0.2407789 0.3568026 0.6337390
0.2674207 0.2189600 0.5791027
0.3947104 0.2042995 0.5358243
0.5262029 0.1834594 0.5140583
0.7222081 0.1884343 0.5639715
0.2029964 0.5559204 0.7064132
0.3600838 0.4552367 0.6348043
0.4074447 0.3316214 0.5554862
0.5307744 0.2979152 0.5119499
0.7241939 0.2979132 0.5530264
0.1309706 0.7496895 0.7260787
0.3267654 0.6965942 0.7375402
0.4902157 0.5536884 0.6335128
0.5312177 0.4118640 0.5054894
0.7387405 0.4132548 0.5452324
0.0672374 0.8019160 0.5444418
0.2564827 0.7990029 0.5999247
0.5017258 0.7880832 0.6770673
0.7841624 0.7910051 0.7644073
0.8399319 0.6158684 0.5996773
0.0625573 0.9912997 0.4895724
0.1767324 0.9905584 0.4978219
0.4202666 0.9853946 0.5718224
0.6899029 0.9872115 0.6569802
0.9986695 0.9904440 0.7194760
0.3005360 0.4455719 0.8252931
0.3038190 0.2877129 0.7810363
0.4275779 0.2674121 0.7362619
0.5561364 0.2540760 0.7038636
0.6888216 0.2340289 0.6876188
0.2759943 0.6125220 0.8700783
0.4181472 0.5319108 0.8127585
0.4410435 0.3940065 0.7599730
0.5649819 0.3721996 0.7103646
0.6934961 0.3483387 0.6854968
0.2232555 0.8169722 0.9266687
0.4005256 0.7204629 0.8734383
0.5326244 0.6172882 0.7931123
0.5831512 0.5036683 0.7296028
0.6982238 0.4661661 0.6829656
0.1146202 0.9735514 0.8727459
0.3344347 0.9710927 0.9418415
0.5618077 0.8922357 0.9298425
0.7194731 0.7652300 0.8366085
0.7014836 0.5846181 0.6769549
0.0861663 0.9804359 0.6683525
0.2479312 0.9780110 0.7138523
0.4723681 0.9729861 0.7825938
0.7345702 0.9765770 0.8697408
0.9940914 1.0000000 0.9812319
