presets/series/movie/series-movie-honey-hour/look.cube
# Approximate v0 colour conversion; calibrate before claiming visual parity.
LUT_3D_SIZE 9
DOMAIN_MIN 0 0 0
DOMAIN_MAX 1 1 1
0.0143048 0.0109070 0.0004883
0.1131687 0.0144545 0.0043401
0.2329487 0.0208196 0.0070931
0.3466801 0.0266617 0.0084729
0.4616162 0.0328652 0.0064444
0.5865140 0.0444203 0.0051867
0.6934108 0.0465910 0.0072352
0.7834954 0.0441059 0.0105116
0.8687956 0.0510896 0.0176908
0.0187673 0.1117742 0.0039495
0.1197882 0.1107714 0.0052024
0.2495413 0.1168260 0.0112850
0.3699829 0.1174701 0.0176684
0.4837899 0.1175119 0.0166157
0.6039856 0.1219028 0.0106421
0.7089546 0.1226059 0.0072689
0.7966944 0.1192425 0.0071068
0.8803365 0.1231658 0.0107361
0.0421367 0.2519481 0.0101991
0.1726691 0.2680749 0.0119395
0.2736013 0.2551148 0.0169282
0.3909683 0.2360859 0.0095172
0.5182980 0.2306011 0.0190253
0.6350105 0.2247112 0.0130182
0.7375955 0.2192075 0.0058374
0.8252298 0.2172801 0.0095833
0.9048462 0.2204644 0.0131680
0.0529960 0.3930703 0.0127493
0.1876686 0.4018000 0.0157582
0.3277104 0.4173782 0.0256355
0.4143752 0.3900752 0.0306626
0.5349907 0.3574976 0.0153690
0.6537268 0.3414593 0.0125934
0.7557784 0.3282711 0.0124806
0.8542775 0.3198881 0.0105671
0.9355800 0.3168253 0.0126008
0.0596528 0.5235372 0.0142767
0.1846873 0.5241159 0.0172264
0.3354656 0.5353380 0.0306011
0.4588668 0.5356873 0.0448178
0.5376402 0.4994004 0.0393535
0.6560714 0.4662964 0.0135002
0.7711910 0.4489386 0.0126828
0.8641345 0.4323677 0.0237706
0.9535494 0.4217694 0.0238602
0.0644305 0.6483762 0.0136646
0.1836216 0.6449167 0.0157192
0.3173038 0.6445215 0.0229452
0.4564351 0.6431283 0.0407104
0.5739877 0.6387883 0.0482713
0.6600495 0.6024073 0.0305053
0.7660964 0.5707795 0.0202121
0.8768903 0.5551554 0.0210605
0.9617779 0.5391384 0.0311632
0.0686855 0.7713957 0.0119964
0.1846782 0.7661954 0.0131923
0.3102615 0.7622369 0.0165053
0.4416315 0.7586637 0.0234330
0.5704621 0.7555680 0.0301604
0.6953440 0.7561757 0.0249229
0.7802564 0.7164416 0.0269930
0.8780305 0.6852670 0.0328899
0.9748568 0.6768998 0.0285944
0.0728520 0.8944826 0.0104615
0.1871817 0.8887030 0.0111328
0.3090221 0.8838611 0.0126621
0.4361016 0.8798789 0.0151773
0.5650992 0.8780793 0.0175470
0.6934218 0.8796435 0.0184443
0.8190492 0.8844571 0.0210110
0.8943155 0.8410705 0.0268396
0.9792451 0.8151299 0.0356263
0.0765378 1.0000000 0.0097943
0.1901339 1.0000000 0.0102431
0.3102063 0.9985069 0.0112011
0.4352586 0.9947971 0.0127183
0.5633939 0.9919803 0.0144266
0.6924117 0.9904433 0.0161571
0.8201977 0.9902526 0.0188005
0.9452237 0.9909900 0.0227307
0.9987585 0.9496086 0.0289330
0.0477614 0.0632249 0.0846539
0.0906715 0.0412928 0.0684306
0.1895307 0.0408878 0.0859641
0.3045010 0.0281779 0.0865440
0.4178835 0.0217000 0.0827247
0.5355668 0.0261197 0.0796593
0.6440619 0.0280093 0.0737290
0.7429749 0.0305497 0.0745192
0.8374622 0.0352878 0.0771822
0.0262628 0.1279210 0.0753607
0.1339920 0.1355446 0.1078894
0.2183136 0.1056158 0.0825255
0.3360523 0.1013612 0.0813881
0.4499962 0.0951098 0.0771965
0.5650529 0.0932444 0.0639656
0.6732332 0.0882305 0.0526699
0.7709770 0.0813250 0.0448011
0.8619690 0.0789257 0.0420638
0.0332476 0.2600307 0.0813107
0.1188801 0.2531620 0.0829332
0.2633732 0.2552039 0.0939089
0.3730580 0.2182023 0.0738542
0.4962301 0.2010213 0.0703313
0.6065192 0.1839797 0.0514431
0.7113232 0.1714296 0.0309323
0.8000086 0.1598474 0.0206152
0.8813060 0.1531768 0.0137232
0.0379339 0.4014450 0.0857814
0.1093629 0.3958604 0.0583720
0.2860698 0.4077813 0.0790930
0.4050926 0.3879364 0.0916257
0.5099834 0.3364075 0.0609626
0.6383115 0.3129155 0.0540263
0.7448006 0.2881267 0.0325518
0.8358107 0.2669019 0.0173729
0.9164838 0.2563276 0.0127819
0.0416582 0.5311534 0.0857296
0.0894084 0.5241663 0.0322864
0.2618101 0.5276239 0.0558531
0.4305075 0.5323761 0.0908192
0.5325026 0.5021669 0.0908583
0.6446376 0.4505237 0.0553906
0.7605598 0.4208473 0.0408548
0.8574144 0.3914126 0.0303312
0.9474684 0.3694053 0.0158846
0.0433320 0.6554978 0.0823438
0.0677453 0.6485917 0.0136835
0.2289434 0.6449181 0.0237291
0.4031723 0.6434420 0.0586870
0.5498499 0.6376920 0.0860093
0.6564397 0.6074305 0.0763345
0.7638880 0.5613720 0.0517179
0.8712272 0.5290989 0.0370665
0.9541350 0.4953732 0.0368578
0.0440940 0.7781794 0.0775294
0.0649811 0.7715998 0.0119785
0.2049120 0.7654766 0.0135191
0.3674182 0.7608719 0.0190277
0.5281526 0.7560067 0.0484863
0.6733544 0.7553276 0.0600357
0.7784868 0.7225578 0.0623999
0.8752852 0.6754237 0.0548617
0.9718467 0.6479014 0.0334846
0.0444974 0.9011654 0.0727250
0.0692606 0.8946920 0.0104516
0.2030699 0.8880098 0.0112668
0.3467454 0.8825602 0.0133176
0.5009616 0.8786429 0.0165044
0.6551384 0.8787829 0.0312782
0.7987522 0.8832366 0.0444991
0.8936313 0.8467609 0.0518674
0.9786795 0.8052891 0.0471037
0.0446348 1.0000000 0.0678823
0.0730332 1.0000000 0.0097884
0.2033265 1.0000000 0.0103150
0.3417697 0.9974905 0.0115342
0.4861977 0.9935422 0.0134051
0.6355884 0.9909773 0.0153493
0.7856836 0.9902341 0.0233668
0.9269419 0.9908337 0.0360167
0.9988108 0.9536952 0.0425099
0.0899731 0.1205441 0.1872415
0.1144685 0.0820517 0.1601656
0.1687591 0.0778257 0.1501847
0.2772450 0.0762170 0.1776884
0.3897058 0.0625664 0.1854473
0.5014381 0.0497930 0.1828766
0.6107422 0.0380908 0.1704739
0.7183413 0.0260599 0.1473399
0.8185274 0.0256641 0.1336127
0.0653115 0.2411021 0.2511074
0.1451035 0.1642377 0.1853375
0.1736025 0.1255832 0.1501441
0.2812345 0.1295114 0.1738591
0.4120911 0.1166868 0.1783104
0.5257024 0.1088320 0.1740556
0.6329721 0.1032741 0.1649412
0.7370506 0.0962277 0.1518929
0.8347584 0.0911078 0.1406213
0.0339211 0.2733937 0.1777360
0.1273716 0.2692601 0.2049309
0.2593307 0.2627489 0.2330417
0.3290809 0.2117534 0.1869130
0.4491728 0.2025057 0.1795200
0.5628907 0.1982256 0.1773608
0.6664283 0.1906685 0.1670740
0.7661672 0.1837203 0.1555858
0.8612465 0.1795042 0.1473945
0.0355879 0.4155636 0.1768495
0.1043412 0.4121595 0.1808949
0.2319952 0.3999829 0.2017708
0.3825669 0.3724221 0.2031663
0.4911560 0.3312666 0.1815814
0.6026991 0.3062982 0.1652939
0.7059713 0.2885812 0.1560705
0.8005867 0.2712445 0.1414366
0.8923395 0.2593609 0.1282716
0.0401642 0.5429821 0.1768973
0.0805623 0.5354193 0.1501439
0.2209908 0.5262809 0.1761102
0.3880302 0.5157204 0.1921280
0.5253519 0.5038566 0.1934305
0.6219017 0.4468435 0.1656574
0.7321569 0.4178118 0.1515269
0.8317943 0.3926001 0.1387248
0.9122788 0.3717297 0.1389489
0.0429145 0.6653207 0.1753084
0.0532162 0.6579370 0.1173459
0.2020851 0.6487200 0.1481156
0.3648235 0.6389280 0.1687023
0.5230226 0.6278353 0.1871033
0.6469484 0.6124383 0.1849024
0.7510520 0.5636708 0.1599368
0.8493669 0.5287414 0.1490516
0.9331277 0.4985266 0.1425486
0.0445956 0.7866006 0.1725644
0.0441479 0.7799145 0.0999402
0.1801835 0.7708137 0.1184744
0.3391764 0.7618230 0.1385628
0.5019770 0.7530415 0.1616692
0.6540570 0.7497026 0.1777902
0.7719218 0.7285646 0.1785811
0.8672670 0.6804121 0.1669433
0.9564892 0.6437507 0.1544457
0.0456076 0.9087598 0.1697514
0.0446629 0.9025088 0.0922240
0.1579762 0.8939484 0.0893134
0.3142453 0.8854594 0.1080956
0.4757816 0.8789084 0.1294934
0.6351713 0.8765062 0.1523697
0.7833744 0.8799490 0.1678916
0.8906679 0.8543636 0.1732248
0.9748711 0.8063915 0.1624422
0.0458636 1.0000000 0.1638854
0.0447928 1.0000000 0.0850409
0.1365033 1.0000000 0.0626171
0.2919472 1.0000000 0.0810450
0.4516882 0.9961501 0.1006176
0.6136185 0.9920815 0.1249644
0.7686133 0.9902630 0.1468185
0.9134953 0.9904595 0.1603686
0.9988626 0.9616707 0.1629204
0.1316562 0.1895220 0.3090217
0.1430205 0.1194074 0.2750029
0.2010400 0.1140308 0.2502472
0.2665535 0.1048433 0.2446251
0.3768696 0.1064399 0.2744830
0.4781150 0.0983500 0.2833856
0.5793159 0.0861937 0.2850002
0.6817381 0.0733478 0.2810339
0.7838566 0.0615379 0.2731410
0.1067144 0.3056640 0.3709316
0.1878874 0.2375163 0.3129025
0.2063039 0.1701708 0.2594549
0.2658106 0.1590650 0.2422715
0.3812317 0.1629143 0.2724603
0.4904126 0.1518776 0.2782488
0.5939950 0.1404063 0.2776175
0.6984045 0.1300701 0.2730951
0.8015669 0.1212825 0.2657295
0.0611469 0.4444343 0.4212059
0.1712542 0.3658489 0.3776219
0.2433838 0.2789488 0.3071070
0.2666301 0.2116134 0.2405972
0.3891160 0.2215345 0.2708245
0.5121170 0.2131433 0.2749910
0.6171965 0.2047125 0.2725933
0.7223368 0.1985874 0.2687827
0.8251822 0.1931189 0.2632551
0.0386677 0.4298354 0.2888875
0.1297657 0.4281365 0.3166603
0.2442634 0.4096294 0.3419097
0.3825882 0.3846478 0.3547580
0.4383593 0.3177267 0.2909908
0.5466258 0.3029456 0.2771856
0.6528127 0.2955810 0.2753883
0.7560150 0.2895748 0.2716812
0.8560227 0.2837769 0.2673601
0.0408218 0.5550100 0.2714317
0.0998863 0.5519849 0.2731919
0.2231405 0.5408410 0.3038496
0.3450870 0.5162907 0.3147013
0.4891814 0.4761805 0.3101330
0.5974083 0.4400080 0.2915783
0.6922522 0.4012052 0.2571434
0.7929103 0.3900128 0.2575450
0.8884888 0.3766682 0.2593893
0.0437937 0.6759853 0.2636347
0.0692097 0.6707989 0.2377443
0.1992586 0.6603041 0.2703371
0.3301756 0.6414694 0.2874554
0.4897933 0.6175810 0.2977239
0.6288879 0.6041856 0.2981448
0.7229955 0.5533653 0.2773252
0.8248994 0.5255990 0.2628856
0.9104357 0.4983263 0.2509152
0.0462085 0.7959778 0.2600318
0.0451036 0.7905342 0.2097104
0.1720134 0.7803742 0.2358888
0.3126483 0.7660295 0.2601529
0.4722433 0.7502129 0.2781917
0.6305685 0.7397987 0.2946439
0.7622841 0.7300069 0.2987227
0.8574676 0.6826773 0.2834098
0.9458562 0.6455308 0.2681229
0.0477940 0.9173240 0.2584314
0.0462092 0.9117492 0.2018949
0.1438682 0.9025287 0.2021872
0.2922613 0.8904198 0.2318639
0.4502498 0.8792950 0.2521571
0.6117311 0.8728805 0.2728112
0.7661782 0.8745529 0.2928494
0.8878895 0.8626404 0.2994410
0.9720520 0.8146600 0.2823482
0.0479752 0.9993781 0.2498722
0.0463724 1.0000000 0.1915183
0.1158732 1.0000000 0.1687448
0.2700351 0.9997901 0.2041014
0.4285383 0.9990212 0.2261112
0.5890011 0.9938916 0.2462355
0.7493665 0.9904603 0.2706872
0.8993356 0.9901918 0.2877120
0.9989487 0.9693789 0.2895178
0.1717025 0.2501619 0.4231662
0.1715065 0.1627503 0.3892529
0.2292223 0.1502669 0.3644292
0.2918391 0.1423525 0.3465190
0.3603522 0.1314301 0.3381867
0.4651989 0.1340853 0.3663898
0.5588073 0.1300519 0.3772118
0.6557856 0.1205648 0.3837535
0.7554308 0.1090040 0.3865681
0.1572513 0.3547601 0.4712410
0.2290424 0.3003039 0.4278046
0.2366406 0.2168982 0.3826654
0.2965199 0.2028833 0.3529474
0.3651512 0.1903483 0.3405853
0.4664730 0.1902493 0.3624987
0.5636937 0.1836684 0.3719566
0.6643124 0.1733222 0.3771541
0.7669870 0.1625291 0.3789633
0.1095075 0.4949172 0.5401575
0.2144102 0.4117664 0.4792886
0.2909483 0.3522978 0.4330972
0.3022162 0.2707078 0.3697243
0.3642734 0.2489327 0.3394724
0.4700766 0.2475852 0.3594619
0.5729974 0.2392143 0.3670102
0.6781443 0.2297382 0.3710102
0.7835777 0.2214206 0.3723972
0.0615287 0.5665735 0.5033478
0.1779036 0.5710226 0.5468063
0.2876726 0.4934331 0.5051273
0.3482128 0.3870523 0.4181996
0.3574415 0.2997051 0.3299204
0.4773217 0.3079186 0.3557999
0.5926043 0.3025964 0.3641924
0.7010899 0.2967377 0.3676403
0.8081039 0.2925536 0.3696852
0.0469393 0.5639004 0.3835411
0.1307627 0.5632848 0.4092452
0.2485323 0.5511321 0.4391980
0.3667979 0.5310922 0.4614073
0.4982118 0.4963358 0.4669700
0.5381124 0.4126913 0.3860164
0.6362466 0.3985656 0.3744781
0.7358252 0.3871048 0.3675845
0.8439667 0.3880430 0.3771686
0.0476689 0.6841947 0.3595292
0.0956128 0.6824155 0.3592172
0.2222575 0.6752627 0.3935226
0.3406456 0.6553061 0.4184305
0.4569201 0.6231203 0.4278673
0.6034902 0.5891603 0.4274940
0.7024546 0.5498346 0.4061557
0.7815344 0.4976937 0.3547832
0.8833643 0.4965657 0.3755209
0.0498525 0.8039988 0.3479595
0.0616372 0.8010371 0.3210434
0.1920175 0.7928099 0.3565111
0.3177826 0.7776414 0.3862011
0.4445921 0.7542010 0.4016594
0.6109429 0.7362159 0.4204899
0.7554426 0.7319937 0.4317776
0.8267161 0.6657890 0.3986737
0.9233266 0.6394005 0.3827144
0.0517428 0.9253423 0.3439172
0.0496264 0.9216061 0.3024281
0.1612305 0.9127199 0.3240016
0.2910310 0.9004120 0.3532050
0.4251821 0.8846366 0.3734148
0.5881878 0.8717561 0.3982744
0.7497500 0.8690214 0.4245359
0.8852716 0.8696792 0.4370341
0.9675937 0.8202273 0.4177368
0.0513336 0.9972531 0.3293873
0.0493961 0.9984765 0.2860869
0.1286110 0.9981732 0.2863467
0.2596233 0.9968842 0.3163304
0.4027403 0.9951025 0.3449051
0.5659768 0.9944233 0.3725845
0.7290609 0.9912023 0.3980954
0.8854003 0.9898800 0.4228376
0.9991034 0.9768681 0.4281270
0.2087509 0.3062856 0.5312189
0.2098183 0.2194182 0.4995225
0.2503887 0.1859404 0.4729449
0.3128717 0.1779119 0.4507881
0.3769673 0.1694111 0.4352594
0.4446964 0.1575707 0.4264897
0.5489986 0.1605073 0.4573939
0.6393243 0.1595271 0.4701614
0.7343622 0.1530463 0.4806720
0.1964619 0.4032770 0.5695293
0.2650171 0.3546207 0.5324525
0.2646154 0.2622089 0.4929219
0.3179368 0.2408254 0.4611740
0.3808359 0.2290212 0.4393442
0.4479031 0.2152240 0.4268235
0.5484650 0.2162910 0.4521447
0.6412539 0.2135610 0.4646706
0.7395572 0.2059637 0.4746690
0.1652040 0.5147257 0.6129231
0.2534648 0.4643114 0.5836728
0.3292231 0.4082645 0.5377525
0.3294693 0.3144161 0.4848533
0.3857659 0.2918224 0.4468768
0.4509376 0.2739427 0.4268549
0.5483605 0.2723051 0.4460344
0.6452210 0.2681593 0.4590337
0.7480406 0.2603137 0.4688491
0.1201455 0.6297565 0.6376064
0.2181449 0.6037371 0.6447900
0.3211310 0.5316624 0.6000600
0.3929277 0.4576670 0.5381048
0.3941232 0.3611500 0.4630222
0.4493526 0.3302695 0.4222730
0.5492390 0.3282153 0.4386062
0.6536639 0.3244470 0.4534850
0.7625329 0.3185931 0.4639722
0.0717217 0.6751215 0.5725452
0.1776785 0.6845345 0.6171016
0.2918845 0.6728010 0.6454909
0.4015935 0.6111825 0.6213532
0.4510771 0.4871630 0.5179054
0.4424038 0.3814357 0.4139700
0.5583947 0.3885825 0.4364550
0.6735760 0.3890772 0.4513601
0.7880345 0.3888098 0.4629822
0.0561856 0.6854676 0.4659191
0.1313910 0.6855083 0.4889247
0.2525315 0.6816081 0.5250096
0.3719733 0.6680691 0.5552924
0.5063909 0.6641235 0.5959274
0.6178441 0.6181052 0.5902485
0.6336004 0.5093466 0.4845797
0.7353230 0.5019521 0.4824730
0.8314211 0.4894089 0.4738989
0.0561937 0.8072181 0.4431212
0.0925673 0.8065287 0.4404443
0.2211497 0.8020729 0.4762056
0.3450872 0.7925018 0.5098345
0.4657537 0.7769176 0.5407621
0.5855798 0.7484844 0.5590691
0.7305347 0.7171760 0.5614280
0.8221060 0.6760599 0.5388801
0.8861534 0.6201598 0.4843026
0.0579041 0.9304669 0.4322785
0.0568529 0.9292703 0.4036915
0.1876113 0.9232315 0.4397486
0.3145412 0.9138892 0.4745014
0.4393578 0.8989799 0.5060157
0.5698510 0.8805003 0.5299659
0.7409713 0.8704693 0.5686462
0.8912472 0.8802952 0.6104646
0.9670449 0.8286258 0.5644941
0.0560226 0.9946938 0.4076048
0.0537438 0.9958946 0.3752830
0.1499644 0.9948134 0.3937443
0.2749100 0.9928650 0.4293058
0.4023688 0.9905126 0.4629863
0.5401581 0.9898468 0.4927586
0.7101877 0.9918325 0.5313209
0.8730812 0.9902828 0.5659100
0.9993690 0.9842207 0.5763609
0.2407789 0.3568026 0.6337390
0.2434201 0.2718845 0.6047481
0.2674207 0.2189600 0.5791027
0.3312209 0.2118448 0.5547174
0.3947104 0.2042995 0.5358243
0.4590895 0.1954285 0.5219164
0.5262029 0.1834594 0.5140583
0.6327126 0.1867935 0.5494287
0.7222081 0.1884343 0.5639715
0.2283452 0.4496013 0.6675671
0.2984237 0.4050556 0.6339069
0.2999207 0.3157796 0.5986810
0.3373353 0.2761569 0.5678781
0.3997144 0.2653536 0.5428445
0.4627843 0.2540155 0.5242569
0.5285983 0.2403555 0.5132825
0.6313554 0.2425573 0.5438841
0.7227398 0.2430118 0.5585854
0.2029964 0.5559204 0.7064132
0.2873192 0.5063067 0.6762544
0.3600838 0.4552367 0.6348043
0.3572225 0.3591103 0.5911061
0.4074447 0.3316214 0.5554862
0.4671841 0.3147731 0.5280823
0.5307744 0.2979152 0.5119499
0.6297900 0.2985757 0.5376331
0.7241939 0.2979132 0.5530264
0.1718960 0.6568077 0.7265312
0.2602912 0.6260553 0.7247404
0.3515222 0.5641459 0.6838424
0.4234695 0.5053569 0.6342509
0.4209305 0.4072468 0.5797890
0.4731647 0.3787595 0.5356932
0.5325214 0.3555942 0.5101316
0.6283735 0.3546124 0.5304882
0.7280718 0.3536966 0.5477807
0.1309706 0.7496895 0.7260787
0.2325509 0.7191833 0.7279398
0.3267654 0.6965942 0.7375402
0.4152863 0.6168876 0.6843978
0.4902157 0.5536884 0.6335128
0.4831242 0.4491929 0.5529081
0.5312177 0.4118640 0.5054894
0.6286473 0.4112869 0.5234951
0.7387405 0.4132548 0.5452324
0.0846262 0.7827613 0.6431843
0.1864659 0.7788102 0.6742601
0.2990086 0.7756865 0.7082177
0.4090812 0.7740172 0.7472387
0.5062350 0.7059950 0.7156261
0.5601552 0.5958323 0.6263801
0.5274579 0.4637112 0.4963319
0.6404981 0.4751588 0.5240593
0.7670533 0.4873817 0.5529070
0.0672374 0.8019160 0.5444418
0.1329518 0.8004653 0.5629886
0.2564827 0.7990029 0.5999247
0.3771091 0.7947087 0.6372907
0.5017258 0.7880832 0.6770673
0.6413754 0.7881284 0.7246874
0.7841624 0.7910051 0.7644073
0.7289824 0.6090640 0.5879848
0.8399319 0.6158684 0.5996773
0.0664482 0.9300505 0.5265017
0.0911390 0.9300340 0.5213866
0.2204534 0.9272254 0.5575548
0.3462496 0.9228509 0.5940115
0.4713330 0.9154709 0.6312351
0.5991413 0.9036149 0.6711375
0.7323437 0.8873158 0.7107765
0.8600999 0.8544185 0.7146330
0.9497179 0.8217805 0.6861932
0.0625573 0.9912997 0.4895724
0.0606301 0.9922951 0.4666901
0.1767324 0.9905584 0.4978219
0.2983899 0.9881409 0.5337999
0.4202666 0.9853946 0.5718224
0.5470679 0.9837105 0.6129169
0.6899029 0.9872115 0.6569802
0.8578050 0.9911797 0.6998748
0.9986695 0.9904440 0.7194760
0.2712659 0.4034223 0.7328783
0.2745618 0.3213172 0.7072275
0.2815730 0.2494268 0.6833653
0.3478669 0.2440368 0.6592954
0.4118910 0.2373077 0.6381925
0.4755017 0.2298155 0.6212751
0.5398336 0.2209559 0.6090618
0.6071231 0.2093032 0.6023633
0.7180262 0.2133907 0.6428529
0.2609808 0.4905930 0.7604822
0.3301213 0.4501972 0.7311392
0.3329067 0.3656405 0.7012071
0.3540923 0.3082620 0.6731100
0.4173454 0.2989087 0.6467347
0.4799347 0.2890988 0.6256469
0.5431076 0.2785362 0.6101417
0.6094685 0.2659656 0.6014565
0.7166056 0.2695438 0.6375161
0.2429725 0.5811366 0.7862026
0.3199634 0.5405365 0.7619378
0.3898285 0.4952877 0.7266315
0.3911697 0.4088103 0.6930837
0.4254754 0.3650620 0.6606512
0.4861068 0.3514498 0.6330647
0.5466901 0.3373961 0.6117324
0.6114607 0.3232312 0.6000550
0.7149355 0.3262048 0.6318129
0.2199876 0.6722347 0.8023971
0.3013435 0.6345151 0.7893353
0.3765889 0.5797146 0.7503906
0.4482430 0.5365799 0.7169271
0.4497883 0.4511108 0.6840454
0.4952301 0.4184538 0.6458898
0.5511290 0.3977840 0.6148070
0.6131473 0.3809040 0.5981125
0.7133540 0.3834495 0.6258827
0.1868887 0.7800970 0.8251407
0.2773552 0.7352523 0.8100757
0.3627157 0.6889145 0.7890463
0.4317508 0.6192064 0.7371564
0.5059268 0.5785651 0.7065333
0.5116329 0.4953265 0.6697267
0.5577712 0.4619934 0.6214579
0.6140544 0.4383657 0.5950562
0.7125940 0.4414956 0.6200350
0.1359123 0.8831156 0.8243652
0.2495219 0.8696494 0.8446089
0.3456825 0.8187781 0.8276755
0.4353504 0.7596745 0.7983544
0.5202988 0.7225662 0.7882594
0.5999982 0.6588375 0.7386958
0.5745797 0.5385422 0.6414178
0.6117271 0.4935814 0.5879823
0.7147491 0.5011440 0.6154454
0.0998018 0.9037065 0.7260816
0.1950787 0.9000064 0.7550028
0.3074489 0.8954809 0.7865524
0.4167657 0.8868950 0.8158359
0.5297836 0.8705141 0.8384266
0.6458563 0.8203485 0.8248891
0.6942567 0.7270683 0.7579032
0.6063442 0.5447676 0.5796417
0.7297553 0.5684673 0.6198443
0.0797614 0.9220245 0.6262523
0.1361020 0.9207640 0.6414735
0.2611177 0.9189815 0.6777171
0.3809237 0.9165473 0.7141710
0.5030121 0.9123527 0.7514495
0.6370678 0.9042814 0.7893562
0.7803946 0.9105402 0.8414217
0.9277642 0.9444288 0.9146863
0.8684637 0.7588650 0.7397053
0.0723735 0.9863839 0.5778460
0.0872089 0.9867446 0.5718461
0.2094004 0.9845836 0.6057387
0.3271748 0.9825181 0.6404940
0.4442254 0.9795624 0.6764940
0.5672141 0.9765232 0.7163761
0.7015548 0.9778444 0.7651357
0.8385322 0.9877060 0.8162339
0.9887713 0.9902126 0.8487583
0.3005360 0.4455719 0.8252931
0.3040646 0.3662935 0.8026398
0.3038190 0.2877129 0.7810363
0.3620599 0.2729926 0.7578327
0.4275779 0.2674121 0.7362619
0.4919651 0.2611537 0.7182425
0.5561364 0.2540760 0.7038636
0.6211220 0.2455073 0.6934766
0.6888216 0.2340289 0.6876188
0.2914468 0.5276220 0.8481433
0.3597357 0.4900255 0.8209265
0.3636356 0.4101013 0.7960493
0.3680463 0.3364143 0.7718954
0.4332012 0.3288826 0.7456211
0.4968236 0.3208024 0.7238277
0.5600537 0.3122253 0.7063451
0.6240337 0.3027036 0.6936019
0.6911981 0.2907846 0.6866135
0.2759943 0.6125220 0.8700783
0.3509174 0.5737236 0.8450757
0.4181472 0.5319108 0.8127585
0.4226744 0.4525869 0.7876032
0.4410435 0.3940065 0.7599730
0.5033620 0.3832050 0.7325153
0.5649819 0.3721996 0.7103646
0.6272725 0.3609744 0.6941066
0.6934961 0.3483387 0.6854968
0.2532941 0.7050243 0.8939158
0.3358124 0.6640893 0.8716061
0.4096833 0.6175652 0.8377163
0.4740786 0.5720905 0.8013225
0.4809243 0.4939898 0.7770174
0.5128008 0.4496663 0.7460425
0.5718739 0.4350995 0.7172141
0.6313052 0.4207192 0.6955105
0.6958156 0.4067680 0.6843013
0.2232555 0.8169722 0.9266687
0.3158678 0.7686272 0.9028846
0.4005256 0.7204629 0.8734383
0.4612048 0.6592711 0.8258017
0.5326244 0.6172882 0.7931123
0.5395115 0.5358267 0.7653109
0.5831512 0.5036683 0.7296028
0.6375713 0.4836233 0.6993496
0.6982238 0.4661661 0.6829656
0.1701209 0.9341657 0.9454263
0.2779639 0.8967218 0.9414745
0.3797650 0.8491306 0.9236530
0.4731276 0.7943217 0.8909336
0.5288108 0.7218577 0.8325634
0.6289760 0.6953126 0.8160634
0.6054652 0.5846847 0.7554850
0.6491853 0.5524021 0.7090253
0.7008171 0.5264374 0.6812773
0.1146202 0.9735514 0.8727459
0.2294742 0.9728749 0.9074254
0.3344347 0.9710927 0.9418415
0.4444410 0.9353432 0.9397758
0.5618077 0.8922357 0.9298425
0.6831280 0.8436084 0.8985914
0.7194731 0.7652300 0.8366085
0.6752773 0.6364373 0.7381003
0.7014836 0.5846181 0.6769549
0.1033646 0.9750379 0.7637943
0.1809983 0.9738834 0.7901689
0.2896935 0.9729881 0.8238496
0.3966482 0.9710719 0.8585685
0.5125062 0.9699746 0.8959986
0.6469882 0.9749833 0.9412052
0.7827360 0.9564281 0.9584597
0.8167154 0.8485790 0.8758918
0.6979958 0.6351097 0.6680284
0.0861663 0.9804359 0.6683525
0.1305228 0.9796056 0.6803132
0.2479312 0.9780110 0.7138523
0.3593606 0.9760234 0.7477416
0.4723681 0.9729861 0.7825938
0.5966556 0.9707626 0.8211055
0.7345702 0.9765770 0.8697408
0.8615783 0.9916933 0.9257028
0.9940914 1.0000000 0.9812319
