presets/series/movie/series-movie-honey-hour/look.cube
# Approximate v0 colour conversion; calibrate before claiming visual parity.
LUT_3D_SIZE 33
DOMAIN_MIN 0 0 0
DOMAIN_MAX 1 1 1
0.0143048 0.0109070 0.0004883
0.0382468 0.0110115 0.0009074
0.0624731 0.0114024 0.0015254
0.0878206 0.0129286 0.0029325
0.1131687 0.0144545 0.0043401
0.1427619 0.0160551 0.0050333
0.1730468 0.0176654 0.0056080
0.2031039 0.0192530 0.0062972
0.2329487 0.0208196 0.0070931
0.2625038 0.0223835 0.0078127
0.2907085 0.0239430 0.0081836
0.3189139 0.0255029 0.0085547
0.3466801 0.0266617 0.0084729
0.3743601 0.0277403 0.0083003
0.4027887 0.0291396 0.0078575
0.4319908 0.0308703 0.0071369
0.4616162 0.0328652 0.0064444
0.4936232 0.0363550 0.0059079
0.5256319 0.0398458 0.0053718
0.5563145 0.0423092 0.0050764
0.5865140 0.0444203 0.0051867
0.6151933 0.0456806 0.0056541
0.6422871 0.0460726 0.0062639
0.6690215 0.0464374 0.0068347
0.6934108 0.0465910 0.0072352
0.7178238 0.0467586 0.0076385
0.7400633 0.0457397 0.0084091
0.7617548 0.0444255 0.0092842
0.7834954 0.0441059 0.0105116
0.8052540 0.0450174 0.0121763
0.8269581 0.0460886 0.0138541
0.8478458 0.0485958 0.0157778
0.8687956 0.0510896 0.0176908
0.0159400 0.0389118 0.0012077
0.0414234 0.0363809 0.0015658
0.0657830 0.0335747 0.0021785
0.0913386 0.0335490 0.0033437
0.1170765 0.0339468 0.0045373
0.1479249 0.0352780 0.0057816
0.1786839 0.0366254 0.0069593
0.2090310 0.0377620 0.0081990
0.2392089 0.0388214 0.0094299
0.2685022 0.0396380 0.0102246
0.2965242 0.0401315 0.0104290
0.3245256 0.0406430 0.0106208
0.3519404 0.0408891 0.0104969
0.3793886 0.0411463 0.0103556
0.4077708 0.0418089 0.0096339
0.4365696 0.0426467 0.0087005
0.4665607 0.0441218 0.0078623
0.4984600 0.0466490 0.0071693
0.5303613 0.0491837 0.0064916
0.5611650 0.0508841 0.0060322
0.5919242 0.0525525 0.0055955
0.6204494 0.0529995 0.0053726
0.6480052 0.0529016 0.0052598
0.6746408 0.0526785 0.0051126
0.6995428 0.0522454 0.0048699
0.7243913 0.0517950 0.0046423
0.7462327 0.0497656 0.0048691
0.7680646 0.0477084 0.0051181
0.7899292 0.0471430 0.0059674
0.8118329 0.0473551 0.0071300
0.8334074 0.0481404 0.0084020
0.8541582 0.0505160 0.0098545
0.8748477 0.0532066 0.0112996
0.0168429 0.0643950 0.0019658
0.0411227 0.0624906 0.0019309
0.0665235 0.0604553 0.0025448
0.0923531 0.0587003 0.0035803
0.1198246 0.0587321 0.0048355
0.1516900 0.0602945 0.0069659
0.1832343 0.0620054 0.0089809
0.2141011 0.0632449 0.0109845
0.2448126 0.0645075 0.0129265
0.2737249 0.0649434 0.0137322
0.3014950 0.0648881 0.0138307
0.3290400 0.0649006 0.0139464
0.3559815 0.0649443 0.0140680
0.3829519 0.0650190 0.0141724
0.4106518 0.0654525 0.0131059
0.4384696 0.0659451 0.0119729
0.4683660 0.0672864 0.0110295
0.4996767 0.0692288 0.0102155
0.5310614 0.0712551 0.0094090
0.5625272 0.0733884 0.0086163
0.5939421 0.0754920 0.0078482
0.6217163 0.0757738 0.0073125
0.6491597 0.0758747 0.0068236
0.6753947 0.0756810 0.0063846
0.7007042 0.0752746 0.0059776
0.7252218 0.0745806 0.0056478
0.7472060 0.0729250 0.0055529
0.7691794 0.0712426 0.0054811
0.7907739 0.0708837 0.0061854
0.8123448 0.0707146 0.0070063
0.8338060 0.0715864 0.0080824
0.8551346 0.0733094 0.0093638
0.8764568 0.0754308 0.0109628
0.0165025 0.0856614 0.0027351
0.0367963 0.0823295 0.0015878
0.0641813 0.0831697 0.0019480
0.0904354 0.0828190 0.0032754
0.1183290 0.0821401 0.0048313
0.1519307 0.0849698 0.0071333
0.1847336 0.0876809 0.0093471
0.2164636 0.0889210 0.0110787
0.2479305 0.0903046 0.0128838
0.2772902 0.0905971 0.0140041
0.3059113 0.0906049 0.0148346
0.3341556 0.0905731 0.0155962
0.3619623 0.0905017 0.0163128
0.3895425 0.0904775 0.0167776
0.4167985 0.0905876 0.0159212
0.4440024 0.0907342 0.0150144
0.4735506 0.0916546 0.0140036
0.5037562 0.0928338 0.0130012
0.5345779 0.0945074 0.0119362
0.5660663 0.0967211 0.0108009
0.5969961 0.0987228 0.0097267
0.6239416 0.0989745 0.0088590
0.6509415 0.0992373 0.0080230
0.6768578 0.0990739 0.0074552
0.7024299 0.0987643 0.0069481
0.7263738 0.0980090 0.0064946
0.7483279 0.0967194 0.0061071
0.7701240 0.0954782 0.0058011
0.7912613 0.0948749 0.0062433
0.8125005 0.0943040 0.0067168
0.8342385 0.0953024 0.0076605
0.8560879 0.0967845 0.0087534
0.8775706 0.0990670 0.0103109
0.0187673 0.1117742 0.0039495
0.0377197 0.1078557 0.0024665
0.0641233 0.1088660 0.0026697
0.0954700 0.1140088 0.0043117
0.1197882 0.1107714 0.0052024
0.1503168 0.1106744 0.0070743
0.1845044 0.1142581 0.0091472
0.2172541 0.1154492 0.0101659
0.2495413 0.1168260 0.0112850
0.2800316 0.1171607 0.0130828
0.3100826 0.1174875 0.0147994
0.3401073 0.1175388 0.0163033
0.3699829 0.1174701 0.0176684
0.3990730 0.1174127 0.0185023
0.4268970 0.1173116 0.0182804
0.4546495 0.1172717 0.0180003
0.4837899 0.1175119 0.0166157
0.5130188 0.1178583 0.0152601
0.5434664 0.1190593 0.0137261
0.5745291 0.1207156 0.0121253
0.6039856 0.1219028 0.0106421
0.6301778 0.1220485 0.0093516
0.6564268 0.1222129 0.0080965
0.6827194 0.1224252 0.0076843
0.7089546 0.1226059 0.0072689
0.7328907 0.1220933 0.0069490
0.7556016 0.1212104 0.0066738
0.7772172 0.1202611 0.0066342
0.7966944 0.1192425 0.0071068
0.8162869 0.1182593 0.0075755
0.8377353 0.1194327 0.0083727
0.8592411 0.1206672 0.0091933
0.8803365 0.1231658 0.0107361
0.0255911 0.1456173 0.0060209
0.0483021 0.1439532 0.0056922
0.0758968 0.1459066 0.0063090
0.1068710 0.1507686 0.0077111
0.1403690 0.1566086 0.0094348
0.1628092 0.1511349 0.0100348
0.1889706 0.1467737 0.0105058
0.2209981 0.1455670 0.0101149
0.2527255 0.1451383 0.0100609
0.2828514 0.1449978 0.0114401
0.3130308 0.1451409 0.0130682
0.3449921 0.1453360 0.0152379
0.3771286 0.1455048 0.0174701
0.4075624 0.1453057 0.0190911
0.4362922 0.1448314 0.0199730
0.4648656 0.1444358 0.0203543
0.4933154 0.1438420 0.0189369
0.5216677 0.1432922 0.0174100
0.5518939 0.1439770 0.0153997
0.5825372 0.1450400 0.0133184
0.6104404 0.1455722 0.0114239
0.6358732 0.1455906 0.0096991
0.6616569 0.1457631 0.0082761
0.6886449 0.1464580 0.0079618
0.7155662 0.1471235 0.0076396
0.7395870 0.1468181 0.0074628
0.7630750 0.1463350 0.0073018
0.7835762 0.1453182 0.0074994
0.8015097 0.1438668 0.0080253
0.8201358 0.1428959 0.0085544
0.8412849 0.1438511 0.0091249
0.8624582 0.1448317 0.0097141
0.8833370 0.1475998 0.0113748
0.0319971 0.1802952 0.0078416
0.0577105 0.1800857 0.0082229
0.0868590 0.1829696 0.0089956
0.1182527 0.1880162 0.0100704
0.1504110 0.1931079 0.0115830
0.1822543 0.1982051 0.0132357
0.2008349 0.1867612 0.0122479
0.2257361 0.1775338 0.0104440
0.2565519 0.1746834 0.0090019
0.2851527 0.1737260 0.0085741
0.3137962 0.1730995 0.0084671
0.3477013 0.1739078 0.0107761
0.3817441 0.1748595 0.0132718
0.4131831 0.1743716 0.0157114
0.4430490 0.1731901 0.0179742
0.4726234 0.1722732 0.0193051
0.5018708 0.1716417 0.0189922
0.5310123 0.1710864 0.0185256
0.5610285 0.1712386 0.0168821
0.5910803 0.1715098 0.0151957
0.6188108 0.1711995 0.0124538
0.6454063 0.1706851 0.0094080
0.6715199 0.1704192 0.0075135
0.6971725 0.1705298 0.0073029
0.7228642 0.1707168 0.0071080
0.7467033 0.1705447 0.0072576
0.7705266 0.1703759 0.0073794
0.7901268 0.1694316 0.0079499
0.8080019 0.1681573 0.0086805
0.8267736 0.1676229 0.0092699
0.8471417 0.1683225 0.0096730
0.8675875 0.1691638 0.0101606
0.8883172 0.1720237 0.0119752
0.0375375 0.2159891 0.0091928
0.0647560 0.2161061 0.0094584
0.0960233 0.2199949 0.0097371
0.1299778 0.2262737 0.0100606
0.1623787 0.2310273 0.0117440
0.1937763 0.2351961 0.0140100
0.2237192 0.2355550 0.0147299
0.2391826 0.2205319 0.0133687
0.2606441 0.2090120 0.0111950
0.2889120 0.2060582 0.0089248
0.3165715 0.2037211 0.0067718
0.3513224 0.2041622 0.0080303
0.3862852 0.2051618 0.0097531
0.4186612 0.2040633 0.0128002
0.4496942 0.2021198 0.0162920
0.4802079 0.2007735 0.0185934
0.5103107 0.2000923 0.0194203
0.5401759 0.1994667 0.0197739
0.5696623 0.1988597 0.0185773
0.5991792 0.1983971 0.0173322
0.6277654 0.1973503 0.0130833
0.6560183 0.1963020 0.0085645
0.6817768 0.1953793 0.0065230
0.7057931 0.1945989 0.0063514
0.7299059 0.1940630 0.0063295
0.7538664 0.1939948 0.0067882
0.7778067 0.1939350 0.0072161
0.7974676 0.1932684 0.0081874
0.8165867 0.1925095 0.0091897
0.8359131 0.1924019 0.0097594
0.8555040 0.1928134 0.0100383
0.8755061 0.1937469 0.0107189
0.8965537 0.1961886 0.0125810
0.0421367 0.2519481 0.0101991
0.0705896 0.2521847 0.0104148
0.1035350 0.2565097 0.0104222
0.1394174 0.2632691 0.0103050
0.1726691 0.2680749 0.0119395
0.2044825 0.2719965 0.0144141
0.2327687 0.2726933 0.0166187
0.2596254 0.2725826 0.0186964
0.2736013 0.2551148 0.0169282
0.2953552 0.2427697 0.0137838
0.3249444 0.2389145 0.0113902
0.3578817 0.2371915 0.0101967
0.3909683 0.2360859 0.0095172
0.4250427 0.2353198 0.0117097
0.4586942 0.2344936 0.0144708
0.4893280 0.2327192 0.0169458
0.5182980 0.2306011 0.0190253
0.5474461 0.2288544 0.0199143
0.5767503 0.2274774 0.0186598
0.6060254 0.2262484 0.0173623
0.6350105 0.2247112 0.0130182
0.6639890 0.2232499 0.0085471
0.6895143 0.2217355 0.0067260
0.7135561 0.2202422 0.0060374
0.7375955 0.2192075 0.0058374
0.7617803 0.2188271 0.0062703
0.7855077 0.2184916 0.0068377
0.8053332 0.2178378 0.0082304
0.8252298 0.2172801 0.0095833
0.8445076 0.2172578 0.0100840
0.8635341 0.2174201 0.0103124
0.8835326 0.2184103 0.0112583
0.9048462 0.2204644 0.0131680
0.0453657 0.2882300 0.0107492
0.0743026 0.2883191 0.0109263
0.1075777 0.2918842 0.0110461
0.1435402 0.2973117 0.0111301
0.1788726 0.3028187 0.0122234
0.2138921 0.3083909 0.0138113
0.2435967 0.3101867 0.0162137
0.2716590 0.3111153 0.0187649
0.3009469 0.3102933 0.0199871
0.3121194 0.2902202 0.0185641
0.3318625 0.2758685 0.0162323
0.3630483 0.2717293 0.0132568
0.3943934 0.2680567 0.0100551
0.4311223 0.2674489 0.0106402
0.4677055 0.2677027 0.0123911
0.4977993 0.2650812 0.0154575
0.5255251 0.2615504 0.0187426
0.5539368 0.2587432 0.0197242
0.5830460 0.2566443 0.0181210
0.6120711 0.2547364 0.0162957
0.6408378 0.2529876 0.0130604
0.6695876 0.2513281 0.0096824
0.6956935 0.2495349 0.0077859
0.7212243 0.2477923 0.0062169
0.7463307 0.2464774 0.0054953
0.7711563 0.2455254 0.0053975
0.7944157 0.2444961 0.0058335
0.8134759 0.2430734 0.0076138
0.8326121 0.2417601 0.0093500
0.8521978 0.2415274 0.0098791
0.8717495 0.2414068 0.0103132
0.8922285 0.2423161 0.0114327
0.9133176 0.2438905 0.0130095
0.0482822 0.3239095 0.0113721
0.0775701 0.3239233 0.0115210
0.1109795 0.3268085 0.0117633
0.1468320 0.3310629 0.0120381
0.1839938 0.3369977 0.0128710
0.2218612 0.3437689 0.0139236
0.2531967 0.3466892 0.0163712
0.2826879 0.3487183 0.0191686
0.3099997 0.3482525 0.0223645
0.3365501 0.3475261 0.0255344
0.3465922 0.3260198 0.0232591
0.3660249 0.3109075 0.0203293
0.3954782 0.3063335 0.0184826
0.4315426 0.3027391 0.0163368
0.4676714 0.2999956 0.0148519
0.5000728 0.2966713 0.0155511
0.5307549 0.2931393 0.0171283
0.5601743 0.2898555 0.0174410
0.5889893 0.2869093 0.0164093
0.6176004 0.2842277 0.0150660
0.6458362 0.2818745 0.0131151
0.6741154 0.2797174 0.0109820
0.7007945 0.2775420 0.0090172
0.7275125 0.2754975 0.0069453
0.7535683 0.2738377 0.0057868
0.7793624 0.2723738 0.0049995
0.8023418 0.2706368 0.0052836
0.8211592 0.2684515 0.0071676
0.8398163 0.2665072 0.0090729
0.8599758 0.2660361 0.0097405
0.8800660 0.2656224 0.0103839
0.9007501 0.2663506 0.0114716
0.9216154 0.2674331 0.0127108
0.0507642 0.3588331 0.0120907
0.0800942 0.3587236 0.0122468
0.1130834 0.3609511 0.0126430
0.1481538 0.3641839 0.0131177
0.1862454 0.3696656 0.0144349
0.2257936 0.3761616 0.0160699
0.2593433 0.3799155 0.0183368
0.2913290 0.3830662 0.0207804
0.3192796 0.3831575 0.0238787
0.3464926 0.3830159 0.0269923
0.3740581 0.3813931 0.0286142
0.3807683 0.3593552 0.0274033
0.3968657 0.3445067 0.0263477
0.4312556 0.3380837 0.0217512
0.4662825 0.3321765 0.0172218
0.5014106 0.3285735 0.0154893
0.5356756 0.3253444 0.0146248
0.5660205 0.3216792 0.0143627
0.5945197 0.3179653 0.0141264
0.6224958 0.3144882 0.0137338
0.6498171 0.3112462 0.0131236
0.6770112 0.3082406 0.0122836
0.7030753 0.3054982 0.0111769
0.7291757 0.3029025 0.0099509
0.7547831 0.3008784 0.0091509
0.7803046 0.2990285 0.0084263
0.8040079 0.2970230 0.0082902
0.8260018 0.2948768 0.0087456
0.8471619 0.2930627 0.0096471
0.8670580 0.2921273 0.0112552
0.8869815 0.2912675 0.0127384
0.9078810 0.2915366 0.0127145
0.9288070 0.2919479 0.0127776
0.0529960 0.3930703 0.0127493
0.0823294 0.3928494 0.0129292
0.1148890 0.3945278 0.0134551
0.1492274 0.3969206 0.0140862
0.1876686 0.4018000 0.0157582
0.2281040 0.4077690 0.0178240
0.2640526 0.4123113 0.0201887
0.2988466 0.4165793 0.0225881
0.3277104 0.4173782 0.0256355
0.3557300 0.4178698 0.0287031
0.3818527 0.4158924 0.0312501
0.4076291 0.4138500 0.0335512
0.4143752 0.3900752 0.0306626
0.4326362 0.3733677 0.0272200
0.4635964 0.3669185 0.0239891
0.4992087 0.3618990 0.0194264
0.5349907 0.3574976 0.0153690
0.5674211 0.3534025 0.0134895
0.5979878 0.3494088 0.0125423
0.6266335 0.3454201 0.0123117
0.6537268 0.3414593 0.0125934
0.6802274 0.3376573 0.0128333
0.7055739 0.3341282 0.0128417
0.7308643 0.3307929 0.0127395
0.7557784 0.3282711 0.0124806
0.7808522 0.3259426 0.0119256
0.8063918 0.3237894 0.0108962
0.8316299 0.3216804 0.0098962
0.8542775 0.3198881 0.0105671
0.8738477 0.3185591 0.0132465
0.8936067 0.3174073 0.0153242
0.9146030 0.3170626 0.0138792
0.9355800 0.3168253 0.0126008
0.0549154 0.4264788 0.0133372
0.0841246 0.4259928 0.0135495
0.1161524 0.4271702 0.0141351
0.1497086 0.4289007 0.0148137
0.1868272 0.4325868 0.0164688
0.2256731 0.4370955 0.0184607
0.2641414 0.4419402 0.0216763
0.3025451 0.4469339 0.0251433
0.3334638 0.4486995 0.0284824
0.3634245 0.4501277 0.0317642
0.3892900 0.4479902 0.0339722
0.4149376 0.4458501 0.0359709
0.4414381 0.4432107 0.0362896
0.4455103 0.4189346 0.0337253
0.4600477 0.4022656 0.0314045
0.4957305 0.3956705 0.0241244
0.5316190 0.3896519 0.0172537
0.5663288 0.3852490 0.0137275
0.6000058 0.3813058 0.0112918
0.6302459 0.3772168 0.0104585
0.6582440 0.3730840 0.0106091
0.6851719 0.3689095 0.0110010
0.7105332 0.3646215 0.0117062
0.7356582 0.3606122 0.0124505
0.7594545 0.3573480 0.0142699
0.7833767 0.3542672 0.0157613
0.8084871 0.3517154 0.0150726
0.8338389 0.3493301 0.0139706
0.8571195 0.3471841 0.0141682
0.8784785 0.3452795 0.0156225
0.8996027 0.3437353 0.0164775
0.9208054 0.3429443 0.0149919
0.9419633 0.3422221 0.0134182
0.0566634 0.4593619 0.0137944
0.0857512 0.4587042 0.0140377
0.1172910 0.4594601 0.0146742
0.1501500 0.4606241 0.0153920
0.1860410 0.4632653 0.0170168
0.2233978 0.4664837 0.0189266
0.2634979 0.4713019 0.0227193
0.3045376 0.4766418 0.0269709
0.3379401 0.4794351 0.0308045
0.3702514 0.4818856 0.0344933
0.3962058 0.4798041 0.0365350
0.4218360 0.4777124 0.0384396
0.4471903 0.4752901 0.0396341
0.4726047 0.4726895 0.0402435
0.4772743 0.4467179 0.0358773
0.4949286 0.4290534 0.0303505
0.5272425 0.4223480 0.0241452
0.5628111 0.4174049 0.0181313
0.5986499 0.4130817 0.0128253
0.6308113 0.4088250 0.0104857
0.6607091 0.4046284 0.0096971
0.6887961 0.4001890 0.0098059
0.7148229 0.3953425 0.0108480
0.7398865 0.3906626 0.0125880
0.7625931 0.3866018 0.0165506
0.7853930 0.3827782 0.0201322
0.8101176 0.3799890 0.0195528
0.8349530 0.3773394 0.0187594
0.8591182 0.3747100 0.0180482
0.8826605 0.3721811 0.0176274
0.9052016 0.3702763 0.0172267
0.9266316 0.3691926 0.0164610
0.9480364 0.3683487 0.0158254
0.0582136 0.4916534 0.0140994
0.0871408 0.4908317 0.0143394
0.1182283 0.4911969 0.0149735
0.1504832 0.4918712 0.0156697
0.1853195 0.4937363 0.0171787
0.2214220 0.4960455 0.0189147
0.2602854 0.4997212 0.0222955
0.3001128 0.5038424 0.0260614
0.3371126 0.5075276 0.0308760
0.3734378 0.5110461 0.0356590
0.4015188 0.5099992 0.0383886
0.4288989 0.5086987 0.0409029
0.4533127 0.5056132 0.0422950
0.4779920 0.5025907 0.0432049
0.5045727 0.4995877 0.0422733
0.5066113 0.4734549 0.0382372
0.5219474 0.4554929 0.0334033
0.5573906 0.4497911 0.0252179
0.5936000 0.4446283 0.0171211
0.6269804 0.4399477 0.0132705
0.6587985 0.4355204 0.0112029
0.6885115 0.4310527 0.0105403
0.7163159 0.4264762 0.0110526
0.7427868 0.4219629 0.0122259
0.7668488 0.4175944 0.0148882
0.7905955 0.4133806 0.0177304
0.8142668 0.4098110 0.0193962
0.8380363 0.4064321 0.0206952
0.8617302 0.4032046 0.0209299
0.8855219 0.4000917 0.0207198
0.9084516 0.3976919 0.0201709
0.9304714 0.3959787 0.0195046
0.9522537 0.3948618 0.0191481
0.0596528 0.5235372 0.0142767
0.0884412 0.5225875 0.0145271
0.1191101 0.5226481 0.0151541
0.1508178 0.5229305 0.0158265
0.1846873 0.5241159 0.0172264
0.2196377 0.5256173 0.0188031
0.2572209 0.5282182 0.0217924
0.2957569 0.5311731 0.0250927
0.3354656 0.5353380 0.0306011
0.3751026 0.5395982 0.0362539
0.4056864 0.5397101 0.0398301
0.4350777 0.5392920 0.0430871
0.4588668 0.5356873 0.0448178
0.4829175 0.5323875 0.0462025
0.5085893 0.5299649 0.0465668
0.5349130 0.5271553 0.0452189
0.5376402 0.4994004 0.0393535
0.5547184 0.4814951 0.0320189
0.5885704 0.4756060 0.0232153
0.6225307 0.4707579 0.0175859
0.6560714 0.4662964 0.0135002
0.6875732 0.4620128 0.0116706
0.7174687 0.4578423 0.0113446
0.7456693 0.4535362 0.0115566
0.7711910 0.4489386 0.0126828
0.7959952 0.4444640 0.0145016
0.8187696 0.4401381 0.0183762
0.8416479 0.4360169 0.0218510
0.8641345 0.4323677 0.0237706
0.8867257 0.4288717 0.0252882
0.9092379 0.4259037 0.0252465
0.9315789 0.4233274 0.0244927
0.9535494 0.4217694 0.0238602
0.0609726 0.5549750 0.0143139
0.0896258 0.5538540 0.0145628
0.1199124 0.5536717 0.0151431
0.1511438 0.5536628 0.0157509
0.1842355 0.5543329 0.0170189
0.2182889 0.5552428 0.0184239
0.2544809 0.5569603 0.0210335
0.2915207 0.5589536 0.0238910
0.3301181 0.5618066 0.0287705
0.3689088 0.5648189 0.0338484
0.4032239 0.5662319 0.0387393
0.4361123 0.5669722 0.0432934
0.4619231 0.5638176 0.0462459
0.4875627 0.5609640 0.0485606
0.5132361 0.5589005 0.0490607
0.5394068 0.5564424 0.0479304
0.5671581 0.5530374 0.0430135
0.5671758 0.5245441 0.0385646
0.5833927 0.5060333 0.0313724
0.6171375 0.5009379 0.0243223
0.6514219 0.4963857 0.0179678
0.6839160 0.4921788 0.0148566
0.7151615 0.4881697 0.0135568
0.7444660 0.4839810 0.0131979
0.7715750 0.4795686 0.0137920
0.7978126 0.4752154 0.0148664
0.8219775 0.4708801 0.0175860
0.8457222 0.4665812 0.0206615
0.8675232 0.4623888 0.0236860
0.8892642 0.4583517 0.0266883
0.9108697 0.4546510 0.0281668
0.9326796 0.4511693 0.0287258
0.9545298 0.4490938 0.0284391
0.0621995 0.5862611 0.0142165
0.0907393 0.5850508 0.0144715
0.1206783 0.5846148 0.0150151
0.1514910 0.5843262 0.0155767
0.1838737 0.5845298 0.0167246
0.2171050 0.5849069 0.0179731
0.2520074 0.5858199 0.0202271
0.2876369 0.5869236 0.0226677
0.3250353 0.5885372 0.0269114
0.3628494 0.5903314 0.0313941
0.4002605 0.5926776 0.0373554
0.4362983 0.5943752 0.0430707
0.4642827 0.5917482 0.0472632
0.4915838 0.5893830 0.0505594
0.5173735 0.5876970 0.0513249
0.5433073 0.5856376 0.0506567
0.5698442 0.5827557 0.0471224
0.5979231 0.5800511 0.0421665
0.5981838 0.5499304 0.0368973
0.6136370 0.5314718 0.0304287
0.6472186 0.5266488 0.0225958
0.6801369 0.5225112 0.0182154
0.7125779 0.5187095 0.0157408
0.7430535 0.5146667 0.0148639
0.7713519 0.5103468 0.0153163
0.7988153 0.5061266 0.0157743
0.8248221 0.5020157 0.0164557
0.8500496 0.4978655 0.0177116
0.8719375 0.4931569 0.0207918
0.8937587 0.4886127 0.0238482
0.9137104 0.4842987 0.0278752
0.9336396 0.4801683 0.0315439
0.9547210 0.4774448 0.0334991
0.0633291 0.6173953 0.0139750
0.0917507 0.6161507 0.0142109
0.1213994 0.6154475 0.0147088
0.1518769 0.6148800 0.0152229
0.1837029 0.6147206 0.0162451
0.2163061 0.6147054 0.0173386
0.2502968 0.6150818 0.0192791
0.2849576 0.6156129 0.0213625
0.3210136 0.6164305 0.0249103
0.3575039 0.6173898 0.0286686
0.3941227 0.6185099 0.0340256
0.4299161 0.6192719 0.0393181
0.4604067 0.6173272 0.0440555
0.4899853 0.6155242 0.0480308
0.5173595 0.6140564 0.0499110
0.5446571 0.6125079 0.0502277
0.5720349 0.6107432 0.0476752
0.6005537 0.6089496 0.0434241
0.6296597 0.6059011 0.0368023
0.6293342 0.5760840 0.0343039
0.6444063 0.5569763 0.0279055
0.6764477 0.5526727 0.0225968
0.7085394 0.5488509 0.0186398
0.7393736 0.5447781 0.0172622
0.7689748 0.5405261 0.0176859
0.7976595 0.5364544 0.0180177
0.8251259 0.5325866 0.0181459
0.8517066 0.5286392 0.0184022
0.8750346 0.5240425 0.0199066
0.8979071 0.5194103 0.0218065
0.9167180 0.5146377 0.0273484
0.9351264 0.5098749 0.0333779
0.9554705 0.5062915 0.0375903
0.0644305 0.6483762 0.0136646
0.0927457 0.6470970 0.0138898
0.1221347 0.6461871 0.0143451
0.1523068 0.6453926 0.0148152
0.1836216 0.6449167 0.0157192
0.2156465 0.6445516 0.0166697
0.2487877 0.6444401 0.0183146
0.2825324 0.6444405 0.0200608
0.3173038 0.6445215 0.0229452
0.3524936 0.6446875 0.0260027
0.3882273 0.6446532 0.0307030
0.4236542 0.6444881 0.0355193
0.4564351 0.6431283 0.0407104
0.4881901 0.6418144 0.0453424
0.5171539 0.6405180 0.0483581
0.5457847 0.6394654 0.0497485
0.5739877 0.6387883 0.0482713
0.6027116 0.6378458 0.0448294
0.6322483 0.6365178 0.0387790
0.6593575 0.6325070 0.0334699
0.6600495 0.6024073 0.0305053
0.6731469 0.5830827 0.0266613
0.7044255 0.5791968 0.0214942
0.7354287 0.5750710 0.0197058
0.7660964 0.5707795 0.0202121
0.7956656 0.5667379 0.0208155
0.8239764 0.5629570 0.0214777
0.8514672 0.5591678 0.0216833
0.8768903 0.5551554 0.0210605
0.9016450 0.5510858 0.0209925
0.9213466 0.5465990 0.0247098
0.9408040 0.5421262 0.0287840
0.9617779 0.5391384 0.0311632
0.0655054 0.6791995 0.0132841
0.0937279 0.6778648 0.0134936
0.1228984 0.6768056 0.0138961
0.1528157 0.6758546 0.0143116
0.1837305 0.6751558 0.0151004
0.2153147 0.6745535 0.0159186
0.2478498 0.6741353 0.0173125
0.2809583 0.6738136 0.0187805
0.3148960 0.6735337 0.0211527
0.3492486 0.6733315 0.0236628
0.3840263 0.6729665 0.0274287
0.4187301 0.6725507 0.0313410
0.4519106 0.6714144 0.0357883
0.4843798 0.6702879 0.0399019
0.5148475 0.6690855 0.0430126
0.5448301 0.6681782 0.0447593
0.5740997 0.6677242 0.0441690
0.6036116 0.6671042 0.0416306
0.6334629 0.6662510 0.0367152
0.6637187 0.6655392 0.0322695
0.6897158 0.6603150 0.0289604
0.6900637 0.6297102 0.0285018
0.7026378 0.6096452 0.0246661
0.7333650 0.6056885 0.0228096
0.7640833 0.6017721 0.0228927
0.7939360 0.5979217 0.0236011
0.8228224 0.5941819 0.0248075
0.8509729 0.5904497 0.0251286
0.8777819 0.5866851 0.0235622
0.9038713 0.5829552 0.0221519
0.9250948 0.5788806 0.0233406
0.9460096 0.5747454 0.0248336
0.9677855 0.5723442 0.0248048
0.0665733 0.7099696 0.0128745
0.0947116 0.7085889 0.0130712
0.1236860 0.7074066 0.0134249
0.1533735 0.7063231 0.0137949
0.1839173 0.7054267 0.0144703
0.2150939 0.7046115 0.0151655
0.2470624 0.7039139 0.0163226
0.2795671 0.7032920 0.0175275
0.3127069 0.7026712 0.0194119
0.3462379 0.7021113 0.0213923
0.3800642 0.7014178 0.0242516
0.4140031 0.7007374 0.0272633
0.4474700 0.6997838 0.0309356
0.4805599 0.6988173 0.0344932
0.5124603 0.6976901 0.0376611
0.5437678 0.6969068 0.0397837
0.5740754 0.6966677 0.0400952
0.6042895 0.6963752 0.0384859
0.6344169 0.6959916 0.0346670
0.6647757 0.6956664 0.0312075
0.6952919 0.6953715 0.0280824
0.7197337 0.6888085 0.0266118
0.7201876 0.6578225 0.0262019
0.7311524 0.6365523 0.0259172
0.7620189 0.6330900 0.0255801
0.7921638 0.6295502 0.0264135
0.8215699 0.6259789 0.0281556
0.8500741 0.6223498 0.0289822
0.8771892 0.6185889 0.0282317
0.9034224 0.6149610 0.0273896
0.9259516 0.6115741 0.0270129
0.9481517 0.6081194 0.0269612
0.9702590 0.6065527 0.0259793
0.0676360 0.7406874 0.0124361
0.0957026 0.7392672 0.0126180
0.1245147 0.7379937 0.0129229
0.1540121 0.7368159 0.0132496
0.1842674 0.7357893 0.0138236
0.2151333 0.7348397 0.0144152
0.2466951 0.7339830 0.0153867
0.2787766 0.7331960 0.0163910
0.3114120 0.7324147 0.0179316
0.3444405 0.7316922 0.0195483
0.3777498 0.7308892 0.0218194
0.4112377 0.7301176 0.0242203
0.4445174 0.7292024 0.0271528
0.4775322 0.7282889 0.0299914
0.5095955 0.7272620 0.0324884
0.5412816 0.7264909 0.0343582
0.5723260 0.7261099 0.0351338
0.6032142 0.7258782 0.0342582
0.6339156 0.7257826 0.0315396
0.6646969 0.7257630 0.0289668
0.6954685 0.7257837 0.0265271
0.7264483 0.7260195 0.0255676
0.7496303 0.7180589 0.0260281
0.7506472 0.6869050 0.0267240
0.7609724 0.6647576 0.0263834
0.7910122 0.6614123 0.0277347
0.8206847 0.6581398 0.0301126
0.8495376 0.6548230 0.0315127
0.8771560 0.6513477 0.0315538
0.9036260 0.6479204 0.0312969
0.9270938 0.6449457 0.0300633
0.9503385 0.6420396 0.0288075
0.9725896 0.6410694 0.0270486
0.0686855 0.7713957 0.0119964
0.0966849 0.7699383 0.0121620
0.1253583 0.7685935 0.0124249
