catalog/styles/series/movie/series-movie-studio-cut/look.cube
# series-movie-studio-cut iteration 4
LUT_3D_SIZE 33
DOMAIN_MIN 0 0 0
DOMAIN_MAX 1 1 1
0.0439728 0.0512925 0.0463416
0.0452106 0.0264719 0.0150834
0.0639680 0.0188743 0.0059816
0.1001125 0.0196518 0.0101325
0.1393581 0.0176145 0.0181705
0.1830888 0.0134292 0.0246210
0.2362230 0.0108370 0.0272562
0.2982104 0.0107796 0.0257415
0.3646648 0.0123305 0.0213084
0.4296340 0.0136702 0.0150619
0.4887165 0.0134419 0.0075237
0.5403071 0.0112709 0.0000000
0.5849130 0.0075270 0.0000000
0.6245033 0.0028938 0.0000000
0.6605374 0.0000000 0.0000000
0.6939861 0.0000000 0.0000000
0.7251404 0.0000000 0.0000000
0.7539910 0.0000000 0.0000000
0.7801892 0.0000000 0.0000000
0.8034202 0.0000000 0.0000000
0.8235370 0.0000000 0.0000000
0.8410782 0.0000000 0.0000000
0.8567591 0.0000000 0.0000000
0.8712633 0.0000000 0.0000000
0.8850408 0.0000000 0.0000000
0.8984103 0.0000000 0.0000000
0.9115473 0.0000000 0.0000000
0.9244646 0.0000000 0.0000000
0.9370137 0.0000000 0.0000000
0.9490951 0.0000000 0.0000000
0.9607587 0.0000000 0.0000000
0.9720940 0.0000000 0.0000000
0.9833304 0.0000000 0.0000000
0.0102866 0.0269115 0.0102082
0.0313417 0.0236129 0.0046507
0.0601562 0.0300739 0.0075486
0.0949361 0.0358814 0.0087846
0.1417294 0.0439158 0.0103941
0.1967990 0.0525966 0.0136803
0.2539554 0.0583069 0.0165578
0.3089402 0.0595664 0.0177405
0.3604894 0.0571662 0.0168613
0.4088514 0.0526850 0.0138826
0.4543472 0.0474874 0.0090818
0.4970301 0.0422327 0.0029308
0.5367304 0.0371417 0.0000000
0.5740925 0.0323161 0.0000000
0.6099537 0.0277839 0.0000000
0.6442899 0.0234994 0.0000000
0.6768903 0.0193812 0.0000000
0.7075530 0.0153559 0.0000000
0.7360543 0.0114715 0.0000000
0.7622452 0.0078217 0.0000000
0.7861595 0.0044945 0.0000000
0.8079987 0.0015781 0.0000000
0.8281266 0.0000000 0.0000000
0.8469081 0.0000000 0.0000000
0.8646483 0.0000000 0.0000000
0.8815736 0.0000000 0.0000000
0.8978600 0.0000000 0.0000000
0.9136035 0.0000173 0.0000000
0.9288145 0.0032129 0.0000000
0.9434746 0.0071506 0.0000000
0.9576750 0.0115987 0.0000000
0.9715759 0.0163721 0.0000000
0.9853627 0.0212629 0.0019413
0.0000000 0.0278265 0.0000000
0.0026689 0.0181309 0.0006255
0.0308093 0.0250034 0.0049575
0.0793120 0.0446740 0.0038255
0.1485993 0.0729218 0.0024948
0.2223680 0.0993135 0.0047106
0.2823973 0.1122783 0.0082744
0.3278334 0.1125184 0.0120266
0.3636098 0.1044266 0.0141978
0.3961494 0.0934199 0.0139375
0.4289205 0.0829349 0.0113257
0.4629581 0.0743409 0.0068579
0.4976780 0.0676194 0.0011581
0.5324986 0.0623800 0.0000000
0.5671448 0.0581114 0.0000000
0.6010538 0.0542537 0.0000000
0.6339177 0.0504616 0.0000000
0.6654739 0.0465577 0.0000000
0.6955694 0.0425860 0.0000000
0.7241739 0.0386960 0.0000000
0.7512627 0.0350465 0.0000000
0.7767954 0.0318175 0.0000000
0.8008408 0.0291971 0.0000000
0.8235406 0.0273683 0.0000000
0.8450085 0.0264462 0.0000000
0.8653844 0.0265131 0.0000000
0.8847885 0.0275878 0.0000000
0.9033552 0.0296412 0.0000000
0.9211584 0.0326307 0.0000000
0.9382683 0.0364349 0.0000000
0.9548553 0.0409198 0.0000000
0.9711446 0.0459048 0.0002989
0.9873332 0.0510866 0.0069615
0.0000000 0.0544373 0.0000000
0.0000000 0.0381822 0.0013508
0.0052786 0.0325599 0.0013919
0.0581731 0.0530712 0.0000000
0.1598407 0.1052476 0.0000000
0.2652672 0.1568049 0.0000000
0.3258924 0.1750056 0.0041337
0.3576862 0.1709825 0.0104140
0.3765687 0.1551935 0.0146983
0.3943710 0.1368041 0.0160436
0.4160791 0.1207223 0.0147039
0.4426169 0.1084385 0.0112271
0.4728787 0.0997289 0.0063236
0.5050693 0.0936730 0.0006977
0.5378524 0.0894265 0.0000000
0.5702608 0.0859446 0.0000000
0.6019096 0.0824728 0.0000000
0.6328383 0.0787250 0.0000000
0.6631348 0.0747490 0.0000000
0.6928977 0.0707631 0.0000000
0.7219038 0.0669641 0.0000000
0.7499449 0.0635777 0.0000000
0.7768758 0.0608275 0.0000000
0.8026746 0.0589062 0.0000000
0.8273116 0.0579350 0.0000000
0.8507616 0.0579283 0.0000000
0.8730217 0.0588347 0.0000000
0.8941891 0.0605988 0.0000000
0.9143590 0.0632579 0.0000000
0.9336643 0.0667834 0.0000000
0.9523649 0.0710995 0.0000000
0.9707792 0.0760573 0.0053442
0.9891090 0.0812669 0.0121072
0.0000000 0.0969384 0.0103093
0.0000000 0.0815755 0.0073316
0.0062789 0.0720432 0.0026496
0.0514014 0.0807411 0.0000000
0.1499472 0.1267153 0.0000000
0.2781991 0.1951287 0.0000000
0.3563943 0.2291087 0.0028713
0.3855655 0.2273115 0.0120122
0.3947066 0.2076284 0.0180009
0.4010954 0.1826146 0.0199543
0.4136962 0.1606436 0.0188658
0.4341951 0.1440952 0.0155649
0.4610829 0.1329990 0.0110623
0.4915772 0.1260631 0.0059939
0.5232922 0.1218790 0.0009115
0.5544204 0.1187964 0.0000000
0.5842514 0.1156844 0.0000000
0.6131980 0.1121122 0.0000000
0.6420194 0.1081826 0.0000000
0.6711511 0.1042033 0.0000000
0.7003780 0.1004199 0.0000000
0.7293800 0.0970584 0.0000000
0.7579108 0.0943650 0.0000000
0.7857608 0.0924994 0.0000000
0.8127185 0.0915458 0.0000000
0.8385706 0.0914779 0.0000000
0.8631591 0.0921883 0.0000000
0.8864914 0.0935913 0.0000000
0.9086382 0.0957690 0.0000000
0.9297811 0.0988247 0.0000000
0.9502393 0.1026993 0.0042295
0.9704069 0.1072871 0.0107848
0.9905073 0.1121281 0.0173782
0.0000000 0.1468474 0.0237566
0.0000000 0.1369658 0.0173549
0.0263781 0.1313378 0.0101315
0.0714100 0.1372656 0.0016412
0.1462418 0.1630390 0.0000000
0.2515691 0.2130786 0.0000000
0.3432521 0.2568627 0.0035526
0.3878531 0.2667178 0.0139073
0.4018664 0.2516750 0.0211254
0.4068799 0.2266280 0.0240488
0.4149620 0.2011373 0.0229449
0.4316979 0.1805609 0.0193112
0.4571270 0.1668444 0.0147756
0.4880411 0.1591313 0.0102780
0.5203672 0.1551048 0.0059438
0.5513020 0.1524943 0.0017159
0.5797166 0.1497776 0.0000000
0.6064442 0.1464535 0.0000000
0.6329108 0.1427518 0.0000000
0.6599520 0.1389695 0.0000000
0.6878035 0.1353811 0.0000000
0.7162851 0.1322928 0.0000000
0.7451136 0.1299096 0.0000000
0.7738547 0.1283215 0.0000000
0.8021052 0.1275843 0.0000000
0.8294687 0.1275723 0.0000000
0.8556632 0.1281236 0.0000000
0.8805367 0.1291290 0.0000000
0.9041340 0.1307057 0.0000000
0.9266736 0.1330597 0.0040894
0.9484502 0.1361819 0.0101768
0.9699404 0.1399698 0.0164296
0.9913560 0.1439534 0.0226612
0.0000000 0.1985171 0.0363572
0.0154797 0.1947919 0.0290509
0.0498564 0.1939830 0.0217238
0.0960249 0.2004409 0.0144946
0.1579046 0.2172434 0.0081613
0.2347381 0.2453657 0.0055984
0.3131365 0.2768774 0.0100664
0.3667335 0.2912156 0.0174963
0.3912553 0.2828654 0.0234499
0.4018029 0.2617569 0.0262824
0.4112802 0.2371488 0.0253235
0.4276226 0.2156813 0.0216911
0.4535607 0.2007423 0.0171246
0.4872609 0.1926820 0.0129987
0.5229335 0.1890674 0.0095336
0.5558531 0.1869482 0.0061670
0.5842037 0.1844945 0.0025898
0.6092920 0.1813262 0.0000000
0.6334228 0.1778969 0.0000000
0.6581058 0.1745657 0.0000000
0.6838800 0.1714918 0.0000000
0.7109321 0.1690764 0.0000000
0.7390122 0.1673559 0.0000000
0.7675571 0.1663386 0.0000000
0.7960626 0.1660411 0.0000000
0.8239754 0.1662698 0.0000000
0.8508800 0.1667745 0.0000000
0.8765313 0.1673917 0.0000551
0.9009420 0.1682516 0.0050646
0.9243030 0.1696484 0.0105090
0.9469392 0.1716643 0.0162176
0.9692716 0.1742191 0.0220092
0.9915554 0.1769542 0.0277610
0.0000000 0.2485864 0.0466038
0.0281346 0.2490160 0.0401920
0.0670848 0.2508829 0.0342098
0.1120005 0.2564955 0.0292084
0.1643030 0.2669692 0.0253005
0.2238604 0.2826628 0.0230034
0.2859620 0.3006029 0.0232258
0.3379671 0.3113892 0.0254602
0.3704984 0.3070885 0.0275952
0.3877178 0.2897291 0.0278404
0.4009912 0.2674380 0.0257153
0.4197417 0.2476923 0.0219392
0.4476454 0.2340714 0.0178540
0.4832101 0.2263880 0.0142219
0.5225048 0.2230118 0.0112147
0.5598821 0.2214648 0.0085425
0.5914413 0.2195845 0.0057355
0.6170584 0.2166322 0.0026140
0.6402083 0.2133789 0.0000000
0.6633006 0.2105281 0.0000000
0.6872710 0.2082555 0.0000000
0.7126793 0.2068197 0.0000000
0.7394411 0.2061954 0.0000000
0.7670000 0.2061346 0.0000000
0.7948077 0.2065494 0.0000000
0.8223044 0.2071926 0.0000000
0.8489389 0.2076889 0.0023995
0.8744882 0.2078920 0.0068393
0.8989631 0.2079637 0.0116490
0.9225710 0.2082201 0.0167336
0.9455847 0.2088542 0.0219777
0.9683632 0.2099649 0.0272855
0.9910686 0.2112283 0.0325076
0.0000000 0.2951604 0.0542589
0.0345313 0.2967592 0.0492066
0.0744382 0.2986862 0.0446927
0.1162707 0.3017682 0.0413226
0.1606644 0.3064568 0.0389871
0.2084503 0.3135272 0.0372299
0.2591617 0.3226460 0.0359403
0.3070563 0.3292673 0.0347549
0.3443124 0.3271318 0.0330713
0.3694104 0.3145587 0.0300630
0.3889491 0.2964291 0.0258003
0.4114525 0.2795351 0.0211020
0.4411319 0.2675354 0.0169231
0.4770706 0.2602805 0.0135527
0.5161959 0.2562660 0.0108115
0.5553246 0.2542097 0.0083966
0.5921274 0.2532706 0.0061819
0.6237281 0.2520731 0.0040228
0.6498797 0.2500497 0.0018485
0.6732883 0.2479462 0.0000000
0.6965042 0.2465192 0.0000000
0.7205732 0.2459962 0.0000000
0.7458013 0.2463135 0.0000000
0.7718774 0.2472114 0.0000000
0.7982419 0.2483582 0.0011344
0.8243178 0.2493162 0.0045313
0.8496418 0.2497312 0.0085238
0.8741534 0.2495054 0.0129172
0.8979495 0.2488048 0.0175521
0.9213048 0.2479238 0.0223150
0.9442970 0.2472030 0.0271343
0.9671461 0.2468498 0.0319744
0.9899582 0.2466401 0.0367071
0.0000000 0.3374254 0.0596657
0.0342668 0.3377450 0.0555061
0.0726233 0.3378328 0.0517808
0.1107644 0.3376491 0.0489243
0.1490333 0.3374257 0.0469240
0.1884904 0.3379646 0.0451859
0.2308620 0.3406247 0.0433407
0.2747817 0.3440733 0.0408432
0.3149749 0.3437982 0.0371386
0.3479676 0.3368041 0.0320629
0.3758921 0.3249354 0.0260366
0.4038862 0.3124499 0.0200670
0.4353481 0.3022025 0.0150307
0.4704584 0.2946768 0.0111547
0.5081869 0.2897123 0.0082431
0.5467620 0.2865968 0.0058958
0.5850971 0.2851676 0.0039463
0.6220762 0.2854097 0.0024904
0.6557811 0.2864843 0.0016161
0.6839594 0.2866984 0.0011571
0.7086403 0.2865619 0.0006392
0.7325800 0.2870604 0.0005731
0.7568816 0.2882910 0.0014413
0.7813755 0.2896881 0.0032696
0.8056471 0.2908035 0.0059646
0.8293501 0.2913369 0.0093451
0.8524428 0.2912228 0.0132340
0.8751368 0.2904528 0.0174461
0.8976492 0.2891616 0.0219681
0.9203188 0.2875320 0.0266083
0.9429760 0.2857980 0.0312072
0.9656701 0.2842098 0.0356769
0.9883771 0.2827643 0.0400084
0.0000000 0.3752733 0.0632215
0.0286502 0.3730242 0.0591549
0.0641812 0.3703060 0.0552992
0.0987989 0.3668930 0.0520069
0.1326665 0.3628897 0.0493433
0.1667477 0.3589944 0.0469544
0.2031332 0.3568452 0.0445201
0.2431779 0.3573122 0.0416249
0.2846264 0.3581573 0.0374867
0.3238247 0.3562167 0.0318319
0.3597702 0.3508658 0.0250918
0.3941153 0.3437309 0.0182748
0.4286366 0.3364026 0.0122710
0.4637782 0.3293946 0.0074937
0.4999547 0.3234587 0.0039290
0.5372574 0.3192041 0.0013519
0.5752679 0.3168522 0.0000000
0.6134872 0.3167454 0.0000000
0.6512906 0.3190991 0.0000000
0.6866976 0.3228207 0.0000000
0.7175572 0.3261192 0.0003627
0.7446863 0.3289111 0.0020263
0.7698425 0.3314792 0.0042548
0.7933147 0.3330725 0.0068594
0.8152528 0.3333250 0.0096219
0.8360868 0.3324405 0.0125652
0.8565228 0.3309560 0.0159201
0.8770236 0.3291595 0.0197338
0.8979005 0.3271757 0.0240124
0.9194448 0.3251878 0.0286580
0.9415639 0.3231901 0.0333908
0.9639959 0.3210146 0.0378380
0.9865163 0.3188148 0.0420062
0.0000000 0.4089228 0.0652430
0.0192075 0.4037592 0.0604111
0.0517419 0.3981927 0.0556924
0.0833840 0.3919923 0.0513125
0.1142338 0.3852569 0.0473847
0.1452259 0.3786927 0.0438754
0.1781850 0.3736726 0.0406411
0.2150413 0.3715624 0.0373576
0.2558384 0.3720996 0.0332792
0.2982518 0.3732140 0.0278663
0.3397291 0.3728270 0.0212673
0.3795188 0.3705821 0.0143498
0.4178128 0.3668518 0.0078926
0.4548742 0.3620021 0.0024449
0.4912481 0.3566747 0.0000000
0.5277977 0.3519941 0.0000000
0.5651002 0.3489344 0.0000000
0.6031729 0.3481889 0.0000000
0.6417160 0.3501410 0.0000000
0.6797439 0.3544939 0.0000000
0.7158658 0.3603854 0.0000000
0.7491112 0.3667984 0.0000981
0.7787232 0.3723399 0.0043977
0.8034003 0.3748906 0.0083702
0.8238168 0.3741064 0.0113002
0.8422123 0.3714410 0.0137091
0.8602811 0.3682161 0.0163516
0.8787583 0.3650142 0.0195481
0.8981288 0.3621684 0.0234381
0.9186475 0.3598365 0.0279714
0.9401920 0.3579075 0.0328985
0.9622648 0.3559300 0.0377420
0.9845358 0.3537264 0.0422380
0.0000000 0.4386891 0.0657628
0.0073352 0.4309957 0.0596125
0.0373140 0.4230541 0.0535439
0.0666932 0.4147294 0.0477045
0.0956427 0.4061937 0.0422611
0.1250267 0.3981319 0.0373685
0.1563927 0.3917022 0.0330641
0.1913465 0.3880091 0.0290985
0.2305545 0.3874148 0.0248846
0.2731936 0.3891656 0.0197872
0.3171236 0.3914119 0.0137476
0.3604110 0.3926531 0.0072826
0.4020548 0.3922877 0.0010393
0.4419205 0.3904093 0.0000000
0.4803285 0.3874205 0.0000000
0.5178070 0.3839934 0.0000000
0.5552481 0.3813176 0.0000000
0.5930929 0.3803182 0.0000000
0.6313802 0.3815787 0.0000000
0.6696947 0.3852532 0.0000000
0.7072158 0.3909409 0.0000000
0.7431001 0.3979411 0.0000000
0.7760305 0.4048198 0.0000000
0.8041744 0.4092844 0.0052615
0.8263209 0.4093664 0.0091843
0.8447912 0.4064359 0.0118668
0.8619768 0.4022339 0.0142629
0.8792837 0.3978883 0.0169892
0.8977696 0.3943588 0.0206000
0.9176953 0.3918140 0.0251207
0.9388072 0.3899582 0.0302158
0.9605809 0.3883405 0.0354486
0.9826138 0.3866439 0.0405543
0.0000000 0.4650139 0.0646806
0.0000000 0.4555471 0.0569972
0.0222890 0.4459827 0.0493934
0.0502381 0.4363198 0.0419991
0.0781854 0.4268025 0.0349997
0.1068983 0.4180489 0.0286204
0.1375656 0.4109372 0.0229838
0.1713823 0.4063003 0.0179804
0.2090545 0.4046126 0.0132347
0.2504715 0.4057172 0.0082472
0.2944951 0.4086148 0.0028274
0.3392075 0.4117153 0.0000000
0.3831987 0.4140137 0.0000000
0.4257590 0.4151015 0.0000000
0.4667989 0.4150677 0.0000000
0.5065090 0.4142297 0.0000000
0.5453082 0.4132307 0.0000000
0.5836338 0.4128652 0.0000000
0.6217669 0.4138292 0.0000000
0.6596827 0.4165531 0.0000000
0.6969714 0.4209787 0.0000000
0.7328607 0.4265064 0.0000000
0.7661811 0.4320186 0.0000000
0.7956284 0.4360092 0.0000000
0.8203715 0.4371097 0.0022085
0.8412692 0.4354584 0.0060151
0.8598210 0.4319056 0.0091355
0.8776150 0.4276228 0.0121685
0.8962298 0.4240546 0.0159489
0.9161448 0.4215573 0.0206456
0.9371698 0.4198892 0.0260085
0.9588700 0.4186387 0.0316816
0.9808525 0.4174705 0.0373986
0.0000000 0.4884685 0.0619619
0.0000000 0.4780661 0.0527727
0.0075236 0.4676810 0.0436545
0.0348165 0.4574225 0.0347682
0.0624453 0.4475804 0.0263060
0.0910359 0.4386588 0.0184766
0.1214506 0.4313029 0.0114343
0.1545723 0.4261405 0.0051907
0.1910130 0.4236274 0.0000000
0.2309662 0.4238606 0.0000000
0.2738794 0.4263418 0.0000000
0.3185607 0.4300919 0.0000000
0.3637399 0.4341254 0.0000000
0.4083531 0.4377044 0.0000000
0.4518056 0.4405038 0.0000000
0.4939378 0.4425066 0.0000000
0.5346913 0.4438536 0.0000000
0.5742180 0.4449423 0.0000000
0.6127356 0.4462882 0.0000000
0.6503043 0.4483250 0.0000000
0.6868167 0.4512284 0.0000000
0.7217630 0.4546872 0.0000000
0.7543255 0.4579900 0.0000000
0.7838054 0.4603318 0.0000000
0.8100167 0.4612048 0.0000000
0.8331384 0.4603004 0.0000000
0.8538757 0.4578016 0.0014116
0.8734845 0.4545851 0.0054535
0.8932226 0.4516701 0.0099296
0.9137425 0.4495427 0.0151087
0.9351091 0.4481695 0.0209137
0.9570415 0.4472619 0.0270974
0.9792316 0.4465193 0.0334268
0.0000000 0.5096643 0.0577304
0.0000000 0.4990834 0.0471650
0.0000000 0.4885882 0.0366895
0.0207676 0.4783569 0.0264618
0.0485629 0.4686853 0.0166915
0.0773770 0.4599784 0.0075534
0.1078315 0.4527154 0.0000000
0.1405736 0.4473810 0.0000000
0.1761499 0.4443790 0.0000000
0.2148181 0.4438903 0.0000000
0.2564003 0.4457485 0.0000000
0.3003588 0.4495297 0.0000000
0.3457210 0.4544472 0.0000000
0.3914212 0.4597354 0.0000000
0.4365801 0.4647825 0.0000000
0.4806662 0.4692308 0.0000000
0.5232753 0.4728729 0.0000000
0.5642244 0.4757012 0.0000000
0.6034698 0.4778817 0.0000000
0.6410452 0.4797171 0.0000000
0.6769394 0.4814327 0.0000000
0.7109395 0.4830429 0.0000000
0.7426792 0.4843197 0.0000000
0.7718175 0.4848827 0.0000000
0.7985075 0.4846760 0.0000000
0.8230552 0.4837228 0.0000000
0.8458405 0.4819942 0.0000000
0.8675331 0.4798262 0.0000000
0.8888833 0.4777676 0.0030119
0.9104851 0.4761988 0.0089353
0.9325598 0.4751888 0.0153779
0.9550055 0.4745769 0.0221956
0.9776341 0.4741301 0.0291663
0.0000000 0.5292082 0.0521840
0.0000000 0.5190362 0.0404495
0.0000000 0.5089769 0.0288202
0.0081459 0.4992388 0.0174668
0.0364145 0.4901029 0.0065763
0.0656747 0.4819041 0.0000000
0.0963755 0.4750192 0.0000000
0.1290209 0.4698329 0.0000000
0.1640770 0.4666822 0.0000000
0.2018223 0.4657938 0.0000000
0.2422858 0.4672063 0.0000000
0.2852735 0.4707776 0.0000000
0.3301648 0.4760124 0.0000000
0.3760811 0.4822401 0.0000000
0.4220614 0.4887466 0.0000000
0.4673436 0.4949258 0.0000000
0.5112585 0.5003323 0.0000000
0.5533736 0.5046837 0.0000000
0.5934186 0.5078524 0.0000000
0.6312847 0.5098959 0.0000000
0.6669722 0.5110047 0.0000000
0.7004617 0.5113955 0.0000000
0.7317154 0.5111879 0.0000000
0.7607112 0.5103951 0.0000000
0.7876358 0.5090982 0.0000000
0.8129387 0.5075524 0.0000000
0.8372100 0.5060200 0.0000000
0.8606683 0.5044280 0.0000000
0.8836821 0.5030416 0.0000000
0.9065678 0.5019982 0.0024543
0.9295501 0.5013208 0.0097104
0.9526799 0.5009201 0.0172819
0.9758921 0.5006451 0.0249977
0.0000000 0.5476475 0.0455451
0.0000000 0.5382804 0.0329018
0.0000000 0.5290332 0.0203809
0.0000000 0.5201076 0.0081446
0.0257966 0.5117633 0.0000000
0.0556254 0.5042917 0.0000000
0.0867246 0.4980058 0.0000000
0.1194794 0.4932239 0.0000000
0.1543044 0.4902405 0.0000000
0.1914824 0.4892943 0.0000000
0.2311230 0.4905223 0.0000000
0.2731735 0.4938961 0.0000000
0.3172728 0.4991226 0.0000000
0.3627485 0.5056745 0.0000000
0.4087420 0.5128668 0.0000000
0.4544015 0.5200024 0.0000000
0.4989432 0.5265067 0.0000000
0.5417565 0.5319237 0.0000000
0.5824359 0.5359459 0.0000000
0.6207478 0.5384411 0.0000000
0.6566382 0.5395083 0.0000000
0.6901370 0.5393866 0.0000000
0.7213575 0.5383674 0.0000000
0.7504931 0.5367365 0.0000000
0.7778545 0.5347529 0.0000000
0.8038999 0.5327122 0.0000000
0.8291415 0.5309008 0.0000000
0.8538588 0.5293621 0.0000000
0.8782358 0.5282255 0.0000000
0.9023213 0.5274757 0.0000000
0.9262025 0.5269809 0.0040887
0.9500198 0.5266592 0.0125624
0.9738364 0.5264183 0.0211471
0.0000000 0.5654169 0.0380765
0.0000000 0.5571014 0.0248022
0.0000000 0.5488955 0.0116388
0.0000000 0.5409831 0.0000000
0.0164989 0.5335975 0.0000000
0.0469644 0.5270028 0.0000000
0.0785346 0.5214712 0.0000000
0.1115347 0.5172812 0.0000000
0.1463185 0.5146994 0.0000000
0.1831688 0.5139552 0.0000000
0.2222051 0.5151985 0.0000000
0.2634255 0.5184481 0.0000000
0.3066073 0.5235105 0.0000000
0.3512522 0.5299763 0.0000000
0.3966635 0.5372600 0.0000000
0.4420419 0.5447067 0.0000000
0.4865949 0.5516962 0.0000000
0.5296393 0.5577016 0.0000000
0.5706802 0.5623246 0.0000000
0.6094391 0.5653359 0.0000000
0.6457744 0.5667267 0.0000000
0.6796819 0.5666655 0.0000000
0.7113092 0.5654880 0.0000000
0.7409679 0.5635844 0.0000000
0.7690360 0.5613334 0.0000000
0.7959649 0.5590575 0.0000000
0.8221212 0.5569902 0.0000000
0.8477596 0.5552439 0.0000000
0.8731174 0.5539837 0.0000000
0.8981001 0.5531587 0.0000000
0.9226867 0.5525960 0.0000000
0.9470448 0.5521772 0.0080746
0.9713194 0.5518137 0.0176754
0.0000000 0.5828567 0.0299845
0.0000000 0.5757183 0.0163093
0.0000000 0.5686733 0.0027019
0.0000000 0.5618805 0.0000000
0.0083173 0.5555501 0.0000000
0.0394257 0.5499208 0.0000000
0.0714929 0.5452402 0.0000000
0.1047961 0.5417578 0.0000000
0.1396435 0.5397184 0.0000000
0.1762799 0.5393216 0.0000000
0.2148222 0.5406970 0.0000000
0.2552855 0.5438662 0.0000000
0.2975124 0.5486887 0.0000000
0.3411494 0.5548388 0.0000000
0.3856471 0.5618488 0.0000000
0.4303103 0.5691564 0.0000000
0.4744141 0.5761765 0.0000000
0.5172887 0.5823797 0.0000000
0.5584319 0.5873495 0.0000000
0.5975145 0.5908116 0.0000000
0.6343539 0.5926772 0.0000000
0.6688934 0.5930397 0.0000000
0.7012709 0.5921800 0.0000000
0.7317671 0.5904737 0.0000000
0.7607699 0.5883208 0.0000000
0.7886764 0.5860602 0.0000000
0.8157857 0.5839166 0.0000000
0.8423286 0.5820371 0.0000000
0.8684541 0.5805402 0.0000000
0.8940760 0.5794020 0.0000000
0.9191450 0.5785481 0.0000000
0.9437889 0.5778490 0.0036682
0.9682537 0.5772004 0.0144012
0.0000000 0.6002206 0.0214129
0.0000000 0.5942968 0.0075122
0.0000000 0.5884496 0.0000000
0.0000000 0.5828160 0.0000000
0.0010701 0.5775798 0.0000000
0.0327841 0.5729563 0.0000000
0.0653268 0.5691705 0.0000000
0.0989305 0.5664491 0.0000000
0.1338518 0.5650060 0.0000000
0.1702934 0.5650076 0.0000000
0.2083777 0.5665543 0.0000000
0.2481215 0.5696576 0.0000000
0.2894087 0.5742038 0.0000000
0.3319747 0.5799369 0.0000000
0.3754149 0.5864836 0.0000000
0.4191318 0.5933894 0.0000000
0.4624965 0.6001501 0.0000000
0.5049218 0.6062824 0.0000000
0.5459380 0.6113862 0.0000000
0.5851954 0.6151819 0.0000000
0.6224825 0.6175352 0.0000000
0.6577335 0.6184817 0.0000000
0.6910204 0.6182144 0.0000000
0.7225605 0.6170307 0.0000000
0.7526510 0.6152759 0.0000000
0.7816198 0.6132678 0.0000000
0.8097074 0.6112470 0.0000000
0.8371162 0.6093823 0.0000000
0.8639469 0.6077498 0.0000000
0.8901583 0.6063411 0.0000000
0.9156055 0.6050972 0.0000000
0.9403069 0.6039823 0.0000000
0.9646039 0.6029327 0.0108048
0.0000000 0.6176773 0.0125186
0.0000000 0.6129475 0.0000000
0.0000000 0.6082835 0.0000000
0.0000000 0.6037987 0.0000000
0.0000000 0.5996545 0.0000000
0.0268462 0.5960376 0.0000000
0.0597844 0.5931506 0.0000000
0.0936342 0.5911918 0.0000000
0.1285849 0.5903377 0.0000000
0.1648133 0.5907286 0.0000000
0.2024415 0.5924407 0.0000000
0.2414864 0.5954741 0.0000000
0.2818522 0.5997283 0.0000000
0.3233519 0.6050083 0.0000000
0.3656854 0.6110208 0.0000000
0.4083646 0.6174073 0.0000000
0.4508559 0.6237563 0.0000000
0.4926616 0.6296530 0.0000000
0.5333825 0.6347383 0.0000000
0.5726700 0.6387471 0.0000000
0.6103196 0.6415334 0.0000000
0.6462415 0.6430843 0.0000000
0.6804554 0.6435095 0.0000000
0.7130936 0.6430162 0.0000000
0.7443477 0.6418710 0.0000000
0.7744413 0.6403357 0.0000000
0.8035509 0.6386376 0.0000000
0.8318215 0.6369424 0.0000000
0.8593283 0.6353335 0.0000000
0.8860749 0.6338297 0.0000000
0.9119561 0.6323748 0.0000000
0.9366055 0.6308165 0.0000000
0.9604333 0.6293252 0.0059657
0.0000000 0.6353228 0.0034592
0.0000000 0.6317436 0.0000000
0.0000000 0.6282159 0.0000000
0.0000000 0.6248405 0.0000000
0.0000000 0.6217500 0.0000000
0.0214437 0.6191085 0.0000000
0.0546702 0.6170879 0.0000000
0.0886695 0.6158524 0.0000000
0.1235835 0.6155523 0.0000000
0.1595621 0.6162990 0.0000000
0.1967115 0.6181520 0.0000000
0.2350628 0.6211033 0.0000000
0.2745485 0.6250699 0.0000000
0.3150281 0.6299023 0.0000000
0.3562612 0.6353767 0.0000000
0.3978850 0.6412152 0.0000000
0.4394526 0.6470922 0.0000000
0.4805680 0.6526687 0.0000000
0.5208849 0.6576371 0.0000000
0.5600935 0.6617583 0.0000000
0.5979908 0.6648929 0.0000000
0.6344817 0.6669926 0.0000000
0.6695451 0.6681017 0.0000000
0.7032279 0.6683517 0.0000000
0.7356330 0.6679252 0.0000000
0.7668691 0.6670175 0.0000000
0.7970469 0.6658082 0.0000000
0.8262266 0.6644464 0.0000000
0.8544434 0.6630231 0.0000000
0.8816611 0.6615672 0.0000000
0.9077605 0.6600505 0.0000000
0.9325334 0.6584016 0.0000000
0.9561512 0.6566492 0.0000000
0.0000000 0.6532166 0.0000000
0.0000000 0.6507223 0.0000000
0.0000000 0.6482714 0.0000000
0.0000000 0.6459428 0.0000000
0.0000000 0.6438466 0.0000000
0.0164506 0.6421213 0.0000000
0.0498372 0.6409098 0.0000000
0.0838758 0.6403443 0.0000000
0.1186785 0.6405473 0.0000000
0.1543475 0.6416089 0.0000000
0.1909914 0.6435733 0.0000000
0.2286564 0.6464333 0.0000000
0.2673108 0.6501275 0.0000000
0.3068335 0.6545429 0.0000000
0.3470133 0.6595110 0.0000000
0.3876000 0.6648203 0.0000000
0.4282461 0.6702203 0.0000000
0.4686447 0.6754431 0.0000000
0.5085017 0.6802366 0.0000000
0.5475457 0.6843969 0.0000000
0.5855833 0.6877905 0.0000000
0.6225232 0.6903538 0.0000000
0.6582982 0.6920850 0.0000000
0.6929107 0.6930503 0.0000000
0.7263793 0.6933646 0.0000000
0.7587350 0.6931594 0.0000000
0.7899967 0.6925595 0.0000000
0.8201546 0.6916790 0.0000000
0.8491657 0.6906002 0.0000000
0.8769866 0.6893722 0.0000000
0.9035117 0.6880044 0.0000000
0.9286711 0.6864999 0.0000000
0.9527864 0.6848824 0.0000000
0.0000000 0.6713850 0.0000000
0.0000000 0.6698990 0.0000000
0.0000000 0.6684472 0.0000000
0.0000000 0.6670905 0.0000000
0.0000000 0.6659177 0.0000000
