catalog/styles/series/movie/series-movie-studio-cut/look.cube
# series-movie-studio-cut iteration 4
LUT_3D_SIZE 5
DOMAIN_MIN 0 0 0
DOMAIN_MAX 1 1 1
0.0439728 0.0512925 0.0463416
0.3646648 0.0123305 0.0213084
0.7251404 0.0000000 0.0000000
0.8850408 0.0000000 0.0000000
0.9833304 0.0000000 0.0000000
0.0000000 0.2951604 0.0542589
0.3443124 0.3271318 0.0330713
0.5921274 0.2532706 0.0061819
0.7982419 0.2483582 0.0011344
0.9899582 0.2466401 0.0367071
0.0000000 0.5292082 0.0521840
0.1640770 0.4666822 0.0000000
0.5112585 0.5003323 0.0000000
0.7876358 0.5090982 0.0000000
0.9758921 0.5006451 0.0249977
0.0000000 0.6713850 0.0000000
0.1137696 0.6652630 0.0000000
0.4172112 0.6931771 0.0000000
0.7165630 0.7181929 0.0000000
0.9512893 0.7137273 0.0000000
0.0000000 0.8245862 0.0000000
0.0725130 0.8546464 0.0000000
0.3320474 0.8741610 0.0000000
0.6261077 0.9047946 0.0000000
0.9602021 0.9496091 0.0000000
0.0583237 0.0213055 0.4626272
0.3406400 0.0407306 0.2872436
0.7345190 0.1173655 0.2809476
0.9187776 0.1888306 0.2552421
0.9763768 0.3151729 0.2880707
0.0324488 0.2735345 0.2959612
0.2607050 0.2606377 0.2615949
0.5464525 0.2423050 0.2099252
0.8051083 0.3063156 0.2279782
1.0000000 0.3641272 0.2458055
0.0000000 0.4853179 0.2479664
0.2009437 0.4783452 0.1957792
0.4841285 0.4737035 0.1771194
0.7317198 0.4620611 0.1754770
0.9728434 0.4872393 0.1881003
0.0000000 0.6507552 0.1735595
0.1375369 0.6453847 0.1230807
0.3990280 0.6495298 0.0988266
0.6981956 0.6931320 0.1455223
0.9538271 0.7037067 0.1680894
0.0000000 0.7876417 0.0660528
0.0848933 0.8156447 0.0496444
0.3556073 0.8536501 0.0598497
0.6412762 0.8967917 0.1050923
0.9479194 0.9522754 0.1947344
0.2129144 0.1422538 0.7336987
0.4573050 0.1558180 0.6231524
0.6839570 0.2012395 0.5608611
0.8862827 0.2974961 0.5534432
1.0000000 0.4106570 0.5366893
0.0264229 0.1984710 0.5442706
0.3848795 0.3448316 0.6314528
0.6649443 0.3882637 0.5786984
0.8593404 0.4093902 0.5143382
1.0000000 0.4520648 0.4982797
0.0374326 0.4547611 0.4618559
0.2057872 0.4593985 0.4962095
0.5920382 0.5521424 0.5402971
0.8184906 0.5421791 0.4615851
0.9852499 0.5202220 0.4594823
0.0000000 0.6187936 0.3690146
0.1505357 0.6163616 0.3532265
0.4398174 0.6624040 0.4007460
0.7176645 0.6951174 0.4580373
0.9509618 0.7087746 0.4523095
0.0000000 0.7406621 0.2351518
0.0933893 0.7793702 0.2689817
0.3677515 0.8226593 0.3228133
0.6564975 0.8897653 0.4174473
0.9490851 0.9511450 0.5303065
0.4484699 0.3539016 0.8619356
0.5921317 0.3186791 0.9165634
0.7185516 0.3206115 0.8749766
0.8592317 0.3539644 0.8288976
1.0000000 0.4069489 0.7774811
0.2518558 0.3673262 0.8469122
0.4305784 0.3851695 0.8419393
0.6552263 0.4398242 0.8456498
0.8731901 0.4933049 0.8202244
1.0000000 0.5521124 0.7983252
0.1194430 0.4597757 0.7035719
0.2531740 0.4554406 0.7298247
0.5705350 0.5426738 0.7836873
0.8692368 0.6351170 0.7984343
1.0000000 0.6898801 0.7940994
0.0000000 0.5649165 0.5679163
0.1555299 0.5928475 0.6020887
0.4931046 0.6758692 0.6756013
0.8286867 0.7928554 0.7829596
1.0000000 0.7967461 0.7544512
0.0000000 0.6673693 0.4323934
0.0992991 0.7393763 0.4992727
0.3822417 0.7910471 0.5649535
0.6461333 0.8350981 0.6402694
0.9453771 0.9421705 0.7559440
0.6875983 0.5296211 1.0000000
0.7177542 0.4779105 1.0000000
0.7646030 0.4375884 1.0000000
0.8404792 0.4053560 1.0000000
0.9573665 0.3776690 1.0000000
0.4989413 0.5261622 1.0000000
0.5083075 0.4639991 1.0000000
0.6233441 0.4710351 1.0000000
0.8644519 0.5598861 1.0000000
1.0000000 0.6744645 1.0000000
0.2741640 0.5249327 0.9458347
0.3164807 0.4895448 0.9535561
0.4997776 0.5281819 0.9830734
0.8779867 0.7170673 1.0000000
1.0000000 0.9317343 1.0000000
0.0000000 0.5179419 0.7837737
0.1877522 0.5795996 0.8599180
0.4682580 0.6604813 0.9147123
0.8136221 0.7973482 0.9917107
1.0000000 1.0000000 1.0000000
0.0000000 0.5651970 0.6247303
0.0880058 0.6908631 0.7446942
0.4276466 0.7620755 0.8093901
0.6987499 0.8210729 0.8411542
0.9781512 0.9750907 0.9601952
