catalog/styles/series/movie/series-movie-studio-cut/look.cube
# series-movie-studio-cut iteration 4
LUT_3D_SIZE 9
DOMAIN_MIN 0 0 0
DOMAIN_MAX 1 1 1
0.0439728 0.0512925 0.0463416
0.1393581 0.0176145 0.0181705
0.3646648 0.0123305 0.0213084
0.5849130 0.0075270 0.0000000
0.7251404 0.0000000 0.0000000
0.8235370 0.0000000 0.0000000
0.8850408 0.0000000 0.0000000
0.9370137 0.0000000 0.0000000
0.9833304 0.0000000 0.0000000
0.0000000 0.0969384 0.0103093
0.1499472 0.1267153 0.0000000
0.3947066 0.2076284 0.0180009
0.4610829 0.1329990 0.0110623
0.5842514 0.1156844 0.0000000
0.7003780 0.1004199 0.0000000
0.8127185 0.0915458 0.0000000
0.9086382 0.0957690 0.0000000
0.9905073 0.1121281 0.0173782
0.0000000 0.2951604 0.0542589
0.1606644 0.3064568 0.0389871
0.3443124 0.3271318 0.0330713
0.4411319 0.2675354 0.0169231
0.5921274 0.2532706 0.0061819
0.6965042 0.2465192 0.0000000
0.7982419 0.2483582 0.0011344
0.8979495 0.2488048 0.0175521
0.9899582 0.2466401 0.0367071
0.0000000 0.4386891 0.0657628
0.0956427 0.4061937 0.0422611
0.2305545 0.3874148 0.0248846
0.4020548 0.3922877 0.0010393
0.5552481 0.3813176 0.0000000
0.7072158 0.3909409 0.0000000
0.8263209 0.4093664 0.0091843
0.8977696 0.3943588 0.0206000
0.9826138 0.3866439 0.0405543
0.0000000 0.5292082 0.0521840
0.0364145 0.4901029 0.0065763
0.1640770 0.4666822 0.0000000
0.3301648 0.4760124 0.0000000
0.5112585 0.5003323 0.0000000
0.6669722 0.5110047 0.0000000
0.7876358 0.5090982 0.0000000
0.8836821 0.5030416 0.0000000
0.9758921 0.5006451 0.0249977
0.0000000 0.6002206 0.0214129
0.0010701 0.5775798 0.0000000
0.1338518 0.5650060 0.0000000
0.2894087 0.5742038 0.0000000
0.4624965 0.6001501 0.0000000
0.6224825 0.6175352 0.0000000
0.7526510 0.6152759 0.0000000
0.8639469 0.6077498 0.0000000
0.9646039 0.6029327 0.0108048
0.0000000 0.6713850 0.0000000
0.0000000 0.6659177 0.0000000
0.1137696 0.6652630 0.0000000
0.2600468 0.6748622 0.0000000
0.4172112 0.6931771 0.0000000
0.5731344 0.7103550 0.0000000
0.7165630 0.7181929 0.0000000
0.8434468 0.7179136 0.0000000
0.9512893 0.7137273 0.0000000
0.0000000 0.7467524 0.0000000
0.0000000 0.7536146 0.0000000
0.0934646 0.7612206 0.0000000
0.2300144 0.7710502 0.0000000
0.3743242 0.7839123 0.0000000
0.5232814 0.7988823 0.0000000
0.6727943 0.8130416 0.0000000
0.8173530 0.8238179 0.0000000
0.9555809 0.8316023 0.0000000
0.0000000 0.8245862 0.0000000
0.0000000 0.8406149 0.0000000
0.0725130 0.8546464 0.0000000
0.1993051 0.8650778 0.0000000
0.3320474 0.8741610 0.0000000
0.4740693 0.8865522 0.0000000
0.6261077 0.9047946 0.0000000
0.7889489 0.9267397 0.0000000
0.9602021 0.9496091 0.0000000
0.0295935 0.0177233 0.1821536
0.1249754 0.0194402 0.1308750
0.3305759 0.0193851 0.1483589
0.5818658 0.0485910 0.1463614
0.7654570 0.0677837 0.1249622
0.8677254 0.0705538 0.0986704
0.9143236 0.0775202 0.0830574
0.9356386 0.1162366 0.0986695
0.9634012 0.1757976 0.1444283
0.0114220 0.1409355 0.1443645
0.1075473 0.1053719 0.1100556
0.2171203 0.0819441 0.1012846
0.4153869 0.1031323 0.1117453
0.6053141 0.1392614 0.1116381
0.7360198 0.1579395 0.1055420
0.8379128 0.1773584 0.1059960
0.9192230 0.1999908 0.1179072
0.9915003 0.2279253 0.1376873
0.0000000 0.2677753 0.1598931
0.1350813 0.2773252 0.1292456
0.3259550 0.3161375 0.1160539
0.4481403 0.2906508 0.1174324
0.4965125 0.2061016 0.0955029
0.6497890 0.2302776 0.0935112
0.7878228 0.2646351 0.1050309
0.9040242 0.2924916 0.1208126
1.0000000 0.3082542 0.1350307
0.0000000 0.4035145 0.1697660
0.1032738 0.3932917 0.1307554
0.2339830 0.3852743 0.0973563
0.3794748 0.3787755 0.0985111
0.5212724 0.3651609 0.1055772
0.6271238 0.3396941 0.0841421
0.7572606 0.3577203 0.0861471
0.8970958 0.4007998 0.1124122
0.9913322 0.4064132 0.1271550
0.0000000 0.5061995 0.1504329
0.0610102 0.4874147 0.1103869
0.1813174 0.4713260 0.0727718
0.3244752 0.4679381 0.0460090
0.4911331 0.4806213 0.0495656
0.6463116 0.4941601 0.0657706
0.7490900 0.4769687 0.0606861
0.8665400 0.4887957 0.0790841
0.9764644 0.4960118 0.0990827
0.0000000 0.5881028 0.1184607
0.0263623 0.5748363 0.0783185
0.1514515 0.5643653 0.0389117
0.2883778 0.5612780 0.0072558
0.4445495 0.5749136 0.0002377
0.6086020 0.5997780 0.0180526
0.7441195 0.6059680 0.0351566
0.8492128 0.5934154 0.0478138
0.9607893 0.5910868 0.0675825
0.0000000 0.6621303 0.0786495
0.0000000 0.6581396 0.0401789
0.1260406 0.6555166 0.0039436
0.2607448 0.6579155 0.0000000
0.4067222 0.6699015 0.0000000
0.5601603 0.6897391 0.0000000
0.7076530 0.7063103 0.0018503
0.8380055 0.7107964 0.0242293
0.9549953 0.7076866 0.0412402
0.0000000 0.7341984 0.0348718
0.0000000 0.7394829 0.0009481
0.1023835 0.7455777 0.0000000
0.2351352 0.7540134 0.0000000
0.3740945 0.7663749 0.0000000
0.5197195 0.7831579 0.0000000
0.6689275 0.8022362 0.0000000
0.8149104 0.8189687 0.0000000
0.9528512 0.8301656 0.0211297
0.0000000 0.8063295 0.0000000
0.0000000 0.8205623 0.0000000
0.0793769 0.8349658 0.0000000
0.2097909 0.8494392 0.0000000
0.3434457 0.8638952 0.0000000
0.4840613 0.8798089 0.0000000
0.6325674 0.8998006 0.0000000
0.7892695 0.9243321 0.0000000
0.9524512 0.9512007 0.0000000
0.0583237 0.0213055 0.4626272
0.1784652 0.0347937 0.3354408
0.3406400 0.0407306 0.2872436
0.5491098 0.0731268 0.2867176
0.7345190 0.1173655 0.2809476
0.8542051 0.1533983 0.2654535
0.9187776 0.1888306 0.2552421
0.9535598 0.2398151 0.2610580
0.9763768 0.3151729 0.2880707
0.0478611 0.1440146 0.3469469
0.1558136 0.1384451 0.3087453
0.2907617 0.1276336 0.2745579
0.4779779 0.1502001 0.2625594
0.6413206 0.1808972 0.2553642
0.7639531 0.2132095 0.2478556
0.8592195 0.2504210 0.2464571
0.9330086 0.2885409 0.2529186
0.9992540 0.3256689 0.2627313
0.0324488 0.2735345 0.2959612
0.1310211 0.2538909 0.2721188
0.2607050 0.2606377 0.2615949
0.3899318 0.2284413 0.2213340
0.5464525 0.2423050 0.2099252
0.6798332 0.2686801 0.2182848
0.8051083 0.3063156 0.2279782
0.9105680 0.3380840 0.2369972
1.0000000 0.3641272 0.2458055
0.0029128 0.3791561 0.2628456
0.1111261 0.3781554 0.2459620
0.2373017 0.3833544 0.2238248
0.3851352 0.3812041 0.2222993
0.5175679 0.3624798 0.2118742
0.6279171 0.3456873 0.1924466
0.7583613 0.3675178 0.1987371
0.8881550 0.4028299 0.2146169
0.9951652 0.4200016 0.2233187
0.0000000 0.4853179 0.2479664
0.0821944 0.4823421 0.2234726
0.2009437 0.4783452 0.1957792
0.3380474 0.4746781 0.1744826
0.4841285 0.4737035 0.1771194
0.6303170 0.4817721 0.1962654
0.7317198 0.4620611 0.1754770
0.8580758 0.4816871 0.1851483
0.9728434 0.4872393 0.1881003
0.0000000 0.5747693 0.2183643
0.0487422 0.5695603 0.1908245
0.1684148 0.5632554 0.1619630
0.2932062 0.5542021 0.1337467
0.4305767 0.5532071 0.1238584
0.5892883 0.5776543 0.1490911
0.7326854 0.5933093 0.1697810
0.8407273 0.5831596 0.1662166
0.9569033 0.5817428 0.1645179
0.0000000 0.6507552 0.1735595
0.0151482 0.6480600 0.1474103
0.1375369 0.6453847 0.1230807
0.2637519 0.6439742 0.1041373
0.3990280 0.6495298 0.0988266
0.5473565 0.6687764 0.1158626
0.6981956 0.6931320 0.1455223
0.8320380 0.7033440 0.1627205
0.9538271 0.7037067 0.1680894
0.0000000 0.7202124 0.1209847
0.0000000 0.7243985 0.1013173
0.1102590 0.7297768 0.0852006
0.2409027 0.7382957 0.0769114
0.3768243 0.7515155 0.0796053
0.5191773 0.7698552 0.0954985
0.6665981 0.7924283 0.1230993
0.8124462 0.8138867 0.1543475
0.9527244 0.8305520 0.1834892
0.0000000 0.7876417 0.0660528
0.0000000 0.8008024 0.0561739
0.0848933 0.8156447 0.0496444
0.2193761 0.8335745 0.0505587
0.3556073 0.8536501 0.0598497
0.4956764 0.8744052 0.0773189
0.6412762 0.8967917 0.1050923
0.7923013 0.9230966 0.1456295
0.9479194 0.9522754 0.1947344
0.1256058 0.0734252 0.6364383
0.2546146 0.0779497 0.5326236
0.3932827 0.0862959 0.4517830
0.5461000 0.1119689 0.4235041
0.6958971 0.1535090 0.4188666
0.8180481 0.2034118 0.4153099
0.9055856 0.2579904 0.4125518
0.9669574 0.3170718 0.4122125
1.0000000 0.3797487 0.4131883
0.0674357 0.1391128 0.5348454
0.2154478 0.1699910 0.5008215
0.3687604 0.1969745 0.4735703
0.5238031 0.2160467 0.4390993
0.6647976 0.2390847 0.4136310
0.7784502 0.2692651 0.3986089
0.8696216 0.3073934 0.3912544
0.9461131 0.3499427 0.3897436
1.0000000 0.3933074 0.3906197
0.0104276 0.1687508 0.2990091
0.1626880 0.2541047 0.4406625
0.3247911 0.3011718 0.4768041
0.4909650 0.3256367 0.4490461
0.6307732 0.3280670 0.4024901
0.7406946 0.3378506 0.3744399
0.8333827 0.3571429 0.3652134
0.9229107 0.3835550 0.3654270
1.0000000 0.4122877 0.3688594
0.0418786 0.3549675 0.3514724
0.1234672 0.3616492 0.3849276
0.2316332 0.3720674 0.4016763
0.4134433 0.4069630 0.4000074
0.5587707 0.4010100 0.3741186
0.7008936 0.4107474 0.3317975
0.7991242 0.4120925 0.3320981
0.8943139 0.4210476 0.3355579
0.9938020 0.4389004 0.3419035
0.0071893 0.4711739 0.3529798
0.0968816 0.4704152 0.3498532
0.2106196 0.4771983 0.3458604
0.3570810 0.4858160 0.3379032
0.5163010 0.4970511 0.3533841
0.6303719 0.4793239 0.3195360
0.7652052 0.4898119 0.3164788
0.8647043 0.4830732 0.3098094
0.9714734 0.4893891 0.3110738
0.0000000 0.5607538 0.3205567
0.0628589 0.5562681 0.3032138
0.1778249 0.5551500 0.2888330
0.3075958 0.5567794 0.2795673
0.4411350 0.5558000 0.2787682
0.5834294 0.5667541 0.2996986
0.7297714 0.5861111 0.3162240
0.8452831 0.5851717 0.3076846
0.9557246 0.5800142 0.2948480
0.0000000 0.6362751 0.2703397
0.0271293 0.6332396 0.2519702
0.1462279 0.6326335 0.2386733
0.2721112 0.6359640 0.2343423
0.4073711 0.6448503 0.2429942
0.5500337 0.6606249 0.2660906
0.6948763 0.6832648 0.2964495
0.8299485 0.6995441 0.3126594
0.9522713 0.7052919 0.3137902
0.0000000 0.7028658 0.2101166
0.0000000 0.7074904 0.2011375
0.1170583 0.7139271 0.1966668
0.2483110 0.7254505 0.2022196
0.3863256 0.7433683 0.2202466
0.5284166 0.7650095 0.2477307
0.6710482 0.7878969 0.2800327
0.8120653 0.8102365 0.3125938
0.9504065 0.8297603 0.3431371
0.0000000 0.7665440 0.1463778
0.0000000 0.7811576 0.1516329
0.0891205 0.7972020 0.1590263
0.2261534 0.8167805 0.1732902
0.3648425 0.8407404 0.1972489
0.5063581 0.8679030 0.2289013
0.6509334 0.8957165 0.2678030
0.7979153 0.9235602 0.3168693
0.9473479 0.9518844 0.3751950
0.2129144 0.1422538 0.7336987
0.3383796 0.1491134 0.6862488
0.4573050 0.1558180 0.6231524
0.5708455 0.1713820 0.5781457
0.6839570 0.2012395 0.5608611
0.7917777 0.2444791 0.5569301
0.8862827 0.2974961 0.5534432
0.9670483 0.3542521 0.5467206
1.0000000 0.4106570 0.5366893
0.1256978 0.1731576 0.6765471
0.2778544 0.2142825 0.6467176
0.4256027 0.2519850 0.6298757
0.5556638 0.2740896 0.6002367
0.6748062 0.2935459 0.5699099
0.7819332 0.3201885 0.5491942
0.8738793 0.3534988 0.5356077
0.9556763 0.3913686 0.5255954
1.0000000 0.4313605 0.5177002
0.0264229 0.1984710 0.5442706
0.2111375 0.2782779 0.5890943
0.3848795 0.3448316 0.6314528
0.5337741 0.3740465 0.6158050
0.6649443 0.3882637 0.5786984
0.7728666 0.3977698 0.5397385
0.8593404 0.4093902 0.5143382
0.9415655 0.4288839 0.5034159
1.0000000 0.4520648 0.4982797
0.0177889 0.2835905 0.4292837
0.1485804 0.3572672 0.5300920
0.2902874 0.4001708 0.5834756
0.5010973 0.4673577 0.6099200
0.6532585 0.4867997 0.5846186
0.7487524 0.4705296 0.5203712
0.8402044 0.4679653 0.4859471
0.9231136 0.4702457 0.4791786
1.0000000 0.4774072 0.4788807
0.0374326 0.4547611 0.4618559
0.1011602 0.4444071 0.4667571
0.2057872 0.4593985 0.4962095
0.4013873 0.5113149 0.5321733
0.5920382 0.5521424 0.5402971
0.6613510 0.5080675 0.4757139
0.8184906 0.5421791 0.4615851
0.9000915 0.5259651 0.4598077
0.9852499 0.5202220 0.4594823
0.0000000 0.5497339 0.4269693
0.0697534 0.5343345 0.4110795
0.1753605 0.5341554 0.4111605
0.3221275 0.5572962 0.4274963
0.4942188 0.5930998 0.4562208
0.6416495 0.6112672 0.4827291
0.7443589 0.5921959 0.4533526
0.8701982 0.6082184 0.4575129
0.9668204 0.6003380 0.4461545
0.0000000 0.6187936 0.3690146
0.0343592 0.6145608 0.3574846
0.1505357 0.6163616 0.3532265
0.2855999 0.6321806 0.3664905
0.4398174 0.6624040 0.4007460
0.5965732 0.6927500 0.4438970
0.7176645 0.6951174 0.4580373
0.8380573 0.7037186 0.4607911
0.9509618 0.7087746 0.4523095
0.0000000 0.6801344 0.3029996
0.0000000 0.6881778 0.3042472
0.1226551 0.6984643 0.3095225
0.2576174 0.7152323 0.3261513
0.4025778 0.7418099 0.3596913
0.5515517 0.7730575 0.4040895
0.6907105 0.7969187 0.4423570
0.8169119 0.8104402 0.4642511
0.9440354 0.8263390 0.4833186
0.0000000 0.7406621 0.2351518
0.0000000 0.7601866 0.2515997
0.0933893 0.7793702 0.2689817
0.2301585 0.7991380 0.2911756
0.3677515 0.8226593 0.3228133
0.5094090 0.8534855 0.3656406
0.6564975 0.8897653 0.4174473
0.8038799 0.9232752 0.4733803
0.9490851 0.9511450 0.5303065
0.3147718 0.2336266 0.7972793
0.4272198 0.2349738 0.8027755
0.5254193 0.2369741 0.7794206
0.6123032 0.2434156 0.7436929
0.6964969 0.2598329 0.7168404
0.7832348 0.2881974 0.7015572
0.8705817 0.3267028 0.6898816
0.9559830 0.3704620 0.6746786
1.0000000 0.4161721 0.6564912
0.2282745 0.2517156 0.7884479
0.3500229 0.2780233 0.7728639
0.4711349 0.3019539 0.7605598
0.5799204 0.3213147 0.7418676
0.6810226 0.3395690 0.7181592
0.7796851 0.3631671 0.6975516
0.8726635 0.3913971 0.6802543
0.9602961 0.4229533 0.6644468
1.0000000 0.4565675 0.6501745
0.1239413 0.2864554 0.7369516
0.2646844 0.3186397 0.7270347
0.4050957 0.3594213 0.7357875
0.5407324 0.3939185 0.7358997
0.6665050 0.4199973 0.7200017
0.7765359 0.4389187 0.6931510
0.8724158 0.4556112 0.6685369
0.9616165 0.4752151 0.6522809
1.0000000 0.4974068 0.6412040
0.0241529 0.3127952 0.6126905
0.1751665 0.3606337 0.6524976
0.3015955 0.3965692 0.6920134
0.4802807 0.4514440 0.7091239
0.6607234 0.5080018 0.7234938
0.7686806 0.5128871 0.6850753
0.8631380 0.5182333 0.6512762
0.9554910 0.5290060 0.6362831
1.0000000 0.5411485 0.6305048
0.0633339 0.4466201 0.5828326
0.1014480 0.4146896 0.5572732
0.2181768 0.4441412 0.6156046
0.3830054 0.4833961 0.6373970
0.6638130 0.6071021 0.7213483
0.7472562 0.5835583 0.6682754
0.8315200 0.5730523 0.6233001
0.9370505 0.5869175 0.6166829
1.0000000 0.5924967 0.6193263
0.0184369 0.5370707 0.5359132
0.0775297 0.5147852 0.5188629
0.1760472 0.5157309 0.5265850
0.3297685 0.5467181 0.5615928
0.5870478 0.6582272 0.6507047
0.7271394 0.6781588 0.6658785
0.7694432 0.6133958 0.5842692
0.9053961 0.6527477 0.5994393
1.0000000 0.6564812 0.6064980
0.0000000 0.5947101 0.4680672
0.0374187 0.5948103 0.4681105
0.1512469 0.6013707 0.4734232
0.3008669 0.6299044 0.4996333
0.4800401 0.6825704 0.5520269
0.6638700 0.7444329 0.6215669
0.7851428 0.7531648 0.6432957
0.8517872 0.7143769 0.5908953
0.9662886 0.7312947 0.5936670
0.0000000 0.6508952 0.4005192
0.0000000 0.6660636 0.4124661
0.1267206 0.6832286 0.4273616
0.2668646 0.7057074 0.4512159
0.4183579 0.7381835 0.4911475
0.5822950 0.7858318 0.5522292
0.7297911 0.8238681 0.6067017
0.8336101 0.8221287 0.6110161
0.9364703 0.8184557 0.6000035
0.0000000 0.7080072 0.3322959
0.0000000 0.7354520 0.3572149
0.0978610 0.7606682 0.3821364
0.2361238 0.7826043 0.4095940
0.3701419 0.8042128 0.4431088
0.5058603 0.8301065 0.4855770
0.6513688 0.8668271 0.5399647
0.8032028 0.9104570 0.6018952
0.9495299 0.9496118 0.6583539
0.4484699 0.3539016 0.8619356
0.5211775 0.3280862 0.9079147
0.5921317 0.3186791 0.9165634
0.6565638 0.3164044 0.8997672
0.7185516 0.3206115 0.8749766
0.7852337 0.3333398 0.8511322
0.8592317 0.3539644 0.8288976
0.9388634 0.3794833 0.8043464
1.0000000 0.4069489 0.7774811
0.3457929 0.3474842 0.8782846
0.4295446 0.3493751 0.8816225
0.5150776 0.3543637 0.8810112
0.6007678 0.3650015 0.8737037
0.6870885 0.3803025 0.8602723
0.7761770 0.4001554 0.8437256
0.8675941 0.4239860 0.8256299
0.9601530 0.4508833 0.8074720
1.0000000 0.4795051 0.7896602
0.2518558 0.3673262 0.8469122
0.3343769 0.3708545 0.8415157
0.4305784 0.3851695 0.8419393
0.5404726 0.4108287 0.8467342
0.6552263 0.4398242 0.8456498
0.7661476 0.4666098 0.8345862
0.8731901 0.4933049 0.8202244
0.9782469 0.5220448 0.8082616
1.0000000 0.5521124 0.7983252
0.1664153 0.3973948 0.7723401
0.2371487 0.3961099 0.7740714
0.3396291 0.4148456 0.7953984
0.4733692 0.4528815 0.8177904
0.6215924 0.4982152 0.8271624
0.7546711 0.5325900 0.8209725
0.8733336 0.5620100 0.8103296
0.9880347 0.5929662 0.8041820
1.0000000 0.6235876 0.8008375
0.1194430 0.4597757 0.7035719
0.1396517 0.4323297 0.6927203
0.2531740 0.4554406 0.7298247
0.4103613 0.4959058 0.7829855
0.5705350 0.5426738 0.7836873
0.7463144 0.6057700 0.8047057
0.8692368 0.6351170 0.7984343
0.9820837 0.6613375 0.7925972
1.0000000 0.6898801 0.7940994
0.0379861 0.5165226 0.6364191
0.0837784 0.5020244 0.6354823
0.1836852 0.5175957 0.6597968
0.3468411 0.5553364 0.7012495
0.5566127 0.6160582 0.7390281
0.7573211 0.7097540 0.8060000
0.8550739 0.7119254 0.7864102
0.9519361 0.7204854 0.7693258
1.0000000 0.7476656 0.7772976
0.0000000 0.5649165 0.5679163
0.0407993 0.5759738 0.5830815
0.1555299 0.5928475 0.6020887
0.3051289 0.6245689 0.6309718
0.4931046 0.6758692 0.6756013
0.7083028 0.7662543 0.7591585
0.8286867 0.7928554 0.7829596
0.8980015 0.7701182 0.7403435
1.0000000 0.7967461 0.7544512
0.0000000 0.6157818 0.5007727
0.0000000 0.6411638 0.5247386
0.1302862 0.6676495 0.5499891
0.2775735 0.6976159 0.5800014
0.4316867 0.7308982 0.6166818
0.5949021 0.7759376 0.6680991
0.7616414 0.8380834 0.7375982
0.8534235 0.8352799 0.7375714
0.9578065 0.8443345 0.7341912
0.0000000 0.6673693 0.4323934
0.0000000 0.7049899 0.4661500
0.0992991 0.7393763 0.4992727
0.2462275 0.7674900 0.5310916
0.3822417 0.7910471 0.5649535
0.5132982 0.8117076 0.6008935
0.6461333 0.8350981 0.6402694
0.7923366 0.8798633 0.6949865
0.9453771 0.9421705 0.7559440
0.5725372 0.4495369 0.9604508
0.6129047 0.4182790 1.0000000
0.6557321 0.3985819 1.0000000
0.6981882 0.3867058 1.0000000
0.7418304 0.3797030 1.0000000
0.7909852 0.3775996 1.0000000
0.8498483 0.3800118 0.9716139
0.9180928 0.3857588 0.9371702
0.9913606 0.3927826 0.9014113
0.4670485 0.4390130 0.9644004
0.5132303 0.4221875 0.9820876
0.5629589 0.4108053 0.9954256
0.6217081 0.4095233 1.0000000
0.6914160 0.4178543 0.9978596
0.7714242 0.4331404 0.9872265
0.8604917 0.4535758 0.9711031
0.9564974 0.4775227 0.9527231
1.0000000 0.5030710 0.9339868
0.3730939 0.4447065 0.9415153
0.4158129 0.4302232 0.9437716
0.4683861 0.4230860 0.9489871
0.5433272 0.4321662 0.9577954
0.6399336 0.4560559 0.9659961
0.7503955 0.4885369 0.9692316
0.8690712 0.5268343 0.9683661
0.9922422 0.5689880 0.9661529
1.0000000 0.6125555 0.9638703
0.3022497 0.4702647 0.8932839
0.3189880 0.4465577 0.8921142
0.3717927 0.4399041 0.8982615
0.4629844 0.4552255 0.9120295
0.5850283 0.4922981 0.9286560
0.7273487 0.5439273 0.9459526
0.8750279 0.6013158 0.9619017
1.0000000 0.6595615 0.9752888
1.0000000 0.7164189 0.9862295
0.2378808 0.5066340 0.8249208
0.2130245 0.4697367 0.8286265
0.2787070 0.4715015 0.8450987
0.3854395 0.4860042 0.8590713
0.5225884 0.5217765 0.8747325
0.7048987 0.6022045 0.9160700
0.8822098 0.6829008 0.9554018
1.0000000 0.7466106 0.9772779
1.0000000 0.8047379 0.9928591
0.0754702 0.5120927 0.7461029
0.1216081 0.5082367 0.7633745
0.2083638 0.5233819 0.7901225
0.3331950 0.5459065 0.8111632
0.4680152 0.5582543 0.8103950
0.6853795 0.6629373 0.8786606
0.8920868 0.7755063 0.9521193
1.0000000 0.8214896 0.9654568
1.0000000 0.8706435 0.9793217
0.0000000 0.5377937 0.6725412
0.0499225 0.5599586 0.7017175
0.1686414 0.5868379 0.7326349
0.3132558 0.6231223 0.7648439
0.4732710 0.6578996 0.7887203
0.6179257 0.6762933 0.7963016
0.8598838 0.8298087 0.9100650
0.9782928 0.8664375 0.9278636
1.0000000 0.9154929 0.9486122
0.0000000 0.5767236 0.6013779
0.0000000 0.6140414 0.6391197
0.1337156 0.6516245 0.6762507
0.2890514 0.6900332 0.7117379
0.4453128 0.7259513 0.7433788
0.5910710 0.7533175 0.7667108
0.7366156 0.7901623 0.7951317
0.8850147 0.8572257 0.8485683
1.0000000 0.9313729 0.8967469
0.0000000 0.6186726 0.5300190
0.0000000 0.6691806 0.5765975
0.0953755 0.7155894 0.6202183
0.2577490 0.7519764 0.6573131
0.4033281 0.7779616 0.6871958
0.5390893 0.8004873 0.7152593
0.6686112 0.8261504 0.7450143
0.7988090 0.8672276 0.7830429
0.9382081 0.9325443 0.8350403
0.6875983 0.5296211 1.0000000
0.7015876 0.5035752 1.0000000
0.7177542 0.4779105 1.0000000
0.7383269 0.4559748 1.0000000
0.7646030 0.4375884 1.0000000
0.7975694 0.4208967 1.0000000
0.8404792 0.4053560 1.0000000
0.8955202 0.3911175 1.0000000
0.9573665 0.3776690 1.0000000
0.5901072 0.5260874 1.0000000
0.5986838 0.4950998 1.0000000
0.6132622 0.4692018 1.0000000
0.6435118 0.4548077 1.0000000
0.6945434 0.4540587 1.0000000
0.7653392 0.4643236 1.0000000
0.8527298 0.4819316 1.0000000
0.9516887 0.5037715 1.0000000
1.0000000 0.5272412 1.0000000
0.4989413 0.5261622 1.0000000
0.4981822 0.4913193 1.0000000
0.5083075 0.4639991 1.0000000
0.5469319 0.4549947 1.0000000
0.6233441 0.4710351 1.0000000
0.7332310 0.5089056 1.0000000
0.8644519 0.5598861 1.0000000
1.0000000 0.6163581 1.0000000
1.0000000 0.6744645 1.0000000
0.4033255 0.5291522 1.0000000
0.3983895 0.4958956 1.0000000
0.4059249 0.4684997 1.0000000
0.4528032 0.4627429 1.0000000
0.5536281 0.4920532 1.0000000
0.7013630 0.5564190 1.0000000
0.8745956 0.6401200 1.0000000
1.0000000 0.7272066 1.0000000
1.0000000 0.8126408 1.0000000
0.2741640 0.5249327 0.9458347
0.2937070 0.5077120 0.9540128
0.3164807 0.4895448 0.9535561
0.3792251 0.4906922 0.9571808
0.4997776 0.5281819 0.9830734
0.6717867 0.6064060 1.0000000
0.8779867 0.7170673 1.0000000
1.0000000 0.8295587 1.0000000
1.0000000 0.9317343 1.0000000
0.1181966 0.5180327 0.8685294
0.1782282 0.5231935 0.8923727
0.2455665 0.5283979 0.9082525
0.3409661 0.5465388 0.9223344
0.4769070 0.5902605 0.9490353
0.6441308 0.6562212 0.9870804
0.8589505 0.7714453 1.0000000
1.0000000 0.9070736 1.0000000
1.0000000 1.0000000 1.0000000
0.0000000 0.5179419 0.7837737
0.0668370 0.5478230 0.8232825
0.1877522 0.5795996 0.8599180
0.3215848 0.6165531 0.8899939
0.4682580 0.6604813 0.9147123
0.6247910 0.7104378 0.9394226
0.8136221 0.7973482 0.9917107
1.0000000 0.9450029 1.0000000
1.0000000 1.0000000 1.0000000
0.0000000 0.5362352 0.7027094
0.0000000 0.5860303 0.7547495
0.1369209 0.6352445 0.8043234
0.2984792 0.6803762 0.8436351
0.4508589 0.7151973 0.8652213
0.5950850 0.7452558 0.8774423
0.7601862 0.8133024 0.9184514
0.9571292 0.9464827 1.0000000
1.0000000 1.0000000 1.0000000
0.0000000 0.5651970 0.6247303
0.0000000 0.6307322 0.6872983
0.0880058 0.6908631 0.7446942
0.2692596 0.7359350 0.7878170
0.4276466 0.7620755 0.8093901
0.5660125 0.7821251 0.8198542
0.6987499 0.8210729 0.8411542
0.8364754 0.8883827 0.8835252
0.9781512 0.9750907 0.9601952
