catalog/styles/experimental/experimental-forge/look.cube
# experimental-forge tuned
LUT_3D_SIZE 5
DOMAIN_MIN 0 0 0
DOMAIN_MAX 1 1 1
0.1584692 0.1574393 0.1710381
0.2329580 0.2353595 0.2595992
0.3361056 0.3427841 0.3731598
0.4635157 0.4693307 0.4985084
0.6790717 0.6872365 0.7089266
0.2452328 0.2461274 0.2750911
0.2896567 0.2890730 0.3201949
0.3042223 0.3003481 0.3438721
0.4444348 0.4436905 0.4732263
0.6722901 0.6760034 0.6900310
0.3265238 0.3225595 0.3599053
0.3976421 0.3950089 0.4308483
0.4216764 0.4205819 0.4549164
0.4670255 0.4716278 0.4888774
0.5773997 0.5828341 0.5965517
0.4588169 0.4588859 0.4611814
0.4587709 0.4588134 0.4626260
0.4702711 0.4704600 0.4776764
0.4893724 0.4907419 0.4958747
0.5872949 0.5926903 0.6084676
0.5694547 0.5694540 0.5694704
0.5696554 0.5696586 0.5697254
0.5572720 0.5573091 0.5575841
0.5541479 0.5542432 0.5549390
0.7354681 0.7363891 0.7426596
0.3286516 0.3248833 0.3627824
0.3089977 0.3087425 0.3359679
0.2822941 0.2825522 0.3133954
0.4158897 0.4189717 0.4484985
0.7265100 0.7247161 0.7283443
0.3846040 0.3827434 0.4150806
0.3191198 0.3192675 0.3571310
0.3539045 0.3564259 0.3900461
0.4199152 0.4223573 0.4504984
0.6224021 0.6244541 0.6413873
0.3209804 0.3183567 0.3628462
0.4363055 0.4366074 0.4667179
0.4173604 0.4175843 0.4491127
0.4112525 0.4165451 0.4427315
0.5607533 0.5653303 0.5816322
0.5167407 0.5167259 0.5213969
0.4966138 0.4973321 0.5031815
0.4553408 0.4587869 0.4756928
0.5097373 0.5126387 0.5254825
0.6254603 0.6230669 0.6347489
0.6336190 0.6336009 0.6336150
0.6069995 0.6070273 0.6071635
0.5899583 0.5901449 0.5908291
0.5679779 0.5682104 0.5697273
0.9365008 0.9359814 0.9368284
0.3140899 0.3122501 0.3501431
0.3988306 0.4017184 0.4176851
0.2777456 0.2754394 0.3164829
0.3419922 0.3386203 0.3748493
0.3661561 0.3664023 0.3694324
0.3835468 0.3834487 0.4164140
0.4366986 0.4379007 0.4678920
0.3550769 0.3497957 0.4177144
0.4083508 0.4071221 0.4356772
0.5349466 0.5359211 0.5403542
0.4441085 0.4452896 0.4680578
0.5487101 0.5513715 0.5700326
0.4609984 0.4629973 0.4964483
0.5193022 0.5247140 0.5384088
0.6460986 0.6486004 0.6629915
0.5526058 0.5546016 0.5627830
0.5554790 0.5577527 0.5669912
0.5411241 0.5445930 0.5636536
0.7788641 0.7808801 0.7930695
0.6928638 0.6911468 0.6984093
0.6808674 0.6808708 0.6808743
0.6579638 0.6580457 0.6584297
0.6433962 0.6435910 0.6447678
0.6128285 0.6132033 0.6157437
0.8860402 0.8885258 0.8925474
0.4062203 0.4125022 0.4416143
0.4054827 0.4090331 0.4259147
0.3537594 0.3520033 0.3979679
0.3727226 0.3676216 0.4126944
0.4081455 0.4092636 0.4143412
0.4348187 0.4391140 0.4644220
0.4861278 0.4872457 0.5020260
0.4008766 0.3982018 0.4335726
0.4432246 0.4428463 0.4594190
0.4314435 0.4315703 0.4331416
0.5172957 0.5181083 0.5319470
0.7341623 0.7360937 0.7474724
0.5028628 0.5051212 0.5191993
0.6249351 0.6251903 0.6349159
0.5653204 0.5656634 0.5681129
0.7291755 0.7311446 0.7371294
0.6353021 0.6362548 0.6422504
0.6606864 0.6615868 0.6722387
0.7889672 0.7932235 0.7979657
0.8240057 0.8328718 0.8475679
0.7463571 0.7463829 0.7467677
0.7556280 0.7556966 0.7565083
0.7614977 0.7623871 0.7650451
0.7529297 0.7546215 0.7577447
0.9185705 0.9227221 0.9282556
0.6120286 0.6140785 0.6232762
0.3796978 0.3801868 0.3854646
0.4012536 0.4022859 0.4133287
0.4266757 0.4272920 0.4345304
0.3679549 0.3680214 0.3691026
0.6928154 0.6950998 0.7000531
0.4526201 0.4530299 0.4561618
0.4553594 0.4558587 0.4604853
0.4456977 0.4458070 0.4479319
0.4299097 0.4299245 0.4302116
0.7719820 0.7750935 0.7814705
0.4833465 0.4849717 0.4923772
0.5776868 0.5783670 0.5813724
0.5701226 0.5704720 0.5726244
0.5396381 0.5399119 0.5408793
0.5775889 0.5814106 0.5933237
0.6427066 0.6431903 0.6524864
0.6725905 0.6728350 0.6823691
0.8003295 0.8046460 0.8173944
0.8876105 0.9019726 0.9306106
0.7342049 0.7343523 0.7369648
0.7633381 0.7637370 0.7666371
0.8079290 0.8092272 0.8143714
0.9011233 0.9012632 0.9014480
0.9926705 0.9960346 1.0000000
