catalog/styles/experimental/experimental-forge/look.cube
# experimental-forge tuned
LUT_3D_SIZE 33
DOMAIN_MIN 0 0 0
DOMAIN_MAX 1 1 1
0.1584692 0.1574393 0.1710381
0.4844849 0.4935443 0.5451114
0.1602023 0.1649928 0.1942112
0.2570691 0.2623589 0.2864330
0.2509335 0.2519445 0.2821431
0.2432295 0.2447226 0.2734160
0.2379546 0.2406475 0.2666899
0.2353404 0.2378553 0.2629413
0.2329580 0.2353595 0.2595992
0.2397737 0.2428830 0.2647456
0.2457796 0.2485889 0.2698266
0.2452157 0.2475531 0.2712572
0.2631939 0.2654983 0.2917707
0.2696040 0.2726692 0.3009414
0.2885966 0.2931372 0.3219097
0.3038149 0.3090773 0.3387126
0.3361056 0.3427841 0.3731598
0.3695938 0.3769882 0.4081365
0.3926641 0.4000537 0.4328371
0.4178870 0.4250071 0.4591198
0.4364518 0.4430537 0.4775417
0.4439206 0.4500317 0.4837950
0.4473062 0.4530359 0.4851808
0.4539737 0.4598902 0.4901798
0.4635157 0.4693307 0.4985084
0.4809785 0.4871937 0.5143629
0.4830636 0.4888815 0.5143551
0.5085858 0.5138613 0.5384028
0.5347456 0.5392558 0.5618223
0.5559609 0.5601593 0.5804992
0.5801244 0.5848030 0.6042752
0.6135189 0.6193182 0.6393024
0.6790717 0.6872365 0.7089266
0.4351765 0.4402249 0.4948542
0.4714015 0.4780870 0.5234669
0.2540012 0.2601072 0.2839651
0.2663625 0.2673917 0.2894459
0.2664307 0.2642534 0.2900098
0.2694083 0.2673300 0.2948936
0.2584692 0.2577403 0.2871932
0.2655562 0.2665657 0.2973932
0.2694870 0.2723598 0.2992943
0.2687728 0.2737355 0.2959512
0.2588860 0.2646472 0.2845423
0.2485078 0.2540433 0.2749283
0.2468611 0.2522020 0.2740211
0.2534851 0.2592046 0.2811555
0.2677164 0.2737499 0.2963625
0.2856155 0.2919040 0.3155201
0.3108727 0.3174353 0.3420156
0.3306937 0.3372594 0.3633268
0.3415729 0.3477137 0.3759638
0.3545570 0.3600850 0.3902766
0.3696704 0.3746358 0.4057930
0.3788360 0.3833036 0.4146588
0.3897687 0.3938497 0.4245186
0.4004951 0.4043935 0.4339671
0.4191945 0.4229821 0.4512066
0.4439452 0.4477110 0.4742375
0.4622825 0.4659235 0.4907382
0.4855681 0.4890610 0.5119624
0.5058723 0.5092625 0.5299446
0.5235014 0.5269749 0.5458048
0.5422522 0.5461538 0.5643476
0.5673407 0.5720246 0.5906291
0.6003501 0.6061048 0.6255597
0.1242116 0.1223380 0.1487962
0.2171623 0.2153311 0.2469391
0.2298467 0.2321582 0.2581783
0.2615605 0.2617539 0.2858005
0.2654166 0.2647554 0.2871529
0.2532444 0.2517127 0.2755462
0.2566172 0.2548611 0.2849748
0.2581089 0.2578024 0.2910172
0.2531112 0.2550041 0.2852310
0.2549105 0.2594081 0.2838183
0.2474558 0.2538784 0.2742881
0.2352302 0.2418076 0.2621927
0.2351696 0.2417339 0.2621538
0.2442111 0.2508273 0.2710654
0.2591064 0.2656816 0.2863596
0.2789243 0.2853879 0.3070586
0.3068232 0.3130453 0.3360163
0.3224373 0.3281247 0.3531698
0.3268774 0.3317208 0.3596349
0.3393237 0.3433787 0.3735490
0.3565433 0.3600590 0.3913394
0.3643975 0.3674262 0.3992208
0.3780060 0.3807228 0.4119891
0.3929484 0.3955028 0.4257174
0.4119537 0.4144370 0.4429785
0.4357632 0.4382695 0.4648614
0.4602784 0.4627744 0.4874143
0.4872483 0.4898841 0.5117551
0.5060328 0.5087859 0.5277945
0.5169562 0.5199152 0.5371727
0.5303365 0.5336237 0.5503610
0.5511889 0.5550299 0.5720440
0.5794299 0.5839426 0.6015539
0.2395318 0.2400096 0.2630578
0.2604720 0.2599939 0.2914210
0.2426484 0.2468375 0.2755150
0.2499856 0.2547538 0.2809874
0.2599795 0.2642767 0.2860536
0.2647512 0.2663260 0.2891036
0.2778366 0.2778037 0.3057497
0.2850958 0.2848369 0.3179529
0.2837774 0.2849027 0.3188873
0.2680363 0.2715998 0.3001137
0.2458549 0.2516777 0.2750529
0.2311023 0.2374042 0.2595904
0.2269331 0.2332585 0.2548771
0.2312611 0.2377422 0.2582002
0.2494768 0.2556503 0.2770080
0.2822923 0.2882728 0.3101309
0.3122077 0.3178665 0.3406687
0.3286783 0.3336292 0.3583830
0.3337794 0.3376324 0.3655035
0.3477107 0.3507951 0.3809706
0.3614297 0.3638210 0.3957884
0.3681502 0.3700813 0.4032266
0.3799964 0.3816951 0.4146612
0.3939578 0.3955595 0.4275185
0.4154150 0.4170351 0.4469838
0.4445429 0.4462689 0.4736031
0.4728972 0.4748006 0.4992495
0.5044363 0.5067571 0.5274008
0.5206800 0.5232327 0.5408829
0.5251468 0.5278737 0.5439472
0.5338486 0.5368119 0.5523378
0.5530699 0.5564281 0.5721953
0.5842813 0.5882065 0.6044577
0.2155804 0.2182812 0.2382976
0.2568079 0.2589798 0.2900652
0.2396281 0.2444189 0.2756434
0.2485112 0.2532424 0.2846349
0.2635988 0.2674527 0.2962245
0.2764461 0.2795485 0.3060880
0.2942196 0.2965228 0.3242270
0.3093118 0.3112783 0.3422989
0.3182225 0.3210672 0.3520591
0.3077113 0.3110310 0.3415508
0.2613762 0.2660198 0.2938018
0.2260305 0.2316247 0.2563716
0.2231912 0.2292512 0.2513803
0.2310695 0.2368922 0.2587030
0.2485239 0.2539501 0.2764768
0.2867232 0.2918680 0.3145810
0.3148709 0.3196779 0.3434802
0.3292591 0.3333222 0.3589357
0.3405960 0.3436192 0.3716554
0.3556808 0.3578486 0.3881244
0.3707308 0.3721347 0.4046670
0.3717623 0.3727178 0.4076718
0.3765134 0.3774300 0.4129054
0.3903444 0.3913014 0.4261415
0.4207382 0.4217711 0.4541917
0.4567544 0.4579608 0.4873534
0.4899358 0.4915302 0.5170121
0.5227141 0.5249193 0.5453478
0.5367975 0.5394062 0.5563238
0.5379997 0.5407165 0.5560720
0.5445050 0.5473611 0.5621423
0.5629917 0.5661550 0.5811264
0.6003677 0.6040631 0.6196325
0.2253405 0.2291714 0.2447071
0.2718566 0.2740134 0.3023408
0.2480899 0.2513500 0.2824968
0.2564185 0.2598316 0.2933997
0.2668622 0.2690816 0.3020071
0.2837657 0.2857571 0.3153418
0.2946068 0.2981193 0.3252935
0.3197713 0.3231431 0.3527056
0.3409950 0.3447228 0.3744495
0.3395232 0.3432054 0.3731620
0.3131288 0.3169751 0.3465046
0.2549702 0.2598111 0.2861139
0.2342539 0.2388980 0.2641758
0.2421903 0.2464251 0.2713372
0.2612396 0.2653562 0.2897336
0.2908129 0.2946197 0.3195409
0.3145177 0.3177725 0.3444081
0.3298610 0.3325563 0.3605712
0.3353071 0.3374039 0.3665356
0.3545841 0.3559467 0.3868080
0.3738062 0.3745063 0.4071126
0.3831535 0.3832702 0.4178882
0.3891458 0.3893192 0.4245818
0.4005581 0.4008621 0.4364179
0.4282260 0.4288030 0.4626628
0.4714729 0.4725667 0.5036669
0.5091880 0.5108229 0.5376056
0.5468891 0.5491078 0.5694208
0.5575217 0.5602999 0.5766079
0.5529153 0.5557371 0.5706959
0.5577784 0.5606493 0.5751816
0.5746322 0.5777518 0.5925274
0.6195369 0.6231936 0.6385924
0.2401225 0.2421698 0.2623790
0.2995046 0.3000907 0.3275539
0.2641331 0.2649229 0.2942603
0.2710844 0.2716469 0.3037594
0.2711306 0.2708870 0.3059217
0.2776706 0.2769173 0.3120612
0.2793649 0.2803360 0.3115755
0.2936871 0.2966349 0.3260639
0.3517479 0.3550482 0.3861560
0.3682600 0.3721438 0.4008118
0.3663286 0.3701462 0.3985319
0.3536029 0.3568405 0.3863095
0.3181646 0.3203436 0.3517515
0.2914705 0.2928323 0.3246692
0.2795551 0.2804532 0.3119865
0.2822185 0.2826728 0.3150259
0.2980428 0.2985929 0.3311647
0.3242456 0.3251599 0.3567947
0.3367894 0.3376424 0.3690617
0.3507960 0.3512343 0.3832900
0.3764822 0.3763523 0.4096256
0.3925283 0.3919012 0.4260151
0.4035035 0.4031174 0.4366227
0.4169827 0.4167235 0.4499961
0.4444076 0.4443890 0.4759844
0.4923899 0.4932988 0.5213341
0.5366694 0.5384447 0.5625052
0.5752259 0.5776573 0.5958730
0.5855441 0.5884892 0.6031767
0.5771424 0.5800487 0.5939121
0.5766532 0.5795542 0.5935078
0.5916661 0.5948045 0.6092960
0.6408309 0.6445315 0.6598333
0.2524681 0.2538925 0.2793684
0.3315147 0.3312501 0.3596652
0.2989880 0.2981756 0.3266317
0.2899821 0.2889486 0.3177713
0.2783813 0.2770303 0.3076661
0.2777027 0.2758021 0.3094280
0.2821398 0.2802332 0.3149618
0.2825160 0.2824661 0.3141338
0.3202048 0.3220906 0.3534865
0.3815367 0.3833273 0.4169684
0.3887474 0.3909533 0.4227602
0.3921651 0.3952221 0.4232471
0.3962927 0.3979516 0.4289289
0.3670762 0.3660447 0.4034321
0.3075927 0.3049477 0.3453858
0.2759619 0.2727289 0.3143154
0.2890787 0.2869151 0.3255380
0.3087729 0.3079768 0.3435235
0.3312182 0.3309164 0.3651599
0.3482538 0.3476827 0.3816160
0.3658310 0.3649347 0.3991548
0.3862723 0.3848655 0.4195318
0.4066090 0.4055086 0.4387356
0.4189748 0.4180422 0.4502232
0.4522811 0.4518621 0.4810938
0.5028804 0.5038769 0.5276575
0.5495137 0.5516847 0.5707990
0.5882350 0.5909351 0.6057702
0.6083634 0.6113757 0.6236552
0.5991022 0.6019787 0.6141664
0.5938952 0.5967620 0.6096184
0.6091906 0.6123084 0.6260170
0.6577056 0.6614280 0.6761726
0.2452328 0.2461274 0.2750911
0.3513911 0.3507755 0.3800119
0.3353135 0.3339197 0.3627143
0.3225164 0.3205361 0.3495695
0.3160585 0.3138289 0.3433082
0.2996724 0.2973117 0.3282474
0.2895575 0.2870467 0.3194044
0.2868856 0.2845210 0.3177406
0.2896567 0.2890730 0.3201949
0.3276508 0.3283013 0.3614185
0.4013680 0.4021682 0.4361085
0.4149060 0.4168308 0.4462710
0.4237677 0.4261719 0.4515933
0.4222981 0.4229957 0.4519352
0.3938468 0.3917343 0.4289246
0.3366568 0.3325883 0.3764723
0.3042223 0.3003481 0.3438721
0.3058138 0.3037369 0.3419651
0.3208907 0.3194439 0.3558896
0.3434987 0.3421509 0.3777886
0.3702615 0.3693938 0.4035397
0.3802564 0.3791326 0.4133746
0.3961107 0.3950789 0.4278620
0.4145085 0.4135619 0.4453532
0.4444348 0.4436905 0.4732263
0.4933901 0.4945057 0.5167208
0.5386010 0.5411269 0.5579362
0.5975833 0.6006386 0.6130420
0.6356594 0.6388416 0.6488589
0.6221387 0.6250593 0.6357032
0.6118990 0.6148025 0.6266271
0.6249062 0.6280429 0.6409647
0.6722901 0.6760034 0.6900310
0.2423769 0.2425045 0.2740452
0.3472834 0.3462276 0.3760886
0.3523065 0.3506068 0.3793727
0.3445225 0.3421319 0.3717126
0.3538667 0.3510682 0.3815787
0.3545277 0.3517956 0.3833879
0.3403950 0.3379794 0.3696125
0.3140357 0.3114947 0.3430197
0.3015674 0.2995672 0.3304171
0.3110499 0.3100900 0.3416994
0.3413679 0.3408805 0.3748038
0.4302134 0.4297923 0.4636829
0.4426296 0.4433550 0.4717708
0.4436916 0.4452171 0.4701266
0.4510766 0.4520151 0.4792729
0.4425394 0.4412272 0.4759135
0.3999964 0.3961692 0.4391879
0.3339464 0.3298796 0.3742314
0.3135679 0.3105048 0.3508175
0.3327140 0.3307765 0.3668915
0.3659491 0.3655711 0.3983832
0.3811214 0.3809987 0.4136748
0.3887508 0.3883019 0.4215072
0.4115780 0.4109113 0.4442403
0.4294216 0.4288349 0.4599456
0.4660258 0.4674061 0.4899692
0.5096305 0.5124077 0.5285387
0.5931203 0.5960998 0.6068951
0.6445057 0.6477248 0.6560842
0.6340652 0.6371238 0.6465167
0.6268918 0.6299554 0.6408191
0.6326539 0.6358544 0.6481244
0.6715260 0.6752071 0.6887360
0.2572050 0.2561683 0.2903462
0.3426604 0.3410474 0.3718573
0.3611381 0.3590103 0.3882504
0.3602876 0.3576214 0.3873028
0.3713005 0.3683972 0.3990198
0.3839391 0.3809586 0.4129165
0.3847754 0.3822247 0.4154010
0.3729366 0.3707630 0.4028603
0.3432305 0.3415012 0.3712972
0.3268624 0.3250794 0.3552571
0.3282085 0.3270538 0.3592984
0.3394664 0.3378437 0.3751850
0.4407618 0.4398117 0.4757078
0.4753616 0.4766187 0.5048041
0.4744590 0.4766274 0.4999435
0.4784559 0.4803862 0.5029418
0.4728502 0.4734918 0.5021406
0.4168133 0.4143442 0.4540272
0.3460246 0.3422083 0.3848976
0.3288426 0.3263425 0.3639607
0.3398120 0.3395219 0.3706659
0.3694236 0.3702379 0.3996733
0.4014131 0.4014797 0.4340733
0.4121892 0.4126776 0.4444836
0.4393442 0.4416195 0.4681715
0.4574779 0.4607964 0.4816242
0.5003408 0.5038733 0.5196814
0.5672135 0.5701739 0.5809495
0.6118237 0.6148552 0.6234176
0.6196547 0.6227337 0.6320369
0.6269495 0.6301413 0.6406222
0.6386393 0.6419642 0.6538666
0.6697663 0.6733811 0.6865461
0.2803627 0.2781237 0.3150170
0.3451557 0.3429101 0.3748231
0.3653163 0.3627854 0.3924765
0.3669338 0.3640889 0.3938187
0.3763604 0.3733937 0.4042114
0.3979612 0.3949132 0.4272487
0.4052611 0.4024731 0.4363502
0.3964675 0.3946608 0.4279970
0.3859029 0.3844321 0.4160174
0.3675555 0.3661819 0.3946978
0.3444315 0.3432366 0.3718259
0.3397686 0.3381106 0.3722164
0.3463291 0.3436147 0.3844245
0.4455335 0.4431919 0.4829509
0.4967573 0.4976335 0.5261796
0.4963222 0.4994166 0.5189139
0.5037848 0.5068581 0.5232527
0.5083249 0.5097231 0.5308220
0.4852426 0.4841559 0.5170887
0.3967409 0.3942883 0.4338392
0.3434890 0.3409507 0.3791482
0.3391151 0.3364983 0.3742457
0.3851429 0.3842052 0.4188006
0.4194606 0.4219541 0.4483846
0.4359188 0.4400674 0.4621265
0.4714085 0.4742245 0.4957354
0.5110310 0.5142148 0.5318312
0.5622477 0.5656520 0.5766480
0.5995801 0.6027724 0.6116808
0.6038457 0.6067661 0.6168179
0.6127505 0.6157346 0.6268805
0.6290073 0.6321996 0.6445989
0.6694548 0.6729687 0.6863837
0.3004815 0.2972568 0.3362296
0.3445203 0.3416938 0.3747239
0.3667519 0.3638885 0.3941167
0.3714895 0.3685285 0.3983321
0.3802618 0.3770985 0.4081250
0.4018203 0.3986922 0.4312215
0.4169970 0.4141080 0.4479436
0.4099956 0.4081094 0.4420540
0.4017297 0.4005498 0.4339288
0.4059264 0.4047984 0.4359349
0.3874557 0.3862978 0.4140901
0.3606126 0.3591184 0.3893421
0.3569553 0.3544188 0.3916724
0.3449494 0.3419781 0.3845202
0.4157384 0.4129250 0.4546329
0.5118416 0.5117680 0.5406135
0.5307550 0.5333430 0.5478268
0.5356298 0.5390639 0.5489160
0.5436161 0.5468183 0.5601251
0.5154694 0.5173517 0.5417304
0.4091314 0.4077796 0.4441723
0.3605965 0.3576500 0.3968429
0.3522532 0.3516537 0.3850284
0.4015088 0.4054037 0.4267943
0.4376017 0.4431922 0.4618398
0.4667856 0.4719129 0.4910463
0.5062993 0.5102368 0.5291720
0.5649045 0.5690906 0.5810768
0.6096882 0.6129042 0.6233979
0.6052807 0.6078568 0.6198282
0.6065595 0.6092026 0.6218018
0.6194465 0.6224288 0.6355924
0.6500154 0.6534415 0.6674033
0.3124105 0.3083733 0.3490171
0.3442083 0.3409735 0.3745500
0.3640782 0.3610966 0.3913442
0.3701264 0.3671634 0.3966934
0.3781098 0.3749338 0.4055664
0.3927283 0.3893372 0.4222477
0.4102483 0.4070028 0.4418730
0.4140411 0.4112757 0.4475837
0.4102318 0.4084306 0.4439217
0.4041903 0.4025780 0.4375647
0.4173383 0.4157854 0.4472921
0.3934666 0.3922921 0.4213611
0.3757168 0.3740117 0.4056350
0.3658684 0.3634837 0.4016346
0.3456220 0.3420000 0.3873758
0.3890415 0.3854599 0.4317799
0.5262019 0.5258839 0.5583020
0.5554126 0.5583639 0.5732877
0.5531601 0.5567670 0.5634171
0.5654756 0.5672151 0.5777724
0.5450632 0.5460863 0.5684860
0.4332619 0.4331106 0.4649339
0.3644700 0.3648185 0.3971482
0.3579707 0.3581770 0.3890752
0.3979695 0.4001497 0.4297155
0.4721560 0.4776581 0.4993821
0.5094211 0.5119115 0.5338629
0.5574851 0.5605373 0.5759149
0.6061313 0.6086601 0.6237997
0.6081930 0.6099409 0.6268777
0.6053051 0.6074972 0.6230396
0.6082920 0.6111008 0.6255367
0.6200916 0.6233466 0.6376714
0.3151649 0.3104976 0.3523886
0.3417839 0.3383139 0.3718924
0.3588066 0.3557944 0.3855215
0.3669706 0.3640525 0.3927734
0.3726740 0.3696641 0.3992443
0.3785634 0.3753276 0.4075204
0.3955527 0.3923931 0.4268026
0.4128977 0.4097533 0.4463493
0.4133412 0.4107495 0.4483035
0.4125863 0.4102668 0.4480945
0.4119977 0.4103037 0.4466947
0.4253054 0.4247354 0.4555588
0.4104825 0.4101369 0.4383482
0.3953268 0.3943594 0.4256281
0.3779751 0.3756924 0.4142735
0.3606548 0.3569633 0.4033345
0.3723752 0.3694243 0.4154378
0.4973887 0.4964513 0.5312504
0.5742957 0.5750840 0.5931981
0.5774620 0.5788854 0.5884364
0.5839174 0.5852843 0.5968636
0.5865018 0.5890481 0.6034900
0.4593313 0.4604446 0.4862002
0.3757545 0.3745964 0.4072857
0.3749628 0.3741990 0.4086560
0.4348315 0.4361239 0.4651050
0.5232885 0.5256815 0.5462325
0.5772289 0.5812038 0.5925391
0.6056405 0.6081778 0.6229193
0.5991143 0.6006843 0.6203138
0.6007414 0.6026154 0.6218573
0.5993063 0.6021853 0.6183469
0.6030185 0.6065322 0.6212324
0.3200451 0.3154259 0.3563719
0.3414498 0.3380361 0.3702228
0.3552507 0.3523576 0.3804240
0.3630176 0.3603161 0.3871617
0.3674795 0.3648007 0.3923958
0.3697941 0.3670381 0.3970842
0.3838612 0.3809578 0.4137265
0.4005552 0.3976065 0.4330192
0.4101884 0.4073931 0.4452479
0.4142679 0.4116976 0.4506095
0.4196167 0.4179200 0.4553596
0.4278573 0.4270924 0.4612388
0.4350961 0.4352745 0.4641390
0.4316548 0.4323447 0.4590372
0.4162430 0.4159727 0.4454474
0.3967938 0.3949044 0.4310284
0.3753323 0.3728995 0.4155888
0.3591615 0.3562602 0.4009276
0.4559707 0.4550390 0.4905547
0.5805642 0.5815495 0.5992671
0.6135983 0.6149191 0.6179336
0.6190825 0.6208660 0.6241360
0.6524403 0.6535681 0.6652289
0.5192494 0.5208207 0.5415170
0.3975671 0.3985684 0.4253425
0.4287094 0.4293603 0.4549897
0.5237976 0.5269288 0.5455933
0.5675212 0.5719264 0.5868228
0.5876088 0.5901055 0.6062378
0.5857419 0.5877976 0.6051554
0.5890848 0.5916835 0.6090505
0.5900784 0.5937421 0.6093916
0.5898299 0.5942179 0.6085910
0.3265238 0.3225595 0.3599053
0.3440749 0.3410721 0.3704530
0.3549404 0.3524744 0.3779148
0.3630378 0.3608701 0.3849538
0.3675921 0.3654921 0.3902736
0.3699352 0.3677567 0.3947356
0.3749896 0.3725651 0.4026133
0.3837410 0.3811139 0.4142489
0.3976421 0.3950089 0.4308483
0.4117053 0.4089522 0.4469943
0.4147879 0.4125905 0.4506587
0.4177271 0.4166824 0.4533768
0.4279252 0.4280265 0.4593178
0.4521100 0.4534159 0.4787237
0.4464229 0.4476653 0.4721989
0.4352937 0.4354207 0.4624821
0.4216764 0.4205819 0.4549164
0.3958786 0.3935103 0.4348149
0.3627392 0.3610395 0.4016963
0.4367764 0.4373900 0.4657230
0.6238092 0.6255012 0.6372495
0.6793293 0.6811077 0.6858074
0.6735238 0.6761003 0.6805573
0.5264032 0.5310993 0.5453633
0.4670255 0.4716278 0.4888774
0.4812404 0.4831672 0.5009374
0.5270596 0.5298096 0.5451488
0.5564627 0.5597308 0.5740901
0.5592808 0.5616058 0.5774127
0.5625250 0.5647995 0.5810624
0.5687653 0.5719349 0.5873781
0.5745568 0.5789135 0.5933509
0.5773997 0.5828341 0.5965517
0.3444778 0.3413217 0.3736526
0.3558822 0.3535297 0.3789366
0.3635669 0.3616532 0.3836848
0.3690852 0.3674676 0.3881936
0.3744548 0.3729947 0.3941787
0.3764158 0.3748780 0.3980114
0.3790216 0.3772629 0.4032841
0.3855136 0.3834784 0.4127791
0.3947121 0.3924789 0.4250028
0.4060357 0.4034067 0.4392311
0.4172828 0.4149771 0.4519294
0.4197660 0.4181093 0.4554011
0.4309527 0.4302634 0.4636482
0.4471224 0.4482520 0.4744477
0.4550235 0.4572430 0.4784970
0.4620038 0.4636323 0.4841799
0.4537046 0.4545302 0.4781376
0.4451135 0.4447781 0.4742559
0.4179678 0.4178642 0.4510607
0.3884365 0.3889687 0.4212709
0.4545826 0.4556681 0.4807902
0.4993731 0.5011789 0.5173432
0.4989036 0.4998508 0.5127727
0.5281094 0.5290264 0.5442402
0.5409448 0.5425715 0.5567834
0.5383800 0.5393232 0.5541822
0.5393016 0.5408957 0.5553348
0.5443347 0.5465661 0.5608131
0.5408056 0.5432009 0.5578824
0.5399629 0.5426927 0.5578652
0.5453740 0.5489617 0.5639375
0.5538868 0.5587433 0.5729654
0.5626422 0.5688759 0.5826955
0.3627810 0.3605909 0.3871114
0.3711812 0.3695953 0.3904940
0.3768711 0.3755943 0.3937236
0.3798571 0.3787823 0.3959027
0.3828931 0.3819307 0.3994395
0.3858020 0.3847963 0.4038729
0.3893088 0.3881834 0.4097305
0.3930680 0.3918039 0.4163515
0.3992492 0.3977923 0.4255521
0.4044308 0.4026717 0.4337909
0.4177516 0.4160341 0.4492095
0.4223924 0.4205817 0.4559115
0.4393846 0.4386611 0.4722148
0.4505093 0.4518979 0.4797970
0.4619228 0.4641520 0.4858777
0.4750902 0.4777080 0.4947864
0.4836016 0.4868267 0.5023949
0.4749189 0.4770005 0.4948918
0.4670358 0.4689636 0.4902467
0.4440436 0.4457908 0.4700353
0.4239340 0.4256007 0.4493426
0.3978764 0.4000699 0.4205498
0.4545036 0.4558970 0.4711204
0.5700757 0.5701520 0.5814782
0.5937131 0.5939874 0.6046112
0.5713957 0.5718613 0.5847782
0.5496495 0.5509032 0.5653958
0.5355299 0.5375823 0.5521835
0.5266277 0.5293107 0.5437185
0.5221055 0.5254125 0.5399382
0.5248102 0.5289055 0.5435981
0.5357633 0.5409536 0.5554983
0.5530925 0.5596157 0.5740817
0.3832791 0.3824329 0.4030231
0.3885258 0.3877460 0.4040920
0.3921182 0.3914568 0.4056042
0.3937536 0.3932089 0.4065704
0.3957299 0.3952101 0.4089943
0.3997663 0.3992915 0.4142039
0.4029017 0.4024135 0.4192812
0.4041260 0.4036295 0.4229496
0.4068849 0.4062392 0.4284464
0.4120979 0.4112646 0.4362910
0.4183571 0.4175127 0.4445967
0.4265656 0.4256742 0.4550020
0.4411751 0.4409135 0.4701051
0.4514250 0.4527662 0.4788022
0.4646022 0.4669606 0.4891649
0.4861926 0.4889872 0.5051632
0.4887320 0.4925761 0.5053154
0.4992389 0.5018594 0.5141909
0.4933356 0.4955256 0.5095943
0.4719543 0.4739455 0.4906052
0.4688713 0.4711871 0.4889437
0.4440084 0.4464514 0.4635306
0.4757464 0.4774845 0.4911283
0.5633089 0.5642728 0.5745618
0.5965122 0.5971640 0.6075504
0.5790964 0.5797155 0.5919900
0.5456860 0.5471339 0.5614794
0.5254558 0.5278043 0.5424558
0.5146342 0.5177811 0.5320704
0.5083849 0.5122196 0.5264763
0.5096706 0.5142380 0.5287274
0.5225643 0.5279858 0.5428132
0.5491561 0.5556802 0.5709581
0.4082897 0.4080866 0.4227421
0.4055579 0.4052761 0.4172541
0.4061886 0.4059458 0.4164448
0.4068591 0.4066401 0.4166140
0.4085295 0.4083293 0.4186101
0.4110914 0.4109899 0.4220801
0.4130549 0.4129765 0.4254448
0.4136973 0.4135640 0.4280124
0.4146823 0.4143973 0.4312326
0.4212842 0.4209581 0.4399008
0.4287213 0.4284073 0.4492099
0.4364070 0.4361249 0.4586554
0.4537052 0.4536532 0.4764777
0.4660335 0.4667492 0.4884914
0.4778283 0.4792144 0.4988552
0.5030059 0.5048894 0.5205835
0.5107166 0.5131582 0.5251221
0.5202681 0.5218913 0.5330287
0.5294870 0.5308305 0.5417258
0.5165151 0.5181746 0.5297737
0.5001857 0.5019186 0.5145964
0.4877510 0.4893302 0.5024302
0.4999114 0.5011952 0.5126641
0.5464136 0.5474742 0.5572633
0.5691626 0.5700692 0.5802470
0.5585806 0.5597714 0.5713113
0.5321871 0.5341740 0.5472332
0.5137803 0.5165910 0.5303553
0.5029406 0.5064757 0.5205038
0.4986914 0.5028316 0.5170549
0.5012248 0.5059966 0.5205438
0.5157985 0.5213203 0.5364390
0.5453820 0.5518610 0.5679144
0.4265880 0.4267284 0.4362145
0.4199296 0.4199203 0.4282094
0.4191219 0.4190698 0.4265254
0.4199346 0.4198969 0.4270103
0.4225523 0.4225501 0.4297964
0.4251461 0.4252536 0.4330751
0.4256546 0.4258147 0.4347045
0.4253221 0.4254489 0.4358608
0.4271510 0.4272393 0.4393466
0.4313491 0.4314003 0.4451325
0.4371245 0.4371845 0.4524745
0.4414776 0.4415403 0.4583401
0.4497133 0.4498105 0.4673754
0.4597696 0.4600921 0.4776350
0.4671947 0.4678138 0.4848982
0.4871712 0.4882105 0.5033084
0.5032969 0.5041782 0.5174186
0.5277578 0.5279193 0.5398091
0.5471832 0.5475469 0.5582364
0.5589160 0.5599997 0.5693330
0.5441570 0.5449327 0.5541461
0.5275304 0.5282057 0.5377316
0.5273542 0.5282970 0.5373939
0.5407192 0.5419471 0.5503470
0.5447120 0.5461256 0.5550927
0.5338179 0.5356283 0.5457190
0.5163265 0.5187249 0.5301011
0.5041473 0.5071912 0.5195703
0.4965333 0.5001753 0.5134284
0.4946505 0.4988323 0.5127914
0.4991856 0.5039337 0.5185217
0.5165695 0.5220126 0.5373986
0.5485554 0.5548393 0.5715356
0.4333547 0.4336173 0.4396959
0.4328289 0.4329169 0.4384640
0.4328675 0.4328999 0.4380022
0.4335230 0.4335607 0.4384561
0.4348976 0.4349878 0.4400097
0.4366922 0.4368868 0.4423445
0.4376852 0.4379233 0.4441101
0.4372962 0.4374882 0.4447125
0.4377660 0.4379239 0.4463588
0.4383751 0.4384351 0.4481616
0.4394893 0.4395159 0.4505305
0.4426629 0.4426762 0.4548859
0.4482988 0.4483337 0.4613784
0.4542286 0.4543396 0.4678138
0.4628353 0.4631044 0.4765174
0.4752801 0.4757164 0.4884412
0.4900977 0.4904842 0.5020998
0.5091029 0.5091850 0.5196534
0.5315685 0.5316752 0.5408653
0.5494133 0.5498338 0.5577407
0.5505784 0.5508446 0.5579832
0.5406889 0.5410644 0.5480212
0.5316880 0.5325109 0.5395275
0.5319244 0.5331217 0.5401058
0.5210090 0.5226374 0.5302471
0.5091400 0.5111942 0.5198339
0.4997948 0.5023265 0.5121058
0.4945070 0.4974989 0.5083774
0.4923053 0.4957468 0.5077907
0.4950563 0.4989631 0.5121357
0.5033557 0.5078129 0.5220021
0.5225176 0.5277620 0.5430188
0.5605113 0.5668629 0.5832496
0.4449654 0.4450976 0.4489039
0.4458410 0.4459151 0.4494812
0.4466301 0.4466799 0.4500302
0.4473333 0.4473840 0.4506301
0.4480905 0.4481661 0.4515036
0.4487694 0.4488829 0.4525187
0.4488527 0.4489720 0.4531219
0.4478709 0.4479667 0.4528556
0.4469529 0.4470229 0.4527752
0.4462228 0.4462462 0.4529595
0.4466339 0.4466330 0.4543497
0.4477789 0.4477640 0.4564350
0.4500871 0.4500822 0.4595362
0.4533240 0.4533558 0.4633482
0.4587127 0.4588414 0.4690018
0.4664870 0.4666991 0.4766571
0.4759153 0.4761328 0.4855681
0.4881787 0.4883461 0.4970185
0.5024350 0.5026475 0.5103782
0.5159505 0.5162813 0.5230470
0.5264221 0.5268166 0.5328852
0.5223944 0.5229678 0.5286370
0.5154833 0.5163629 0.5219660
0.5119628 0.5131572 0.5188987
0.5039235 0.5054885 0.5117577
0.4903988 0.4923754 0.4995697
0.4831470 0.4854942 0.4937381
0.4839373 0.4866269 0.4959873
0.4879137 0.4909493 0.5015681
0.4957625 0.4991871 0.5111719
0.5089984 0.5129497 0.5263095
0.5313817 0.5361921 0.5509461
0.5723542 0.5785442 0.5945413
0.4588169 0.4588859 0.4611814
0.4600062 0.4600602 0.4622636
0.4608342 0.4608801 0.4629888
0.4613870 0.4614349 0.4635086
0.4617219 0.4617806 0.4639283
