catalog/styles/experimental/experimental-forge/look.cube
# experimental-forge tuned
LUT_3D_SIZE 9
DOMAIN_MIN 0 0 0
DOMAIN_MAX 1 1 1
0.1584692 0.1574393 0.1710381
0.2509335 0.2519445 0.2821431
0.2329580 0.2353595 0.2595992
0.2631939 0.2654983 0.2917707
0.3361056 0.3427841 0.3731598
0.4364518 0.4430537 0.4775417
0.4635157 0.4693307 0.4985084
0.5347456 0.5392558 0.5618223
0.6790717 0.6872365 0.7089266
0.2155804 0.2182812 0.2382976
0.2635988 0.2674527 0.2962245
0.3182225 0.3210672 0.3520591
0.2231912 0.2292512 0.2513803
0.3148709 0.3196779 0.3434802
0.3707308 0.3721347 0.4046670
0.4207382 0.4217711 0.4541917
0.5367975 0.5394062 0.5563238
0.6003677 0.6040631 0.6196325
0.2452328 0.2461274 0.2750911
0.3160585 0.3138289 0.3433082
0.2896567 0.2890730 0.3201949
0.4237677 0.4261719 0.4515933
0.3042223 0.3003481 0.3438721
0.3702615 0.3693938 0.4035397
0.4444348 0.4436905 0.4732263
0.6356594 0.6388416 0.6488589
0.6722901 0.6760034 0.6900310
0.3004815 0.2972568 0.3362296
0.3802618 0.3770985 0.4081250
0.4017297 0.4005498 0.4339288
0.3569553 0.3544188 0.3916724
0.5307550 0.5333430 0.5478268
0.4091314 0.4077796 0.4441723
0.4376017 0.4431922 0.4618398
0.6096882 0.6129042 0.6233979
0.6500154 0.6534415 0.6674033
0.3265238 0.3225595 0.3599053
0.3675921 0.3654921 0.3902736
0.3976421 0.3950089 0.4308483
0.4279252 0.4280265 0.4593178
0.4216764 0.4205819 0.4549164
0.6238092 0.6255012 0.6372495
0.4670255 0.4716278 0.4888774
0.5592808 0.5616058 0.5774127
0.5773997 0.5828341 0.5965517
0.4082897 0.4080866 0.4227421
0.4085295 0.4083293 0.4186101
0.4146823 0.4143973 0.4312326
0.4537052 0.4536532 0.4764777
0.5107166 0.5131582 0.5251221
0.5001857 0.5019186 0.5145964
0.5691626 0.5700692 0.5802470
0.5029406 0.5064757 0.5205038
0.5453820 0.5518610 0.5679144
0.4588169 0.4588859 0.4611814
0.4617219 0.4617806 0.4639283
0.4587709 0.4588134 0.4626260
0.4569245 0.4569314 0.4635729
0.4702711 0.4704600 0.4776764
0.5024534 0.5029473 0.5079242
0.4893724 0.4907419 0.4958747
0.4838121 0.4862980 0.4955769
0.5872949 0.5926903 0.6084676
0.5139576 0.5139660 0.5141986
0.5168171 0.5168304 0.5170897
0.5127728 0.5127861 0.5133313
0.5060960 0.5061236 0.5072814
0.5003805 0.5004952 0.5020527
0.4991055 0.4993580 0.5007283
0.5116777 0.5120770 0.5138786
0.5152952 0.5157670 0.5205597
0.6636904 0.6615695 0.6766168
0.5694547 0.5694540 0.5694704
0.5723193 0.5723207 0.5723443
0.5696554 0.5696586 0.5697254
0.5640147 0.5640254 0.5641978
0.5572720 0.5573091 0.5575841
0.5499703 0.5500404 0.5503600
0.5541479 0.5542432 0.5549390
0.5981542 0.5983289 0.6008869
0.7354681 0.7363891 0.7426596
0.2833293 0.2883030 0.3045407
0.2562202 0.2551630 0.2743363
0.2998103 0.3012826 0.3236671
0.2359033 0.2395905 0.2627348
0.2763485 0.2812315 0.3078035
0.3296260 0.3341289 0.3629944
0.3038402 0.3060249 0.3402558
0.5081129 0.5090849 0.5358328
0.5788970 0.5817660 0.5993361
0.2936615 0.2915668 0.3232202
0.2620160 0.2608786 0.2920582
0.3628574 0.3658516 0.3948382
0.3165427 0.3215622 0.3489463
0.2718684 0.2752783 0.3051816
0.2826734 0.2851906 0.3150938
0.2864347 0.2861522 0.3237581
0.3434415 0.3424975 0.3753930
0.6302684 0.6323946 0.6471381
0.4173083 0.4162619 0.4476491
0.3551751 0.3539564 0.3850965
0.3106290 0.3086276 0.3468756
0.2808814 0.2800224 0.3184253
0.2904093 0.2885463 0.3306850
0.2864933 0.2850877 0.3235311
0.2932603 0.2931733 0.3279888
0.3707344 0.3695654 0.4026450
0.6254828 0.6264897 0.6471175
0.2895348 0.2885003 0.3217805
0.4301121 0.4281622 0.4559965
0.3979550 0.3971914 0.4305071
0.3923778 0.3917632 0.4214768
0.3464441 0.3443226 0.3859125
0.3530413 0.3517789 0.3910627
0.3120856 0.3101608 0.3466584
0.4335058 0.4332683 0.4624988
0.6035719 0.6062670 0.6252136
0.3141674 0.3112883 0.3461604
0.3615410 0.3600289 0.3851287
0.3680697 0.3673238 0.4011388
0.3868456 0.3850444 0.4234057
0.3901135 0.3869270 0.4262505
0.3526994 0.3521663 0.3921211
0.3547916 0.3569562 0.3934105
0.5837598 0.5810382 0.5970004
0.5832371 0.5883075 0.6032880
0.4146877 0.4136376 0.4280921
0.4132845 0.4129570 0.4242175
0.4024001 0.4019960 0.4209828
0.3499504 0.3478369 0.3879231
0.3599341 0.3570560 0.4001841
0.3782381 0.3801804 0.4123529
0.4640347 0.4705846 0.4929812
0.5223942 0.5300494 0.5480675
0.5238407 0.5289432 0.5484693
0.4887139 0.4886217 0.4912845
0.4746173 0.4746355 0.4772414
0.4687714 0.4688461 0.4735398
0.4504659 0.4506185 0.4607639
0.4278724 0.4289853 0.4442531
0.4552307 0.4577876 0.4693178
0.4995027 0.5029340 0.5130658
0.5489576 0.5519663 0.5650112
0.5791183 0.5816342 0.5971911
0.5461117 0.5460886 0.5463604
0.5308918 0.5309009 0.5312321
0.5265878 0.5266258 0.5273321
0.5188574 0.5189780 0.5206562
0.5044045 0.5048051 0.5074625
0.4928064 0.4935057 0.4961294
0.5111428 0.5117903 0.5148903
0.5496464 0.5500568 0.5555386
0.6521429 0.6519128 0.6627356
0.6012238 0.6012157 0.6012288
0.5856994 0.5856985 0.5857280
0.5825896 0.5825976 0.5826893
0.5787150 0.5787469 0.5790027
0.5702571 0.5703534 0.5708158
0.5583036 0.5584618 0.5590479
0.5599186 0.5600682 0.5610396
0.6262401 0.6265640 0.6290163
0.8192312 0.8206831 0.8253073
0.3286516 0.3248833 0.3627824
0.2130369 0.2135847 0.2314224
0.3089977 0.3087425 0.3359679
0.2633426 0.2629535 0.2893379
0.2822941 0.2825522 0.3133954
0.3229492 0.3238651 0.3531879
0.4158897 0.4189717 0.4484985
0.4780409 0.4786720 0.4944511
0.7265100 0.7247161 0.7283443
0.2592971 0.2592677 0.2830851
0.2853112 0.2873624 0.3069943
0.3948032 0.3948574 0.4262350
0.3925885 0.3935664 0.4243403
0.3404729 0.3415201 0.3726761
0.3303231 0.3308620 0.3599159
0.4415076 0.4445649 0.4686529
0.4775584 0.4794408 0.4983755
0.6494461 0.6497567 0.6575519
0.3846040 0.3827434 0.4150806
0.3707820 0.3702007 0.4013105
0.3191198 0.3192675 0.3571310
0.3296287 0.3312938 0.3659009
0.3539045 0.3564259 0.3900461
0.3026939 0.3016128 0.3436239
0.4199152 0.4223573 0.4504984
0.4768377 0.4784223 0.5039870
0.6224021 0.6244541 0.6413873
0.3755532 0.3745520 0.4078865
0.4242060 0.4231253 0.4501221
0.4008919 0.4013068 0.4271337
0.3627669 0.3630586 0.3970548
0.3259738 0.3242982 0.3700627
0.3348167 0.3322885 0.3692977
0.3566388 0.3547203 0.3925717
0.4201939 0.4208627 0.4497334
0.5386433 0.5417328 0.5631056
0.3209804 0.3183567 0.3628462
0.3850495 0.3842768 0.4149455
0.4363055 0.4366074 0.4667179
0.4183512 0.4168971 0.4470601
0.4173604 0.4175843 0.4491127
0.3826472 0.3846160 0.4147756
0.4112525 0.4165451 0.4427315
0.5377783 0.5406311 0.5542279
0.5607533 0.5653303 0.5816322
0.4216611 0.4202567 0.4438774
0.4326194 0.4328776 0.4494912
0.4301918 0.4315245 0.4528648
0.4414016 0.4446301 0.4738118
0.4832660 0.4864934 0.5148397
0.4702310 0.4734689 0.4932368
0.5796461 0.5758722 0.5894410
0.4880133 0.4979699 0.5128887
0.5732261 0.5751611 0.5944205
0.5167407 0.5167259 0.5213969
0.5067708 0.5070186 0.5111161
0.4966138 0.4973321 0.5031815
0.4840174 0.4856384 0.4961955
0.4553408 0.4587869 0.4756928
0.4424090 0.4465858 0.4603889
0.5097373 0.5126387 0.5254825
0.5500993 0.5502615 0.5671450
0.6254603 0.6230669 0.6347489
0.5801333 0.5800645 0.5804763
0.5658133 0.5658645 0.5664258
0.5528277 0.5529862 0.5539376
0.5414574 0.5418441 0.5438736
0.5226282 0.5234688 0.5269301
0.4859443 0.4871865 0.4911623
0.4905988 0.4911771 0.4959441
0.5919508 0.5915540 0.5984831
0.7353742 0.7353953 0.7432620
0.6336190 0.6336009 0.6336150
0.6205627 0.6205651 0.6206178
0.6069995 0.6070273 0.6071635
0.5986009 0.5986802 0.5990274
0.5899583 0.5901449 0.5908291
0.5719634 0.5722471 0.5732600
0.5679779 0.5682104 0.5697273
0.6581191 0.6587854 0.6615506
0.9365008 0.9359814 0.9368284
0.2995692 0.2957703 0.3334065
0.2568979 0.2575126 0.2784915
0.2652802 0.2656776 0.2887068
0.2717424 0.2708815 0.2982657
0.2776203 0.2769658 0.3107795
0.2964277 0.2949639 0.3305035
0.3570347 0.3571631 0.3846154
0.4228919 0.4237000 0.4346319
0.4812209 0.4812773 0.4849936
0.2598225 0.2596270 0.2878632
0.2842961 0.2846531 0.3060380
0.3878643 0.3875899 0.4155238
0.4102379 0.4093283 0.4456922
0.3323825 0.3306884 0.3671063
0.3270406 0.3256657 0.3593039
0.4419641 0.4446457 0.4680033
0.4867792 0.4883434 0.4998122
0.5346247 0.5352460 0.5400938
0.3359404 0.3353303 0.3755951
0.2919251 0.2896966 0.3298497
0.3192956 0.3177683 0.3589563
0.3719983 0.3711121 0.4265826
0.3521227 0.3502721 0.4036448
0.3616627 0.3607556 0.4071706
0.4384936 0.4406258 0.4678740
0.5625730 0.5655774 0.5795133
0.6963508 0.6980365 0.7070873
0.4323080 0.4340110 0.4596502
0.4965978 0.4985411 0.5184675
0.4408936 0.4434571 0.4661023
0.3432176 0.3490598 0.3860547
0.4271178 0.4291904 0.4580718
0.3975293 0.3954961 0.4373459
0.4454489 0.4458879 0.4758622
0.5014311 0.5035041 0.5211510
0.6225876 0.6255744 0.6415065
0.3688488 0.3689148 0.4041777
0.3900810 0.3897841 0.4244624
0.4280610 0.4279959 0.4606709
0.4436206 0.4419828 0.4644679
0.4483310 0.4492364 0.4672961
0.4581029 0.4592096 0.4960944
0.4636292 0.4635009 0.4834864
0.6011161 0.6031218 0.6101249
0.6289506 0.6305319 0.6431855
0.4258509 0.4269570 0.4581276
0.4456395 0.4472236 0.4684151
0.4474779 0.4507691 0.4764249
0.4706802 0.4769403 0.5036054
0.4658021 0.4686058 0.4965764
0.4927646 0.4933781 0.5084125
0.5478946 0.5475979 0.5611398
0.5370568 0.5435829 0.5613115
0.6143589 0.6132808 0.6283795
0.5313908 0.5322454 0.5396504
0.5263701 0.5272792 0.5332618
0.5207063 0.5225383 0.5303254
0.5154719 0.5188384 0.5302041
0.5045231 0.5086263 0.5228746
0.5073654 0.5106043 0.5220813
0.5543116 0.5563342 0.5658681
0.5598325 0.5594757 0.5748088
0.6336268 0.6289745 0.6401123
0.6000275 0.6001191 0.6009564
0.5870682 0.5872453 0.5881847
0.5768013 0.5771635 0.5785557
0.5673098 0.5679858 0.5704020
0.5525571 0.5535286 0.5571834
0.5174540 0.5186497 0.5233400
0.5200856 0.5210062 0.5266513
0.6097589 0.6099076 0.6163139
0.7263444 0.7268168 0.7315721
0.6544570 0.6544522 0.6544889
0.6416903 0.6417120 0.6418225
0.6299266 0.6299890 0.6302189
0.6200104 0.6201372 0.6206047
0.6087343 0.6089489 0.6097850
0.5905409 0.5908532 0.5921921
0.5778329 0.5782094 0.5802971
0.6587301 0.6599075 0.6634512
0.8928804 0.8958667 0.9005623
0.3140899 0.3122501 0.3501431
0.2968864 0.2977650 0.3177634
0.3988306 0.4017184 0.4176851
0.2985226 0.2991770 0.3249686
0.2777456 0.2754394 0.3164829
0.3095920 0.3054749 0.3562668
0.3419922 0.3386203 0.3748493
0.3678185 0.3674809 0.3788754
0.3661561 0.3664023 0.3694324
0.3051233 0.3081916 0.3351058
0.3545295 0.3561718 0.3733684
0.3992548 0.4006561 0.4192199
0.3947118 0.3942455 0.4240031
0.3395774 0.3364057 0.3776517
0.3345336 0.3304573 0.3715818
0.3648031 0.3631026 0.3870225
0.4050293 0.4051723 0.4130794
0.4121630 0.4125062 0.4153408
0.3835468 0.3834487 0.4164140
0.4063035 0.4056878 0.4364938
0.4366986 0.4379007 0.4678920
0.3976208 0.3969524 0.4489009
0.3550769 0.3497957 0.4177144
0.3515604 0.3465946 0.4038168
0.4083508 0.4071221 0.4356772
0.5227156 0.5234258 0.5314363
0.5349466 0.5359211 0.5403542
0.4377506 0.4368594 0.4615245
0.4012262 0.4001973 0.4335736
0.4528768 0.4525564 0.4977821
0.5000890 0.5092841 0.5303260
0.3946541 0.3935167 0.4439763
0.3942533 0.3929049 0.4433600
0.4865736 0.4881687 0.5116277
0.5791160 0.5802686 0.5888157
0.6669850 0.6690578 0.6769277
0.4441085 0.4452896 0.4680578
0.5304090 0.5339142 0.5471322
0.5487101 0.5513715 0.5700326
0.4400781 0.4404840 0.4676144
0.4609984 0.4629973 0.4964483
0.5261354 0.5266242 0.5366170
0.5193022 0.5247140 0.5384088
0.5946984 0.5978127 0.6050484
0.6460986 0.6486004 0.6629915
0.4648927 0.4690962 0.4904231
0.5107333 0.5133277 0.5290150
0.4844888 0.4889923 0.5113110
0.4748798 0.4814461 0.5076832
0.5036329 0.5073634 0.5292080
0.6838921 0.6860032 0.6939358
0.5089737 0.5173633 0.5385706
0.6805467 0.6819333 0.6874074
0.6663855 0.6669916 0.6771400
0.5526058 0.5546016 0.5627830
0.5606099 0.5619928 0.5684137
0.5554790 0.5577527 0.5669912
0.5486708 0.5524229 0.5679315
0.5411241 0.5445930 0.5636536
0.6209903 0.6230198 0.6362228
0.7788641 0.7808801 0.7930695
0.5763751 0.5721903 0.5852036
0.6928638 0.6911468 0.6984093
0.6238368 0.6240876 0.6252824
0.6143180 0.6145866 0.6158222
0.6068475 0.6072950 0.6092063
0.6021913 0.6029496 0.6063464
0.6009159 0.6016934 0.6064571
0.5947194 0.5953244 0.6001903
0.6058361 0.6062072 0.6117846
0.6511934 0.6506568 0.6574076
0.7404683 0.7420344 0.7468900
0.6808674 0.6808708 0.6808743
0.6677305 0.6677673 0.6679555
0.6579638 0.6580457 0.6584297
0.6514280 0.6515769 0.6523222
0.6433962 0.6435910 0.6447678
0.6276837 0.6279039 0.6295011
0.6128285 0.6132033 0.6157437
0.6702196 0.6718535 0.6763607
0.8860402 0.8885258 0.8925474
0.3607879 0.3661313 0.4029429
0.3290977 0.3317766 0.3512796
0.3997767 0.4038749 0.4196564
0.4084788 0.4105440 0.4390902
0.2947061 0.2923469 0.3390770
0.3135266 0.3074900 0.3708523
0.3545027 0.3488189 0.3959138
0.3757591 0.3748365 0.3891470
0.3552879 0.3560484 0.3600602
0.3571895 0.3626772 0.3873516
0.3907640 0.3931200 0.4069581
0.4334759 0.4354949 0.4502908
0.4156308 0.4158564 0.4404098
0.3568426 0.3535770 0.3924652
0.3523674 0.3475406 0.3901799
0.3902452 0.3873581 0.4139027
0.3863317 0.3858627 0.3942918
0.3791419 0.3792727 0.3817565
0.3720268 0.3756679 0.4060909
0.4099348 0.4116371 0.4305138
0.4544645 0.4553214 0.4784654
0.4366070 0.4348322 0.4736521
0.3733414 0.3681496 0.4256693
0.3663662 0.3618925 0.4144287
0.4226053 0.4209794 0.4483424
0.4644678 0.4645310 0.4724094
0.4459165 0.4461634 0.4483954
0.4060738 0.4127188 0.4413932
0.4105344 0.4130562 0.4361875
0.4159732 0.4161145 0.4469960
0.4129213 0.4120017 0.4519560
0.4039682 0.4038506 0.4562471
0.4114451 0.4125567 0.4603081
0.4804132 0.4821215 0.5027057
0.5347816 0.5353718 0.5413707
0.5283867 0.5290314 0.5320082
0.5550490 0.5580130 0.5760771
0.5762059 0.5776400 0.5851527
0.5211141 0.5239470 0.5415529
0.4807240 0.4826086 0.5113498
0.5083554 0.5104281 0.5272732
0.5120105 0.5163508 0.5353297
0.5877914 0.5881956 0.5957881
0.6297233 0.6306438 0.6328445
0.6402347 0.6415713 0.6473003
0.5743643 0.5755729 0.5850166
0.6206297 0.6218905 0.6279686
0.6243622 0.6256226 0.6345437
0.7244294 0.7279142 0.7379521
0.6747224 0.6758031 0.6822860
0.6499363 0.6501877 0.6584908
0.7049013 0.7032136 0.7019392
0.6523206 0.6526714 0.6592484
0.6393096 0.6412809 0.6517561
0.6014375 0.6030278 0.6089123
0.6085802 0.6094815 0.6138403
0.6232920 0.6242210 0.6305753
0.6117470 0.6129458 0.6240135
0.5461864 0.5471771 0.5630403
0.6093147 0.6110335 0.6251586
0.8014209 0.8054463 0.8165676
0.6763086 0.6769714 0.6879087
0.6686236 0.6684858 0.6748055
0.6686478 0.6688230 0.6702907
0.6630914 0.6632723 0.6646037
0.6625241 0.6628106 0.6647767
0.6638682 0.6643475 0.6681293
0.6668701 0.6675342 0.6736125
0.6608388 0.6613786 0.6672977
0.6876161 0.6875761 0.6922970
0.6745365 0.6748704 0.6800856
0.7671671 0.7676520 0.7740262
0.7187004 0.7187121 0.7188264
0.7102248 0.7102509 0.7105442
0.7064152 0.7064811 0.7070231
0.7046157 0.7047740 0.7058674
0.7013045 0.7016280 0.7034352
0.6935777 0.6939712 0.6961400
0.6849528 0.6854460 0.6880779
0.7147105 0.7170694 0.7226222
0.8986189 0.9017325 0.9068195
0.4062203 0.4125022 0.4416143
0.3877875 0.3907720 0.4076246
0.4054827 0.4090331 0.4259147
0.4061534 0.4086586 0.4346933
0.3537594 0.3520033 0.3979679
0.3368468 0.3313057 0.3918895
0.3727226 0.3676216 0.4126944
0.4086676 0.4080478 0.4206646
0.4081455 0.4092636 0.4143412
0.4526063 0.4588569 0.4812158
0.4196406 0.4218472 0.4328343
0.4339746 0.4358254 0.4475649
0.4284380 0.4292470 0.4479377
0.3824348 0.3803511 0.4098229
0.3759841 0.3727982 0.4042230
0.3935199 0.3915865 0.4111923
0.3873756 0.3870480 0.3934288
0.3818426 0.3819437 0.3840538
0.4348187 0.4391140 0.4644220
0.4169525 0.4186263 0.4315962
0.4861278 0.4872457 0.5020260
0.4793344 0.4789358 0.5024964
0.4008766 0.3982018 0.4335726
0.3895978 0.3871223 0.4207992
0.4432246 0.4428463 0.4594190
0.4546307 0.4546953 0.4597463
0.4314435 0.4315703 0.4331416
0.4301819 0.4334110 0.4626696
0.4622355 0.4641121 0.4784289
0.4416379 0.4428786 0.4585713
0.4404640 0.4405377 0.4640424
0.4115134 0.4114629 0.4442206
0.4363218 0.4380274 0.4659077
0.5220167 0.5235506 0.5375402
0.5398481 0.5400627 0.5451815
0.4901094 0.4902517 0.4919258
0.5172957 0.5181083 0.5319470
0.6398709 0.6407655 0.6533064
0.7341623 0.7360937 0.7474724
0.5583714 0.5603008 0.5704595
0.5028628 0.5051212 0.5191993
0.5432801 0.5462109 0.5604882
0.6249351 0.6251903 0.6349159
0.6232845 0.6231367 0.6274932
0.5653204 0.5656634 0.5681129
0.6875757 0.6885356 0.7003021
0.6976747 0.7002502 0.7090266
0.7938924 0.7960640 0.8038970
0.7752723 0.7775953 0.7867101
0.6896762 0.6899708 0.6964635
0.7404441 0.7400839 0.7438815
0.7404205 0.7403704 0.7441409
0.7254842 0.7268744 0.7319336
0.6742996 0.6764276 0.6825765
0.7291755 0.7311446 0.7371294
0.6165938 0.6176494 0.6229909
0.6353021 0.6362548 0.6422504
0.6661424 0.6670767 0.6744657
0.6606864 0.6615868 0.6722387
0.9235139 0.9270020 0.9375091
0.7889672 0.7932235 0.7979657
0.7452194 0.7484550 0.7588345
0.8240057 0.8328718 0.8475679
0.6567401 0.6568376 0.6587344
0.6506620 0.6508128 0.6525674
0.6695562 0.6697253 0.6720311
0.6892271 0.6895988 0.6930419
0.6971930 0.6981924 0.7031929
0.7002561 0.7011138 0.7061389
0.7211364 0.7204459 0.7264666
0.7520427 0.7518029 0.7571763
0.7325492 0.7351348 0.7448885
0.7463571 0.7463829 0.7467677
0.7526977 0.7527193 0.7532481
0.7556280 0.7556966 0.7565083
0.7601627 0.7604182 0.7618800
0.7614977 0.7623871 0.7650451
0.7540461 0.7555694 0.7587996
0.7529297 0.7546215 0.7577447
0.7834998 0.7883383 0.7969305
0.9185705 0.9227221 0.9282556
0.6687178 0.6721651 0.6930105
0.4337340 0.4353224 0.4466873
0.4201862 0.4216096 0.4350745
0.3872903 0.3881226 0.4068387
0.3874495 0.3872070 0.4178593
0.3916081 0.3901256 0.4249613
0.4054718 0.4051561 0.4244746
0.4039938 0.4042379 0.4106768
0.3969502 0.3970801 0.3999327
0.6347980 0.6369268 0.6461362
0.4578528 0.4589376 0.4656433
0.4141106 0.4148649 0.4221288
0.4075959 0.4079261 0.4190381
0.4006782 0.4000745 0.4156651
0.3991970 0.3983360 0.4132390
0.3966972 0.3962760 0.4047235
0.3910869 0.3910537 0.3940937
0.3864713 0.3865246 0.3877027
0.5387151 0.5408059 0.5535417
0.4539604 0.4549993 0.4615243
0.4608819 0.4616118 0.4684573
0.4539978 0.4542851 0.4644401
0.4364604 0.4360991 0.4496954
0.4393942 0.4390335 0.4506006
0.4485643 0.4485706 0.4540122
0.4428751 0.4429301 0.4448003
0.4324398 0.4324768 0.4331646
0.6014743 0.6031822 0.6060553
0.5166233 0.5182366 0.5254994
0.5076437 0.5091020 0.5141440
0.5217147 0.5226370 0.5293856
0.4989562 0.4994998 0.5093065
0.4959550 0.4966937 0.5052976
0.5151763 0.5155459 0.5201518
0.5080632 0.5081092 0.5100047
0.4886670 0.4887096 0.4895071
0.5659826 0.5663419 0.5869097
0.5077188 0.5115904 0.5243755
0.5675607 0.5707658 0.5784180
0.5990434 0.6005932 0.6051240
0.6027925 0.6039125 0.6095411
0.6225091 0.6240265 0.6301623
0.6225327 0.6229355 0.6271637
0.5986157 0.5987732 0.6013176
0.5621973 0.5625064 0.5640288
0.6271540 0.6305982 0.6396113
0.5294103 0.5351067 0.5532126
0.5058829 0.5103841 0.5272239
0.7161407 0.7178267 0.7268848
0.7780890 0.7798863 0.7878276
0.7820824 0.7847292 0.7901326
0.7921099 0.7944562 0.8006159
0.7537255 0.7560902 0.7623202
0.6834553 0.6860093 0.6917312
0.8000934 0.8025857 0.8106377
0.6289677 0.6302252 0.6402003
0.6445113 0.6448422 0.6568411
0.7198942 0.7204247 0.7309498
0.7052854 0.7058203 0.7154713
0.8579521 0.8618161 0.8733467
0.8915852 0.9001579 0.9036692
0.9206083 0.9221909 0.9250476
0.8694891 0.8813595 0.9038415
0.6731765 0.6735040 0.6767252
0.6642882 0.6645943 0.6678272
0.6788378 0.6791420 0.6828263
0.6992149 0.6997689 0.7038040
0.7069235 0.7080074 0.7127122
0.7255712 0.7272388 0.7326397
0.7846985 0.7861355 0.7936495
0.7713176 0.7725058 0.7806740
0.9421917 0.9463487 0.9545308
0.7073961 0.7074072 0.7085438
0.7153320 0.7154311 0.7167643
0.7343393 0.7345223 0.7361026
0.7536452 0.7540736 0.7561541
0.7720072 0.7732499 0.7766743
0.7924432 0.7955353 0.8003007
0.8147090 0.8203046 0.8252178
0.8454778 0.8597920 0.8737755
0.9321388 0.9381079 0.9437092
0.6120286 0.6140785 0.6232762
0.4248116 0.4255461 0.4304726
0.3796978 0.3801868 0.3854646
0.3833968 0.3838704 0.3912412
0.4012536 0.4022859 0.4133287
0.4218953 0.4232738 0.4355484
0.4266757 0.4272920 0.4345304
0.3914133 0.3916187 0.3942407
0.3679549 0.3680214 0.3691026
0.5781378 0.5794376 0.5845031
0.4704488 0.4710520 0.4747223
0.4068482 0.4071849 0.4109327
0.4032915 0.4036353 0.4087641
0.4041944 0.4046209 0.4112720
0.4074262 0.4078624 0.4142872
0.3999736 0.4001274 0.4037813
0.3883915 0.3884564 0.3897931
0.3844619 0.3844971 0.3850675
0.6928154 0.6950998 0.7000531
0.4935036 0.4944226 0.4979810
0.4526201 0.4530299 0.4561618
0.4538145 0.4541731 0.4580167
0.4553594 0.4558587 0.4604853
0.4533325 0.4537953 0.4579095
0.4456977 0.4458070 0.4479319
0.4330280 0.4330464 0.4337484
0.4299097 0.4299245 0.4302116
0.7325438 0.7344073 0.7400852
0.5029126 0.5040952 0.5080808
0.4604644 0.4612632 0.4643608
0.4992557 0.4997545 0.5026069
0.5152748 0.5159291 0.5192070
0.5127931 0.5134372 0.5165044
0.4963132 0.4964035 0.4982432
0.4823331 0.4823335 0.4830806
0.4766603 0.4766746 0.4770225
0.7719820 0.7750935 0.7814705
0.5247110 0.5272246 0.5355602
0.4833465 0.4849717 0.4923772
0.5212776 0.5220376 0.5261866
0.5776868 0.5783670 0.5813724
0.5969554 0.5977939 0.6006421
0.5701226 0.5704720 0.5726244
0.5506139 0.5508429 0.5522643
0.5396381 0.5399119 0.5408793
0.6834805 0.6852031 0.7020726
0.5816436 0.5822017 0.6019150
0.5403634 0.5414236 0.5603260
0.5986196 0.5988751 0.6100957
0.6490743 0.6499807 0.6562454
0.6965552 0.6979437 0.7027820
0.7106908 0.7125442 0.7174276
0.6819343 0.6843705 0.6899102
0.6613031 0.6639517 0.6694644
0.5775889 0.5814106 0.5933237
0.6494179 0.6489336 0.6629144
0.6427066 0.6431903 0.6524864
0.6495423 0.6487421 0.6597471
0.6725905 0.6728350 0.6823691
0.7261703 0.7257049 0.7348973
0.8003295 0.8046460 0.8173944
0.9043180 0.9159392 0.9398772
0.8876105 0.9019726 0.9306106
0.7219949 0.7223941 0.7296300
0.7622113 0.7627366 0.7705122
0.7573562 0.7580995 0.7659589
0.7596436 0.7612182 0.7692872
0.7845179 0.7852248 0.7944944
0.7922757 0.7936234 0.8015601
0.8000698 0.8005056 0.8086777
0.9127257 0.9172381 0.9293182
0.9821392 0.9904111 0.9984267
0.7342049 0.7343523 0.7369648
0.7441328 0.7443844 0.7470338
0.7633381 0.7637370 0.7666371
0.7867226 0.7874625 0.7908490
0.8079290 0.8092272 0.8143714
0.8524688 0.8546015 0.8638653
0.9011233 0.9012632 0.9014480
0.9142902 0.9186199 0.9244789
0.9926705 0.9960346 1.0000000
