catalog/styles/experimental/experimental-ansel-adams/look.cube
# experimental-ansel-adams iteration 4
LUT_3D_SIZE 9
DOMAIN_MIN 0 0 0
DOMAIN_MAX 1 1 1
0.1903692 0.1897918 0.1849437
0.1919281 0.1902325 0.1852040
0.1951482 0.1957467 0.1901565
0.1978147 0.1987289 0.1870223
0.2043003 0.2022027 0.1848343
0.2112483 0.2036725 0.1837067
0.2205222 0.2048645 0.1831384
0.2371565 0.2092450 0.1859528
0.2582306 0.2145470 0.1872994
0.1866041 0.1886226 0.1799112
0.1882723 0.1885514 0.1793646
0.1945361 0.1941199 0.1846880
0.1960625 0.1954947 0.1860390
0.1972762 0.1983076 0.1831993
0.2020581 0.2018625 0.1820659
0.2155773 0.2074560 0.1850279
0.2379605 0.2161539 0.1912830
0.2647249 0.2263934 0.1979723
0.1891933 0.1897061 0.1805661
0.1920513 0.1927484 0.1824172
0.1951244 0.1959085 0.1833542
0.1951239 0.1961996 0.1833792
0.1961652 0.1958097 0.1810433
0.2021577 0.2007909 0.1827146
0.2179551 0.2114049 0.1896046
0.2425222 0.2247529 0.1996174
0.2686061 0.2378452 0.2101399
0.1816412 0.1849824 0.1706374
0.1889474 0.1915052 0.1773063
0.1946270 0.1971417 0.1811912
0.1964568 0.1997031 0.1820789
0.1947538 0.1976449 0.1806133
0.2011957 0.2003977 0.1835529
0.2191198 0.2108347 0.1916821
0.2372957 0.2235154 0.2022491
0.2606852 0.2398878 0.2162992
0.1663572 0.1739258 0.1549575
0.1767859 0.1824968 0.1631523
0.1860144 0.1904773 0.1704535
0.1911772 0.1954908 0.1750898
0.1927216 0.1971052 0.1777838
0.1992375 0.2005914 0.1824738
0.2132114 0.2082220 0.1896549
0.2279752 0.2173876 0.1984589
0.2458668 0.2289876 0.2102248
0.1458613 0.1573207 0.1362741
0.1573330 0.1653139 0.1428413
0.1681303 0.1731711 0.1496121
0.1778160 0.1809350 0.1566942
0.1878634 0.1896328 0.1645801
0.2015966 0.2011598 0.1741025
0.2196873 0.2147597 0.1846371
0.2393819 0.2261338 0.1946565
0.2628484 0.2357274 0.2050157
0.1205830 0.1348481 0.1152605
0.1327974 0.1416714 0.1184108
0.1453912 0.1492513 0.1224095
0.1600436 0.1597501 0.1289735
0.1796859 0.1761407 0.1396493
0.2065555 0.1999497 0.1547251
0.2411998 0.2296833 0.1729720
0.2842404 0.2619262 0.1922495
0.3405880 0.2970813 0.2120292
0.0915811 0.1077109 0.0926583
0.1053486 0.1141357 0.0917497
0.1205518 0.1221893 0.0919732
0.1405854 0.1356657 0.0960229
0.1702477 0.1595786 0.1071736
0.2136492 0.1975839 0.1270929
0.2731882 0.2505564 0.1552476
0.3497205 0.3171921 0.1894778
0.4372439 0.3916380 0.2263916
0.0610217 0.0786280 0.0695063
0.0768250 0.0851417 0.0643020
0.0951013 0.0941559 0.0604685
0.1207944 0.1108259 0.0614993
0.1607590 0.1421555 0.0720951
0.2222220 0.1952027 0.0961950
0.3094628 0.2743879 0.1349594
0.4191642 0.3775173 0.1861903
0.5396946 0.4931960 0.2438926
0.1932517 0.1931462 0.1859086
0.1890017 0.1890286 0.1803505
0.1949787 0.1941805 0.1846615
0.2095823 0.2038046 0.1907662
0.2304271 0.2126800 0.1971857
0.2516814 0.2176356 0.2011702
0.2720981 0.2201899 0.2023830
0.2966713 0.2244708 0.2040382
0.3276166 0.2330152 0.2087948
0.1915726 0.1954000 0.1836589
0.1897750 0.1894363 0.1820342
0.1898247 0.1894348 0.1812869
0.1955725 0.1947481 0.1840707
0.2084512 0.2025322 0.1867375
0.2271369 0.2099544 0.1914105
0.2512342 0.2175738 0.1979398
0.2785000 0.2260733 0.2053513
0.3071729 0.2351522 0.2131937
0.1931440 0.2008960 0.1852665
0.1935524 0.1966465 0.1830978
0.1934215 0.1943724 0.1826615
0.1944335 0.1941701 0.1834251
0.1946608 0.1966948 0.1792077
0.2063637 0.2017509 0.1828344
0.2309204 0.2115713 0.1916780
0.2609678 0.2243320 0.2033310
0.2901794 0.2368302 0.2159439
0.1916912 0.2034519 0.1840362
0.1941017 0.2010754 0.1826954
0.1952081 0.1985468 0.1812546
0.1952161 0.1975689 0.1802760
0.1972534 0.2007780 0.1833906
0.1962063 0.1977171 0.1815500
0.2134178 0.2039652 0.1852238
0.2469254 0.2212452 0.1996163
0.2758326 0.2367627 0.2167186
0.1805730 0.1966827 0.1746049
0.1862521 0.1974995 0.1750571
0.1913223 0.1984816 0.1761052
0.1952800 0.1999185 0.1785161
0.1982482 0.2016094 0.1821865
0.2004879 0.2018724 0.1858945
0.2065941 0.2037935 0.1863388
0.2324246 0.2174907 0.1957897
0.2634852 0.2331790 0.2107701
0.1602995 0.1811917 0.1590434
0.1701572 0.1857828 0.1610143
0.1795844 0.1903118 0.1633597
0.1881873 0.1949020 0.1668696
0.1965071 0.1999453 0.1721452
0.2068717 0.2070712 0.1801042
0.2216858 0.2176144 0.1888283
0.2476101 0.2336523 0.1984579
0.2857034 0.2546179 0.2116139
0.1331442 0.1590645 0.1400687
0.1474196 0.1673326 0.1424112
0.1615829 0.1755956 0.1448648
0.1762079 0.1846397 0.1483771
0.1937671 0.1971039 0.1552815
0.2184439 0.2166985 0.1678790
0.2546413 0.2458234 0.1863361
0.3049159 0.2840102 0.2083496
0.3655698 0.3273978 0.2310628
0.1022029 0.1332303 0.1199627
0.1206422 0.1447125 0.1213765
0.1400300 0.1571038 0.1234026
0.1628686 0.1728097 0.1276497
0.1935971 0.1961609 0.1371194
0.2380804 0.2326798 0.1555705
0.3011318 0.2863074 0.1850665
0.3837548 0.3575486 0.2243969
0.4825758 0.4444939 0.2709906
0.0700144 0.1061194 0.0996858
0.0924610 0.1206031 0.0996348
0.1173142 0.1373412 0.1010738
0.1494816 0.1607608 0.1065784
0.1955332 0.1968040 0.1195482
0.2621439 0.2521717 0.1443737
0.3534813 0.3325292 0.1853003
0.4676648 0.4384761 0.2436179
0.5948783 0.5608914 0.3144744
0.1988077 0.2010794 0.1852149
0.1949533 0.1955885 0.1848378
0.2045988 0.2008891 0.1925518
0.2263713 0.2123812 0.2036974
0.2551278 0.2230953 0.2141685
0.2866506 0.2307778 0.2219138
0.3189294 0.2366414 0.2275397
0.3517734 0.2427553 0.2326851
0.3874665 0.2507104 0.2379834
0.1963172 0.2025338 0.1880143
0.1944922 0.1969653 0.1834692
0.1960996 0.1964469 0.1837401
0.2079372 0.2034158 0.1911608
0.2275171 0.2116518 0.1981077
0.2557335 0.2207293 0.2070461
0.2875309 0.2291657 0.2160809
0.3194766 0.2371820 0.2246833
0.3498639 0.2448232 0.2332008
0.2051959 0.2193044 0.2018064
0.1958223 0.2015312 0.1831572
0.1950958 0.1974159 0.1816280
0.1951099 0.1969765 0.1816025
0.2028717 0.2003259 0.1830261
0.2243936 0.2089844 0.1918628
0.2552527 0.2195474 0.2029814
0.2871016 0.2292521 0.2141443
0.3176748 0.2384379 0.2260117
0.2069030 0.2257634 0.2035866
0.1993802 0.2096798 0.1878747
0.1982450 0.2028313 0.1830415
0.1983895 0.2013707 0.1825386
0.2006702 0.2024649 0.1846038
0.2046424 0.2022453 0.1851706
0.2267515 0.2097638 0.1908701
0.2617151 0.2224528 0.2031728
0.2909541 0.2313535 0.2167411
0.1970295 0.2203095 0.1960061
0.1961122 0.2121305 0.1874152
0.1970884 0.2066659 0.1821306
0.2001432 0.2052179 0.1818410
0.2038870 0.2059767 0.1852573
0.2104605 0.2093776 0.1919697
0.2122367 0.2074865 0.1892588
0.2431217 0.2201871 0.1971181
0.2796767 0.2323567 0.2080872
0.1749794 0.2040596 0.1812670
0.1827435 0.2056200 0.1792783
0.1907486 0.2073118 0.1774797
0.1991660 0.2097199 0.1772618
0.2067297 0.2121345 0.1796688
0.2159952 0.2163195 0.1865019
0.2265938 0.2223084 0.1934489
0.2573457 0.2397979 0.2017420
0.3133399 0.2675743 0.2151761
0.1455451 0.1824286 0.1643555
0.1611912 0.1919375 0.1659262
0.1772131 0.2016504 0.1675674
0.1936360 0.2113412 0.1695565
0.2107838 0.2215708 0.1733553
0.2330805 0.2367597 0.1827586
0.2692212 0.2631377 0.1997890
0.3269197 0.3045788 0.2230927
0.4018768 0.3565400 0.2501599
0.1125278 0.1584249 0.1470398
0.1351732 0.1746020 0.1506506
0.1590423 0.1917933 0.1550455
0.1861273 0.2114218 0.1612031
0.2194208 0.2359553 0.1707007
0.2647398 0.2707615 0.1873365
0.3301529 0.3234347 0.2165768
0.4182003 0.3969632 0.2596775
0.5208767 0.4850256 0.3112154
0.0781244 0.1334175 0.1293599
0.1076083 0.1560929 0.1350138
0.1392496 0.1805589 0.1420273
0.1779097 0.2107400 0.1526560
0.2303505 0.2520695 0.1695782
0.3028830 0.3107381 0.1967939
0.3984578 0.3923773 0.2401290
0.5143888 0.4985817 0.3039452
0.6412286 0.6207415 0.3831363
0.2039374 0.2060628 0.1963488
0.2119186 0.2092546 0.2041992
0.2277981 0.2166099 0.2151645
0.2507611 0.2246776 0.2254493
0.2799098 0.2317875 0.2342668
0.3137186 0.2382636 0.2427338
0.3506410 0.2454676 0.2521934
0.3884156 0.2534791 0.2621185
0.4259688 0.2617564 0.2718496
0.1991837 0.2036520 0.1925974
0.2107654 0.2122108 0.2022305
0.2228216 0.2193823 0.2104909
0.2354320 0.2221995 0.2148655
0.2560016 0.2262528 0.2210645
0.2856465 0.2329037 0.2302088
0.3197937 0.2402930 0.2401953
0.3541742 0.2471937 0.2496826
0.3874095 0.2536012 0.2587444
0.1993497 0.2086232 0.1902860
0.2084364 0.2141852 0.1987905
0.2122082 0.2146953 0.1990397
0.2193756 0.2166961 0.2020287
0.2316046 0.2184850 0.2068873
0.2557093 0.2249777 0.2158315
0.2869644 0.2328788 0.2257364
0.3188976 0.2389619 0.2348414
0.3500598 0.2444380 0.2442430
0.2238471 0.2455016 0.2232002
0.2079890 0.2186906 0.1970808
0.1975480 0.2027371 0.1818149
0.2090502 0.2115698 0.1922273
0.2089041 0.2069228 0.1917189
0.2217896 0.2105683 0.1959732
0.2504282 0.2206320 0.2069636
0.2826339 0.2277655 0.2165670
0.3166290 0.2334545 0.2261341
0.2162753 0.2430402 0.2185282
0.2063096 0.2251129 0.2003048
0.2033213 0.2153587 0.1904674
0.2085366 0.2146354 0.1897194
0.2190286 0.2188743 0.1950367
0.2185040 0.2149019 0.1951177
0.2273865 0.2162679 0.1988683
0.2583399 0.2231488 0.2045264
0.3079555 0.2345631 0.2102049
0.1909196 0.2256430 0.2037550
0.1934510 0.2222893 0.1962210
0.2000249 0.2228886 0.1922590
0.2118584 0.2278326 0.1919513
0.2267224 0.2345799 0.1945152
0.2363320 0.2364799 0.1997594
0.2465894 0.2409810 0.2096725
0.2749566 0.2480690 0.2094804
0.3544489 0.2768010 0.2153811
0.1587014 0.2052630 0.1892890
0.1730250 0.2140097 0.1884471
0.1906874 0.2258770 0.1902891
0.2134311 0.2419835 0.1959008
0.2388163 0.2589525 0.2034788
0.2615075 0.2715111 0.2100175
0.2924838 0.2886299 0.2203736
0.3526111 0.3236175 0.2368686
0.4502674 0.3823172 0.2632854
0.1217782 0.1827226 0.1734460
0.1482505 0.2033502 0.1796190
0.1769237 0.2258265 0.1873670
0.2107653 0.2523440 0.1987450
0.2513255 0.2833805 0.2139047
0.2997879 0.3188099 0.2313588
0.3639313 0.3656039 0.2557769
0.4532125 0.4345947 0.2961440
0.5622376 0.5231318 0.3501997
0.0831222 0.1594287 0.1568527
0.1215103 0.1916600 0.1702781
0.1609100 0.2243076 0.1840964
0.2055464 0.2604254 0.2003777
0.2634213 0.3064352 0.2228932
0.3424308 0.3697639 0.2562681
0.4428859 0.4538570 0.3048309
0.5568794 0.5566909 0.3726520
0.6757084 0.6711555 0.4578788
0.2207541 0.2207522 0.2249554
0.2451653 0.2352005 0.2435318
0.2620275 0.2383589 0.2495589
0.2802609 0.2375122 0.2519807
0.3045273 0.2371683 0.2553161
0.3345293 0.2387202 0.2612218
0.3693318 0.2436225 0.2710537
0.4071392 0.2513772 0.2837456
0.4457348 0.2600994 0.2972345
0.2155428 0.2190266 0.2196263
0.2381791 0.2345294 0.2360449
0.2565095 0.2434835 0.2467964
0.2699799 0.2428596 0.2485806
0.2874740 0.2406096 0.2498029
0.3148722 0.2433027 0.2568313
0.3484845 0.2490404 0.2669973
0.3829129 0.2546368 0.2770183
0.4166853 0.2596296 0.2865220
0.2007886 0.2058040 0.1967073
0.2312502 0.2331402 0.2269233
0.2484099 0.2458683 0.2408851
0.2565071 0.2438931 0.2404002
0.2709365 0.2437417 0.2446157
0.2958392 0.2479290 0.2528764
0.3261222 0.2524033 0.2604775
0.3568310 0.2551039 0.2668001
0.3866957 0.2567031 0.2727413
0.2078733 0.2175957 0.1972808
0.2249031 0.2329656 0.2182426
0.2224015 0.2281664 0.2141483
0.2299174 0.2296643 0.2154348
0.2605685 0.2492611 0.2427396
0.2747312 0.2480117 0.2441003
0.2955903 0.2466161 0.2437183
0.3267322 0.2491501 0.2482758
0.3611894 0.2520330 0.2541015
0.2299197 0.2558234 0.2347751
0.2129608 0.2307199 0.2096430
0.2098015 0.2244131 0.2040739
0.2204326 0.2313297 0.2113733
0.2594554 0.2578124 0.2351815
0.2354282 0.2261080 0.2112223
0.2575439 0.2307674 0.2146757
0.3015974 0.2424324 0.2255526
0.3580843 0.2561601 0.2342001
0.2114198 0.2498307 0.2326094
0.2008978 0.2332895 0.2106496
0.2040706 0.2324888 0.2050482
0.2297725 0.2549932 0.2206428
0.2710806 0.2862743 0.2415704
0.2974711 0.2960100 0.2507914
0.2533550 0.2434811 0.2138204
0.3059862 0.2585191 0.2193841
0.4040025 0.2979370 0.2306052
0.1730669 0.2285362 0.2163453
0.1831051 0.2338159 0.2114990
0.2012688 0.2472508 0.2139809
0.2351584 0.2759793 0.2303018
0.2815630 0.3140747 0.2556018
0.3278111 0.3451479 0.2780230
0.3376412 0.3334383 0.2639977
0.3833449 0.3431487 0.2539092
0.4880669 0.3983600 0.2719147
0.1280513 0.2048894 0.1976020
0.1594233 0.2310801 0.2088679
0.1938547 0.2597629 0.2221897
0.2356435 0.2943547 0.2410230
0.2882881 0.3371636 0.2683944
0.3492872 0.3830909 0.2987078
0.4129305 0.4239312 0.3197742
0.4869726 0.4707510 0.3395914
0.5884321 0.5460084 0.3832127
0.0824884 0.1825438 0.1798269
0.1335071 0.2271455 0.2048049
0.1832057 0.2696155 0.2281312
0.2336945 0.3107772 0.2504887
0.2937550 0.3580716 0.2775873
0.3750332 0.4228063 0.3178390
0.4794148 0.5096936 0.3766565
0.5909758 0.6079055 0.4505789
0.6964195 0.7054580 0.5334157
0.3024528 0.2965516 0.3252976
0.2988725 0.2781919 0.3040123
0.3034462 0.2632602 0.2915762
0.3136300 0.2501512 0.2824064
0.3295192 0.2396800 0.2769231
0.3514328 0.2332754 0.2766838
0.3794651 0.2323361 0.2827608
0.4120448 0.2358423 0.2934645
0.4463972 0.2411533 0.3058568
0.2584282 0.2618271 0.2785307
0.2779850 0.2673636 0.2855498
0.2924375 0.2664098 0.2866528
0.3046470 0.2600410 0.2836219
0.3198013 0.2529464 0.2809708
0.3437534 0.2514246 0.2847561
0.3750931 0.2547974 0.2935823
0.4090042 0.2595313 0.3037525
0.4431960 0.2642823 0.3140441
0.2302500 0.2386683 0.2463497
0.2563336 0.2545085 0.2640727
0.2781849 0.2663570 0.2776462
0.2934378 0.2676046 0.2820089
0.3113520 0.2673448 0.2865225
0.3390241 0.2720379 0.2953236
0.3715023 0.2769758 0.3034347
0.4046958 0.2805392 0.3104160
0.4380710 0.2836405 0.3172297
0.2045335 0.2134207 0.2103111
0.2349795 0.2399353 0.2391763
0.2529670 0.2544476 0.2564673
0.2758917 0.2700357 0.2753330
0.3183311 0.2975013 0.3085254
0.3431745 0.2992329 0.3109984
0.3666445 0.2952808 0.3071657
0.3970908 0.2947317 0.3070646
0.4324201 0.2969800 0.3101617
0.2409663 0.2652421 0.2591472
0.2113135 0.2252116 0.2129514
0.2200754 0.2324845 0.2243705
0.2609444 0.2817273 0.2784857
0.3746445 0.3766407 0.3734018
0.3611541 0.3360318 0.3315925
0.3502013 0.2985742 0.2917756
0.3882578 0.3019200 0.2902328
0.4344584 0.3103166 0.2941524
0.2304327 0.2724158 0.2650089
0.2105230 0.2450285 0.2316184
0.2090188 0.2406554 0.2232460
0.2467935 0.2790356 0.2562361
0.3819036 0.4063779 0.3757281
0.4141843 0.4088393 0.3788636
0.3227974 0.2893403 0.2582966
0.3887209 0.3142369 0.2702574
0.4589121 0.3434478 0.2843721
0.1822578 0.2474559 0.2403360
0.1920374 0.2532744 0.2381548
0.2108449 0.2689385 0.2443634
0.2583851 0.3124117 0.2761242
0.3333457 0.3785636 0.3307143
0.4220251 0.4479001 0.3935602
0.4494334 0.4429909 0.3873014
0.4089779 0.3589850 0.2816419
0.5101842 0.4182280 0.3097584
0.1285100 0.2231544 0.2171655
0.1679445 0.2577939 0.2384699
0.2110874 0.2952967 0.2619110
0.2615560 0.3380774 0.2900378
0.3245200 0.3899470 0.3286655
0.4089592 0.4571671 0.3867329
0.4865953 0.5086467 0.4283840
0.5241108 0.5140790 0.4112483
0.5814572 0.5404934 0.4096326
0.0755035 0.2018581 0.1966253
0.1431867 0.2617515 0.2374505
0.2076687 0.3171642 0.2745581
0.2673933 0.3654049 0.3061277
0.3280697 0.4116128 0.3368696
0.4001786 0.4664232 0.3753576
0.4960903 0.5439044 0.4366945
0.6056072 0.6361787 0.5191796
0.7021034 0.7169815 0.5985471
0.4098747 0.3995200 0.4420143
0.3644760 0.3306250 0.3754558
0.3514091 0.2918959 0.3400547
0.3508958 0.2640434 0.3168194
0.3561533 0.2412333 0.2998264
0.3672173 0.2242309 0.2899604
0.3846954 0.2138749 0.2876624
0.4071728 0.2086197 0.2907155
0.4317638 0.2054677 0.2958655
0.3198166 0.3216534 0.3572752
0.3250884 0.3061352 0.3440047
0.3311427 0.2906252 0.3313365
0.3402342 0.2765426 0.3211771
0.3535738 0.2650817 0.3146565
0.3741416 0.2592352 0.3142103
0.4021916 0.2592040 0.3195829
0.4351740 0.2629238 0.3287160
0.4701180 0.2681709 0.3394285
0.2692519 0.2803347 0.3097453
0.2873048 0.2822074 0.3127427
0.3071755 0.2855514 0.3184336
0.3288495 0.2888043 0.3255034
0.3536778 0.2921384 0.3329776
0.3842831 0.2972442 0.3410705
0.4215695 0.3054290 0.3515978
0.4631508 0.3159648 0.3645442
0.5059102 0.3270314 0.3781237
0.2340960 0.2523171 0.2770958
0.2554896 0.2618653 0.2832720
0.2778300 0.2744338 0.2993447
0.3145753 0.3001172 0.3299265
0.3629694 0.3299830 0.3617099
0.4052683 0.3449454 0.3759418
0.4475316 0.3558247 0.3857176
0.4909455 0.3662507 0.3950160
0.5335246 0.3751298 0.4027542
0.2391492 0.2707635 0.2880193
0.2319791 0.2481023 0.2593045
0.2484034 0.2622613 0.2780327
0.2947819 0.3099219 0.3333925
0.3696607 0.3649543 0.3827249
0.4525062 0.4174167 0.4337413
0.4875481 0.4185862 0.4298440
0.5147694 0.4109264 0.4157744
0.5480361 0.4088015 0.4073091
0.2283185 0.2783313 0.2841396
0.2197742 0.2593344 0.2631988
0.2277162 0.2675407 0.2730101
0.2783940 0.3213755 0.3262205
0.4053918 0.4271229 0.4270636
0.5463405 0.5402502 0.5427596
0.5297062 0.4883321 0.4810930
0.5245344 0.4454193 0.4233949
0.5540977 0.4382382 0.4032562
0.1780777 0.2569420 0.2564351
0.1980033 0.2732511 0.2686801
0.2250464 0.2981612 0.2886765
0.2778009 0.3475798 0.3300393
0.3773429 0.4330913 0.4071929
0.5276414 0.5540905 0.5348495
0.5646535 0.5618657 0.5431845
0.5230970 0.4797506 0.4345810
0.5659507 0.4845805 0.4205665
0.1206729 0.2358559 0.2306038
0.1735293 0.2834288 0.2679734
0.2301440 0.3335043 0.3070044
0.2953989 0.3891003 0.3510838
0.3691571 0.4477301 0.4004371
0.4578753 0.5143326 0.4649875
0.5602336 0.5892012 0.5456065
0.5701908 0.5680266 0.5134012
0.5976088 0.5617437 0.4865809
0.0634161 0.2171283 0.2067175
0.1506939 0.2943328 0.2670974
0.2347006 0.3663484 0.3233190
0.3096366 0.4261184 0.3700798
0.3746235 0.4736496 0.4081618
0.4355223 0.5154594 0.4427096
0.5058080 0.5647519 0.4876137
0.5998623 0.6365430 0.5631688
0.6946349 0.7065733 0.6422386
0.4527226 0.4369636 0.4928448
0.4255606 0.3772272 0.4405647
0.4054965 0.3252326 0.3943090
0.3934044 0.2818768 0.3565497
0.3861123 0.2446025 0.3256943
0.3839030 0.2140292 0.3025585
0.3877684 0.1907878 0.2874868
0.3968305 0.1733103 0.2784694
0.4082851 0.1583585 0.2720129
0.3780537 0.3771618 0.4319272
0.3734744 0.3452924 0.4042591
0.3727357 0.3170829 0.3803280
0.3777974 0.2945751 0.3623404
0.3886911 0.2779095 0.3504160
0.4061698 0.2675411 0.3447507
0.4311591 0.2639354 0.3457251
0.4627211 0.2661107 0.3524507
0.4975174 0.2711349 0.3620315
0.3167467 0.3308754 0.3826798
0.3255568 0.3174150 0.3714152
0.3383307 0.3074281 0.3645605
0.3607664 0.3064941 0.3673735
0.3923722 0.3130833 0.3769604
0.4306568 0.3235811 0.3892082
0.4767613 0.3392145 0.4058495
0.5292737 0.3595323 0.4269710
0.5839119 0.3813474 0.4495960
0.2795141 0.3100022 0.3568593
0.2861346 0.2976597 0.3449860
0.3027470 0.2971241 0.3471185
0.3377314 0.3141302 0.3674244
0.3936719 0.3473616 0.4018839
0.4603042 0.3853579 0.4387970
0.5301067 0.4221994 0.4734085
0.5965544 0.4540581 0.5027317
0.6576071 0.4803426 0.5264363
0.2648715 0.3153694 0.3509584
0.2531829 0.2845945 0.3225093
0.2712746 0.2936483 0.3350090
0.3070855 0.3178682 0.3608849
0.3773444 0.3661534 0.4090567
0.4991922 0.4573746 0.4984367
0.6003621 0.5230909 0.5597789
0.6592931 0.5463358 0.5774814
0.7036225 0.5556607 0.5808107
0.2157626 0.2841713 0.3060384
0.2254834 0.2841968 0.3086582
0.2500826 0.3053046 0.3335943
0.2909506 0.3414163 0.3697047
0.3537495 0.3820784 0.4057408
0.5481060 0.5402034 0.5658794
0.6836047 0.6398769 0.6654996
0.7012587 0.6232863 0.6402127
0.7173188 0.6049977 0.6118997
0.1608915 0.2598571 0.2684448
0.1999056 0.2942093 0.3019904
0.2455642 0.3355984 0.3422482
0.3123060 0.3956418 0.3982714
0.4109116 0.4736609 0.4702060
0.5154016 0.5381615 0.5342448
0.6993361 0.6912415 0.7030830
0.7020490 0.6637498 0.6702697
0.7137467 0.6433273 0.6370232
0.1045061 0.2428396 0.2383632
0.1768197 0.3080916 0.2970919
0.2526613 0.3750907 0.3572048
0.3385003 0.4470068 0.4225772
0.4320196 0.5178572 0.4899765
0.5137734 0.5699399 0.5447321
0.5829159 0.6096876 0.5923373
0.6540256 0.6532064 0.6453430
0.6984247 0.6705184 0.6556214
0.0478551 0.2282342 0.2103118
0.1569508 0.3247618 0.2941118
0.2629610 0.4156839 0.3737266
0.3565720 0.4900514 0.4406808
0.4297221 0.5415594 0.4901042
0.4889869 0.5777901 0.5286056
0.5490708 0.6124465 0.5680238
0.6163227 0.6528231 0.6164446
0.6969417 0.7037137 0.6807268
0.4931944 0.4687989 0.5421334
0.4791971 0.4157123 0.4976406
0.4610759 0.3597272 0.4496825
0.4395793 0.3030114 0.4000704
0.4187101 0.2501074 0.3540977
0.4015332 0.2038972 0.3152463
0.3902074 0.1657929 0.2850081
0.3845644 0.1346244 0.2620123
0.3817831 0.1067456 0.2424098
0.4298126 0.4260739 0.5005183
0.4215218 0.3837718 0.4643395
0.4157475 0.3447027 0.4311253
0.4161908 0.3132826 0.4048442
0.4240476 0.2907372 0.3865988
0.4388734 0.2760585 0.3756244
0.4613611 0.2692438 0.3722241
0.4912202 0.2695573 0.3758409
0.5249507 0.2735043 0.3830579
0.3708142 0.3890467 0.4625617
0.3668652 0.3558992 0.4339769
0.3703223 0.3304899 0.4127142
0.3890939 0.3207142 0.4062264
0.4256103 0.3285448 0.4161152
0.4761707 0.3493436 0.4375263
0.5351585 0.3767328 0.4643151
0.5989969 0.4073269 0.4937838
0.6649568 0.4393436 0.5246158
0.3187866 0.3604729 0.4278442
0.3177976 0.3361554 0.4086372
0.3262171 0.3204348 0.3961534
0.3572925 0.3261577 0.4035477
0.4207776 0.3625288 0.4407204
0.5132967 0.4250013 0.5023542
0.6138049 0.4919520 0.5665031
0.7060221 0.5483796 0.6191302
0.7908832 0.5969022 0.6636746
0.2623199 0.3277931 0.3838271
0.2734993 0.3240877 0.3856120
0.2901467 0.3221931 0.3862774
0.3333052 0.3432005 0.4078467
0.4209787 0.4044153 0.4693052
0.5483562 0.4999408 0.5648165
0.6892412 0.6056868 0.6699863
0.8015862 0.6825558 0.7444796
0.8848884 0.7309018 0.7891894
0.2014186 0.2934282 0.3332231
0.2327294 0.3160950 0.3601008
0.2707422 0.3416855 0.3870873
0.3361275 0.3876300 0.4325061
0.4468370 0.4697808 0.5151803
0.5783934 0.5655198 0.6134597
0.7339966 0.6860041 0.7393458
0.8607682 0.7821039 0.8400564
0.9343170 0.8269333 0.8859882
0.1401433 0.2638549 0.2831527
0.2004140 0.3173742 0.3379640
0.2685736 0.3761001 0.3967648
0.3594653 0.4487595 0.4684641
0.4798532 0.5364985 0.5576584
0.6057375 0.6232984 0.6512946
0.7314327 0.7159622 0.7535143
0.8583216 0.8178841 0.8672837
0.9370079 0.8751132 0.9327851
0.0838874 0.2467506 0.2433355
0.1789510 0.3322958 0.3260603
0.2778864 0.4190842 0.4104746
0.3842089 0.5054581 0.4960825
0.4911442 0.5811694 0.5750166
0.5871592 0.6408195 0.6433479
0.6857719 0.7072063 0.7221093
0.7977651 0.7932232 0.8184281
0.8789508 0.8516628 0.8897235
0.0306019 0.2367598 0.2100689
0.1629125 0.3540433 0.3198925
0.2913382 0.4646447 0.4249531
0.4041344 0.5547061 0.5143151
0.4881361 0.6121725 0.5775412
0.5466152 0.6415931 0.6174923
0.6031871 0.6672789 0.6529648
0.6797616 0.7121017 0.7027014
0.7755691 0.7758141 0.7765393
