catalog/styles/experimental/experimental-ansel-adams/look.cube
# experimental-ansel-adams iteration 4
LUT_3D_SIZE 5
DOMAIN_MIN 0 0 0
DOMAIN_MAX 1 1 1
0.1903692 0.1897918 0.1849437
0.1951482 0.1957467 0.1901565
0.2043003 0.2022027 0.1848343
0.2205222 0.2048645 0.1831384
0.2582306 0.2145470 0.1872994
0.1891933 0.1897061 0.1805661
0.1951244 0.1959085 0.1833542
0.1961652 0.1958097 0.1810433
0.2179551 0.2114049 0.1896046
0.2686061 0.2378452 0.2101399
0.1663572 0.1739258 0.1549575
0.1860144 0.1904773 0.1704535
0.1927216 0.1971052 0.1777838
0.2132114 0.2082220 0.1896549
0.2458668 0.2289876 0.2102248
0.1205830 0.1348481 0.1152605
0.1453912 0.1492513 0.1224095
0.1796859 0.1761407 0.1396493
0.2411998 0.2296833 0.1729720
0.3405880 0.2970813 0.2120292
0.0610217 0.0786280 0.0695063
0.0951013 0.0941559 0.0604685
0.1607590 0.1421555 0.0720951
0.3094628 0.2743879 0.1349594
0.5396946 0.4931960 0.2438926
0.1988077 0.2010794 0.1852149
0.2045988 0.2008891 0.1925518
0.2551278 0.2230953 0.2141685
0.3189294 0.2366414 0.2275397
0.3874665 0.2507104 0.2379834
0.2051959 0.2193044 0.2018064
0.1950958 0.1974159 0.1816280
0.2028717 0.2003259 0.1830261
0.2552527 0.2195474 0.2029814
0.3176748 0.2384379 0.2260117
0.1970295 0.2203095 0.1960061
0.1970884 0.2066659 0.1821306
0.2038870 0.2059767 0.1852573
0.2122367 0.2074865 0.1892588
0.2796767 0.2323567 0.2080872
0.1455451 0.1824286 0.1643555
0.1772131 0.2016504 0.1675674
0.2107838 0.2215708 0.1733553
0.2692212 0.2631377 0.1997890
0.4018768 0.3565400 0.2501599
0.0781244 0.1334175 0.1293599
0.1392496 0.1805589 0.1420273
0.2303505 0.2520695 0.1695782
0.3984578 0.3923773 0.2401290
0.6412286 0.6207415 0.3831363
0.2207541 0.2207522 0.2249554
0.2620275 0.2383589 0.2495589
0.3045273 0.2371683 0.2553161
0.3693318 0.2436225 0.2710537
0.4457348 0.2600994 0.2972345
0.2007886 0.2058040 0.1967073
0.2484099 0.2458683 0.2408851
0.2709365 0.2437417 0.2446157
0.3261222 0.2524033 0.2604775
0.3866957 0.2567031 0.2727413
0.2299197 0.2558234 0.2347751
0.2098015 0.2244131 0.2040739
0.2594554 0.2578124 0.2351815
0.2575439 0.2307674 0.2146757
0.3580843 0.2561601 0.2342001
0.1730669 0.2285362 0.2163453
0.2012688 0.2472508 0.2139809
0.2815630 0.3140747 0.2556018
0.3376412 0.3334383 0.2639977
0.4880669 0.3983600 0.2719147
0.0824884 0.1825438 0.1798269
0.1832057 0.2696155 0.2281312
0.2937550 0.3580716 0.2775873
0.4794148 0.5096936 0.3766565
0.6964195 0.7054580 0.5334157
0.4098747 0.3995200 0.4420143
0.3514091 0.2918959 0.3400547
0.3561533 0.2412333 0.2998264
0.3846954 0.2138749 0.2876624
0.4317638 0.2054677 0.2958655
0.2692519 0.2803347 0.3097453
0.3071755 0.2855514 0.3184336
0.3536778 0.2921384 0.3329776
0.4215695 0.3054290 0.3515978
0.5059102 0.3270314 0.3781237
0.2391492 0.2707635 0.2880193
0.2484034 0.2622613 0.2780327
0.3696607 0.3649543 0.3827249
0.4875481 0.4185862 0.4298440
0.5480361 0.4088015 0.4073091
0.1780777 0.2569420 0.2564351
0.2250464 0.2981612 0.2886765
0.3773429 0.4330913 0.4071929
0.5646535 0.5618657 0.5431845
0.5659507 0.4845805 0.4205665
0.0634161 0.2171283 0.2067175
0.2347006 0.3663484 0.3233190
0.3746235 0.4736496 0.4081618
0.5058080 0.5647519 0.4876137
0.6946349 0.7065733 0.6422386
0.4931944 0.4687989 0.5421334
0.4610759 0.3597272 0.4496825
0.4187101 0.2501074 0.3540977
0.3902074 0.1657929 0.2850081
0.3817831 0.1067456 0.2424098
0.3708142 0.3890467 0.4625617
0.3703223 0.3304899 0.4127142
0.4256103 0.3285448 0.4161152
0.5351585 0.3767328 0.4643151
0.6649568 0.4393436 0.5246158
0.2623199 0.3277931 0.3838271
0.2901467 0.3221931 0.3862774
0.4209787 0.4044153 0.4693052
0.6892412 0.6056868 0.6699863
0.8848884 0.7309018 0.7891894
0.1401433 0.2638549 0.2831527
0.2685736 0.3761001 0.3967648
0.4798532 0.5364985 0.5576584
0.7314327 0.7159622 0.7535143
0.9370079 0.8751132 0.9327851
0.0306019 0.2367598 0.2100689
0.2913382 0.4646447 0.4249531
0.4881361 0.6121725 0.5775412
0.6031871 0.6672789 0.6529648
0.7755691 0.7758141 0.7765393
