catalog/styles/experimental/experimental-ansel-adams/look.cube
# experimental-ansel-adams iteration 4
LUT_3D_SIZE 33
DOMAIN_MIN 0 0 0
DOMAIN_MAX 1 1 1
0.1903692 0.1897918 0.1849437
0.1893354 0.1863719 0.1805876
0.1889076 0.1860352 0.1798492
0.1901904 0.1879651 0.1821158
0.1919281 0.1902325 0.1852040
0.1934329 0.1922199 0.1879132
0.1944051 0.1937654 0.1896429
0.1948610 0.1948655 0.1902901
0.1951482 0.1957467 0.1901565
0.1955129 0.1965344 0.1895780
0.1960407 0.1972710 0.1887876
0.1968008 0.1979872 0.1879075
0.1978147 0.1987289 0.1870223
0.1991512 0.1995733 0.1862455
0.2007462 0.2004962 0.1856252
0.2025023 0.2014098 0.1851682
0.2043003 0.2022027 0.1848343
0.2060716 0.2028068 0.1845566
0.2077945 0.2032201 0.1842868
0.2095041 0.2034886 0.1840055
0.2112483 0.2036725 0.1837067
0.2131025 0.2038290 0.1833946
0.2151989 0.2040405 0.1831452
0.2176491 0.2043735 0.1830404
0.2205222 0.2048645 0.1831384
0.2239175 0.2055906 0.1835136
0.2278753 0.2065923 0.1841808
0.2323335 0.2078451 0.1850530
0.2371565 0.2092450 0.1859528
0.2422324 0.2106847 0.1867105
0.2474572 0.2120519 0.1871689
0.2528099 0.2133124 0.1872945
0.2582306 0.2145470 0.1872994
0.1867595 0.1895576 0.1804897
0.1872459 0.1884736 0.1788434
0.1881281 0.1877887 0.1793055
0.1893463 0.1882323 0.1810999
0.1909201 0.1896191 0.1835007
0.1923725 0.1912038 0.1856903
0.1934829 0.1926463 0.1872513
0.1942857 0.1938714 0.1881642
0.1949069 0.1948824 0.1885641
0.1954561 0.1957102 0.1885866
0.1960045 0.1964065 0.1883007
0.1966157 0.1970420 0.1877650
0.1973288 0.1976844 0.1870521
0.1981999 0.1984068 0.1862646
0.1992556 0.1992396 0.1855062
0.2004682 0.2001128 0.1848396
0.2017845 0.2009257 0.1842883
0.2031790 0.2016081 0.1838403
0.2046659 0.2021520 0.1834763
0.2062860 0.2025887 0.1831815
0.2080971 0.2029759 0.1829571
0.2101730 0.2033801 0.1828199
0.2125944 0.2038696 0.1828106
0.2154340 0.2045002 0.1829744
0.2187535 0.2053155 0.1833532
0.2225995 0.2063543 0.1839752
0.2269790 0.2076319 0.1848283
0.2318372 0.2091216 0.1858431
0.2370768 0.2107603 0.1869017
0.2425846 0.2124641 0.1878762
0.2482682 0.2141647 0.1886776
0.2540606 0.2158286 0.1892963
0.2598960 0.2174723 0.1898302
0.1852376 0.1888224 0.1786281
0.1857895 0.1879020 0.1780391
0.1866909 0.1872891 0.1783688
0.1881016 0.1877182 0.1798277
0.1897791 0.1889443 0.1817530
0.1912266 0.1903052 0.1834202
0.1925330 0.1917393 0.1848355
0.1937159 0.1931082 0.1860481
0.1946660 0.1942158 0.1869845
0.1953935 0.1950450 0.1875689
0.1959633 0.1956800 0.1877423
0.1964692 0.1962451 0.1875300
0.1969371 0.1967982 0.1869779
0.1974322 0.1974196 0.1862107
0.1980379 0.1981679 0.1853677
0.1987697 0.1989922 0.1845507
0.1996397 0.1998101 0.1838315
0.2006752 0.2005571 0.1832494
0.2019276 0.2012179 0.1828135
0.2034561 0.2018144 0.1825204
0.2053201 0.2024002 0.1823773
0.2075823 0.2030431 0.1824026
0.2102904 0.2038043 0.1826170
0.2134887 0.2047320 0.1830404
0.2172099 0.2058571 0.1836877
0.2214700 0.2071974 0.1845575
0.2262516 0.2087523 0.1856219
0.2315000 0.2104973 0.1868248
0.2371267 0.2123877 0.1880766
0.2430265 0.2143622 0.1892888
0.2491102 0.2163741 0.1904106
0.2553017 0.2183900 0.1914324
0.2615409 0.2204069 0.1924123
0.1854912 0.1885092 0.1788359
0.1858314 0.1876598 0.1784538
0.1862369 0.1869409 0.1783012
0.1870927 0.1871101 0.1788716
0.1886430 0.1883748 0.1801385
0.1902531 0.1899166 0.1813515
0.1918216 0.1914649 0.1826507
0.1933090 0.1928741 0.1841833
0.1944465 0.1938854 0.1855667
0.1952538 0.1945811 0.1865692
0.1958144 0.1950996 0.1870632
0.1962494 0.1955940 0.1870783
0.1965902 0.1961097 0.1866819
0.1968612 0.1966716 0.1859834
0.1971863 0.1973595 0.1851475
0.1975924 0.1981395 0.1842825
0.1981260 0.1989509 0.1834874
0.1988760 0.1997460 0.1828460
0.1999284 0.2005062 0.1823882
0.2013690 0.2012499 0.1821266
0.2032550 0.2020273 0.1820744
0.2056422 0.2029006 0.1822514
0.2085657 0.2039255 0.1826688
0.2120515 0.2051394 0.1833310
0.2161058 0.2065611 0.1842319
0.2207215 0.2081942 0.1853511
0.2258570 0.2100255 0.1866481
0.2314472 0.2120340 0.1880715
0.2373995 0.2141795 0.1895410
0.2436194 0.2164178 0.1909994
0.2500313 0.2187141 0.1924141
0.2565691 0.2210422 0.1937774
0.2631587 0.2233775 0.1951140
0.1866041 0.1886226 0.1799112
0.1867411 0.1880397 0.1795215
0.1869387 0.1876051 0.1792090
0.1873546 0.1876491 0.1791284
0.1882723 0.1885514 0.1793646
0.1897683 0.1901865 0.1799241
0.1916247 0.1919567 0.1811338
0.1933794 0.1933545 0.1830281
0.1945361 0.1941199 0.1846880
0.1951488 0.1944417 0.1857712
0.1954960 0.1946665 0.1862948
0.1957681 0.1949970 0.1863291
0.1960625 0.1954947 0.1860390
0.1963002 0.1960555 0.1854717
0.1965519 0.1967165 0.1847298
0.1968592 0.1974790 0.1839332
0.1972762 0.1983076 0.1831993
0.1978895 0.1991538 0.1826036
0.1988190 0.2000080 0.1821950
0.2001845 0.2008958 0.1820072
0.2020581 0.2018625 0.1820659
0.2044989 0.2029590 0.1823887
0.2075594 0.2042414 0.1829954
0.2112564 0.2057382 0.1838820
0.2155773 0.2074560 0.1850279
0.2204841 0.2093821 0.1863940
0.2259068 0.2114903 0.1879298
0.2317624 0.2137586 0.1895820
0.2379605 0.2161539 0.1912830
0.2444305 0.2186518 0.1929984
0.2510949 0.2212119 0.1946931
0.2578833 0.2238007 0.1963455
0.2647249 0.2263934 0.1979723
0.1878994 0.1890087 0.1810156
0.1879717 0.1887836 0.1806875
0.1881236 0.1886985 0.1803870
0.1884631 0.1889583 0.1801058
0.1891265 0.1897558 0.1798829
0.1903412 0.1911824 0.1799990
0.1920745 0.1928642 0.1809416
0.1937150 0.1940623 0.1826445
0.1947956 0.1946165 0.1842736
0.1952813 0.1947298 0.1853172
0.1953395 0.1946514 0.1856806
0.1952939 0.1946870 0.1855278
0.1953722 0.1949851 0.1851382
0.1955787 0.1954692 0.1846424
0.1958597 0.1960644 0.1840008
0.1962611 0.1967991 0.1833456
0.1968053 0.1976610 0.1827904
0.1975041 0.1985853 0.1823619
0.1984715 0.1995779 0.1821101
0.1998315 0.2006530 0.1820782
0.2016778 0.2018272 0.1822841
0.2041315 0.2031646 0.1827724
0.2072648 0.2047077 0.1835661
0.2111100 0.2064890 0.1846697
0.2156472 0.2085137 0.1860573
0.2207951 0.2107438 0.1876670
0.2264461 0.2131379 0.1894399
0.2324900 0.2156619 0.1913203
0.2388432 0.2182931 0.1932536
0.2454632 0.2210288 0.1952178
0.2522798 0.2238245 0.1971733
0.2592063 0.2266286 0.1990874
0.2661709 0.2294257 0.2009729
0.1889203 0.1894555 0.1816268
0.1890967 0.1895967 0.1815060
0.1893461 0.1898358 0.1813838
0.1897439 0.1902992 0.1811982
0.1903794 0.1911089 0.1809578
0.1913452 0.1922620 0.1809086
0.1926577 0.1935581 0.1814645
0.1939855 0.1945515 0.1826463
0.1949567 0.1950544 0.1839653
0.1954151 0.1951609 0.1849112
0.1953800 0.1950099 0.1852185
0.1951270 0.1948625 0.1849657
0.1949223 0.1948826 0.1843944
0.1949380 0.1951219 0.1837511
0.1951995 0.1955386 0.1831168
0.1957006 0.1961087 0.1825547
0.1964414 0.1968656 0.1821615
0.1973611 0.1978179 0.1819506
0.1984908 0.1989678 0.1819320
0.1999396 0.2002884 0.1821374
0.2018069 0.2017332 0.1825623
0.2043020 0.2033705 0.1832759
0.2075092 0.2052107 0.1842892
0.2114893 0.2072971 0.1856221
0.2162306 0.2096504 0.1872595
0.2215957 0.2122052 0.1891128
0.2274282 0.2148973 0.1911166
0.2335938 0.2176807 0.1932152
0.2400152 0.2205419 0.1953727
0.2466703 0.2234869 0.1975709
0.2535152 0.2264769 0.1997729
0.2604411 0.2294513 0.2019300
0.2673889 0.2324158 0.2040603
0.1894009 0.1897507 0.1814965
0.1898127 0.1902294 0.1817092
0.1902593 0.1907422 0.1818908
0.1907949 0.1913609 0.1819876
0.1914339 0.1921204 0.1819501
0.1922215 0.1930420 0.1818965
0.1931883 0.1940415 0.1821382
0.1942073 0.1949080 0.1827829
0.1950568 0.1954814 0.1836573
0.1954949 0.1956857 0.1843817
0.1954810 0.1956073 0.1846781
0.1951830 0.1954254 0.1844589
0.1948877 0.1953398 0.1838756
0.1947511 0.1953487 0.1831475
0.1948744 0.1954490 0.1824148
0.1953577 0.1956793 0.1818208
0.1962245 0.1961198 0.1814788
0.1973293 0.1969147 0.1814109
0.1985599 0.1980844 0.1815670
0.2000389 0.1995750 0.1819767
0.2019577 0.2013163 0.1826696
0.2045475 0.2033008 0.1836742
0.2079372 0.2055272 0.1849914
0.2121363 0.2079873 0.1866079
0.2171055 0.2106916 0.1884997
0.2226905 0.2135979 0.1906052
0.2286754 0.2166096 0.1928418
0.2349183 0.2196766 0.1951667
0.2413400 0.2227752 0.1975448
0.2479168 0.2258958 0.1999545
0.2546376 0.2290317 0.2023766
0.2614458 0.2321616 0.2047824
0.2682549 0.2352733 0.2071576
0.1891933 0.1897061 0.1805661
0.1899120 0.1904830 0.1811745
0.1906266 0.1912447 0.1817304
0.1913487 0.1920031 0.1821715
0.1920513 0.1927484 0.1824172
0.1927617 0.1935330 0.1824875
0.1935652 0.1944048 0.1826005
0.1943993 0.1952450 0.1828906
0.1951244 0.1959085 0.1833542
0.1955598 0.1962892 0.1837967
0.1956251 0.1963956 0.1840031
0.1954104 0.1963235 0.1838529
0.1951239 0.1961996 0.1833792
0.1949064 0.1960354 0.1827023
0.1949236 0.1958709 0.1820026
0.1953063 0.1957528 0.1814062
0.1961652 0.1958097 0.1810433
0.1974227 0.1962902 0.1809979
0.1987811 0.1973141 0.1812228
0.2002555 0.1988512 0.1817751
0.2021577 0.2007909 0.1827146
0.2048010 0.2030498 0.1840043
0.2083174 0.2055612 0.1855820
0.2127459 0.2083545 0.1874632
0.2179551 0.2114049 0.1896046
0.2237330 0.2146579 0.1919565
0.2298447 0.2180079 0.1944345
0.2361346 0.2213894 0.1970018
0.2425222 0.2247529 0.1996174
0.2489647 0.2280653 0.2022533
0.2554735 0.2313430 0.2048987
0.2620370 0.2345985 0.2075272
0.2686061 0.2378452 0.2101399
0.1882777 0.1892287 0.1789185
0.1893058 0.1902530 0.1798998
0.1903124 0.1912454 0.1808252
0.1912688 0.1921762 0.1816128
0.1921408 0.1930307 0.1821735
0.1929310 0.1938428 0.1824792
0.1937274 0.1947094 0.1826543
0.1945093 0.1955861 0.1828189
0.1951919 0.1963579 0.1830549
0.1956565 0.1969240 0.1832999
0.1958605 0.1972730 0.1834327
0.1958153 0.1974013 0.1833356
0.1955635 0.1972869 0.1829530
0.1952518 0.1969749 0.1823507
0.1951328 0.1966045 0.1817417
0.1953469 0.1962463 0.1812177
0.1960203 0.1960306 0.1808485
0.1972381 0.1962082 0.1807573
0.1988388 0.1969935 0.1810188
0.2005310 0.1984448 0.1816996
0.2024770 0.2004569 0.1828590
0.2051616 0.2028505 0.1843749
0.2088175 0.2055358 0.1861700
0.2133574 0.2084728 0.1881961
0.2185997 0.2116717 0.1904584
0.2243377 0.2151055 0.1929502
0.2304062 0.2187054 0.1956226
0.2366646 0.2223771 0.1984242
0.2430470 0.2260746 0.2013363
0.2494095 0.2296756 0.2042611
0.2557146 0.2331465 0.2071467
0.2619736 0.2365248 0.2099793
0.2682191 0.2398924 0.2128024
0.1866631 0.1882644 0.1766389
0.1880056 0.1895276 0.1779563
0.1893071 0.1907445 0.1792094
0.1905417 0.1918937 0.1803258
0.1916735 0.1929578 0.1812192
0.1926852 0.1939465 0.1818376
0.1936170 0.1949257 0.1822242
0.1944702 0.1958931 0.1824698
0.1952222 0.1967981 0.1826910
0.1957946 0.1975520 0.1829000
0.1961437 0.1981069 0.1830266
0.1962572 0.1984189 0.1829837
0.1960971 0.1983973 0.1826935
0.1957113 0.1980199 0.1821734
0.1953726 0.1974737 0.1815932
0.1953228 0.1969380 0.1811083
0.1957085 0.1965561 0.1807692
0.1966458 0.1965276 0.1806673
0.1982028 0.1971039 0.1809635
0.2002472 0.1984197 0.1817812
0.2026318 0.2004178 0.1831328
0.2056193 0.2028764 0.1848695
0.2095244 0.2056215 0.1868284
0.2141599 0.2085534 0.1889071
0.2191694 0.2116521 0.1911192
0.2244519 0.2149555 0.1935430
0.2300780 0.2185218 0.1962475
0.2360440 0.2223145 0.1992070
0.2422555 0.2262357 0.2023531
0.2485893 0.2301775 0.2055902
0.2548673 0.2340000 0.2087946
0.2609300 0.2376025 0.2118755
0.2668720 0.2411134 0.2148933
0.1844235 0.1868361 0.1738442
0.1860562 0.1883174 0.1754310
0.1876538 0.1897649 0.1769631
0.1891882 0.1911588 0.1783745
0.1906171 0.1924725 0.1795831
0.1919194 0.1937085 0.1805360
0.1931067 0.1949023 0.1812409
0.1941595 0.1960387 0.1817336
0.1950861 0.1971094 0.1821234
0.1958329 0.1980452 0.1824442
0.1963281 0.1987577 0.1826443
0.1965410 0.1991823 0.1826689
0.1964574 0.1992577 0.1824701
0.1960841 0.1989418 0.1820526
0.1955650 0.1983233 0.1815156
0.1952071 0.1976513 0.1810252
0.1952490 0.1971366 0.1807016
0.1958774 0.1969917 0.1806677
0.1972261 0.1974321 0.1810594
0.1993058 0.1985769 0.1819601
0.2020894 0.2004417 0.1833881
0.2056690 0.2028942 0.1852758
0.2100984 0.2056984 0.1874106
0.2149543 0.2085916 0.1895317
0.2195758 0.2114448 0.1915949
0.2241389 0.2144060 0.1938269
0.2290308 0.2176832 0.1964128
0.2343848 0.2213238 0.1993648
0.2401679 0.2252465 0.2025973
0.2462550 0.2293273 0.2059946
0.2524545 0.2334329 0.2094539
0.2585181 0.2373945 0.2128450
0.2643631 0.2411753 0.2161212
0.1816412 0.1849824 0.1706374
0.1835370 0.1866625 0.1724262
0.1854066 0.1883219 0.1741726
0.1872223 0.1899432 0.1758219
0.1889474 0.1915052 0.1773063
0.1905647 0.1930084 0.1785843
0.1920701 0.1944658 0.1796487
0.1934384 0.1958596 0.1805090
0.1946270 0.1971417 0.1811912
0.1955619 0.1982275 0.1817006
0.1961925 0.1990495 0.1820291
0.1964961 0.1995590 0.1821654
0.1964568 0.1997031 0.1820789
0.1961090 0.1994751 0.1817823
0.1955549 0.1989357 0.1813461
0.1949986 0.1982387 0.1809008
0.1947538 0.1976449 0.1806133
0.1951074 0.1974156 0.1806523
0.1962503 0.1977486 0.1811420
0.1982786 0.1987489 0.1821187
0.2011957 0.2003977 0.1835529
0.2050360 0.2026404 0.1854022
0.2096878 0.2053074 0.1875120
0.2146634 0.2081413 0.1896628
0.2191198 0.2108347 0.1916821
0.2232159 0.2135163 0.1938038
0.2274482 0.2164546 0.1962497
0.2320924 0.2197839 0.1990768
0.2372957 0.2235154 0.2022491
0.2429788 0.2275499 0.2056798
0.2489185 0.2317218 0.2092420
0.2548627 0.2358606 0.2128035
0.2606852 0.2398878 0.2162992
0.1783862 0.1827383 0.1670895
0.1805173 0.1845930 0.1690236
0.1826294 0.1864360 0.1709274
0.1846996 0.1882560 0.1727587
0.1866975 0.1900364 0.1744675
0.1886106 0.1917788 0.1760257
0.1904259 0.1934824 0.1774186
0.1921052 0.1951172 0.1786320
0.1935661 0.1966028 0.1796314
0.1947131 0.1978384 0.1803861
0.1955208 0.1987914 0.1809208
0.1959520 0.1994042 0.1812286
0.1960030 0.1996468 0.1813054
0.1957210 0.1995312 0.1811769
0.1952087 0.1991206 0.1809057
0.1946488 0.1985455 0.1806128
0.1943075 0.1980067 0.1804463
0.1944965 0.1977524 0.1805787
0.1954847 0.1979999 0.1811378
0.1974301 0.1988682 0.1821594
0.2003525 0.2003508 0.1836009
0.2041417 0.2023511 0.1853643
0.2085271 0.2046927 0.1873115
0.2131050 0.2072075 0.1893302
0.2174141 0.2097257 0.1913441
0.2214351 0.2122904 0.1934716
0.2253813 0.2150250 0.1958333
0.2295448 0.2180712 0.1985182
0.2342202 0.2215249 0.2015505
0.2394126 0.2253324 0.2048757
0.2449542 0.2293558 0.2083884
0.2506304 0.2334450 0.2119696
0.2562943 0.2375047 0.2155370
0.1747265 0.1801394 0.1632666
0.1770579 0.1821326 0.1652916
0.1793773 0.1841207 0.1672980
0.1816652 0.1860958 0.1692554
0.1839004 0.1880502 0.1711324
0.1860650 0.1899778 0.1729037
0.1881343 0.1918646 0.1745466
0.1900597 0.1936702 0.1760302
0.1917611 0.1953200 0.1773095
0.1931480 0.1967244 0.1783438
0.1941584 0.1978200 0.1791202
0.1947702 0.1985720 0.1796506
0.1949928 0.1989688 0.1799536
0.1948694 0.1990238 0.1800563
0.1945126 0.1988083 0.1800301
0.1941018 0.1984461 0.1799834
0.1938638 0.1980918 0.1800386
0.1940879 0.1979529 0.1803424
0.1950452 0.1982202 0.1810053
0.1969035 0.1990089 0.1820631
0.1996940 0.2003440 0.1834836
0.2032560 0.2021317 0.1851710
0.2072852 0.2042087 0.1870024
0.2114337 0.2064169 0.1888870
0.2154717 0.2087013 0.1908272
0.2193515 0.2111011 0.1929175
0.2231513 0.2136647 0.1952114
0.2270905 0.2164871 0.1977722
0.2313943 0.2196431 0.2006362
0.2361344 0.2231207 0.2037811
0.2412308 0.2268323 0.2071337
0.2465294 0.2306646 0.2105987
0.2518920 0.2345293 0.2140947
0.1707069 0.1772004 0.1592114
0.1732052 0.1792927 0.1612812
0.1756952 0.1813828 0.1633398
0.1781621 0.1834668 0.1653692
0.1805873 0.1855384 0.1673487
0.1829479 0.1875864 0.1692560
0.1852104 0.1895882 0.1710637
0.1873253 0.1915028 0.1727367
0.1892221 0.1932673 0.1742317
0.1908248 0.1948107 0.1755095
0.1920572 0.1960574 0.1765345
0.1929050 0.1969859 0.1773229
0.1933783 0.1975885 0.1778980
0.1935204 0.1978814 0.1782904
0.1934472 0.1979389 0.1785753
0.1933258 0.1978722 0.1788464
0.1933628 0.1978152 0.1792064
0.1937967 0.1979229 0.1797622
0.1948551 0.1983400 0.1805940
0.1966849 0.1991646 0.1817279
0.1993035 0.2004193 0.1831393
0.2025887 0.2020588 0.1847735
0.2063226 0.2039938 0.1865630
0.2101779 0.2060450 0.1883989
0.2139688 0.2081532 0.1902749
0.2176697 0.2103708 0.1922738
0.2213543 0.2127541 0.1944747
0.2251502 0.2153415 0.1969051
0.2291988 0.2181753 0.1995869
0.2335852 0.2212687 0.2025202
0.2382852 0.2245759 0.2056593
0.2431950 0.2280154 0.2089262
0.2481902 0.2315063 0.2122413
0.1663572 0.1739258 0.1549575
0.1689876 0.1760731 0.1570255
0.1716117 0.1782195 0.1590874
0.1742174 0.1803634 0.1611344
0.1767859 0.1824968 0.1631523
0.1792911 0.1846055 0.1651223
0.1816979 0.1866656 0.1670190
0.1839585 0.1886392 0.1688083
0.1860144 0.1904773 0.1704535
0.1878032 0.1921228 0.1719176
0.1892691 0.1935210 0.1731734
0.1903904 0.1946451 0.1742238
0.1911772 0.1954908 0.1750898
0.1916767 0.1960788 0.1758063
0.1919970 0.1964777 0.1764419
0.1922852 0.1967819 0.1770738
0.1927216 0.1971052 0.1777838
0.1934996 0.1975665 0.1786474
0.1947909 0.1982669 0.1797148
0.1966962 0.1992660 0.1809950
0.1992375 0.2005914 0.1824738
0.2023347 0.2022226 0.1841228
0.2058381 0.2041091 0.1859056
0.2095255 0.2061385 0.1877614
0.2132114 0.2082220 0.1896549
0.2168222 0.2103482 0.1916076
0.2204292 0.2125795 0.1937112
0.2240935 0.2148944 0.1959702
0.2279752 0.2173876 0.1984589
0.2321392 0.2200856 0.2011831
0.2365667 0.2229615 0.2040999
0.2411771 0.2259512 0.2071377
0.2458668 0.2289876 0.2102248
0.1616930 0.1703115 0.1505267
0.1644230 0.1724706 0.1525463
0.1671469 0.1746288 0.1545637
0.1698538 0.1767846 0.1565756
0.1725253 0.1789306 0.1585733
0.1751358 0.1810524 0.1605426
0.1776504 0.1831269 0.1624619
0.1800273 0.1851230 0.1643044
0.1822203 0.1870042 0.1660399
0.1841840 0.1887313 0.1676407
0.1858840 0.1902704 0.1690887
0.1873045 0.1915999 0.1703825
0.1884538 0.1927153 0.1715368
0.1893773 0.1936387 0.1725838
0.1901664 0.1944254 0.1735771
0.1909508 0.1951579 0.1745810
0.1918804 0.1959300 0.1756579
0.1931028 0.1968293 0.1768580
0.1947413 0.1979246 0.1782095
0.1968631 0.1992479 0.1797101
0.1994869 0.2008170 0.1813472
0.2025598 0.2026158 0.1831009
0.2059828 0.2046095 0.1849544
0.2096242 0.2067403 0.1868881
0.2133402 0.2089316 0.1888727
0.2170156 0.2111118 0.1908775
0.2206430 0.2132664 0.1929217
0.2242396 0.2153471 0.1950126
0.2280533 0.2175292 0.1973160
0.2321525 0.2198716 0.1998561
0.2364945 0.2223567 0.2025761
0.2409968 0.2249306 0.2054038
0.2455669 0.2275377 0.2082743
0.1567204 0.1663457 0.1459305
0.1595222 0.1684790 0.1478584
0.1623176 0.1706111 0.1497867
0.1650953 0.1727398 0.1517151
0.1678396 0.1748591 0.1536406
0.1705265 0.1769570 0.1555544
0.1731259 0.1790149 0.1574414
0.1756027 0.1810088 0.1592814
0.1779241 0.1829154 0.1610551
0.1800629 0.1847134 0.1627458
0.1820012 0.1863853 0.1643426
0.1837353 0.1879210 0.1658453
0.1852776 0.1893212 0.1672645
0.1866648 0.1906015 0.1686218
0.1879717 0.1918064 0.1699570
0.1893091 0.1930079 0.1713215
0.1907952 0.1942793 0.1727607
0.1925402 0.1956847 0.1743060
0.1946307 0.1972689 0.1759721
0.1971141 0.1990492 0.1777528
0.1999996 0.2010264 0.1796301
0.2032500 0.2031778 0.1815841
0.2068029 0.2054730 0.1836095
0.2105698 0.2078637 0.1856989
0.2144489 0.2102830 0.1878326
0.2183284 0.2126385 0.1899584
0.2221382 0.2148518 0.1920418
0.2258800 0.2168776 0.1940842
0.2297748 0.2188573 0.1962545
0.2339831 0.2209388 0.1986469
0.2384787 0.2231422 0.2012142
0.2431593 0.2254308 0.2038915
0.2479108 0.2277475 0.2066089
0.1514432 0.1620187 0.1411782
0.1542937 0.1640956 0.1429751
0.1571382 0.1661714 0.1447735
0.1599661 0.1682438 0.1465765
0.1627630 0.1703086 0.1483853
0.1655094 0.1723575 0.1501967
0.1681809 0.1743784 0.1520030
0.1707528 0.1763569 0.1537938
0.1732044 0.1782816 0.1555597
0.1755238 0.1801458 0.1572944
0.1777077 0.1819459 0.1589938
0.1797637 0.1836848 0.1606604
0.1817120 0.1853717 0.1623035
0.1835829 0.1870187 0.1639351
0.1854363 0.1886615 0.1655812
0.1873633 0.1903602 0.1672816
0.1894525 0.1921693 0.1690658
0.1917845 0.1941348 0.1709526
0.1944211 0.1962848 0.1729485
0.1973970 0.1986284 0.1750470
0.2007154 0.2011530 0.1772284
0.2043458 0.2038250 0.1794690
0.2082416 0.2066017 0.1817593
0.2123374 0.2094270 0.1840871
0.2165596 0.2122325 0.1864340
0.2208239 0.2149271 0.1887585
0.2250474 0.2174065 0.1910086
0.2292108 0.2196133 0.1931738
0.2334591 0.2216362 0.1953654
0.2379964 0.2236336 0.1976886
0.2429193 0.2257199 0.2001558
0.2481479 0.2279494 0.2027694
0.2534902 0.2302494 0.2054476
0.1458613 0.1573207 0.1362741
0.1487469 0.1593218 0.1379072
0.1516273 0.1613221 0.1395432
0.1544934 0.1633201 0.1411862
0.1573330 0.1653139 0.1428413
0.1601311 0.1672995 0.1445109
0.1628718 0.1692724 0.1461958
0.1655410 0.1712295 0.1478962
0.1681303 0.1731711 0.1496121
0.1706401 0.1751020 0.1513464
0.1730778 0.1770299 0.1531005
0.1754610 0.1789686 0.1548802
0.1778160 0.1809350 0.1566942
0.1801777 0.1829499 0.1585530
0.1825939 0.1850418 0.1604712
0.1851338 0.1872562 0.1624744
0.1878634 0.1896328 0.1645801
0.1908406 0.1922029 0.1667988
0.1941091 0.1949838 0.1691326
0.1976941 0.1979764 0.1715733
0.2015966 0.2011598 0.1741025
0.2057941 0.2044932 0.1766956
0.2102457 0.2079201 0.1793311
0.2148963 0.2113689 0.1819866
0.2196873 0.2147597 0.1846371
0.2245577 0.2180010 0.1872477
0.2294594 0.2210045 0.1897838
0.2343847 0.2237152 0.1922409
0.2393819 0.2261338 0.1946565
0.2445785 0.2283430 0.1970848
0.2502133 0.2305415 0.1995723
0.2564075 0.2330128 0.2022202
0.2628484 0.2357274 0.2050157
0.1399756 0.1522455 0.1312234
0.1428916 0.1541621 0.1326665
0.1458039 0.1560791 0.1341126
0.1487055 0.1579963 0.1355683
0.1515868 0.1599135 0.1370409
0.1544382 0.1618320 0.1385387
0.1572525 0.1637557 0.1400697
0.1600266 0.1656919 0.1416431
0.1627631 0.1676517 0.1432702
0.1654729 0.1696505 0.1449602
0.1681736 0.1717079 0.1467217
0.1708891 0.1738453 0.1485624
0.1736527 0.1760886 0.1504935
0.1765037 0.1784661 0.1525249
0.1794872 0.1810079 0.1546677
0.1826547 0.1837469 0.1569350
0.1860550 0.1867118 0.1593361
0.1897287 0.1899224 0.1618745
0.1937068 0.1933879 0.1645485
0.1980069 0.1971015 0.1673490
0.2026301 0.2010376 0.1702572
0.2075587 0.2051494 0.1732471
0.2127585 0.2093711 0.1762892
0.2181841 0.2136226 0.1793527
0.2237884 0.2178149 0.1824042
0.2295332 0.2218593 0.1854117
0.2354029 0.2256811 0.1883525
0.2414105 0.2292278 0.1912211
0.2475892 0.2324664 0.1940311
0.2540023 0.2354029 0.1968141
0.2607962 0.2381607 0.1996009
0.2683206 0.2412290 0.2024535
0.2764351 0.2449035 0.2055270
0.1337922 0.1467982 0.1260323
0.1367423 0.1486308 0.1272643
0.1396901 0.1504645 0.1284999
0.1426308 0.1523016 0.1297466
0.1455591 0.1541453 0.1310146
0.1484723 0.1560026 0.1323172
0.1513711 0.1578840 0.1336688
0.1542613 0.1598053 0.1350864
0.1571557 0.1617877 0.1365884
0.1600746 0.1638578 0.1381923
0.1630453 0.1660457 0.1399146
0.1660991 0.1683829 0.1417673
0.1692749 0.1709025 0.1437630
0.1726154 0.1736387 0.1459138
0.1761656 0.1766246 0.1482303
0.1799690 0.1798895 0.1507201
0.1840628 0.1834550 0.1533859
0.1884768 0.1873335 0.1562277
0.1932324 0.1915259 0.1592393
0.1983413 0.1960202 0.1624086
0.2038041 0.2007868 0.1657157
0.2096092 0.2057763 0.1691343
0.2157312 0.2109215 0.1726311
0.2221359 0.2161407 0.1761694
0.2287916 0.2213455 0.1797117
0.2356806 0.2264531 0.1832246
0.2428102 0.2313964 0.1866848
0.2502149 0.2361281 0.1900840
0.2579563 0.2406279 0.1934334
0.2661145 0.2449064 0.1967630
0.2747960 0.2490545 0.2001204
0.2841725 0.2533754 0.2035484
0.2944782 0.2584059 0.2070799
0.1273212 0.1409907 0.1207067
0.1303159 0.1427485 0.1217144
0.1333086 0.1445069 0.1227250
0.1362979 0.1462714 0.1237472
0.1392844 0.1480505 0.1247945
0.1422722 0.1498565 0.1258846
0.1452691 0.1517065 0.1270367
0.1482884 0.1536229 0.1282727
0.1513525 0.1556374 0.1296185
0.1544903 0.1577852 0.1311001
0.1577375 0.1601067 0.1327396
0.1611343 0.1626437 0.1345559
0.1647258 0.1654377 0.1365669
0.1685583 0.1685291 0.1387880
0.1726767 0.1719544 0.1412302
0.1771220 0.1757431 0.1438997
0.1819269 0.1799145 0.1467975
0.1871161 0.1844779 0.1499206
0.1927058 0.1894296 0.1532596
0.1987045 0.1947537 0.1568000
0.2051132 0.2004182 0.1605198
0.2119255 0.2063744 0.1643913
0.2191259 0.2125591 0.1683804
0.2266955 0.2188979 0.1724492
0.2346210 0.2253117 0.1765597
0.2429031 0.2317255 0.1806743
0.2515646 0.2380803 0.1847642
0.2606578 0.2443427 0.1888188
0.2702662 0.2505127 0.1928451
0.2805092 0.2566411 0.1968752
0.2915470 0.2628491 0.2009586
0.3035549 0.2693296 0.2051366
0.3165761 0.2762397 0.2093679
0.1205830 0.1348481 0.1152605
0.1236345 0.1365420 0.1160337
0.1266853 0.1382383 0.1168089
0.1297377 0.1399439 0.1175953
0.1327974 0.1416714 0.1184108
