presets/series/late-summer/series-late-summer-contrast/look.cube
# series-late-summer-contrast tuned
LUT_3D_SIZE 33
DOMAIN_MIN 0 0 0
DOMAIN_MAX 1 1 1
0.1856246 0.1906770 0.1762371
0.2681757 0.2297852 0.1495348
0.2071983 0.1979051 0.1367571
0.1831241 0.1840068 0.1732549
0.1795686 0.1754118 0.1603764
0.2087151 0.1606282 0.0989385
0.2075133 0.1351069 0.0568923
0.2079231 0.1220260 0.0357880
0.2165825 0.1103130 0.0251103
0.2692195 0.1085248 0.0248323
0.3660220 0.1067639 0.0284616
0.4250900 0.1072087 0.0345207
0.5273921 0.1055513 0.0240212
0.5964566 0.0989053 0.0058983
0.6277981 0.0874300 0.0055432
0.6262022 0.0984201 0.0173468
0.6262205 0.0980496 0.0186205
0.6444647 0.0928789 0.0173473
0.6615189 0.0913503 0.0137665
0.6532647 0.0881627 0.0053953
0.7090268 0.0740777 0.0019467
0.7482562 0.0582006 0.0014977
0.7656208 0.0634100 0.0017156
0.8073474 0.0405714 0.0017665
0.8408001 0.0356399 0.0018808
0.8627394 0.0290778 0.0022418
0.8782495 0.0338724 0.0045847
0.9019299 0.0420882 0.0067993
0.8991788 0.0521895 0.0072397
0.9014156 0.0653717 0.0148510
0.9038020 0.0595241 0.0187949
0.9251594 0.0383072 0.0177278
0.9686485 0.0317383 0.0458060
0.1866980 0.2046648 0.1924995
0.1376417 0.1786358 0.2027717
0.2240174 0.2268656 0.1881845
0.2665814 0.2061839 0.0979096
0.1886652 0.1791758 0.1126988
0.1058758 0.1366840 0.1476827
0.1513183 0.1670854 0.1356805
0.1436966 0.1417886 0.0928044
0.1379410 0.1312562 0.0773182
0.1983698 0.1414877 0.0763113
0.2009035 0.1493034 0.0842264
0.2325777 0.1637209 0.0920107
0.3094661 0.1743095 0.0968781
0.3945378 0.1809798 0.0850274
0.4676111 0.1887618 0.0772519
0.4983187 0.1866442 0.0748936
0.5096198 0.1712058 0.0658010
0.5199619 0.1579318 0.0580886
0.5212963 0.1463788 0.0502046
0.5358931 0.1425329 0.0432505
0.5775376 0.1300929 0.0313208
0.6196308 0.1180879 0.0214844
0.6549514 0.1138165 0.0165618
0.6990277 0.1061966 0.0119691
0.7452149 0.1052860 0.0121882
0.7805416 0.0961282 0.0122136
0.8061008 0.0877439 0.0128904
0.8291484 0.0874889 0.0144180
0.8470338 0.0946525 0.0211988
0.8657709 0.1039384 0.0309544
0.8807172 0.1048804 0.0369756
0.9010563 0.0927822 0.0391359
0.9310007 0.0792378 0.0479741
0.1279434 0.1289373 0.0814502
0.1595095 0.1574408 0.1210135
0.1244641 0.1523762 0.1515496
0.1961928 0.1874339 0.1272977
0.2627486 0.2016199 0.0621664
0.1705059 0.1472701 0.0638519
0.0734902 0.0924670 0.0716005
0.1352111 0.1112972 0.0554520
0.1647489 0.1009301 0.0397692
0.2046296 0.1212042 0.0688361
0.2066945 0.1404272 0.0829313
0.2215728 0.1653440 0.1031929
0.2579301 0.1852113 0.1161446
0.3070701 0.1968820 0.1181130
0.3712677 0.2095781 0.1104550
0.4280436 0.2209010 0.1062617
0.4468249 0.2075491 0.0940443
0.4564793 0.1930750 0.0819882
0.4603194 0.1789791 0.0701990
0.4767575 0.1662100 0.0598691
0.5101648 0.1549587 0.0495615
0.5470306 0.1408402 0.0400112
0.5857214 0.1331659 0.0317869
0.6335382 0.1297382 0.0278496
0.6795932 0.1262851 0.0272522
0.7213340 0.1243318 0.0307592
0.7563749 0.1186791 0.0304402
0.7880083 0.1182785 0.0303798
0.8161635 0.1220376 0.0345298
0.8433734 0.1279116 0.0402510
0.8660489 0.1320947 0.0467606
0.8890273 0.1191944 0.0473687
0.9225401 0.0957032 0.0481159
0.0705145 0.1007797 0.0444960
0.1278279 0.1244217 0.0837167
0.1305743 0.1268701 0.0951927
0.1188044 0.1342409 0.1071519
0.2100517 0.1849367 0.0832654
0.2918583 0.1963881 0.0114316
0.1310014 0.1067807 0.0102973
0.0676046 0.0754062 0.0191445
0.1702382 0.1130345 0.0338195
0.1715313 0.1107135 0.0551605
0.2070505 0.1318794 0.0847426
0.2549878 0.1510853 0.0928639
0.2636008 0.1628100 0.1015695
0.2749116 0.1799744 0.1200183
0.3168796 0.1953461 0.1243684
0.3694587 0.2108375 0.1212416
0.4065818 0.2174711 0.1117065
0.4245388 0.2113135 0.0987847
0.4343906 0.1991081 0.0846214
0.4582755 0.1937671 0.0758159
0.4873065 0.1769938 0.0618708
0.5210575 0.1579313 0.0504826
0.5558786 0.1449374 0.0395916
0.6013035 0.1399129 0.0354857
0.6357830 0.1333343 0.0318938
0.6768731 0.1341632 0.0341995
0.7239745 0.1395073 0.0394174
0.7607262 0.1407388 0.0411879
0.7941328 0.1426126 0.0429542
0.8270708 0.1471681 0.0474907
0.8537969 0.1479777 0.0514622
0.8818341 0.1317163 0.0507911
0.9197479 0.1016820 0.0498847
0.0450600 0.0915934 0.0342835
0.1157684 0.1298137 0.0708601
0.0728468 0.0730474 0.0404393
0.0839459 0.0753853 0.0419261
0.0470668 0.0661560 0.0350895
0.1593455 0.1262411 0.0143944
0.2751932 0.1562919 0.0031659
0.1954550 0.1288000 0.0070866
0.1248253 0.0961395 0.0405459
0.1576201 0.1148344 0.0583045
0.1997700 0.1194804 0.0661919
0.2689937 0.1429836 0.0879061
0.3411931 0.1615391 0.0844626
0.3354144 0.1689417 0.0963823
0.3290225 0.1790082 0.1167521
0.3464887 0.1980459 0.1311995
0.3846001 0.2115534 0.1241165
0.4064423 0.2094271 0.1065270
0.4294080 0.2062475 0.0931135
0.4602015 0.2026740 0.0817227
0.4858524 0.1914622 0.0727786
0.5217196 0.1770794 0.0625743
0.5650558 0.1658248 0.0517305
0.6016699 0.1556210 0.0440685
0.6315614 0.1504254 0.0416921
0.6602635 0.1443400 0.0388662
0.7081919 0.1552437 0.0442506
0.7434437 0.1569933 0.0457264
0.7809798 0.1596347 0.0485055
0.8143244 0.1607077 0.0503998
0.8462324 0.1571701 0.0506691
0.8788125 0.1381709 0.0477443
0.9235358 0.1053098 0.0485850
0.0505163 0.0899112 0.0379259
0.1162866 0.1418563 0.0797875
0.0822179 0.0919970 0.0534922
0.0791467 0.0721426 0.0376351
0.0833448 0.0764222 0.0361261
0.0550205 0.0698827 0.0385829
0.1493516 0.1126205 0.0081844
0.3599043 0.1996300 0.0034246
0.3103952 0.1713584 0.0046258
0.2098338 0.1475204 0.0748828
0.1915438 0.1338309 0.0663801
0.1911758 0.1298901 0.0950078
0.2612815 0.1574390 0.1135978
0.3408154 0.1771416 0.1079584
0.3903192 0.1861889 0.0980670
0.3652016 0.1850017 0.1192476
0.3837306 0.1939758 0.1264442
0.4200422 0.2042480 0.1166451
0.4481014 0.2100053 0.1036463
0.4671557 0.2083895 0.0927759
0.4996058 0.2074613 0.0862026
0.5474237 0.2037644 0.0747957
0.5935999 0.1995524 0.0649746
0.6304129 0.1907701 0.0556819
0.6501231 0.1825651 0.0531024
0.6691334 0.1705576 0.0507999
0.7078467 0.1788823 0.0513975
0.7412286 0.1776766 0.0485951
0.7752976 0.1773778 0.0484869
0.8076719 0.1754426 0.0498659
0.8435077 0.1678436 0.0502485
0.8816089 0.1488661 0.0485059
0.9301483 0.1134645 0.0503163
0.0672493 0.1021108 0.0464368
0.1433345 0.1726822 0.1015857
0.0923796 0.1161922 0.0748191
0.1046727 0.1176355 0.0781575
0.1053405 0.1086673 0.0474351
0.1031030 0.0987713 0.0418098
0.0837559 0.0898585 0.0408463
0.2428238 0.1632995 0.0129529
0.4470620 0.2335808 0.0127442
0.3673178 0.2041844 0.0130499
0.3410109 0.1884062 0.0154902
0.1901029 0.1317483 0.0788741
0.1940048 0.1369861 0.1149118
0.2826505 0.1742300 0.1329597
0.3394843 0.1893254 0.1295551
0.4014519 0.1979938 0.1170700
0.4290819 0.1981967 0.1120349
0.4180048 0.1926508 0.1201131
0.4432688 0.2056243 0.1127239
0.4675931 0.2116343 0.1007164
0.5108670 0.2242714 0.1036250
0.5620672 0.2293394 0.0964359
0.6065979 0.2315885 0.0852132
0.6448638 0.2261582 0.0691258
0.6672279 0.2155163 0.0590519
0.6886132 0.2144134 0.0649532
0.7192178 0.2133327 0.0615629
0.7485855 0.2103390 0.0572665
0.7779849 0.2037568 0.0535448
0.8067511 0.1986905 0.0545275
0.8416566 0.1856868 0.0521775
0.8826393 0.1665952 0.0502753
0.9314404 0.1301258 0.0523710
0.0822159 0.1178206 0.0541461
0.1653017 0.1930364 0.1131593
0.1341134 0.1572222 0.1006487
0.1252184 0.1455964 0.1022097
0.1315139 0.1499691 0.0898092
0.1284775 0.1412846 0.0567589
0.1125293 0.1171120 0.0549112
0.1125620 0.1112761 0.0606536
0.2470777 0.1729390 0.0303344
0.4139603 0.2619881 0.0320367
0.4137165 0.2365485 0.0257984
0.3369854 0.2104130 0.0697874
0.2296642 0.1658458 0.1087262
0.2129831 0.1483610 0.1395126
0.2989664 0.1869859 0.1499941
0.3627394 0.2061903 0.1358911
0.4212676 0.2046337 0.1050884
0.4649118 0.2066147 0.0994249
0.4416636 0.1989165 0.1139230
0.4506568 0.2013088 0.1041526
0.5191702 0.2236899 0.1032370
0.5567844 0.2291757 0.1050097
0.5890372 0.2356374 0.1043627
0.6219843 0.2316264 0.0884813
0.6582044 0.2274099 0.0690402
0.6889182 0.2371931 0.0703590
0.7244098 0.2484975 0.0724064
0.7520938 0.2510191 0.0700770
0.7749027 0.2377522 0.0615662
0.7991719 0.2248152 0.0583355
0.8310712 0.2096099 0.0551302
0.8752470 0.1901471 0.0524073
0.9291755 0.1585939 0.0557081
0.0966821 0.1446316 0.0729299
0.1722736 0.2044955 0.1200108
0.1626603 0.1843708 0.1126297
0.1549153 0.1676324 0.1135001
0.1664454 0.1782809 0.1156940
0.1802716 0.1957905 0.1058509
0.1699795 0.1836540 0.0835480
0.1329818 0.1377503 0.0821415
0.1210442 0.1243642 0.0972544
0.2294970 0.1950490 0.1131591
0.4180046 0.2942376 0.1035848
0.4179367 0.2675120 0.0675889
0.3524679 0.2279893 0.0826770
0.2460764 0.1769822 0.1283913
0.2195498 0.1596907 0.1574356
0.3223930 0.2056322 0.1621741
0.3698094 0.2108872 0.1330014
0.4229284 0.2073956 0.0957247
0.4945495 0.2175497 0.0917595
0.4974504 0.2131052 0.1069164
0.5321473 0.2148940 0.1001518
0.5987365 0.2349795 0.0976503
0.6005774 0.2330808 0.1007468
0.6024474 0.2263126 0.0999118
0.6279737 0.2223818 0.0864610
0.6686250 0.2332644 0.0783466
0.7121539 0.2552483 0.0773038
0.7394918 0.2632094 0.0725598
0.7623141 0.2596579 0.0661810
0.7881690 0.2558258 0.0662077
0.8112238 0.2439155 0.0633702
0.8572778 0.2262784 0.0596936
0.9160959 0.1966791 0.0604357
0.1026271 0.1789570 0.0849065
0.1633106 0.2217144 0.1212396
0.1696306 0.2110442 0.1148944
0.1723286 0.1944981 0.1119497
0.1900683 0.2025890 0.1243908
0.2163795 0.2280833 0.1431101
0.2347707 0.2502638 0.1349885
0.2371563 0.2443543 0.1216626
0.1762115 0.1852083 0.1109645
0.1588452 0.1637027 0.1151131
0.2042655 0.1898240 0.1159765
0.3514083 0.2700272 0.1172999
0.4136239 0.2802711 0.0930706
0.3823297 0.2581628 0.1088304
0.2856394 0.2102631 0.1505853
0.2236241 0.1620917 0.1564460
0.3293445 0.2145728 0.1630767
0.3771006 0.2201790 0.1310431
0.4218560 0.2151469 0.1047328
0.5093425 0.2298693 0.0890961
0.5803555 0.2331485 0.0828570
0.6376414 0.2421415 0.0909959
0.6611282 0.2448023 0.0869868
0.6350930 0.2349763 0.0823124
0.6310647 0.2302612 0.0890212
0.6578900 0.2313719 0.0813048
0.6969687 0.2477263 0.0802964
0.7197780 0.2496137 0.0675468
0.7419669 0.2546557 0.0585408
0.7694125 0.2618542 0.0554062
0.7883893 0.2816965 0.0714986
0.8292913 0.2834975 0.0777117
0.8870675 0.2622490 0.0761072
0.1037536 0.2108798 0.0883891
0.1534337 0.2439092 0.1187236
0.1666147 0.2382860 0.1157343
0.1736754 0.2209120 0.1127356
0.1908567 0.2152952 0.1215157
0.2134865 0.2253391 0.1400072
0.2515735 0.2608709 0.1545856
0.2828703 0.2889236 0.1472849
0.2741442 0.2819013 0.1328455
0.2339117 0.2342109 0.1277305
0.1932330 0.1946756 0.1182714
0.1932495 0.1901238 0.1167193
0.2912409 0.2447950 0.1321167
0.4111458 0.2938068 0.1166838
0.3900966 0.2621250 0.0853506
0.3464242 0.2405635 0.1084749
0.3081352 0.2159266 0.1575061
0.3727649 0.2445520 0.1655095
0.3822665 0.2323567 0.1449917
0.4097583 0.2211186 0.1225307
0.4935632 0.2322991 0.0979796
0.5735534 0.2445308 0.0818645
0.6569262 0.2580987 0.0717024
0.6976233 0.2655410 0.0690539
0.6646976 0.2479382 0.0814903
0.6697790 0.2418846 0.0832194
0.6898323 0.2417939 0.0849567
0.7139108 0.2426887 0.0729832
0.7298312 0.2440751 0.0599695
0.7524564 0.2499996 0.0473722
0.7654546 0.2798219 0.0651957
0.7950295 0.3160670 0.0916020
0.8389308 0.3500857 0.1202892
0.1000274 0.2422138 0.0903160
0.1409873 0.2664905 0.1128095
0.1591734 0.2654446 0.1147694
0.1690187 0.2490818 0.1144155
0.1863320 0.2357382 0.1233965
0.2100102 0.2293000 0.1358790
0.2368781 0.2427475 0.1396772
0.2797700 0.2812743 0.1545458
0.2983119 0.3047584 0.1440052
0.3034155 0.3026684 0.1327483
0.2818667 0.2764920 0.1227510
0.2427701 0.2398010 0.1201973
0.2019072 0.2031429 0.1267604
0.2570941 0.2220950 0.1197082
0.3996594 0.2902020 0.0791784
0.4257501 0.3055946 0.1003020
0.2923170 0.2307515 0.1822585
0.3528975 0.2438506 0.1596608
0.4131955 0.2661988 0.1600710
0.4323439 0.2635720 0.1603382
0.4495309 0.2430073 0.1272177
0.4809657 0.2438238 0.1158031
0.5400653 0.2517728 0.1180902
0.6317102 0.2685619 0.0894858
0.6912481 0.2825350 0.0641531
0.7189854 0.2860679 0.0656106
0.6995057 0.2541455 0.0903332
0.7078583 0.2475612 0.0813657
0.7305776 0.2635821 0.0759881
0.7550679 0.2669410 0.0587592
0.7737785 0.2967792 0.0753449
0.7834259 0.3322842 0.1040366
0.8002338 0.3952625 0.1528347
0.1003800 0.2797945 0.0963017
0.1352613 0.2992952 0.1113218
0.1558606 0.2993520 0.1141171
0.1691491 0.2850276 0.1166390
0.1844945 0.2673600 0.1243555
0.2021648 0.2484199 0.1344750
0.2209481 0.2360537 0.1368501
0.2542559 0.2607810 0.1482380
0.2786561 0.2915702 0.1391997
0.3128990 0.3177262 0.1260882
0.3308596 0.3288620 0.1151378
0.3081270 0.2987369 0.1187050
0.2714036 0.2659118 0.1373112
0.2348536 0.2334636 0.1539736
0.2389847 0.2278984 0.1569406
0.2447345 0.2386931 0.2054544
0.2966851 0.2830289 0.2778515
0.3552201 0.2779188 0.2130542
0.3998769 0.2558267 0.1208832
0.4522626 0.2833653 0.1563373
0.4899651 0.2961267 0.1714719
0.4845922 0.2711858 0.1440373
0.5183618 0.2647899 0.1274942
0.5915227 0.2703524 0.0963727
0.6562094 0.2769974 0.0769240
0.7070104 0.3077912 0.0705924
0.7281551 0.3097856 0.0812500
0.7494872 0.2890185 0.0717856
0.7736966 0.3501960 0.1137775
0.7786377 0.3331424 0.0825554
0.7907043 0.3448274 0.0977864
0.7856748 0.3513980 0.1169360
0.7972941 0.3922283 0.1529506
0.1047567 0.3241915 0.1044051
0.1368413 0.3402988 0.1145998
0.1561412 0.3386720 0.1151888
0.1700975 0.3248076 0.1186850
0.1821914 0.3031681 0.1245720
0.1996476 0.2803508 0.1364420
0.2215052 0.2594399 0.1508362
0.2401835 0.2535163 0.1552773
0.2557531 0.2674141 0.1526801
0.2879032 0.3016465 0.1338035
0.3288348 0.3401049 0.1115215
0.3321256 0.3341870 0.1107657
0.3107618 0.3084704 0.1314451
0.2840729 0.2822838 0.1603240
0.2743937 0.2717252 0.1951617
0.2916599 0.2850087 0.2164209
0.3130158 0.2957075 0.2423821
0.3447363 0.2924561 0.2344380
0.4043659 0.2850480 0.1611219
0.4373485 0.2708564 0.1132187
0.5044315 0.3109132 0.1598565
0.5266439 0.3153563 0.1687513
0.5232079 0.2962489 0.1511862
0.5776440 0.3031249 0.1196127
0.6494858 0.3126440 0.0747771
0.6845039 0.3154351 0.0610477
0.7105367 0.3376577 0.0901161
0.7550925 0.3458776 0.0733897
0.7926217 0.4146367 0.1024470
0.8806977 0.5356701 0.1773395
0.8605675 0.4999934 0.1964547
0.7986987 0.3817050 0.1361631
0.8205727 0.3798576 0.1383866
0.1122210 0.3725948 0.1107675
0.1396960 0.3826594 0.1161507
0.1585802 0.3808090 0.1159175
0.1728274 0.3678409 0.1175727
0.1851526 0.3464868 0.1215392
0.2001934 0.3209458 0.1340262
0.2180784 0.2937845 0.1497145
0.2389258 0.2761702 0.1636417
0.2575339 0.2761010 0.1674910
0.2716764 0.2881951 0.1538394
0.2942583 0.3181151 0.1276463
0.3247513 0.3448053 0.1172912
0.3265533 0.3392123 0.1299780
0.3062974 0.3109761 0.1487592
0.3026343 0.2981646 0.1746072
0.3005423 0.2840197 0.1907815
0.3325549 0.2968077 0.1876934
0.3582121 0.3017059 0.1897650
0.4015730 0.3081812 0.1878096
0.4629830 0.3211303 0.1676021
0.4986234 0.3197313 0.1559369
0.5536849 0.3388909 0.1616806
0.5555998 0.3374559 0.1771808
0.5665528 0.3312631 0.1713482
0.6232601 0.3397081 0.1410595
0.6372949 0.3250995 0.1046974
0.6546992 0.3337133 0.1246598
0.7026728 0.3565606 0.1481979
0.7386774 0.3380074 0.1206698
0.8015817 0.4600277 0.1569088
0.8695536 0.6191802 0.2846736
0.7757122 0.3802615 0.1351788
0.8293530 0.3765329 0.1385950
0.1240347 0.4265881 0.1158013
0.1459167 0.4303057 0.1168444
0.1641058 0.4268335 0.1162226
0.1776121 0.4140519 0.1153599
0.1895803 0.3933609 0.1170451
0.2020280 0.3663670 0.1257008
0.2151112 0.3361791 0.1404938
0.2315736 0.3095721 0.1578541
0.2514761 0.2995818 0.1718325
0.2736915 0.3010470 0.1733535
0.2788532 0.3060154 0.1560029
0.2955071 0.3249093 0.1383663
0.3102039 0.3350054 0.1345026
0.3163748 0.3323047 0.1444702
0.3103871 0.3144124 0.1584557
0.3272510 0.3119089 0.1717183
0.3465900 0.3064784 0.1708002
0.3765584 0.3160765 0.1620807
0.4055978 0.3187016 0.1591463
0.4598351 0.3335936 0.1537614
0.5065580 0.3417352 0.1505006
0.5461414 0.3419207 0.1415543
0.5992304 0.3656397 0.1481617
0.6047535 0.3639047 0.1617778
0.6671993 0.3919184 0.1797534
0.6721609 0.3686211 0.1335154
0.6610462 0.3486285 0.1182949
0.6785804 0.3600880 0.1458635
0.7259619 0.3722214 0.1503069
0.7573558 0.3731208 0.1362596
0.8223114 0.5008876 0.1948562
0.7814537 0.3985231 0.1419459
0.8242941 0.3908396 0.1467682
0.1373176 0.4792739 0.1195676
0.1564248 0.4813448 0.1191974
0.1725471 0.4763660 0.1162184
0.1850634 0.4636332 0.1137050
0.1952826 0.4431718 0.1124673
0.2036328 0.4135795 0.1162054
0.2135461 0.3813995 0.1273997
0.2266924 0.3502728 0.1439202
0.2421530 0.3280806 0.1621838
0.2653370 0.3185056 0.1663844
0.2830673 0.3209407 0.1647033
0.2900037 0.3297534 0.1575056
0.3001185 0.3388809 0.1509765
0.3247230 0.3522544 0.1463453
0.3230445 0.3394864 0.1516840
0.3326171 0.3332444 0.1540379
0.3579521 0.3315253 0.1524643
0.3765514 0.3261294 0.1510639
0.4132120 0.3346401 0.1422133
0.4488857 0.3398743 0.1312060
0.4991851 0.3576399 0.1446293
0.5410805 0.3622632 0.1370065
0.5916542 0.3703600 0.1131963
0.6288501 0.3843088 0.1200403
0.6798652 0.4120004 0.1640519
0.7120968 0.4148590 0.1595339
0.7096317 0.3881685 0.1116441
0.7098069 0.3787618 0.0865340
0.7342227 0.4047644 0.1248947
0.7459090 0.4147238 0.1562780
0.7900852 0.4092358 0.1420347
0.8428551 0.4201424 0.1369272
0.8281933 0.4216628 0.1572119
0.1493095 0.5291046 0.1258394
0.1675623 0.5295616 0.1229566
0.1821041 0.5232464 0.1176788
0.1930751 0.5097171 0.1124109
0.2030254 0.4909110 0.1093630
0.2097120 0.4633296 0.1086021
0.2160646 0.4297380 0.1132836
0.2265606 0.3958210 0.1263242
0.2362140 0.3607892 0.1444430
0.2582958 0.3379449 0.1585739
0.2780808 0.3305751 0.1575944
0.2946754 0.3461173 0.1521782
0.3050472 0.3546450 0.1504596
0.3229810 0.3656406 0.1483975
0.3382366 0.3663229 0.1450462
0.3457245 0.3589300 0.1417838
0.3640272 0.3535895 0.1370098
0.3817755 0.3465725 0.1351709
0.4119480 0.3497809 0.1423626
0.4475277 0.3549038 0.1377120
0.4862624 0.3613829 0.1281749
0.5331547 0.3789293 0.1336285
0.5874084 0.3929169 0.1240214
0.6302376 0.4030524 0.1211598
0.6683946 0.4171009 0.1349021
0.7143119 0.4361032 0.1548933
0.7478177 0.4487410 0.1762545
0.7497054 0.4299148 0.1328320
0.7469617 0.4082882 0.0770342
0.7601997 0.4383164 0.1402102
0.7668486 0.4553368 0.1809676
0.8108889 0.4662497 0.1684691
0.8388680 0.4678631 0.1672448
0.1638254 0.5792292 0.1342814
0.1802254 0.5774132 0.1285714
0.1942481 0.5710934 0.1221428
0.2060141 0.5596747 0.1157814
0.2160814 0.5431986 0.1106499
0.2233919 0.5195827 0.1072113
0.2302339 0.4906385 0.1073641
0.2354274 0.4538549 0.1125104
0.2386558 0.4089960 0.1236602
0.2519098 0.3638931 0.1418301
0.2792677 0.3447124 0.1614815
0.3023227 0.3540997 0.1599704
0.3076788 0.3615386 0.1450933
0.3194729 0.3713937 0.1402893
0.3401232 0.3829203 0.1361707
0.3531714 0.3801600 0.1330575
0.3757790 0.3799881 0.1283246
0.3942707 0.3751934 0.1234078
0.4177714 0.3705720 0.1258152
0.4491687 0.3736249 0.1371904
0.4826311 0.3742862 0.1299946
0.5305489 0.3930854 0.1214968
0.5750058 0.4085877 0.1162267
0.6225604 0.4305136 0.1309768
0.6716997 0.4452807 0.1332171
0.7063892 0.4477842 0.1304595
0.7383670 0.4628119 0.1650784
0.7688774 0.4736688 0.1726981
0.7734100 0.4540569 0.1300697
0.7739021 0.4416603 0.0887840
0.7854084 0.4731479 0.1535551
0.7861793 0.4896651 0.2068132
0.8298377 0.5019937 0.1876747
0.1767048 0.6242114 0.1416660
0.1924928 0.6219209 0.1346959
0.2071013 0.6170941 0.1279936
0.2199243 0.6083291 0.1212003
0.2310757 0.5951121 0.1150670
0.2398859 0.5763603 0.1096893
0.2465785 0.5512095 0.1061700
0.2509176 0.5181035 0.1059692
0.2492293 0.4725687 0.1081895
0.2521801 0.4180291 0.1143025
0.2739831 0.3780651 0.1434027
0.3235700 0.3788519 0.1934797
0.3434646 0.3924781 0.1877853
0.3346789 0.3890586 0.1557200
0.3347802 0.3876145 0.1384226
0.3594791 0.4010535 0.1303797
0.3856633 0.4073356 0.1167000
0.4070870 0.4031946 0.1167825
0.4201729 0.3927884 0.1110552
0.4418771 0.3911413 0.1205408
0.4697209 0.3883765 0.1319188
0.5079399 0.3980440 0.1332316
0.5579975 0.4204715 0.1181346
0.6060123 0.4427861 0.1246493
0.6521700 0.4613673 0.1387894
0.6975125 0.4729058 0.1419925
0.7273849 0.4818466 0.1549098
0.7528660 0.4885687 0.1632474
0.7853290 0.4961142 0.1669178
0.7950731 0.4887475 0.1363271
0.7928709 0.4729012 0.0868649
0.7933866 0.4991741 0.1628066
0.8257837 0.5373583 0.2389035
0.1871231 0.6640059 0.1469253
0.2039795 0.6633881 0.1408626
0.2193794 0.6602262 0.1340916
0.2329532 0.6535729 0.1268909
0.2448248 0.6431372 0.1195683
0.2548112 0.6283158 0.1126826
0.2625318 0.6078981 0.1067777
0.2664043 0.5791354 0.1019375
0.2666849 0.5416772 0.0994119
0.2678112 0.4920622 0.0962577
0.2733205 0.4385724 0.1056376
0.3067695 0.4055850 0.1536967
0.3600056 0.4175817 0.2080314
0.3745023 0.4329110 0.1926213
0.3649681 0.4181841 0.1515213
0.3714315 0.4157969 0.1336581
0.3926689 0.4216278 0.1232477
0.4099763 0.4187500 0.1193554
0.4239270 0.4143162 0.1203317
0.4396581 0.4089083 0.1176919
0.4649552 0.4078258 0.1239162
0.4952484 0.4107539 0.1386293
0.5279407 0.4205420 0.1343375
0.5862910 0.4495402 0.1357411
0.6400692 0.4764002 0.1488622
0.6762263 0.4908502 0.1615085
0.7138638 0.5034986 0.1640346
0.7463316 0.5101464 0.1641338
0.7804250 0.5180533 0.1524712
0.8003839 0.5250553 0.1562683
0.8028251 0.5161590 0.1413862
0.8001742 0.5011559 0.0923670
0.8335280 0.5669226 0.2486156
0.1993259 0.7043122 0.1542988
0.2161657 0.7041128 0.1479046
0.2313682 0.7013698 0.1405481
0.2452239 0.6960263 0.1325582
0.2576168 0.6877965 0.1243643
0.2684026 0.6760347 0.1162371
0.2771293 0.6596800 0.1084610
0.2827525 0.6368965 0.1010737
0.2837878 0.6053022 0.0938593
0.2858187 0.5635869 0.0839149
0.2874713 0.5142122 0.0789901
0.2929967 0.4634917 0.0868510
0.3257880 0.4338091 0.1357339
0.3578926 0.4334532 0.1641223
0.3884069 0.4488809 0.1726080
0.3907904 0.4415482 0.1577320
0.4069769 0.4420533 0.1428464
0.4271745 0.4474485 0.1400032
0.4324798 0.4373612 0.1323707
0.4492721 0.4346627 0.1315267
0.4723011 0.4354558 0.1255855
0.4897844 0.4260621 0.1233675
0.5266810 0.4408937 0.1366887
0.5638319 0.4509262 0.1393533
0.6258360 0.4856076 0.1462245
0.6708478 0.5110589 0.1600069
0.6950799 0.5224160 0.1794502
0.7356255 0.5325469 0.1585464
0.7705705 0.5362385 0.1426977
0.7932957 0.5478083 0.1557520
0.8007035 0.5562230 0.1901649
0.8039413 0.5414755 0.1442858
0.8669808 0.5549504 0.0949280
0.2123614 0.7439967 0.1631737
0.2281871 0.7431681 0.1552906
0.2431243 0.7407288 0.1472287
0.2570705 0.7364309 0.1386724
0.2698873 0.7299264 0.1297336
0.2813232 0.7206647 0.1206419
0.2910153 0.7077648 0.1114832
0.2982164 0.6899326 0.1023025
0.3017322 0.6653940 0.0929151
0.3065388 0.6321872 0.0783621
0.3084561 0.5901849 0.0649265
0.3061859 0.5408070 0.0539398
0.3080504 0.4873321 0.0620054
0.3229174 0.4524984 0.0838731
0.3472280 0.4402714 0.1090555
0.3619671 0.4327640 0.1127223
0.3852877 0.4361232 0.1091907
0.4118389 0.4475362 0.1165164
0.4336599 0.4539710 0.1229059
0.4552096 0.4573887 0.1236217
0.4685812 0.4467631 0.1128548
0.4803571 0.4393421 0.0923686
0.5041068 0.4432324 0.0917604
0.5481556 0.4625905 0.1072599
0.5997357 0.4845676 0.1213569
0.6563509 0.5180342 0.1328620
0.6984888 0.5405378 0.1546478
0.7298095 0.5508090 0.1552233
0.7599862 0.5607084 0.1582243
0.7747766 0.5727969 0.1938184
0.7863459 0.5807314 0.2120068
0.7995798 0.5786227 0.1924951
0.8761837 0.5849997 0.0810370
0.2245305 0.7818969 0.1703987
0.2398616 0.7807394 0.1624261
0.2546207 0.7786092 0.1539825
0.2686453 0.7751874 0.1450597
0.2817842 0.7700969 0.1356431
0.2938214 0.7628731 0.1258269
0.3043982 0.7528358 0.1157065
0.3130776 0.7391653 0.1053067
0.3191850 0.7208331 0.0946341
0.3275872 0.6959266 0.0778877
0.3329141 0.6634752 0.0607136
0.3317006 0.6210764 0.0422709
0.3269050 0.5701034 0.0304974
0.3292075 0.5223908 0.0328983
0.3290412 0.4774346 0.0361714
0.3355852 0.4475514 0.0370210
0.3555869 0.4385390 0.0424444
0.3740140 0.4371826 0.0459795
0.3978620 0.4434653 0.0552540
0.4296553 0.4578495 0.0680493
0.4479239 0.4555215 0.0649570
0.4647774 0.4558930 0.0508086
0.4913480 0.4638848 0.0421606
0.5247110 0.4730584 0.0500664
0.5722469 0.4914708 0.0693681
0.6262536 0.5192633 0.0915892
0.6805120 0.5479978 0.1146896
0.7252676 0.5651965 0.1305438
0.7554898 0.5774482 0.1451672
0.7689272 0.5973561 0.1884737
0.7798741 0.6091710 0.2237283
0.7934757 0.6082147 0.2194161
0.8818594 0.6160015 0.0995512
0.2365195 0.8180815 0.1785585
0.2511932 0.8170055 0.1696337
0.2657949 0.8153016 0.1608725
0.2798997 0.8126295 0.1517137
0.2933157 0.8086879 0.1420079
