presets/series/late-summer/series-late-summer-contrast/look.cube
# series-late-summer-contrast tuned
LUT_3D_SIZE 9
DOMAIN_MIN 0 0 0
DOMAIN_MAX 1 1 1
0.1856246 0.1906770 0.1762371
0.1795686 0.1754118 0.1603764
0.2165825 0.1103130 0.0251103
0.5273921 0.1055513 0.0240212
0.6262205 0.0980496 0.0186205
0.7090268 0.0740777 0.0019467
0.8408001 0.0356399 0.0018808
0.8991788 0.0521895 0.0072397
0.9686485 0.0317383 0.0458060
0.0450600 0.0915934 0.0342835
0.0470668 0.0661560 0.0350895
0.1248253 0.0961395 0.0405459
0.3411931 0.1615391 0.0844626
0.3846001 0.2115534 0.1241165
0.4858524 0.1914622 0.0727786
0.6315614 0.1504254 0.0416921
0.7809798 0.1596347 0.0485055
0.9235358 0.1053098 0.0485850
0.0966821 0.1446316 0.0729299
0.1664454 0.1782809 0.1156940
0.1210442 0.1243642 0.0972544
0.3524679 0.2279893 0.0826770
0.3698094 0.2108872 0.1330014
0.5321473 0.2148940 0.1001518
0.6279737 0.2223818 0.0864610
0.7623141 0.2596579 0.0661810
0.9160959 0.1966791 0.0604357
0.1003800 0.2797945 0.0963017
0.1844945 0.2673600 0.1243555
0.2786561 0.2915702 0.1391997
0.2714036 0.2659118 0.1373112
0.2966851 0.2830289 0.2778515
0.4899651 0.2961267 0.1714719
0.6562094 0.2769974 0.0769240
0.7736966 0.3501960 0.1137775
0.7972941 0.3922283 0.1529506
0.1373176 0.4792739 0.1195676
0.1952826 0.4431718 0.1124673
0.2421530 0.3280806 0.1621838
0.3001185 0.3388809 0.1509765
0.3579521 0.3315253 0.1524643
0.4991851 0.3576399 0.1446293
0.6798652 0.4120004 0.1640519
0.7342227 0.4047644 0.1248947
0.8281933 0.4216628 0.1572119
0.1871231 0.6640059 0.1469253
0.2448248 0.6431372 0.1195683
0.2666849 0.5416772 0.0994119
0.3600056 0.4175817 0.2080314
0.3926689 0.4216278 0.1232477
0.4649552 0.4078258 0.1239162
0.6400692 0.4764002 0.1488622
0.7804250 0.5180533 0.1524712
0.8335280 0.5669226 0.2486156
0.2365195 0.8180815 0.1785585
0.2933157 0.8086879 0.1420079
0.3351439 0.7711851 0.0979419
0.3579467 0.6564918 0.0164264
0.3634999 0.4917227 0.0113240
0.4376200 0.4801604 0.0130065
0.5738155 0.5319251 0.0267929
0.7392446 0.6029168 0.1360998
0.8885542 0.6338225 0.0396212
0.2576906 0.8840777 0.1918896
0.3161023 0.8830570 0.1545764
0.3689104 0.8699980 0.1060496
0.4383025 0.8342790 0.0186963
0.5236611 0.7735982 0.0001503
0.5925887 0.7270067 0.0000000
0.7029302 0.7408711 0.0000000
0.7871502 0.7561593 0.0976799
0.9102600 0.7437934 0.0791178
0.2764344 0.9531706 0.2017473
0.3366176 0.9504416 0.1682276
0.3922682 0.9434759 0.1212219
0.4715404 0.9256993 0.0355841
0.5770900 0.8996142 0.0000000
0.6738969 0.8784352 0.0000000
0.7745773 0.8740004 0.0062010
0.8664974 0.8916607 0.0750196
0.9424880 0.8809120 0.2701457
0.1024541 0.1443789 0.2168482
0.1355009 0.1200160 0.1219238
0.1179564 0.0346266 0.0168043
0.4308177 0.1262669 0.1025113
0.5646363 0.1406119 0.1180747
0.7453352 0.1216372 0.0937448
0.8683399 0.0993512 0.0657978
0.8920459 0.0901435 0.0529703
0.8593360 0.2000898 0.1132040
0.0898128 0.1457709 0.0929656
0.0497277 0.0495213 0.0440496
0.1161789 0.1004335 0.1074012
0.2994547 0.1626808 0.1534584
0.4415174 0.1730486 0.1359454
0.5791698 0.1645515 0.1087737
0.7370849 0.1750405 0.0910384
0.8170214 0.1968259 0.1018443
0.8963388 0.2463154 0.1436124
0.0713019 0.1324633 0.0908813
0.1960918 0.2119260 0.1833639
0.2347443 0.2357528 0.1863489
0.3818628 0.2811450 0.1841328
0.3308758 0.2004760 0.1594877
0.4679440 0.1986752 0.1447253
0.6536950 0.2254821 0.1311231
0.7873955 0.2631093 0.1291723
0.8891965 0.2880615 0.1575218
0.0692780 0.2667467 0.1051708
0.1764314 0.2816635 0.1639673
0.2703834 0.2961735 0.1840862
0.2918513 0.2863211 0.1682501
0.6931479 0.4878690 0.1025081
0.4313541 0.2627912 0.1766432
0.5756341 0.2891618 0.1797730
0.7245189 0.3623095 0.2006234
0.8300394 0.4052774 0.2230967
0.1017680 0.4799992 0.1593165
0.2051487 0.4673366 0.1994684
0.2706241 0.4056495 0.2139662
0.3427578 0.3699667 0.2012398
0.3449651 0.3291449 0.1988366
0.4945517 0.3771523 0.2027373
0.6130341 0.4125240 0.2461572
0.6953106 0.4124735 0.2408613
0.7843551 0.4577196 0.2607260
0.1392617 0.6662662 0.1943064
0.2514089 0.6542239 0.2341787
0.3093675 0.6059465 0.2305665
0.3436483 0.5021446 0.1875512
0.3954051 0.4364858 0.1732715
0.4689355 0.4408237 0.1663379
0.5850631 0.4603388 0.2370749
0.7193096 0.5405308 0.3193398
0.8066382 0.5786056 0.3357270
0.1740128 0.8189153 0.2148384
0.2984431 0.8138593 0.2627458
0.3615259 0.7907159 0.2460138
0.4073656 0.7261750 0.1701067
0.4285134 0.6202741 0.0624607
0.4986814 0.5867627 0.0310595
0.6199635 0.6120526 0.0889842
0.6854530 0.6154425 0.2457432
0.7989843 0.6859012 0.4336213
0.1895875 0.8886277 0.2225479
0.3206741 0.8863356 0.2759837
0.3899580 0.8772826 0.2569094
0.4581701 0.8500697 0.1789814
0.5236378 0.8035513 0.0731038
0.5966052 0.7680089 0.0030057
0.7119265 0.7730499 0.0169890
0.7851146 0.7737724 0.1267575
0.8831922 0.8094470 0.4384581
0.2041960 0.9549582 0.2296119
0.3413353 0.9528344 0.2892843
0.4125793 0.9479970 0.2711706
0.4881479 0.9335164 0.1978091
0.5673838 0.9092385 0.0984946
0.6495459 0.8880008 0.0219839
0.7557684 0.8807247 0.0101584
0.8520686 0.8975508 0.0976526
0.9479832 0.9157381 0.3809210
0.0874261 0.1147737 0.3036429
0.0603756 0.0720961 0.0989313
0.0533166 0.0405217 0.0453784
0.2069466 0.0574398 0.1034831
0.4386679 0.0964806 0.1696377
0.6296526 0.1303824 0.2113116
0.8017718 0.1363682 0.2131550
0.8628858 0.1967189 0.2538372
0.8778078 0.3696040 0.3778045
0.0272775 0.0777313 0.0493525
0.1435614 0.1538206 0.1868216
0.1710029 0.1692134 0.2217094
0.2507120 0.1226577 0.1366454
0.4593930 0.1662018 0.1808060
0.6361086 0.1775147 0.1745725
0.7732642 0.1407813 0.1346915
0.8358845 0.1513779 0.1337807
0.8977949 0.2471685 0.2034388
0.0548652 0.2177121 0.1616497
0.1677538 0.2501429 0.2558934
0.1552923 0.1598131 0.1668545
0.2707474 0.2114367 0.2032000
0.3268308 0.1776247 0.1757719
0.5825124 0.2392832 0.2245295
0.6975683 0.2354840 0.2063128
0.7987188 0.2538471 0.2016985
0.8867235 0.3090476 0.2304110
0.0885694 0.2194893 0.1232582
0.1486549 0.2093363 0.1523966
0.2294375 0.2462491 0.2091399
0.2504851 0.2534928 0.2058702
0.3284322 0.2662794 0.2380749
0.4043603 0.2399260 0.1587046
0.6532389 0.3595377 0.2618270
0.7436372 0.3901441 0.2676797
0.8458962 0.4280749 0.2657849
0.0939086 0.4176869 0.1873741
0.1757671 0.4191366 0.2128637
0.2304011 0.3578838 0.2217468
0.3223436 0.3540752 0.2331991
0.3440556 0.3210784 0.2074479
0.4701039 0.3536482 0.2164381
0.5595942 0.3725458 0.2413552
0.6906146 0.4279763 0.2799429
0.8077941 0.4968716 0.3320649
0.1357823 0.6482294 0.2743290
0.2200130 0.6425952 0.2837778
0.3013266 0.6088181 0.3001094
0.3621441 0.5233130 0.2712503
0.3717550 0.4161389 0.1927629
0.4732370 0.4363385 0.2221491
0.5693795 0.4545527 0.2700603
0.7403866 0.5552951 0.3495245
0.8092084 0.5861477 0.3699482
0.1736630 0.8129366 0.3095126
0.2575748 0.8123293 0.3175524
0.3554417 0.7983476 0.3431068
0.4369769 0.7504572 0.3117088
0.4381836 0.6372433 0.1857576
0.4770509 0.5727726 0.1184395
0.6055630 0.6043914 0.1736485
0.6690204 0.5996965 0.2981424
0.8030702 0.6813815 0.4330853
0.1914430 0.8850517 0.3205842
0.2744246 0.8862428 0.3287178
0.3814421 0.8813800 0.3607167
0.4812153 0.8614760 0.3356397
0.5338940 0.8148765 0.2324286
0.5853654 0.7648415 0.1365877
0.6914652 0.7660604 0.1129121
0.7718275 0.7758618 0.2031752
0.8578649 0.7945658 0.4909446
0.2072714 0.9527231 0.3290152
0.2900074 0.9531108 0.3370855
0.4034653 0.9504503 0.3753709
0.5092346 0.9404075 0.3549844
0.5790656 0.9177824 0.2654926
0.6473976 0.8923918 0.1758723
0.7411179 0.8807210 0.1212680
0.8326535 0.8950099 0.1850366
0.9300579 0.9129058 0.5246254
0.1586114 0.1469806 0.4506171
0.1205144 0.1159295 0.2871505
0.0716191 0.0548516 0.1111331
0.1570309 0.0439771 0.1355810
0.3318655 0.0308257 0.2071350
0.5687525 0.0559440 0.3020916
0.7385692 0.0701074 0.3343226
0.8220357 0.0859523 0.3481112
0.8985472 0.1356151 0.3818293
0.0074684 0.1562255 0.2788039
0.1523652 0.1789389 0.3271873
0.1521322 0.1504116 0.2444029
0.1692531 0.1019295 0.1535883
0.3343596 0.0900925 0.2002173
0.5974989 0.1248254 0.2918560
0.7651540 0.1160059 0.3004088
0.8297837 0.1099666 0.2917334
0.9049461 0.1658800 0.3227851
0.0950765 0.2665642 0.2958144
0.1752647 0.2877773 0.3651295
0.2150368 0.2269991 0.2874313
0.1847436 0.1522446 0.1645566
0.3038120 0.1373151 0.1758290
0.5999091 0.2127971 0.2845108
0.7633790 0.2484389 0.3369182
0.8256412 0.2328087 0.3235799
0.9026025 0.2843453 0.3455258
0.1009128 0.2446869 0.1922973
0.1587257 0.2588474 0.2730179
0.2325914 0.3131733 0.3142528
0.2432162 0.2470296 0.2589372
0.3350757 0.2603590 0.2573532
0.4974787 0.2931080 0.2896371
0.6742613 0.3489006 0.3500917
0.7737593 0.3948768 0.3930190
0.8856852 0.4329649 0.4270835
0.1177647 0.3393371 0.2310554
0.1742437 0.3562886 0.2620928
0.2493231 0.3302499 0.2811893
0.3017670 0.3159661 0.2893691
0.2971365 0.2913942 0.2225060
0.4654814 0.3846689 0.3311330
0.6096915 0.3684303 0.2037595
0.7409000 0.5086025 0.4079398
0.8333144 0.5410454 0.4493568
0.1210082 0.6118212 0.3629104
0.2039834 0.6059416 0.3715299
0.2814598 0.5617907 0.3669045
0.3702778 0.5016715 0.3720940
0.4366147 0.4832119 0.3640939
0.4681706 0.4408950 0.2776167
0.6264174 0.5269273 0.3542670
0.7391593 0.5747846 0.4296099
0.8284719 0.6158767 0.4660738
0.1589231 0.8018798 0.4193754
0.2463711 0.7977173 0.4275055
0.3299876 0.7824646 0.4322038
0.4329422 0.7472200 0.4353999
0.4893952 0.6702720 0.3907941
0.4752142 0.5724598 0.2773853
0.5868874 0.5971243 0.3021507
0.6748500 0.6082038 0.4038159
0.8226719 0.6960325 0.4949539
0.1769914 0.8778037 0.4340686
0.2663373 0.8775463 0.4452895
0.3525625 0.8745440 0.4548224
0.4726350 0.8634824 0.4706263
0.5646519 0.8276188 0.4439541
0.5849437 0.7638349 0.3376856
0.6644279 0.7486059 0.2880208
0.7574353 0.7754214 0.3533410
0.8163501 0.7632254 0.5501635
0.1959981 0.9456191 0.4434202
0.2852940 0.9464624 0.4558973
0.3711341 0.9463791 0.4669585
0.4992798 0.9429608 0.4912591
0.6064428 0.9266676 0.4756474
0.6549367 0.8972901 0.3892698
0.7274812 0.8776426 0.3168124
0.8107807 0.8869176 0.3625887
0.9246354 0.9076196 0.6793604
0.2228199 0.1787137 0.5043580
0.1938681 0.1352751 0.4749755
0.1592501 0.0663253 0.3349624
0.1909024 0.0358167 0.2476291
0.3279427 0.0088459 0.3140001
0.5253557 0.0294988 0.4010334
0.6859771 0.0348826 0.4404126
0.7785183 0.0373053 0.4494712
0.8624185 0.0440198 0.4536940
0.1112663 0.1968283 0.4263359
0.1640650 0.1797801 0.4504474
0.1674055 0.1416977 0.3727703
0.1896564 0.0983811 0.2578171
0.3273759 0.0819594 0.3120336
0.5351454 0.1123997 0.4103249
0.7043622 0.0955348 0.4429467
0.7923614 0.0742299 0.4357052
0.8729728 0.0611878 0.4213633
0.0595836 0.2476674 0.4310504
0.1414113 0.2048597 0.3801229
0.2075623 0.2307733 0.4048175
0.1897961 0.1511233 0.2461223
0.2848642 0.1327450 0.2684814
0.5007085 0.1720153 0.3801448
0.7151615 0.2193850 0.4704395
0.8007343 0.2164093 0.4747183
0.8733448 0.2329292 0.4754498
0.1488667 0.3728971 0.4062523
0.1487956 0.2894289 0.4120068
0.1755080 0.2191855 0.2900220
0.2413604 0.2406308 0.3169050
0.3179545 0.2271364 0.3166555
0.4810946 0.2561338 0.3693989
0.6943311 0.3404861 0.4768824
0.7967070 0.3796048 0.5034412
0.8826096 0.4419617 0.5385472
0.1533874 0.4734911 0.4246448
0.1897520 0.4644218 0.4523092
0.1795623 0.3758876 0.4021287
0.4343797 0.5507203 0.5465997
0.3642285 0.3697069 0.3900941
0.5102347 0.4196312 0.4507048
0.6644540 0.4642628 0.4935196
0.7670332 0.5280401 0.5302936
0.8925166 0.5939745 0.5952456
0.1094470 0.5833453 0.4479813
0.1818152 0.5984299 0.4748530
0.2447254 0.5324917 0.4394165
0.3336991 0.4386781 0.3993382
0.4026638 0.4318408 0.4190481
0.7485853 0.7696130 0.7062906
0.6046384 0.5279855 0.4743224
0.8051160 0.6568327 0.5043191
0.8327271 0.6509910 0.5779654
0.1425189 0.7899502 0.5218948
0.2245782 0.7845680 0.5281001
0.3050703 0.7549201 0.5207077
0.4126621 0.6878923 0.5037457
0.4980999 0.6355408 0.5086297
0.5727531 0.6334119 0.5338448
0.6478172 0.6585912 0.5150835
0.6757439 0.6341116 0.5071699
0.8162494 0.7276791 0.5861512
0.1612415 0.8697127 0.5404376
0.2457582 0.8672861 0.5482905
0.3323403 0.8583477 0.5542290
0.4549989 0.8399923 0.5635289
0.5602423 0.8158564 0.5690831
0.6305586 0.7755778 0.5558823
0.6689434 0.7437201 0.4841102
0.7386793 0.7612932 0.5034721
0.8266183 0.7862400 0.6179893
0.1801416 0.9375621 0.5494560
0.2671058 0.9362185 0.5592702
0.3548652 0.9337067 0.5699619
0.4796129 0.9298635 0.5871532
0.5941193 0.9230617 0.6001384
0.6865665 0.9026321 0.5971884
0.7302861 0.8740883 0.5182020
0.7936083 0.8735528 0.5306278
0.9205439 0.9032570 0.7859342
0.2425342 0.2011701 0.5800153
0.2385788 0.1648269 0.6339095
0.2252974 0.0756622 0.5644314
0.2917414 0.0423868 0.4741672
0.4015120 0.0235687 0.4688706
0.5438987 0.0267246 0.5184733
0.6612327 0.0291202 0.5232288
0.7425683 0.0253195 0.5267975
0.8269771 0.0251522 0.5302796
0.1947533 0.2363214 0.5859655
0.1953704 0.2061108 0.6137322
0.2012724 0.1453527 0.5606627
0.2720760 0.1143586 0.4686202
0.3929138 0.0977595 0.4702706
0.5447960 0.1067384 0.5269725
0.6686732 0.1017841 0.5327855
0.7586403 0.0834097 0.5338072
0.8413166 0.0635524 0.5244184
0.1802261 0.2953012 0.6174531
0.1792535 0.2697598 0.5858391
0.2174775 0.2516921 0.5552087
0.2361718 0.1666718 0.4314197
0.3314895 0.1391931 0.4137798
0.5208340 0.1822797 0.5156323
0.6771262 0.2116547 0.5540141
0.7657608 0.2007084 0.5573533
0.8496640 0.1888503 0.5514807
0.1603000 0.3703019 0.5574205
0.1949748 0.4035080 0.5944249
0.2786778 0.4561727 0.6343536
0.2460685 0.2726273 0.4418740
0.2936118 0.2250441 0.4053487
0.4847812 0.2725420 0.4977186
0.6790562 0.3466674 0.5752040
0.7708619 0.3618894 0.5861599
0.8584365 0.3723315 0.5912624
0.1498225 0.5881972 0.6461350
0.2034254 0.5319728 0.6185588
0.4641867 0.7773268 0.7934473
0.2495866 0.3865724 0.5521037
0.5181215 0.5390408 0.6566504
0.5148683 0.4037118 0.5405015
0.6822357 0.4704937 0.6025244
0.7734185 0.5085469 0.6105362
0.8600575 0.5282839 0.6189061
0.1809170 0.6586270 0.6020050
0.1921598 0.6399094 0.6002173
0.2582725 0.6085482 0.5850066
0.4285847 0.6027111 0.5841764
0.7506700 0.8169212 0.8168287
0.5520359 0.5652702 0.5761038
0.6501859 0.5681210 0.6121090
0.7497416 0.6122267 0.6300181
0.8255803 0.6484333 0.6530826
0.1537450 0.7946123 0.6110175
0.2209618 0.7862126 0.6144791
0.2902302 0.7524630 0.6011260
0.3913620 0.6606144 0.5559464
0.4650997 0.5641679 0.5168333
0.6629412 0.7088977 0.6792373
0.8691385 0.8955436 0.8626057
0.7097654 0.6627314 0.5968047
0.8201366 0.7487770 0.6751858
0.1554786 0.8662971 0.6203895
0.2342314 0.8625197 0.6272485
0.3152194 0.8485891 0.6287239
0.4352305 0.8132242 0.6255859
0.5576294 0.7633405 0.6277891
0.6276713 0.7328362 0.6329896
0.6837032 0.7329461 0.6194493
0.7432067 0.7695200 0.6289480
0.8909474 0.8506524 0.7521736
0.1728120 0.9325175 0.6293383
0.2534406 0.9296245 0.6362332
0.3378477 0.9236145 0.6436126
0.4618197 0.9119570 0.6560066
0.5868859 0.8973957 0.6721633
0.6772903 0.8841588 0.6825819
0.7490782 0.8665679 0.6721161
0.7885563 0.8633762 0.6564593
0.9161690 0.9076816 0.7953912
0.2690835 0.2750375 0.7357226
0.2425184 0.1705058 0.7684626
0.2446740 0.0705094 0.7221247
0.3468992 0.0427587 0.6601392
0.4647493 0.0358070 0.6299176
0.5768001 0.0297080 0.6363497
0.6603968 0.0285813 0.6201187
0.7305412 0.0255750 0.6127159
0.7889416 0.0225467 0.6013725
0.2047565 0.2371509 0.6975380
0.2111211 0.2305342 0.7510112
0.2256805 0.1607489 0.7288546
0.3368760 0.1413489 0.6682452
0.4539304 0.1241359 0.6321213
0.5750101 0.1164551 0.6457163
0.6665209 0.1101315 0.6335424
0.7332886 0.0973645 0.6195569
0.8134283 0.0810749 0.6173314
0.1808824 0.3272036 0.7203824
0.2044432 0.3269033 0.7514079
0.2531127 0.2968983 0.7289738
0.3217518 0.2318736 0.6637084
0.4335436 0.2097825 0.6186363
0.5603916 0.2090167 0.6401733
0.6674019 0.2128739 0.6443287
0.7360701 0.2057979 0.6345387
0.8185076 0.1930802 0.6356318
0.1396193 0.4156130 0.8460164
0.2040907 0.4892588 0.7539437
0.2874110 0.4684729 0.7338267
0.3639655 0.4113581 0.6876188
0.4268476 0.3473950 0.6363736
0.5549934 0.3522598 0.6484214
0.6772150 0.3591303 0.6684465
0.7400548 0.3608019 0.6571136
0.8224257 0.3556253 0.6615652
0.0820152 0.4496545 0.5876948
0.2172082 0.6415921 0.7725538
0.2806417 0.4361737 0.5767141
0.4120740 0.5589799 0.7176664
0.5086206 0.5494134 0.7092600
0.5957528 0.5247430 0.7044422
0.7019650 0.5018369 0.7061131
0.7460296 0.5037553 0.6818337
0.8295603 0.5100312 0.6891269
0.4069294 0.8194408 0.8132328
0.2448793 0.7193698 0.7565563
0.2618145 0.6624406 0.7309495
0.1066082 0.3706448 0.5113243
0.6103030 0.7617288 0.8286555
0.6857168 0.7162487 0.7911036
0.7078954 0.6248380 0.7333786
0.7737770 0.6285755 0.7287083
0.8526666 0.6409083 0.7244241
0.2058032 0.8060884 0.7074901
0.2319304 0.7861913 0.6999869
0.2823953 0.7590228 0.6914904
0.3692599 0.7045702 0.6694469
0.4880164 0.6656981 0.6574378
0.6411799 0.7313318 0.7299812
0.6962584 0.7335041 0.7408555
0.7757176 0.7467254 0.7487450
0.8486685 0.7830047 0.7727688
0.1625573 0.8653743 0.7004432
0.2341712 0.8590712 0.7050138
0.3088997 0.8456066 0.7065559
0.4202076 0.8129607 0.7025281
0.5310871 0.7544622 0.6863628
0.6148065 0.7078165 0.6794638
0.7035317 0.7522037 0.7252019
0.7992162 0.8329753 0.7930961
0.8282009 0.8190242 0.7762096
0.1684583 0.9293511 0.7046393
0.2468007 0.9250099 0.7113497
0.3270426 0.9171415 0.7172770
0.4436106 0.9005922 0.7246113
0.5660154 0.8736939 0.7311266
0.6697677 0.8436313 0.7393458
0.7506333 0.8450268 0.7642011
0.7953501 0.8569838 0.7784048
0.9148384 0.9143067 0.8430253
0.3766449 0.4422414 0.7771894
0.2038975 0.1325148 0.8383927
0.2391677 0.0608475 0.8082710
0.3596554 0.0388080 0.7626670
0.4837089 0.0340593 0.7243502
0.5921725 0.0284358 0.7160578
0.7096008 0.0258809 0.7306924
0.7367498 0.0256903 0.6850477
0.7956437 0.0224746 0.6714496
0.2079872 0.3047438 0.8111691
0.2141295 0.2480460 0.8377549
0.2303234 0.1667212 0.8219184
0.3543528 0.1483571 0.7718739
0.4749219 0.1317301 0.7270784
0.5827251 0.1196788 0.7170200
0.6985578 0.1106197 0.7288420
0.7347709 0.1034168 0.6912501
0.7984494 0.0913596 0.6785709
0.1987450 0.3901761 0.7958636
0.2158103 0.3617022 0.8431679
0.2703937 0.3235744 0.8304059
0.3505784 0.2555227 0.7822718
0.4690730 0.2362964 0.7279732
0.5769904 0.2236347 0.7176760
0.6895736 0.2149289 0.7281537
0.7340599 0.2090169 0.7009684
0.7992214 0.1995091 0.6914495
0.2017119 0.5257024 0.8048465
0.2264580 0.5311617 0.8408913
0.2950348 0.5022418 0.8304241
0.3959865 0.4516076 0.7999924
0.4807097 0.3984398 0.7554900
0.5824839 0.3827715 0.7315387
0.6813442 0.3650664 0.7295420
0.7341948 0.3611586 0.7154099
0.7991131 0.3566133 0.7102437
0.1469138 0.6685632 0.8493004
0.2421218 0.6405455 0.8164316
0.3237206 0.5670688 0.7701166
0.3897486 0.5398748 0.7639845
0.5496882 0.5859368 0.7965836
0.6092239 0.5430612 0.7649521
0.6887252 0.5125338 0.7441217
0.7396130 0.5036229 0.7333595
0.8034729 0.5073354 0.7327129
0.0315358 0.5719717 0.7016304
0.2570264 0.6861479 0.7875919
0.3510084 0.6636863 0.7850472
0.4260647 0.6920402 0.8415572
0.5819712 0.7226602 0.8348113
0.7052687 0.7421921 0.8475044
0.7293608 0.6526381 0.7913651
0.7558716 0.6163717 0.7600144
0.8260640 0.6375521 0.7699521
0.2374197 0.7726233 0.7570978
0.2599437 0.7532659 0.7499285
0.3145777 0.7437330 0.7530717
0.3901869 0.7365319 0.7682016
0.4984456 0.7707855 0.8153384
0.7929079 0.9068479 0.9378086
0.8263261 0.8528372 0.9072379
0.7286310 0.6580187 0.7349218
0.9445100 0.8427490 0.8966167
0.1802229 0.8519940 0.7546057
0.2544899 0.8467504 0.7621710
0.3272374 0.8368269 0.7683481
0.4262341 0.8184246 0.7714967
0.5264161 0.7981435 0.7710733
0.6077929 0.7702584 0.7613935
0.7174595 0.7955107 0.7955037
0.7500874 0.7918693 0.7896923
0.9386011 0.9221036 0.9127046
0.1716714 0.9263737 0.7608088
0.2527144 0.9209559 0.7683476
0.3328926 0.9130008 0.7762890
0.4429735 0.8981979 0.7847288
0.5552083 0.8776317 0.7903691
0.6629295 0.8344594 0.7822086
0.7570671 0.8369247 0.8109844
0.8095200 0.8648756 0.8342287
0.9182990 0.9253924 0.8781836
0.2179421 0.2586923 0.8821500
0.1676037 0.0981473 0.8873642
0.2369306 0.0628662 0.8697514
0.3666722 0.0463999 0.8284130
0.4908875 0.0349537 0.7911858
0.5993195 0.0281910 0.7792641
0.7100584 0.0248553 0.7821643
0.7817394 0.0226291 0.7817814
0.7905449 0.0221588 0.7221086
0.1805047 0.3270304 0.9034334
0.2105403 0.2555987 0.9014775
0.2291620 0.1695794 0.8852686
0.3583325 0.1514922 0.8397336
0.4819022 0.1342153 0.7952772
0.5881527 0.1212143 0.7784891
0.6979463 0.1113274 0.7797496
0.7777794 0.1037278 0.7872256
0.7899440 0.0974844 0.7290395
0.2011355 0.4418242 0.9026480
0.2221620 0.3818197 0.9115737
0.2772597 0.3362649 0.8968039
0.3570858 0.2632408 0.8540701
0.4787034 0.2421370 0.8002918
0.5827394 0.2269058 0.7790756
0.6896546 0.2156844 0.7790217
0.7666856 0.2082522 0.7853289
0.7883631 0.2036336 0.7384599
0.2167515 0.5782810 0.8847167
0.2422172 0.5553996 0.9068324
0.3022012 0.5221716 0.9017514
0.4026485 0.4689598 0.8725465
0.4855424 0.4046560 0.8244158
0.5861665 0.3859099 0.7911647
0.6822529 0.3670468 0.7810196
0.7510052 0.3585424 0.7818727
0.7848766 0.3567334 0.7510802
0.2265130 0.6863218 0.8712168
0.2577929 0.6650615 0.8776007
0.3259828 0.6244939 0.8655688
0.4036587 0.5823058 0.8458436
0.5366194 0.5847283 0.8489554
0.6011552 0.5375132 0.8149520
0.6820393 0.5113943 0.7882863
0.7409008 0.5025294 0.7806006
0.7836559 0.5028144 0.7643184
0.1327970 0.6990043 0.8448087
0.2595303 0.6922343 0.8376043
0.3248181 0.6254759 0.8378108
0.3958292 0.6323346 0.8269315
0.5003284 0.6543976 0.8361778
0.6524940 0.6940011 0.8614798
0.7035809 0.6359230 0.8155448
0.7415397 0.6137890 0.7859353
0.7887347 0.6178697 0.7793443
0.2174629 0.7489146 0.8392488
0.3227056 0.7646276 0.8463121
0.3665286 0.7504602 0.8436830
0.4168193 0.7262093 0.8213279
0.5110223 0.7415438 0.8446752
0.6264982 0.7658925 0.8632976
0.8135260 0.8578809 0.9360583
0.8115411 0.7861077 0.8839733
0.8074669 0.7300429 0.8076300
0.2303982 0.8574277 0.8284121
0.3236018 0.8608949 0.8561685
0.4157045 0.8618067 0.8902888
0.5306082 0.8632219 0.9293046
0.5714213 0.8506425 0.8887181
0.6663972 0.8476535 0.9026456
0.7358706 0.8409250 0.8706849
0.8627188 0.9008507 0.9433869
0.8405162 0.8219467 0.8586027
0.1814520 0.9238797 0.8095425
0.2651230 0.9185259 0.8192343
0.3484912 0.9112787 0.8319749
0.4580121 0.8989458 0.8464466
0.5644066 0.8884059 0.8584433
0.6603730 0.8791655 0.8581073
0.7633696 0.8790344 0.8783899
0.8316095 0.8992972 0.9137521
0.9305867 0.9557175 0.9551867
