presets/series/late-summer/series-late-summer-contrast/look.cube
# series-late-summer-contrast tuned
LUT_3D_SIZE 5
DOMAIN_MIN 0 0 0
DOMAIN_MAX 1 1 1
0.1856246 0.1906770 0.1762371
0.2165825 0.1103130 0.0251103
0.6262205 0.0980496 0.0186205
0.8408001 0.0356399 0.0018808
0.9686485 0.0317383 0.0458060
0.0966821 0.1446316 0.0729299
0.1210442 0.1243642 0.0972544
0.3698094 0.2108872 0.1330014
0.6279737 0.2223818 0.0864610
0.9160959 0.1966791 0.0604357
0.1373176 0.4792739 0.1195676
0.2421530 0.3280806 0.1621838
0.3579521 0.3315253 0.1524643
0.6798652 0.4120004 0.1640519
0.8281933 0.4216628 0.1572119
0.2365195 0.8180815 0.1785585
0.3351439 0.7711851 0.0979419
0.3634999 0.4917227 0.0113240
0.5738155 0.5319251 0.0267929
0.8885542 0.6338225 0.0396212
0.2764344 0.9531706 0.2017473
0.3922682 0.9434759 0.1212219
0.5770900 0.8996142 0.0000000
0.7745773 0.8740004 0.0062010
0.9424880 0.8809120 0.2701457
0.0874261 0.1147737 0.3036429
0.0533166 0.0405217 0.0453784
0.4386679 0.0964806 0.1696377
0.8017718 0.1363682 0.2131550
0.8778078 0.3696040 0.3778045
0.0548652 0.2177121 0.1616497
0.1552923 0.1598131 0.1668545
0.3268308 0.1776247 0.1757719
0.6975683 0.2354840 0.2063128
0.8867235 0.3090476 0.2304110
0.0939086 0.4176869 0.1873741
0.2304011 0.3578838 0.2217468
0.3440556 0.3210784 0.2074479
0.5595942 0.3725458 0.2413552
0.8077941 0.4968716 0.3320649
0.1736630 0.8129366 0.3095126
0.3554417 0.7983476 0.3431068
0.4381836 0.6372433 0.1857576
0.6055630 0.6043914 0.1736485
0.8030702 0.6813815 0.4330853
0.2072714 0.9527231 0.3290152
0.4034653 0.9504503 0.3753709
0.5790656 0.9177824 0.2654926
0.7411179 0.8807210 0.1212680
0.9300579 0.9129058 0.5246254
0.2228199 0.1787137 0.5043580
0.1592501 0.0663253 0.3349624
0.3279427 0.0088459 0.3140001
0.6859771 0.0348826 0.4404126
0.8624185 0.0440198 0.4536940
0.0595836 0.2476674 0.4310504
0.2075623 0.2307733 0.4048175
0.2848642 0.1327450 0.2684814
0.7151615 0.2193850 0.4704395
0.8733448 0.2329292 0.4754498
0.1533874 0.4734911 0.4246448
0.1795623 0.3758876 0.4021287
0.3642285 0.3697069 0.3900941
0.6644540 0.4642628 0.4935196
0.8925166 0.5939745 0.5952456
0.1425189 0.7899502 0.5218948
0.3050703 0.7549201 0.5207077
0.4980999 0.6355408 0.5086297
0.6478172 0.6585912 0.5150835
0.8162494 0.7276791 0.5861512
0.1801416 0.9375621 0.5494560
0.3548652 0.9337067 0.5699619
0.5941193 0.9230617 0.6001384
0.7302861 0.8740883 0.5182020
0.9205439 0.9032570 0.7859342
0.2690835 0.2750375 0.7357226
0.2446740 0.0705094 0.7221247
0.4647493 0.0358070 0.6299176
0.6603968 0.0285813 0.6201187
0.7889416 0.0225467 0.6013725
0.1808824 0.3272036 0.7203824
0.2531127 0.2968983 0.7289738
0.4335436 0.2097825 0.6186363
0.6674019 0.2128739 0.6443287
0.8185076 0.1930802 0.6356318
0.0820152 0.4496545 0.5876948
0.2806417 0.4361737 0.5767141
0.5086206 0.5494134 0.7092600
0.7019650 0.5018369 0.7061131
0.8295603 0.5100312 0.6891269
0.2058032 0.8060884 0.7074901
0.2823953 0.7590228 0.6914904
0.4880164 0.6656981 0.6574378
0.6962584 0.7335041 0.7408555
0.8486685 0.7830047 0.7727688
0.1684583 0.9293511 0.7046393
0.3270426 0.9171415 0.7172770
0.5660154 0.8736939 0.7311266
0.7506333 0.8450268 0.7642011
0.9148384 0.9143067 0.8430253
0.2179421 0.2586923 0.8821500
0.2369306 0.0628662 0.8697514
0.4908875 0.0349537 0.7911858
0.7100584 0.0248553 0.7821643
0.7905449 0.0221588 0.7221086
0.2011355 0.4418242 0.9026480
0.2772597 0.3362649 0.8968039
0.4787034 0.2421370 0.8002918
0.6896546 0.2156844 0.7790217
0.7883631 0.2036336 0.7384599
0.2265130 0.6863218 0.8712168
0.3259828 0.6244939 0.8655688
0.5366194 0.5847283 0.8489554
0.6820393 0.5113943 0.7882863
0.7836559 0.5028144 0.7643184
0.2174629 0.7489146 0.8392488
0.3665286 0.7504602 0.8436830
0.5110223 0.7415438 0.8446752
0.8135260 0.8578809 0.9360583
0.8074669 0.7300429 0.8076300
0.1814520 0.9238797 0.8095425
0.3484912 0.9112787 0.8319749
0.5644066 0.8884059 0.8584433
0.7633696 0.8790344 0.8783899
0.9305867 0.9557175 0.9551867
