presets/experimental/experimental-lamp/look.cube
# experimental-lamp tuned
LUT_3D_SIZE 5
DOMAIN_MIN 0 0 0
DOMAIN_MAX 1 1 1
0.1018478 0.0993156 0.0988760
0.2350064 0.1593676 0.1375979
0.5251306 0.2560602 0.2246487
0.5716357 0.2690118 0.2626107
0.6435170 0.3750156 0.3402035
0.1250670 0.2030080 0.1208752
0.2430301 0.2358221 0.1899557
0.3823931 0.2789377 0.2019339
0.5222231 0.3776937 0.2561007
0.6685712 0.4259626 0.2975887
0.0375117 0.4527096 0.0250209
0.2441449 0.3624208 0.0888648
0.3695129 0.3485387 0.2294731
0.4824953 0.4197334 0.2868492
0.7505201 0.4847586 0.1973151
0.0172281 0.7505945 0.0035657
0.2861655 0.7302751 0.0060509
0.4970821 0.6511270 0.0223621
0.6797351 0.6282039 0.1028879
0.7098572 0.5977544 0.2451348
0.0128311 0.9936340 0.0018920
0.2951799 0.9927457 0.0016888
0.5663252 0.9804577 0.0000000
0.8296114 0.9625798 0.0117054
0.9179980 0.9281193 0.0580675
0.1494772 0.1356442 0.2046605
0.1356716 0.1236761 0.1230597
0.3747695 0.1416043 0.2077132
0.6871333 0.1981168 0.2981852
0.8232600 0.3579067 0.4069922
0.2074246 0.2380621 0.2140609
0.2449080 0.2276255 0.2219418
0.2648945 0.2213309 0.1940737
0.5203959 0.3181047 0.2884650
0.7249863 0.3557546 0.2989732
0.0935016 0.3800230 0.1854205
0.2775979 0.3128176 0.2402694
0.3472764 0.3245450 0.2849831
0.4273946 0.3589760 0.3031590
0.6168584 0.4359031 0.3462049
0.0235693 0.7449804 0.2079558
0.3492132 0.7196156 0.2727554
0.4344802 0.5502960 0.2130292
0.5258574 0.4893519 0.2551790
0.6299006 0.5214664 0.4327415
0.0145432 0.9925149 0.2049378
0.3703103 0.9919757 0.2816039
0.6000463 0.9666484 0.2609601
0.8075328 0.9237920 0.2512315
0.7025439 0.6448730 0.4460732
0.2337994 0.2410159 0.2943967
0.2544334 0.1404610 0.2965355
0.3338220 0.0868023 0.2606658
0.7842379 0.0255523 0.3764666
0.9684071 0.0131877 0.3961649
0.1471630 0.2161407 0.1991431
0.2028371 0.2259663 0.2088122
0.2653031 0.2010045 0.2151810
0.7028598 0.3074535 0.3992736
0.8843560 0.3432223 0.4500646
0.3722272 0.3967581 0.3674157
0.3228749 0.3345489 0.3066602
0.4143551 0.3899735 0.3590368
0.4897342 0.4224782 0.3960485
0.6448466 0.4823085 0.4492780
0.0513996 0.7189966 0.4065537
0.3617828 0.6604776 0.4273962
0.4517702 0.4835819 0.3740908
0.5494322 0.5170478 0.4223810
0.6114022 0.5330694 0.4546686
0.0186912 0.9898383 0.4191515
0.3946231 0.9856226 0.4903531
0.6350252 0.9427125 0.5013360
0.7798365 0.8739554 0.4685636
0.7236603 0.6679223 0.5377609
0.3899400 0.3685611 0.2784827
0.3208816 0.0694405 0.5653159
0.4639465 0.0378853 0.5010350
0.8102249 0.0137210 0.5803865
0.9331715 0.0192208 0.5829701
0.2911064 0.3243783 0.3995382
0.3471868 0.3044839 0.5262042
0.4761944 0.2614919 0.5074466
0.7974811 0.3039755 0.5990097
0.9584965 0.3156928 0.6316125
0.4319622 0.4735970 0.4723839
0.3170866 0.3177124 0.3125340
0.5028589 0.4638011 0.4857541
0.6775466 0.4839474 0.5464827
0.8902048 0.5443964 0.6322896
0.1647417 0.7052212 0.5837683
0.3865348 0.6539953 0.5551455
0.4808963 0.4909739 0.4495759
0.5763063 0.5445375 0.4983890
0.6934579 0.6038851 0.5555948
0.0337832 0.9769119 0.6235483
0.3976196 0.9687681 0.6603698
0.6036314 0.8275628 0.6082762
0.6588160 0.6982549 0.5382308
0.7422321 0.6863875 0.5798638
0.1502142 0.1096078 0.7971719
0.3428219 0.0421237 0.8387208
0.5771335 0.0176327 0.8162722
0.8488825 0.0126534 0.8178938
0.9840026 0.0049093 0.8243366
0.2364854 0.3507682 0.7156922
0.4051945 0.3517813 0.8288785
0.6110737 0.3353310 0.8166979
0.8408336 0.3223927 0.8126482
0.9766243 0.3237311 0.8343669
0.3606795 0.4628651 0.5366714
0.4107900 0.4736193 0.6852930
0.6198976 0.5463538 0.7556809
0.8083881 0.5530830 0.7843164
0.9563269 0.5821132 0.8343621
0.3736420 0.4517710 0.4626918
0.4378965 0.4574957 0.4444675
0.5099153 0.5105598 0.5029441
0.7006471 0.6338851 0.6537747
0.8600346 0.7170844 0.7709779
0.1370234 0.9060258 0.7715957
0.4528494 0.8696928 0.7547443
0.6183810 0.7756021 0.6911353
0.6729169 0.6949630 0.6372582
0.8305521 0.7681964 0.6781966
