presets/experimental/experimental-lamp/look.cube
# experimental-lamp tuned
LUT_3D_SIZE 33
DOMAIN_MIN 0 0 0
DOMAIN_MAX 1 1 1
0.1018478 0.0993156 0.0988760
0.2156264 0.1873329 0.1677979
0.1201025 0.1175554 0.1088363
0.1249307 0.1266847 0.1330082
0.1268354 0.1118682 0.0935250
0.1104649 0.1017733 0.0988260
0.1532206 0.1293733 0.1191950
0.2128860 0.1406125 0.1222768
0.2350064 0.1593676 0.1375979
0.3166144 0.2021341 0.1772847
0.3633775 0.2275378 0.1986532
0.3947872 0.2452823 0.2144417
0.4117615 0.2447891 0.2191476
0.4486181 0.2518794 0.2268065
0.4335274 0.2537015 0.2254833
0.4885622 0.2566396 0.2305466
0.5251306 0.2560602 0.2246487
0.5083019 0.2525645 0.2215766
0.5177807 0.2607808 0.2277519
0.5224872 0.2637190 0.2254975
0.5207726 0.2617585 0.2414510
0.5467227 0.2555454 0.2400724
0.5615802 0.2593331 0.2461917
0.5600112 0.2677994 0.2592335
0.5716357 0.2690118 0.2626107
0.5886819 0.2743600 0.2633189
0.6113392 0.2738140 0.2601167
0.6352425 0.2849259 0.2571219
0.6207655 0.3144245 0.2725367
0.5953089 0.3394444 0.2937307
0.5893982 0.3541006 0.3102743
0.5974476 0.3745819 0.3349285
0.6435170 0.3750156 0.3402035
0.0975927 0.1005068 0.1082684
0.1006214 0.1037689 0.1077250
0.1850573 0.1637695 0.1325110
0.1883158 0.1643247 0.1555101
0.1076577 0.1187551 0.1374717
0.1584082 0.1509153 0.1427461
0.0789714 0.1023981 0.1093701
0.0653071 0.0995261 0.1059008
0.1178322 0.1332625 0.1230614
0.1883382 0.1794297 0.1519599
0.2542733 0.2141471 0.1700618
0.2918388 0.2288040 0.1742399
0.2999772 0.2250698 0.1711561
0.2902564 0.2206908 0.1698366
0.2611878 0.2162506 0.1639166
0.2558184 0.2106843 0.1599058
0.2633622 0.2109119 0.1616114
0.2940239 0.2201672 0.1729073
0.3548767 0.2396657 0.1929531
0.3815478 0.2479305 0.1994511
0.4139228 0.2526272 0.2138918
0.4607481 0.2582307 0.2232068
0.5046921 0.2674975 0.2318296
0.5313024 0.2730889 0.2378237
0.5633612 0.2782723 0.2416410
0.5943912 0.2841338 0.2454299
0.6228950 0.2849840 0.2436972
0.6501371 0.2913146 0.2439126
0.6578445 0.3054923 0.2518891
0.6480651 0.3218446 0.2629463
0.6503929 0.3317471 0.2706461
0.6614139 0.3412694 0.2804480
0.6808055 0.3398808 0.2812086
0.0697469 0.0816196 0.0751370
0.0966306 0.0954421 0.0940815
0.1177017 0.1152691 0.1110472
0.2253425 0.1890099 0.1459496
0.2759328 0.2172952 0.1471736
0.1717486 0.1505408 0.1472798
0.1856210 0.1414542 0.1225658
0.1551890 0.1198848 0.1102020
0.1699022 0.1420963 0.1365824
0.1895587 0.1646862 0.1493623
0.2424756 0.2005962 0.1625708
0.3231274 0.2535394 0.1895493
0.3521834 0.2644731 0.1933494
0.3298275 0.2505354 0.1892587
0.2948042 0.2365279 0.1830249
0.2608096 0.2196369 0.1727896
0.2535242 0.2192484 0.1719219
0.2735222 0.2284761 0.1791485
0.3089427 0.2403945 0.1904642
0.3294057 0.2487541 0.1969176
0.3646593 0.2611516 0.2137828
0.4195444 0.2725011 0.2241418
0.4746436 0.2816752 0.2282049
0.5131040 0.2861587 0.2301606
0.5551619 0.2910591 0.2324891
0.5938531 0.2984307 0.2377591
0.6231781 0.2990484 0.2360733
0.6519378 0.3024201 0.2355334
0.6602416 0.3146338 0.2441455
0.6585064 0.3274147 0.2519860
0.6687644 0.3352531 0.2562589
0.6814467 0.3421976 0.2625751
0.6965227 0.3400479 0.2623519
0.0908453 0.1077364 0.0905671
0.1663714 0.1554644 0.1207790
0.1200069 0.1205509 0.1007765
0.1128468 0.1131654 0.1075198
0.2773781 0.2212513 0.1315567
0.3129463 0.2533050 0.1615291
0.2282988 0.1972486 0.1861284
0.2246735 0.1855078 0.1584174
0.2248371 0.1611527 0.1285345
0.2534018 0.1870937 0.1608627
0.2466980 0.1882458 0.1632719
0.2777590 0.2116052 0.1691651
0.3328689 0.2497905 0.1903574
0.3652251 0.2748109 0.2118497
0.3495644 0.2690774 0.2097593
0.3239796 0.2571915 0.2052040
0.3130119 0.2580578 0.2039604
0.3223665 0.2617018 0.2064166
0.3344800 0.2620091 0.2063859
0.3508749 0.2679988 0.2095935
0.3812659 0.2842197 0.2282969
0.4275260 0.2984381 0.2388882
0.4790102 0.3090471 0.2413347
0.5230152 0.3126429 0.2395206
0.5578415 0.3133757 0.2372109
0.5923891 0.3156771 0.2386871
0.6170392 0.3134743 0.2353300
0.6393306 0.3222575 0.2407697
0.6454206 0.3346662 0.2497206
0.6451936 0.3443380 0.2560918
0.6622592 0.3494101 0.2573285
0.6778150 0.3546506 0.2603127
0.6939741 0.3527930 0.2602298
0.0967341 0.1427296 0.1059521
0.1518713 0.1602946 0.1365236
0.1760826 0.1697269 0.1256062
0.1662324 0.1646557 0.1350276
0.1064213 0.1130533 0.1141119
0.3067235 0.2501950 0.1459296
0.3374855 0.2809007 0.1935417
0.3111457 0.2690572 0.2151140
0.2858645 0.2324875 0.1777363
0.2681889 0.1996999 0.1546737
0.3381165 0.2367001 0.1823937
0.3498802 0.2446237 0.1945558
0.3100176 0.2217097 0.1780484
0.3192349 0.2357288 0.1901109
0.3386209 0.2550689 0.2060912
0.3648640 0.2806553 0.2249746
0.3822982 0.3023238 0.2370580
0.3890247 0.3108746 0.2467465
0.3842979 0.2978006 0.2328511
0.3906491 0.2943193 0.2257667
0.4168098 0.3059949 0.2359133
0.4596880 0.3197874 0.2438631
0.5086171 0.3332383 0.2489169
0.5481831 0.3398430 0.2509786
0.5756706 0.3433029 0.2520697
0.5962781 0.3417544 0.2520149
0.6061898 0.3360287 0.2475681
0.6184199 0.3406755 0.2511154
0.6231052 0.3546991 0.2633945
0.6268442 0.3629033 0.2663584
0.6459396 0.3664106 0.2636685
0.6650478 0.3715196 0.2674367
0.6845356 0.3722029 0.2691904
0.0977288 0.1407894 0.1056202
0.1961363 0.2105362 0.1866766
0.2049216 0.2081522 0.1774387
0.2202797 0.2163615 0.1634916
0.2086531 0.2046011 0.1579037
0.1447343 0.1446063 0.1184611
0.3005535 0.2673209 0.1877532
0.3642387 0.3141166 0.2281223
0.3682699 0.3075432 0.2174318
0.3413968 0.2838750 0.2137366
0.2722839 0.2175085 0.1720138
0.3252433 0.2375995 0.1746814
0.3785345 0.2654425 0.1990209
0.3848976 0.2711324 0.2159765
0.3447363 0.2467652 0.2011374
0.3626214 0.2617401 0.2157900
0.3961171 0.2900725 0.2322282
0.4186282 0.3122486 0.2507844
0.4285973 0.3245330 0.2546565
0.4335258 0.3277002 0.2509629
0.4545053 0.3402080 0.2594637
0.4870125 0.3487157 0.2604813
0.5319846 0.3592183 0.2608315
0.5677979 0.3673412 0.2626617
0.5885123 0.3695536 0.2642074
0.6008775 0.3671958 0.2634410
0.6014585 0.3607704 0.2608552
0.5982689 0.3603270 0.2657340
0.5998567 0.3742124 0.2790911
0.6076421 0.3807000 0.2788707
0.6289150 0.3819794 0.2754154
0.6524234 0.3868000 0.2778918
0.6731863 0.3849341 0.2749530
0.1203283 0.1530964 0.1199563
0.2181617 0.2329445 0.2027613
0.2404649 0.2397797 0.2169867
0.2672810 0.2605521 0.2244890
0.2617587 0.2581373 0.1915491
0.2498461 0.2425617 0.1794495
0.1966675 0.1908673 0.1589457
0.2991157 0.2791191 0.2252704
0.3747367 0.3319707 0.2464621
0.3931367 0.3321105 0.2387666
0.3863411 0.3227325 0.2386076
0.3073274 0.2553140 0.1996516
0.2730819 0.2090188 0.1565968
0.3489399 0.2554235 0.1934909
0.4013295 0.2855822 0.2208003
0.3869369 0.2715668 0.2191640
0.3854846 0.2701957 0.2179604
0.4251838 0.3020468 0.2478636
0.4421502 0.3177180 0.2551262
0.4454745 0.3267784 0.2556820
0.4669586 0.3540720 0.2730727
0.4846833 0.3675219 0.2804522
0.5316195 0.3856982 0.2826768
0.5633237 0.3916525 0.2781657
0.5807073 0.3876043 0.2701414
0.5936666 0.3857836 0.2690775
0.6038422 0.3838109 0.2712314
0.6008963 0.3852167 0.2803874
0.5974425 0.3938053 0.2913307
0.6014316 0.3954819 0.2884543
0.6164554 0.3969167 0.2866630
0.6410440 0.3986196 0.2858111
0.6647369 0.3947760 0.2794915
0.1322257 0.1784638 0.1278899
0.2116924 0.2394723 0.1903958
0.2439776 0.2509856 0.2132254
0.2751346 0.2620818 0.2349816
0.2884622 0.2801260 0.2325422
0.2852508 0.2840398 0.2081463
0.2663260 0.2620892 0.1964719
0.2246121 0.2200889 0.1827739
0.2856954 0.2737106 0.2180305
0.3885987 0.3483995 0.2565883
0.4160455 0.3565122 0.2567511
0.4239876 0.3599091 0.2745534
0.3830358 0.3178711 0.2442140
0.2907657 0.2267492 0.1680640
0.3101905 0.2299601 0.1617740
0.4008016 0.2869907 0.2207268
0.4285640 0.3009729 0.2352293
0.3907409 0.2811086 0.2228923
0.4380919 0.3133977 0.2487773
0.4485272 0.3182025 0.2507091
0.4520671 0.3279699 0.2569986
0.4603808 0.3449854 0.2716127
0.4943444 0.3700771 0.2754593
0.5319216 0.3942954 0.2794211
0.5575789 0.4038233 0.2761336
0.5804309 0.4124433 0.2833849
0.5953786 0.4139126 0.2883013
0.5973896 0.4095532 0.2934206
0.5955724 0.4102370 0.2988851
0.5966680 0.4090574 0.2966284
0.6076806 0.4120097 0.2989613
0.6353410 0.4113825 0.2964886
0.6596938 0.4093541 0.2899582
0.1250670 0.2030080 0.1208752
0.1856414 0.2414724 0.1610227
0.2201175 0.2536540 0.1820347
0.2522108 0.2568759 0.2049709
0.2857794 0.2716433 0.2293020
0.2947933 0.2838223 0.2265878
0.2943001 0.2903884 0.2170047
0.2814979 0.2746484 0.2133004
0.2430301 0.2358221 0.1899557
0.2757707 0.2594255 0.1945101
0.3958155 0.3565661 0.2530466
0.4287484 0.3706802 0.2636551
0.4376954 0.3711916 0.2722413
0.4256801 0.3568034 0.2683337
0.3235883 0.2593525 0.1908501
0.2948303 0.2222137 0.1572903
0.3823931 0.2789377 0.2019339
0.4293553 0.3010243 0.2218219
0.4339303 0.3054431 0.2228519
0.4277168 0.3056843 0.2342252
0.4482810 0.3098172 0.2377007
0.4630846 0.3276175 0.2562467
0.4654153 0.3369488 0.2530601
0.4957772 0.3600819 0.2567616
0.5222231 0.3776937 0.2561007
0.5544547 0.4072056 0.2744842
0.5780524 0.4302259 0.2958568
0.5933082 0.4339095 0.3033866
0.5946554 0.4297254 0.3061224
0.5903621 0.4279449 0.3090019
0.6092039 0.4269810 0.3078619
0.6390509 0.4256959 0.3049397
0.6685712 0.4259626 0.2975887
0.1047720 0.2218494 0.0998593
0.1546711 0.2451107 0.1265096
0.1899418 0.2563190 0.1460620
0.2181077 0.2556171 0.1672183
0.2566986 0.2606055 0.1984732
0.2979643 0.2839272 0.2284873
0.2961989 0.2921766 0.2198615
0.3041225 0.3008947 0.2245134
0.3003292 0.2926533 0.2267214
0.2608359 0.2504832 0.1906894
0.2641779 0.2480699 0.1680428
0.3806161 0.3426814 0.2371925
0.4535517 0.3904847 0.2746043
0.4638477 0.3930811 0.2775713
0.4562903 0.3863243 0.2838184
0.3591719 0.2920655 0.2104458
0.2993988 0.2302963 0.1627621
0.3516096 0.2632683 0.1875406
0.4316128 0.3024687 0.2074218
0.4553851 0.3137143 0.2180885
0.4589246 0.3190286 0.2359973
0.4690693 0.3162250 0.2333472
0.4682002 0.3197732 0.2400945
0.4857682 0.3355670 0.2436777
0.4996743 0.3427785 0.2352898
0.5336961 0.3679617 0.2435271
0.5634619 0.3950255 0.2603297
0.5925065 0.4217641 0.2825322
0.5965554 0.4392950 0.3053454
0.5883120 0.4526597 0.3269985
0.6073037 0.4562133 0.3304319
0.6414582 0.4521023 0.3231742
0.6762061 0.4449702 0.3034077
0.0837972 0.2432304 0.0781700
0.1282502 0.2579366 0.0975995
0.1604603 0.2636529 0.1122475
0.1849551 0.2581446 0.1271076
0.2189377 0.2556729 0.1548523
0.2668997 0.2689177 0.1959911
0.2974288 0.2860616 0.2188392
0.3040405 0.2997367 0.2210826
0.3153690 0.3100690 0.2284345
0.3130036 0.3032709 0.2271089
0.2772769 0.2646989 0.1908725
0.2576882 0.2409890 0.1621330
0.3497051 0.3147677 0.2195402
0.4544961 0.3991120 0.2867178
0.4814389 0.4155951 0.2962186
0.4951858 0.4194982 0.2981123
0.4245776 0.3508248 0.2544688
0.3535488 0.2776356 0.1985902
0.3620314 0.2722247 0.1840058
0.4267558 0.3087580 0.2018554
0.4582164 0.3282821 0.2299930
0.4886186 0.3335048 0.2216308
0.5234565 0.3566080 0.2495894
0.5293809 0.3691713 0.2755005
0.5243622 0.3590193 0.2610622
0.5431742 0.3703807 0.2617977
0.5717106 0.3872559 0.2634216
0.6036097 0.4056042 0.2689740
0.6138807 0.4254613 0.2853193
0.6134407 0.4516555 0.3130490
0.6243954 0.4795321 0.3425275
0.6515142 0.4877877 0.3472174
0.6831648 0.4751466 0.3201618
0.0671285 0.2664014 0.0603769
0.1087338 0.2790190 0.0762634
0.1386759 0.2808826 0.0869985
0.1628534 0.2736109 0.0986911
0.1899519 0.2640691 0.1183289
0.2317462 0.2662166 0.1553625
0.2756253 0.2743091 0.1962187
0.3057577 0.2931625 0.2217274
0.3174434 0.3123331 0.2284806
0.3264852 0.3180940 0.2338988
0.3267395 0.3136608 0.2365545
0.2968125 0.2828075 0.2122027
0.2645172 0.2477584 0.1726281
0.3330693 0.3043469 0.2140223
0.4560979 0.4083439 0.2942335
0.5103092 0.4466474 0.3146953
0.5178393 0.4489387 0.3288066
0.4792266 0.4042477 0.3059817
0.3901148 0.3108224 0.2242291
0.3793245 0.2895254 0.1962902
0.4079925 0.3035945 0.1993669
0.4436783 0.3166028 0.2021477
0.4884004 0.3344926 0.2066941
0.5299905 0.3684919 0.2446681
0.5518121 0.3819239 0.2690039
0.5756219 0.4056707 0.3030902
0.6016043 0.4214352 0.3125906
0.6279067 0.4273234 0.3027627
0.6413455 0.4330316 0.2949262
0.6364464 0.4474789 0.3031910
0.6452144 0.4625385 0.3089896
0.6583027 0.4827882 0.3253456
0.6851980 0.4914642 0.3233225
0.0554817 0.2926361 0.0468994
0.0942003 0.3058570 0.0595021
0.1238546 0.3068430 0.0683080
0.1483729 0.2985454 0.0777947
0.1739057 0.2866761 0.0937529
0.2039010 0.2765119 0.1191163
0.2407657 0.2720528 0.1552909
0.2869239 0.2838804 0.2027105
0.3177135 0.3061181 0.2318266
0.3253881 0.3166011 0.2353051
0.3411630 0.3271683 0.2502466
0.3407961 0.3226576 0.2515647
0.3109820 0.2938652 0.2221081
0.2856328 0.2668619 0.1905729
0.3277379 0.3010387 0.2141633
0.4468549 0.4045957 0.2943079
0.4969327 0.4410543 0.3223872
0.4656481 0.3996478 0.2961975
0.4134190 0.3398595 0.2493592
0.3990308 0.3157750 0.2172769
0.4241691 0.3307851 0.2227496
0.4597585 0.3488899 0.2248349
0.4966756 0.3619150 0.2176861
0.5116734 0.3603479 0.2187850
0.5547666 0.3887774 0.2462764
0.5880954 0.4159114 0.2872604
0.6179607 0.4488429 0.3378140
0.6366039 0.4659311 0.3661010
0.6572445 0.4583223 0.3313001
0.6571173 0.4587353 0.3122329
0.6710666 0.4582224 0.2877859
0.6856927 0.4663772 0.2807238
0.6940977 0.4809165 0.2899045
0.0492292 0.3250825 0.0393898
0.0843924 0.3381610 0.0475473
0.1135339 0.3384899 0.0541280
0.1388943 0.3300576 0.0621663
0.1631954 0.3159633 0.0743001
0.1886737 0.3004376 0.0929470
0.2173607 0.2883293 0.1196950
0.2555338 0.2860883 0.1617753
0.3023239 0.3022652 0.2179544
0.3343896 0.3264302 0.2537937
0.3444945 0.3345076 0.2581952
0.3542983 0.3383056 0.2647443
0.3479808 0.3285948 0.2555532
0.3264558 0.3076063 0.2294240
0.3112142 0.2914939 0.2126586
0.3214212 0.2950869 0.2144412
0.3415240 0.3051806 0.2246420
0.3796053 0.3308296 0.2483481
0.4058603 0.3437418 0.2579883
0.4123148 0.3377084 0.2427927
0.4316493 0.3468903 0.2405965
0.4519603 0.3559932 0.2363904
0.4853565 0.3755507 0.2314840
0.5218795 0.3956206 0.2412202
0.5507559 0.3997961 0.2395853
0.5910324 0.4243822 0.2676407
0.6193429 0.4456464 0.2962633
0.6352507 0.4633174 0.3365454
0.6583947 0.4734131 0.3450870
0.6639066 0.4726109 0.3241503
0.6912182 0.4692742 0.2864169
0.7151802 0.4677700 0.2566452
0.7230101 0.4747264 0.2536585
0.0457557 0.3642632 0.0348015
0.0775928 0.3745824 0.0385539
0.1064410 0.3739202 0.0429288
0.1321707 0.3653381 0.0489697
0.1565709 0.3513309 0.0584194
0.1810049 0.3336456 0.0731566
0.2055563 0.3166095 0.0929568
0.2317260 0.3035634 0.1209174
0.2643726 0.3000823 0.1637253
0.3066692 0.3155278 0.2203714
0.3451537 0.3414023 0.2623753
0.3644255 0.3542355 0.2751907
0.3662966 0.3515804 0.2746914
0.3577569 0.3399301 0.2590448
0.3366282 0.3181797 0.2335220
0.3246064 0.3031143 0.2210386
0.3161496 0.2892547 0.2157748
0.3439279 0.3087989 0.2388676
0.3962031 0.3474404 0.2746751
0.4295161 0.3642091 0.2837423
0.4408662 0.3647966 0.2678255
0.4475958 0.3645970 0.2503534
0.4613354 0.3689104 0.2369334
0.4916255 0.3950389 0.2476189
0.5271988 0.4189695 0.2603230
0.5670209 0.4343781 0.2755185
0.6135999 0.4602854 0.3043047
0.6423097 0.4764683 0.3321624
0.6641607 0.4807043 0.3320792
0.6673764 0.4836305 0.3248813
0.6988798 0.4795339 0.2846233
0.7309606 0.4737846 0.2415876
0.7444423 0.4732045 0.2250102
0.0415377 0.4090814 0.0300173
0.0723206 0.4148031 0.0312471
0.1016644 0.4125082 0.0341140
0.1279951 0.4038339 0.0383042
0.1527351 0.3898018 0.0452758
0.1777616 0.3734727 0.0573312
0.2015915 0.3558710 0.0728271
0.2229912 0.3372693 0.0922561
0.2454387 0.3226276 0.1185961
0.2710099 0.3149886 0.1547778
0.3093635 0.3286183 0.2037062
0.3517178 0.3559232 0.2502548
0.3770372 0.3703870 0.2801557
0.3822356 0.3686200 0.2832548
0.3698907 0.3532681 0.2624807
0.3521206 0.3330040 0.2364823
0.3415694 0.3180512 0.2236687
0.3575417 0.3288972 0.2360462
0.3927978 0.3551307 0.2618203
0.4353296 0.3827564 0.2918028
0.4517333 0.3884648 0.3010104
0.4488143 0.3781809 0.2750511
0.4566812 0.3803152 0.2602160
0.4744804 0.3970516 0.2662831
0.4920030 0.4150373 0.2654657
0.5249211 0.4345170 0.2756801
0.5748945 0.4538300 0.2923324
0.6258984 0.4688725 0.3037151
0.6619471 0.4792854 0.3059117
0.6693173 0.4879460 0.3106079
0.7000694 0.4865044 0.2764854
0.7357407 0.4803205 0.2291719
0.7519154 0.4782642 0.2086988
0.0375117 0.4527096 0.0250209
0.0680634 0.4558614 0.0247318
0.0982281 0.4527638 0.0265398
0.1260789 0.4446243 0.0296319
0.1522516 0.4318704 0.0349071
0.1782482 0.4155003 0.0444166
0.2030432 0.4000016 0.0568385
0.2244590 0.3812541 0.0712237
0.2441449 0.3624208 0.0888648
0.2643854 0.3483985 0.1147072
0.2902206 0.3436123 0.1558450
0.3220329 0.3513798 0.2035927
0.3601119 0.3711990 0.2457217
0.3866978 0.3841364 0.2709273
0.3917677 0.3804904 0.2755659
0.3829596 0.3672210 0.2527046
0.3695129 0.3485387 0.2294731
0.3684651 0.3425313 0.2259927
0.3898445 0.3576334 0.2453571
0.4264047 0.3843295 0.2683044
0.4549174 0.4024354 0.2885681
0.4549656 0.3962795 0.2876213
0.4539230 0.3932744 0.2813505
0.4709006 0.4075704 0.2875389
0.4824953 0.4197334 0.2868492
0.4868664 0.4281525 0.2834171
0.5331266 0.4522764 0.2972389
0.5980408 0.4681445 0.2978309
0.6432757 0.4755108 0.2893998
0.6625270 0.4864938 0.2912224
0.6971468 0.4892770 0.2615847
0.7335106 0.4861762 0.2176981
0.7505201 0.4847586 0.1973151
0.0314234 0.4942116 0.0186466
0.0641073 0.4967710 0.0187305
0.0957127 0.4933838 0.0202070
0.1252442 0.4859609 0.0226469
0.1531723 0.4757549 0.0266371
0.1806127 0.4617781 0.0339220
0.2059320 0.4470291 0.0431838
0.2282670 0.4295557 0.0539360
0.2489172 0.4105290 0.0696280
0.2678162 0.3932778 0.0909942
0.2880839 0.3798705 0.1193821
0.3088466 0.3715252 0.1511509
0.3357599 0.3749052 0.1825848
0.3654493 0.3849938 0.2113579
0.3880464 0.3915452 0.2378153
0.3974848 0.3904773 0.2409089
0.3929600 0.3776149 0.2229061
0.3885148 0.3657993 0.2107720
0.3918837 0.3622367 0.2172570
0.4144583 0.3774975 0.2401050
0.4480416 0.4032945 0.2647455
0.4620078 0.4116100 0.2814048
0.4602654 0.4063491 0.2799086
0.4694451 0.4134837 0.2864220
0.4887172 0.4293418 0.3000910
0.4903993 0.4320735 0.2966755
0.4992881 0.4443869 0.3042172
0.5505031 0.4639522 0.3079046
0.6081683 0.4750838 0.2908292
0.6443805 0.4863553 0.2813106
0.6865977 0.4918098 0.2500174
0.7245631 0.4918760 0.2097038
0.7426904 0.4919185 0.1905454
0.0257758 0.5359378 0.0117944
0.0603663 0.5375886 0.0125956
0.0931675 0.5346461 0.0137434
0.1239340 0.5284390 0.0152387
0.1533834 0.5197413 0.0181045
0.1816046 0.5087115 0.0228330
0.2077230 0.4953371 0.0296693
0.2316587 0.4792557 0.0398560
0.2543242 0.4619331 0.0537506
0.2748434 0.4437408 0.0708772
0.2947283 0.4269533 0.0917016
0.3142100 0.4135357 0.1144304
0.3347239 0.4052062 0.1365089
0.3557994 0.4023503 0.1556028
0.3791329 0.4049009 0.1772084
0.3973041 0.4062941 0.1943501
0.4072687 0.4028286 0.1947794
0.4123170 0.3962875 0.1891249
0.4161521 0.3901553 0.1877561
0.4267030 0.3919136 0.2017560
0.4458016 0.4041703 0.2235237
0.4639322 0.4163731 0.2482626
0.4790308 0.4247674 0.2601442
0.4914522 0.4333885 0.2750463
0.4962257 0.4384704 0.2972938
0.4944781 0.4356828 0.3012051
0.5065102 0.4520328 0.3143870
0.5244417 0.4672377 0.3212155
0.5607335 0.4774862 0.3063309
0.6156088 0.4900826 0.2851044
0.6703115 0.4960892 0.2468122
0.7105487 0.4986269 0.2089139
0.7301915 0.5001330 0.1905305
0.0233583 0.5770563 0.0088475
0.0575900 0.5772511 0.0087054
0.0909927 0.5750932 0.0093890
0.1228993 0.5704625 0.0105303
0.1535228 0.5632900 0.0125366
0.1830320 0.5545174 0.0159859
0.2106538 0.5429806 0.0215519
0.2365368 0.5288057 0.0297031
0.2603835 0.5125207 0.0401733
0.2825672 0.4947526 0.0534098
0.3038095 0.4773292 0.0693554
0.3244712 0.4619749 0.0868326
0.3438681 0.4489956 0.1030710
0.3626627 0.4394667 0.1163559
0.3824864 0.4349699 0.1283359
0.4012652 0.4324560 0.1439947
0.4161483 0.4285157 0.1537332
0.4301158 0.4261191 0.1569661
0.4407916 0.4229618 0.1566134
0.4520745 0.4220126 0.1633476
0.4639929 0.4237180 0.1773477
0.4769145 0.4284414 0.1973886
0.4914615 0.4365167 0.2193896
0.5045873 0.4480075 0.2569569
0.5069285 0.4539271 0.2996888
0.5065519 0.4512815 0.3116008
0.5215445 0.4619473 0.3219907
0.5446783 0.4819557 0.3240992
0.5533018 0.4875160 0.3050301
0.5777233 0.4911443 0.2987808
0.6441350 0.5001177 0.2577963
0.6913870 0.5062520 0.2186433
0.7140448 0.5095678 0.1993953
0.0205171 0.6137746 0.0055833
0.0555309 0.6145627 0.0058093
0.0895538 0.6131982 0.0063305
0.1223858 0.6098288 0.0072576
0.1541253 0.6044809 0.0088210
0.1847128 0.5972147 0.0113097
0.2137447 0.5875665 0.0152913
0.2411873 0.5754981 0.0213439
0.2669344 0.5612382 0.0293688
0.2909343 0.5450596 0.0393744
0.3137631 0.5283632 0.0514724
0.3355065 0.5122498 0.0646975
0.3560310 0.4976851 0.0773554
0.3756763 0.4856877 0.0878140
0.3950610 0.4770173 0.0959416
0.4138983 0.4709893 0.1068695
0.4307845 0.4651238 0.1153990
0.4470137 0.4605352 0.1218992
0.4619573 0.4574273 0.1242849
0.4781132 0.4575113 0.1299430
0.4922042 0.4574755 0.1398393
0.5056497 0.4593501 0.1557517
0.5171533 0.4627642 0.1793857
0.5206633 0.4650015 0.2248888
0.5136399 0.4680174 0.3046153
0.5160636 0.4702210 0.3306557
0.5295591 0.4746772 0.3279061
0.5474139 0.4829505 0.3321095
0.5652130 0.4931075 0.3079206
0.5721662 0.4948501 0.2917724
0.6132110 0.5028802 0.2797240
0.6664956 0.5137000 0.2419796
0.6944722 0.5196356 0.2187284
0.0188876 0.6490608 0.0040823
0.0542548 0.6502222 0.0044170
0.0887023 0.6493935 0.0047517
0.1221868 0.6469295 0.0053595
0.1547867 0.6428863 0.0064203
0.1863867 0.6371380 0.0081093
0.2167144 0.6293937 0.0105759
0.2456772 0.6195260 0.0149412
0.2730618 0.6074892 0.0207319
0.2988573 0.5935259 0.0280244
0.3231483 0.5782727 0.0367206
0.3460711 0.5626297 0.0462729
0.3677772 0.5476711 0.0556475
0.3880998 0.5339213 0.0633235
0.4087486 0.5234398 0.0697558
0.4284602 0.5148504 0.0777254
0.4476253 0.5079682 0.0841728
0.4655243 0.5016280 0.0893905
0.4812997 0.4952019 0.0921917
0.5030353 0.4972412 0.0993636
0.5209413 0.4972056 0.1082404
0.5376279 0.4984136 0.1224211
0.5510362 0.4998050 0.1440130
0.5574387 0.4998657 0.1790402
0.5522538 0.4973263 0.2397400
0.5487752 0.4968901 0.2877844
0.5460682 0.4950064 0.3207227
0.5488164 0.4909012 0.3324142
0.5656975 0.5009734 0.3426043
0.5764440 0.5082867 0.3170420
0.5951784 0.5105368 0.3065609
0.6300463 0.5198258 0.2914603
0.6713557 0.5298609 0.2499277
0.0186862 0.6842895 0.0041792
0.0535501 0.6846916 0.0038458
0.0881285 0.6840040 0.0038579
0.1220580 0.6821540 0.0041586
0.1553178 0.6790947 0.0048036
0.1877747 0.6746561 0.0058900
0.2191811 0.6685755 0.0075303
0.2494452 0.6607036 0.0100377
0.2782930 0.6508683 0.0140054
0.3056551 0.6391545 0.0189918
0.3314091 0.6258133 0.0248750
0.3555574 0.6113765 0.0312834
0.3788227 0.5972922 0.0378748
0.4007545 0.5836661 0.0434884
0.4221153 0.5716686 0.0480417
0.4429205 0.5613533 0.0535892
0.4644918 0.5540289 0.0587339
0.4856878 0.5481381 0.0631215
0.5067717 0.5439551 0.0672152
0.5287994 0.5426486 0.0728176
0.5491897 0.5414178 0.0808962
0.5689508 0.5419560 0.0932567
0.5853989 0.5420801 0.1117348
0.5973921 0.5417928 0.1391462
0.6017236 0.5391279 0.1760209
0.5990614 0.5341133 0.2193697
0.5827246 0.5237569 0.2796402
0.5642264 0.5101987 0.3237821
0.5606894 0.5091405 0.3519536
0.5926687 0.5266696 0.3503674
0.6113093 0.5296019 0.3267739
0.6098258 0.5296052 0.3330974
0.6545670 0.5417525 0.2788620
0.0183959 0.7182086 0.0042598
0.0530199 0.7180693 0.0035195
0.0877096 0.7174526 0.0033040
0.1219727 0.7160490 0.0033805
0.1557421 0.7137491 0.0037243
0.1888869 0.7103796 0.0043754
0.2211753 0.7056981 0.0054043
0.2525289 0.6995596 0.0068925
0.2826592 0.6917412 0.0089963
0.3114602 0.6822197 0.0121929
0.3387202 0.6710283 0.0159082
0.3642739 0.6583424 0.0198415
0.3891203 0.6457078 0.0240517
0.4128128 0.6330834 0.0277352
0.4356228 0.6211106 0.0309806
0.4580202 0.6104219 0.0345843
0.4809945 0.6020997 0.0381036
0.5043799 0.5958537 0.0415270
0.5281514 0.5916083 0.0452068
0.5521281 0.5892138 0.0499725
0.5749713 0.5872924 0.0566209
0.5983093 0.5881439 0.0672816
0.6182683 0.5880159 0.0826397
0.6335970 0.5863385 0.1049027
0.6432833 0.5830341 0.1349395
0.6443016 0.5761286 0.1744124
0.6303687 0.5620756 0.2312341
0.5937614 0.5367470 0.3110375
0.5599025 0.5155007 0.3599195
0.5822786 0.5276818 0.3558139
0.6264235 0.5466874 0.3299672
0.6593890 0.5599562 0.2891546
0.6852339 0.5696871 0.2577994
0.0172281 0.7505945 0.0035657
0.0522758 0.7503967 0.0031216
0.0872088 0.7499043 0.0028978
0.1217767 0.7488475 0.0028645
0.1559610 0.7471286 0.0030152
