presets/experimental/experimental-lamp/look.cube
# experimental-lamp tuned
LUT_3D_SIZE 9
DOMAIN_MIN 0 0 0
DOMAIN_MAX 1 1 1
0.1018478 0.0993156 0.0988760
0.1268354 0.1118682 0.0935250
0.2350064 0.1593676 0.1375979
0.4117615 0.2447891 0.2191476
0.5251306 0.2560602 0.2246487
0.5207726 0.2617585 0.2414510
0.5716357 0.2690118 0.2626107
0.6207655 0.3144245 0.2725367
0.6435170 0.3750156 0.3402035
0.0967341 0.1427296 0.1059521
0.1064213 0.1130533 0.1141119
0.2858645 0.2324875 0.1777363
0.3100176 0.2217097 0.1780484
0.3822982 0.3023238 0.2370580
0.4168098 0.3059949 0.2359133
0.5756706 0.3433029 0.2520697
0.6231052 0.3546991 0.2633945
0.6845356 0.3722029 0.2691904
0.1250670 0.2030080 0.1208752
0.2857794 0.2716433 0.2293020
0.2430301 0.2358221 0.1899557
0.4376954 0.3711916 0.2722413
0.3823931 0.2789377 0.2019339
0.4482810 0.3098172 0.2377007
0.5222231 0.3776937 0.2561007
0.5946554 0.4297254 0.3061224
0.6685712 0.4259626 0.2975887
0.0554817 0.2926361 0.0468994
0.1739057 0.2866761 0.0937529
0.3177135 0.3061181 0.2318266
0.3109820 0.2938652 0.2221081
0.4969327 0.4410543 0.3223872
0.4241691 0.3307851 0.2227496
0.5547666 0.3887774 0.2462764
0.6572445 0.4583223 0.3313001
0.6940977 0.4809165 0.2899045
0.0375117 0.4527096 0.0250209
0.1522516 0.4318704 0.0349071
0.2441449 0.3624208 0.0888648
0.3601119 0.3711990 0.2457217
0.3695129 0.3485387 0.2294731
0.4549174 0.4024354 0.2885681
0.4824953 0.4197334 0.2868492
0.6432757 0.4755108 0.2893998
0.7505201 0.4847586 0.1973151
0.0205171 0.6137746 0.0055833
0.1541253 0.6044809 0.0088210
0.2669344 0.5612382 0.0293688
0.3560310 0.4976851 0.0773554
0.4307845 0.4651238 0.1153990
0.4922042 0.4574755 0.1398393
0.5136399 0.4680174 0.3046153
0.5652130 0.4931075 0.3079206
0.6944722 0.5196356 0.2187284
0.0172281 0.7505945 0.0035657
0.1559610 0.7471286 0.0030152
0.2861655 0.7302751 0.0060509
0.3988511 0.6925032 0.0141694
0.4970821 0.6511270 0.0223621
0.5995807 0.6354919 0.0370225
0.6797351 0.6282039 0.1028879
0.5836940 0.5418719 0.3749527
0.7098572 0.5977544 0.2451348
0.0139986 0.8757623 0.0021290
0.1557482 0.8742814 0.0019714
0.2936305 0.8687046 0.0019217
0.4247214 0.8553450 0.0012640
0.5481913 0.8354008 0.0000000
0.6723098 0.8215012 0.0015124
0.7880134 0.8099197 0.0313586
0.8338423 0.7561802 0.1397758
0.8326020 0.7551606 0.1429732
0.0128311 0.9936340 0.0018920
0.1552308 0.9935404 0.0018433
0.2951799 0.9927457 0.0016888
0.4322650 0.9892818 0.0009839
0.5663252 0.9804577 0.0000000
0.6998293 0.9720297 0.0000000
0.8296114 0.9625798 0.0117054
0.9310859 0.9400374 0.0449248
0.9179980 0.9281193 0.0580675
0.1159206 0.1233980 0.1455308
0.2100742 0.1834537 0.1855749
0.1837637 0.1354694 0.1346542
0.2938184 0.1930644 0.1907549
0.3519578 0.2265129 0.2198599
0.4110228 0.2950985 0.2717684
0.5636226 0.3190766 0.3130398
0.6774072 0.3412176 0.3380592
0.6778007 0.3508960 0.3057892
0.1891637 0.2039488 0.1762352
0.1544573 0.1434984 0.1516002
0.2238571 0.1921420 0.1659596
0.1973089 0.1744876 0.1562176
0.2832599 0.2246597 0.2017860
0.3721704 0.2692447 0.2401708
0.4272904 0.2461386 0.2149634
0.5613876 0.2681978 0.2331420
0.6859518 0.3346941 0.2746228
0.1656089 0.1685482 0.1510726
0.2718236 0.2612069 0.2286694
0.2256490 0.2090957 0.1769742
0.1914417 0.1598290 0.1391929
0.2776647 0.2033466 0.1653096
0.3379578 0.2469760 0.2194421
0.4246626 0.2675600 0.2112320
0.5836244 0.3073086 0.2182959
0.6663916 0.3449444 0.2349964
0.0933934 0.2654162 0.1280157
0.2072919 0.2697553 0.1791323
0.3011447 0.2843544 0.2507535
0.2826004 0.2705221 0.2226452
0.2945396 0.2626533 0.2270600
0.3496692 0.2903886 0.2485326
0.4242112 0.3004662 0.2009115
0.5360658 0.3530350 0.2535640
0.6677568 0.4131954 0.2625547
0.0452696 0.4413971 0.1173578
0.1910288 0.4212491 0.1610910
0.2512633 0.3289889 0.1962972
0.3011322 0.2915132 0.2765311
0.3291006 0.3097119 0.2608373
0.3791838 0.3304548 0.2533366
0.4642550 0.3792191 0.2941399
0.5204224 0.3706653 0.2339626
0.6591940 0.4479133 0.2701312
0.0256453 0.6121868 0.1081854
0.1954597 0.5986014 0.1504740
0.2840432 0.5377933 0.1581477
0.3025431 0.3442213 0.2227998
0.3439844 0.3325320 0.2982390
0.3859537 0.3565645 0.2888230
0.4660889 0.4169963 0.2938674
0.5755039 0.4553757 0.2859101
0.6290934 0.4806575 0.2699729
0.0194678 0.7482984 0.1027195
0.1995043 0.7447886 0.1453955
0.3147136 0.7227157 0.1422039
0.3893476 0.6488218 0.1332869
0.3819129 0.4942611 0.1053916
0.4466434 0.4620574 0.1219794
0.5647641 0.5183144 0.1639057
0.6072433 0.5244083 0.2978548
0.6813698 0.5655384 0.2710078
0.0150556 0.8747251 0.0986374
0.2007054 0.8731261 0.1430879
0.3280726 0.8662439 0.1386560
0.4441374 0.8457737 0.1293882
0.5374189 0.8017616 0.1092535
0.6287314 0.7632252 0.0927798
0.7414819 0.7608263 0.1175351
0.8017229 0.7268827 0.2095889
0.7808693 0.7050720 0.2299250
0.0133979 0.9932999 0.0968264
0.2012336 0.9933115 0.1425234
0.3325355 0.9923255 0.1385243
0.4601382 0.9861636 0.1317609
0.5817647 0.9721996 0.1210946
0.7012130 0.9572384 0.1113168
0.8208198 0.9456734 0.1184782
0.9071221 0.9130252 0.1545488
0.8705072 0.8706317 0.1793164
0.1494772 0.1356442 0.2046605
0.1999193 0.1757650 0.1993596
0.1356716 0.1236761 0.1230597
0.2387483 0.1272528 0.1545241
0.3747695 0.1416043 0.2077132
0.4709022 0.1953684 0.2602703
0.6871333 0.1981168 0.2981852
0.8501094 0.2286537 0.3336585
0.8232600 0.3579067 0.4069922
0.2302582 0.2322810 0.2380429
0.2066356 0.2083297 0.2052493
0.2229500 0.2015386 0.1971335
0.2307295 0.1974998 0.1508443
0.3312680 0.2210670 0.2018617
0.4177063 0.3070376 0.2834257
0.6140977 0.2752489 0.2849136
0.7910698 0.2779904 0.3041100
0.7997268 0.3083760 0.3232734
0.2074246 0.2380621 0.2140609
0.3389986 0.3330709 0.3032995
0.2449080 0.2276255 0.2219418
0.2571694 0.2368298 0.2110706
0.2648945 0.2213309 0.1940737
0.3820089 0.2966175 0.2684288
0.5203959 0.3181047 0.2884650
0.6992493 0.3366458 0.2982971
0.7249863 0.3557546 0.2989732
0.1795512 0.2185496 0.1862319
0.2329377 0.2407327 0.2038227
0.2631821 0.2599281 0.2295367
0.2624283 0.2533671 0.2261545
0.3225369 0.2903780 0.2674428
0.3421862 0.2744216 0.2274548
0.4545976 0.3800889 0.3383097
0.5975917 0.3790531 0.3163434
0.6562383 0.3927763 0.3047657
0.0935016 0.3800230 0.1854205
0.2193250 0.3760531 0.2191279
0.2775979 0.3128176 0.2402694
0.2992137 0.2828650 0.2550747
0.3472764 0.3245450 0.2849831
0.4131591 0.3659386 0.2988771
0.4273946 0.3589760 0.3031590
0.4803198 0.3879319 0.3416542
0.6168584 0.4359031 0.3462049
0.0435388 0.5914431 0.2045375
0.2178714 0.5815916 0.2450230
0.3215197 0.5366220 0.2634970
0.3579543 0.4482278 0.2607799
0.3446882 0.3528417 0.2433493
0.4043686 0.3778989 0.2943428
0.4350082 0.3985036 0.3615306
0.5515712 0.4633893 0.3770255
0.6266274 0.4765965 0.3839806
0.0235693 0.7449804 0.2079558
0.2164802 0.7404049 0.2543372
0.3492132 0.7196156 0.2727554
0.4245358 0.6654419 0.2574086
0.4344802 0.5502960 0.2130292
0.4604450 0.4826879 0.2009744
0.5258574 0.4893519 0.2551790
0.5360602 0.4720041 0.3679845
0.6299006 0.5214664 0.4327415
0.0177091 0.8709017 0.2064301
0.2164799 0.8719805 0.2568147
0.3638624 0.8642198 0.2782410
0.4707723 0.8442005 0.2671282
0.5498958 0.7952077 0.2398511
0.6130220 0.7364752 0.2088104
0.7026960 0.7208449 0.2291646
0.7382239 0.6710977 0.3313068
0.6932222 0.5963812 0.4280362
0.0145432 0.9925149 0.2049378
0.2170003 0.9929752 0.2581453
0.3703103 0.9919757 0.2816039
0.4892718 0.9838062 0.2742308
0.6000463 0.9666484 0.2609601
0.7034958 0.9431039 0.2451894
0.8075328 0.9237920 0.2512315
0.8659799 0.8664105 0.3013949
0.7025439 0.6448730 0.4460732
0.2213446 0.2093544 0.2945590
0.2272107 0.1730032 0.2510186
0.1721942 0.1491386 0.1664649
0.2135329 0.1263873 0.1699669
0.3512746 0.0944661 0.2130171
0.5632710 0.0812527 0.2806342
0.7717928 0.0661689 0.3099948
0.9396342 0.0555235 0.3178598
0.9475200 0.0664748 0.3283600
0.1715199 0.2055387 0.1903894
0.2606065 0.2657113 0.2633153
0.2184772 0.2282805 0.2103906
0.1934016 0.1660133 0.1519882
0.3172829 0.1573694 0.1902922
0.5096888 0.2202909 0.2909092
0.7127092 0.2436886 0.3420121
0.9047131 0.2184491 0.3490069
0.9145328 0.2310938 0.3608620
0.2170249 0.2407981 0.2308091
0.2293590 0.2359487 0.2304399
0.2276438 0.2478806 0.2114781
0.1979384 0.2147388 0.1680827
0.2522742 0.2082422 0.1748050
0.4205393 0.2882824 0.2789257
0.6135579 0.3689866 0.3644504
0.8106216 0.3553999 0.3738831
0.8193918 0.3955685 0.4002015
0.2127425 0.2557227 0.2224029
0.2847694 0.2832812 0.2647714
0.3041518 0.3081876 0.2704641
0.2627423 0.2504669 0.2424718
0.3320650 0.3096583 0.2832259
0.3855552 0.3297445 0.2987489
0.4882174 0.3733474 0.3406195
0.6263949 0.3982784 0.3630790
0.6904915 0.4308052 0.3888599
0.2410061 0.2745833 0.2440747
0.2637485 0.3318069 0.2643135
0.3161849 0.3031507 0.2838170
0.3252522 0.3179271 0.3004493
0.3606281 0.3371679 0.2880350
0.3897587 0.3401866 0.3017401
0.4611876 0.3803897 0.3128260
0.5665199 0.4476484 0.3932117
0.6409001 0.4766789 0.4142898
0.0933043 0.5373446 0.2874677
0.2359032 0.5408767 0.3136715
0.3358830 0.4791867 0.3211195
0.3742762 0.4146451 0.3177573
0.4209844 0.4130831 0.3261149
0.4371215 0.4059025 0.3291707
0.5325146 0.4770142 0.3995164
0.5297925 0.4523787 0.3799535
0.6143082 0.4861296 0.4042392
0.0336540 0.7356579 0.3101968
0.2214278 0.7288368 0.3443778
0.3694666 0.7008822 0.3699167
0.4501564 0.6527091 0.3587569
0.4858678 0.5842553 0.3263410
0.4853254 0.5032767 0.2930329
0.5207358 0.4906635 0.3256101
0.5384965 0.4795446 0.3916268
0.6373846 0.5409796 0.4403780
0.0194531 0.8727910 0.3130400
0.2181652 0.8699202 0.3544516
0.3870123 0.8590754 0.3913388
0.4986650 0.8393995 0.3906154
0.5804925 0.8040815 0.3686382
0.6306721 0.7427504 0.3321846
0.6868753 0.7037246 0.3353509
0.6967376 0.6384724 0.4211391
0.6648128 0.5836137 0.4688515
0.0160715 0.9920237 0.3125279
0.2181617 0.9924481 0.3580542
0.3950974 0.9900275 0.4002837
0.5189457 0.9804806 0.4047448
0.6227440 0.9639776 0.3916448
0.7149693 0.9373111 0.3732868
0.7993332 0.9067216 0.3713360
0.8425720 0.8423059 0.4151335
0.7422555 0.7057691 0.4997329
0.2337994 0.2410159 0.2943967
0.2412291 0.1531465 0.3296225
0.2544334 0.1404610 0.2965355
0.2435335 0.1097743 0.2440090
0.3338220 0.0868023 0.2606658
0.5648642 0.0487976 0.3366491
0.7842379 0.0255523 0.3764666
0.9554223 0.0146362 0.3905631
0.9684071 0.0131877 0.3961649
0.2424628 0.2578367 0.2164287
0.2584852 0.2494048 0.3141534
0.2621305 0.2313275 0.2827801
0.2214940 0.1581271 0.2171809
0.3313672 0.1438891 0.2507270
0.5482895 0.1747347 0.3398923
0.7774179 0.1841394 0.4026480
0.9445575 0.1793094 0.4216071
0.9517037 0.1798193 0.4255456
0.1471630 0.2161407 0.1991431
0.2229052 0.2409831 0.2449533
0.2028371 0.2259663 0.2088122
0.2000671 0.2151057 0.1982080
0.2653031 0.2010045 0.2151810
0.4584247 0.2407214 0.2998410
0.7028598 0.3074535 0.3992736
0.8855259 0.3306152 0.4406659
0.8843560 0.3432223 0.4500646
0.2607479 0.2897319 0.2765542
0.2996697 0.3088501 0.3061100
0.2350923 0.2359910 0.2345794
0.3027272 0.2933029 0.2762065
0.3066713 0.2858977 0.2650196
0.4102363 0.3157474 0.3125288
0.5886879 0.3729933 0.3852794
0.7692769 0.4316867 0.4464556
0.7728975 0.4725752 0.4730373
0.3722272 0.3967581 0.3674157
0.3139989 0.3797616 0.3371743
0.3228749 0.3345489 0.3066602
0.4452333 0.4396222 0.3908130
0.4143551 0.3899735 0.3590368
0.4412983 0.4059528 0.3730521
0.4897342 0.4224782 0.3960485
0.5927862 0.4755290 0.4432834
0.6448466 0.4823085 0.4492780
0.1548068 0.4860500 0.3538061
0.2593264 0.5225410 0.3810986
0.3382060 0.4333754 0.3488923
0.3621424 0.3485590 0.3265724
0.3561869 0.3365535 0.3142408
0.5755836 0.5430748 0.4809399
0.4793194 0.4326230 0.3764577
0.6148591 0.5264657 0.4445332
0.6492387 0.5168988 0.4510327
0.0513996 0.7189966 0.4065537
0.2288402 0.7139131 0.4299486
0.3617828 0.6604776 0.4273962
0.4318822 0.5513281 0.3976208
0.4517702 0.4835819 0.3740908
0.5185338 0.5062032 0.4146074
0.5494322 0.5170478 0.4223810
0.5291795 0.4698988 0.3899235
0.6114022 0.5330694 0.4546686
0.0245101 0.8686844 0.4180963
0.2204183 0.8654326 0.4503304
0.3842754 0.8458963 0.4731475
0.5115527 0.8054647 0.4845050
0.5767066 0.7562189 0.4582271
0.6191394 0.7025460 0.4316254
0.6426174 0.6501868 0.4135192
0.6728646 0.6158314 0.4609809
0.6872415 0.6016077 0.4911065
0.0186912 0.9898383 0.4191515
0.2195541 0.9908379 0.4571928
0.3946231 0.9856226 0.4903531
0.5433343 0.9674314 0.5175788
0.6350252 0.9427125 0.5013360
0.7141965 0.9116601 0.4812073
0.7798365 0.8739554 0.4685636
0.8159473 0.8109945 0.4894900
0.7236603 0.6679223 0.5377609
0.3015026 0.2971482 0.2891740
0.2602101 0.1365145 0.4298366
0.2892910 0.0947765 0.4236837
0.2989900 0.0817551 0.3565175
0.3640312 0.0553068 0.3440593
0.5787626 0.0233476 0.4198557
0.7996342 0.0163550 0.4754640
0.9540243 0.0098097 0.4877275
0.9581939 0.0075071 0.4891000
0.2405874 0.2594494 0.3101217
0.2649364 0.2306884 0.4112227
0.2856350 0.1971608 0.3969088
0.2963357 0.1517333 0.3493106
0.3974286 0.1428481 0.3674406
0.5933876 0.1557241 0.4382801
0.7985147 0.1688266 0.4936676
0.9570350 0.1671196 0.5142563
0.9633692 0.1669846 0.5176907
0.2380398 0.2720127 0.2553426
0.2824643 0.2944417 0.3562979
0.2713972 0.2608512 0.3186196
0.2470917 0.2039245 0.2864750
0.3195706 0.1911546 0.3045228
0.5184789 0.2451654 0.3972337
0.7425454 0.3002249 0.4818947
0.9279508 0.3119690 0.5246190
0.9387680 0.3165650 0.5326639
0.2776494 0.3095415 0.3171609
0.4196567 0.4336018 0.4363840
0.3349333 0.3361316 0.3454706
0.2940716 0.2874666 0.3036608
0.3144036 0.2753353 0.3058202
0.4605256 0.3218976 0.3774847
0.6751439 0.3870540 0.4655254
0.8671552 0.4248023 0.5223786
0.8874753 0.4418431 0.5398881
0.4404008 0.4250449 0.3959305
0.4395427 0.4744147 0.4478304
0.5767967 0.5742628 0.5428069
0.3257944 0.3180573 0.3158297
0.4738305 0.4411039 0.4199573
0.4714481 0.4233031 0.4110325
0.5894055 0.4495783 0.4547800
0.7621969 0.4946493 0.5086303
0.8030130 0.5214482 0.5342031
0.2168819 0.5519882 0.4621051
0.3079388 0.5540575 0.4646655
0.3925605 0.5064486 0.4404732
0.4837791 0.4904308 0.4438204
0.6229418 0.6050056 0.5465561
0.4930300 0.4659549 0.4307302
0.5014064 0.4579981 0.4210142
0.5451550 0.4608354 0.4257438
0.6773151 0.5345972 0.5006516
0.0846044 0.7118261 0.5024600
0.2462144 0.7097089 0.5158922
0.3680017 0.6466912 0.4915912
0.4215615 0.4993193 0.4161400
0.4362306 0.4115805 0.3805997
0.5523903 0.5245842 0.4791698
0.6777538 0.6401684 0.5700201
0.5406864 0.4954026 0.4393232
0.6290651 0.5497075 0.4865605
0.0334080 0.8616800 0.5198229
0.2258536 0.8598033 0.5441209
0.3825514 0.8305720 0.5507941
0.4892978 0.7489728 0.5255417
0.5308173 0.6258688 0.4758097
0.5439420 0.5699613 0.4451267
0.5773250 0.5678196 0.4463514
0.6601370 0.6069201 0.5010849
0.6898448 0.6086136 0.5194713
0.0231179 0.9846496 0.5237702
0.2218432 0.9878421 0.5550173
0.3937895 0.9785578 0.5778228
0.5339535 0.9443431 0.5868902
0.6292705 0.8895223 0.5756719
0.6823998 0.8389749 0.5438043
0.7323352 0.8042511 0.5275841
0.7775278 0.7672841 0.5379649
0.7296166 0.6686210 0.5538525
0.3899400 0.3685611 0.2784827
0.2791656 0.1313201 0.5395749
0.3208816 0.0694405 0.5653159
0.3795156 0.0557892 0.5223818
0.4639465 0.0378853 0.5010350
0.6300346 0.0197653 0.5423117
0.8102249 0.0137210 0.5803865
0.9595135 0.0102480 0.5951124
0.9331715 0.0192208 0.5829701
0.2583860 0.2734969 0.3991438
0.2931227 0.2404092 0.5444636
0.3327982 0.1954609 0.5623987
0.4008001 0.1724433 0.5395158
0.5065697 0.1626453 0.5402360
0.6596590 0.1647552 0.5735840
0.8212453 0.1677773 0.6017476
0.9643593 0.1666194 0.6164644
0.9685749 0.1667033 0.6193464
0.2911064 0.3243783 0.3995382
0.2998299 0.3156790 0.5215013
0.3471868 0.3044839 0.5262042
0.3877827 0.2717939 0.5018549
0.4761944 0.2614919 0.5074466
0.6293489 0.2844377 0.5562557
0.7974811 0.3039755 0.5990097
0.9492184 0.3127851 0.6253070
0.9584965 0.3156928 0.6316125
0.1951317 0.2762867 0.3211739
0.3388441 0.3865552 0.4908082
0.3876120 0.3907817 0.4990271
0.4144600 0.3751172 0.4867948
0.4683918 0.3606823 0.4894067
0.5894272 0.3842332 0.5326007
0.7476417 0.4120037 0.5792950
0.9144183 0.4343099 0.6222353
0.9342423 0.4447766 0.6365330
0.4319622 0.4735970 0.4723839
0.3491371 0.3565342 0.3525217
0.3170866 0.3177124 0.3125340
0.4984306 0.4870599 0.4965383
0.5028589 0.4638011 0.4857541
0.5651358 0.4760143 0.5132987
0.6775466 0.4839474 0.5464827
0.8512633 0.5196515 0.6036456
0.8902048 0.5443964 0.6322896
0.4533630 0.5789629 0.5421337
0.3555070 0.5380067 0.4985537
0.3880406 0.4706662 0.4438935
0.3511737 0.3615172 0.3487214
0.5731288 0.5611599 0.5346974
0.5565064 0.5223048 0.4961856
0.5963841 0.5213794 0.5123092
0.7359465 0.5530454 0.5595508
0.8049625 0.6002724 0.6091304
0.1647417 0.7052212 0.5837683
0.2823413 0.6981207 0.5819804
0.3865348 0.6539953 0.5551455
0.4495669 0.5674716 0.4978466
0.4808963 0.4909739 0.4495759
0.5661895 0.5405120 0.4983474
0.5763063 0.5445375 0.4983890
0.5883111 0.5329305 0.4891240
0.6934579 0.6038851 0.5555948
0.0620693 0.8451589 0.6106079
0.2430065 0.8462767 0.6268094
0.3912643 0.8193645 0.6239834
0.4899361 0.7373197 0.5824076
0.5104140 0.5833625 0.4927503
0.5174068 0.5059071 0.4555779
0.5512624 0.5348454 0.4808960
0.6827476 0.6406045 0.5651343
0.6567367 0.5921515 0.5251798
0.0337832 0.9769119 0.6235483
0.2299593 0.9801330 0.6473696
0.3976196 0.9687681 0.6603698
0.5287673 0.9237229 0.6520194
0.6036314 0.8275628 0.6082762
0.6255471 0.7239796 0.5518220
0.6588160 0.6982549 0.5382308
0.7257794 0.7111580 0.5590370
0.7422321 0.6863875 0.5798638
0.3171468 0.2758559 0.5579467
0.2696045 0.0990430 0.6884156
0.3426257 0.0528982 0.7139795
0.4445871 0.0411433 0.6997425
0.5419520 0.0307661 0.6662658
0.6774946 0.0154757 0.6768968
0.8369849 0.0125067 0.7018099
0.9677019 0.0140165 0.7056108
0.9732354 0.0075471 0.7099522
0.4492051 0.4240837 0.4756097
0.3109513 0.2507999 0.6831009
0.3676483 0.2066337 0.7156857
0.4651190 0.1930390 0.7053151
0.5727366 0.1818414 0.6938155
0.6998680 0.1739599 0.6997313
0.8413869 0.1703397 0.7132256
0.9736973 0.1683551 0.7230822
0.9768551 0.1676941 0.7254957
0.3426601 0.3706007 0.4720825
0.3160548 0.3401153 0.6679399
0.3936907 0.3407796 0.7042212
0.4792053 0.3274885 0.6968324
0.5761262 0.3166721 0.6866581
0.6937361 0.3143402 0.6945696
0.8305556 0.3153994 0.7128334
0.9646725 0.3184469 0.7301335
0.9696901 0.3200480 0.7338788
0.3877155 0.4399566 0.4945315
0.3282055 0.4096325 0.6292729
0.4053921 0.4234407 0.6643100
0.4992473 0.4398224 0.6755790
0.5858439 0.4380961 0.6797287
0.6799278 0.4329565 0.6816527
0.8069631 0.4372044 0.7023756
0.9470881 0.4497851 0.7311437
0.9562184 0.4547401 0.7381957
0.2993797 0.3817747 0.4068373
0.3551230 0.4205049 0.5072900
0.3795234 0.4061519 0.4922651
0.4978390 0.4852612 0.5910157
0.5829047 0.5187350 0.6351087
0.6575635 0.5243326 0.6490574
0.7652574 0.5278019 0.6749619
0.9122042 0.5523416 0.7188655
0.9328151 0.5660875 0.7354687
0.3242106 0.3938443 0.3948948
0.4178093 0.4954099 0.4974630
0.4884197 0.5202356 0.5248988
0.4789242 0.4850031 0.4829067
0.5607290 0.5468562 0.5475314
0.6299027 0.5796701 0.5935273
0.7046483 0.5823193 0.6258271
0.8338380 0.6053594 0.6737442
0.8843817 0.6429034 0.7155934
0.2782004 0.6201130 0.5673047
0.3634454 0.6085523 0.5553978
0.4344577 0.5813043 0.5334568
0.4797033 0.5425527 0.5046251
0.5275096 0.5319216 0.4998486
0.6099635 0.5972705 0.5688742
0.6671137 0.6204498 0.5828952
0.6827562 0.5889348 0.5794747
0.7942492 0.6699235 0.6635709
0.1389067 0.7919903 0.6560847
0.3042703 0.7877227 0.6608158
0.4270572 0.7687021 0.6531550
0.5170982 0.7269587 0.6273503
0.5623039 0.6560171 0.5786659
0.5712727 0.5813423 0.5278769
0.6183449 0.5973267 0.5461407
0.6216791 0.5752163 0.5270320
0.7717123 0.7105515 0.6317638
0.0735298 0.9498416 0.7039193
0.2631786 0.9477183 0.7162924
0.4186326 0.9335263 0.7182940
0.5398020 0.8947026 0.7034494
0.6083056 0.8130071 0.6557917
0.5965377 0.6541218 0.5533096
0.6242671 0.6368585 0.5484485
0.6791255 0.6595148 0.5618688
0.7431372 0.6871560 0.5882425
0.1502142 0.1096078 0.7971719
0.2396924 0.0677496 0.8257991
0.3428219 0.0421237 0.8387208
0.4604957 0.0296398 0.8327814
0.5771335 0.0176327 0.8162722
0.7049846 0.0104326 0.8100183
0.8488825 0.0126534 0.8178938
0.9804225 0.0096094 0.8212983
0.9840026 0.0049093 0.8243366
0.1896642 0.2435915 0.7674736
0.2915605 0.2367576 0.8165050
0.3737012 0.2067182 0.8363972
0.4836473 0.1951680 0.8320961
0.5970135 0.1857375 0.8203829
0.7188738 0.1781279 0.8166571
0.8489059 0.1726824 0.8186261
0.9805741 0.1701021 0.8291466
0.9824617 0.1687548 0.8308481
0.2364854 0.3507682 0.7156922
0.3069527 0.3444086 0.7987473
0.4051945 0.3517813 0.8288785
0.5058408 0.3433050 0.8275251
0.6110737 0.3353310 0.8166979
0.7218471 0.3282042 0.8117543
0.8408336 0.3223927 0.8126482
0.9743326 0.3235259 0.8323752
0.9766243 0.3237311 0.8343669
0.2818003 0.4258506 0.6480218
0.3175759 0.4260609 0.7618663
0.4133959 0.4447373 0.7986759
0.5244577 0.4634933 0.8058041
0.6214680 0.4618937 0.8047801
0.7225099 0.4581394 0.8034614
0.8282495 0.4502892 0.8028699
0.9640739 0.4602096 0.8324841
0.9682550 0.4622649 0.8360178
0.3606795 0.4628651 0.5366714
0.3445009 0.4664294 0.6681046
0.4107900 0.4736193 0.6852930
0.5166854 0.5119775 0.7183947
0.6198976 0.5463538 0.7556809
0.7119971 0.5563670 0.7725494
0.8083881 0.5530830 0.7843164
0.9477766 0.5762531 0.8268201
0.9563269 0.5821132 0.8343621
0.4391952 0.4416479 0.4412868
0.4312654 0.4417277 0.4611817
0.4386671 0.4439563 0.4684070
0.4650482 0.4676827 0.5163021
0.5632383 0.5368540 0.6101634
0.6707263 0.5946786 0.6930997
0.7725479 0.6212471 0.7414739
0.9100487 0.6592714 0.8016642
0.9275152 0.6729895 0.8186279
0.3736420 0.4517710 0.4626918
0.4576141 0.4647507 0.4635589
0.4378965 0.4574957 0.4444675
0.4869677 0.4926566 0.4877458
0.5099153 0.5105598 0.5029441
0.5619662 0.5425804 0.5320217
0.7006471 0.6338851 0.6537747
0.8280228 0.6914696 0.7383621
0.8600346 0.7170844 0.7709779
0.5386800 0.5843921 0.5815556
0.5665013 0.5547754 0.5570781
0.5546463 0.5651054 0.5571524
0.5545325 0.5757519 0.5581513
0.5753697 0.5677749 0.5477748
0.5763144 0.5730675 0.5529241
0.6071865 0.5896831 0.5536521
0.7149497 0.6688892 0.6339645
0.8015342 0.7403781 0.7195639
0.1370234 0.9060258 0.7715957
0.3163773 0.8946708 0.7692630
0.4528494 0.8696928 0.7547443
0.5536089 0.8243337 0.7251158
0.6183810 0.7756021 0.6911353
0.6552698 0.7352086 0.6590875
0.6729169 0.6949630 0.6372582
0.6775933 0.6561833 0.6048174
0.8305521 0.7681964 0.6781966
