styles/experimental/experimental-flower/look.cube
# experimental-flower tuned
LUT_3D_SIZE 5
DOMAIN_MIN 0 0 0
DOMAIN_MAX 1 1 1
0.1199995 0.1188192 0.1213381
0.3020403 0.2177250 0.2156891
0.4372151 0.2393739 0.2298594
0.6357249 0.2419902 0.2175089
0.6127229 0.2614156 0.2664853
0.0979091 0.1180358 0.0940417
0.1465920 0.1535448 0.1501714
0.3400647 0.2420434 0.1969237
0.4737840 0.3253196 0.2641960
0.6003829 0.3115360 0.2753112
0.0171915 0.3685711 0.0198275
0.1655646 0.3073754 0.1094474
0.2655455 0.2751392 0.1679983
0.3937445 0.3032733 0.2448400
0.6097414 0.2988873 0.1977899
0.0000000 0.8268876 0.0000000
0.1380924 0.8184902 0.0040695
0.3453635 0.7485304 0.0036021
0.6543860 0.6612218 0.0447366
0.6872463 0.4273022 0.2312791
0.0000000 0.8811708 0.0000000
0.1406834 0.8816598 0.0000000
0.3991679 0.8793992 0.0000000
0.8363682 0.8736299 0.0011202
0.7890581 0.7698961 0.0515297
0.1512425 0.1544797 0.2205638
0.0458050 0.0479077 0.0000000
0.3054548 0.1722129 0.2118243
0.7636869 0.1705026 0.2396729
0.8048626 0.2504404 0.3036631
0.1357023 0.1463011 0.1358384
0.1429682 0.1380503 0.1470083
0.2489432 0.2353443 0.2214937
0.5235794 0.2067412 0.1928109
0.6850204 0.2142278 0.2087279
0.0797468 0.3230337 0.1493783
0.1670431 0.2507982 0.1637966
0.2915392 0.2844317 0.2585248
0.3189136 0.2551955 0.2229805
0.5635351 0.3225989 0.2950076
0.0011391 0.8188140 0.1172350
0.0595393 0.8030497 0.0411515
0.2253900 0.6437215 0.0099288
0.4654911 0.4814894 0.1016384
0.5644509 0.3980782 0.2936133
0.0000000 0.8787974 0.1190074
0.0583702 0.8801077 0.0390115
0.3364396 0.8684724 0.0310790
0.8001072 0.8412163 0.0263279
0.6878571 0.6813938 0.1948602
0.2235968 0.2181740 0.3470330
0.0866867 0.0000000 0.1713093
0.3014049 0.0055515 0.2801572
0.8005015 0.0244418 0.3789146
0.8791730 0.0248124 0.3992300
0.1425555 0.1613125 0.1799286
0.1779150 0.1732653 0.2643946
0.2880352 0.1498534 0.2760312
0.7460996 0.1184478 0.3446290
0.8426514 0.1339959 0.3767462
0.1755877 0.3000203 0.2921325
0.3234935 0.4050244 0.4125217
0.2872573 0.2872589 0.2806769
0.3644360 0.2721990 0.2714197
0.5336283 0.3057781 0.3081698
0.0033834 0.7810780 0.3457354
0.0743021 0.6774292 0.2575647
0.2233922 0.4490851 0.1927710
0.5179191 0.5174129 0.3641975
0.5293039 0.4068915 0.3187861
0.0000000 0.8717086 0.3736334
0.0558506 0.8667016 0.3184349
0.2315687 0.8200063 0.2038080
0.7237504 0.7657385 0.1815017
0.7098858 0.6761251 0.3997079
0.3784660 0.3385085 0.4552173
0.1615221 0.0151997 0.7800220
0.3865505 0.0061144 0.7645377
0.8174169 0.0013844 0.8051161
0.8680151 0.0003877 0.8079965
0.2513063 0.2639232 0.5335094
0.1102941 0.0825603 0.7803843
0.3588692 0.0870110 0.7915041
0.8029903 0.0596732 0.7942806
0.8829129 0.0579492 0.8180043
0.1765884 0.2255748 0.2708562
0.2812063 0.3160644 0.4096578
0.3690916 0.3465139 0.6131274
0.6576973 0.2120800 0.6515478
0.8220595 0.2207805 0.7732216
0.0418103 0.7299197 0.7005947
0.0962261 0.6762421 0.6417770
0.2527195 0.4042182 0.3943068
0.4955059 0.4905978 0.4957999
0.6206001 0.5459571 0.5397582
0.0032992 0.8516249 0.7939511
0.0549250 0.8369710 0.7787018
0.2152071 0.6618703 0.6170342
0.5060598 0.5542675 0.5002215
0.6991287 0.6900120 0.5573649
0.0544270 0.0395559 0.8390168
0.1576216 0.0086099 0.8671509
0.4024258 0.0084282 0.8628316
0.8276401 0.0053792 0.8638446
0.8889624 0.0000430 0.8756049
0.0611597 0.1571290 0.8021784
0.0776754 0.0582639 0.8644543
0.3556873 0.0663180 0.8681843
0.8251126 0.0578909 0.8683937
0.8883500 0.0570713 0.8750348
0.2140265 0.2981311 0.5018860
0.1389045 0.2491154 0.6618631
0.2800831 0.2150586 0.7808935
0.7914257 0.2290955 0.8320314
0.8731260 0.2352072 0.8592848
0.2369183 0.3254585 0.4306522
0.2733956 0.3350511 0.4330435
0.2975724 0.3492434 0.4491796
0.6358888 0.6020359 0.6812422
0.7564454 0.6864362 0.7475784
0.0821424 0.7430966 0.7766491
0.1172381 0.7129163 0.7663636
0.2774469 0.6292110 0.6917520
0.5434947 0.6309447 0.6610015
0.7393597 0.7410752 0.7419963
