styles/experimental/experimental-flower/look.cube
# experimental-flower tuned
LUT_3D_SIZE 9
DOMAIN_MIN 0 0 0
DOMAIN_MAX 1 1 1
0.1199995 0.1188192 0.1213381
0.1242396 0.1180331 0.1144204
0.3020403 0.2177250 0.2156891
0.3488952 0.2151560 0.2207920
0.4372151 0.2393739 0.2298594
0.5588059 0.2451802 0.2253722
0.6357249 0.2419902 0.2175089
0.5911087 0.2517833 0.2336131
0.6127229 0.2614156 0.2664853
0.1059841 0.1043394 0.1019017
0.1066357 0.1110006 0.1173385
0.1500689 0.1430627 0.1335974
0.2306874 0.1946135 0.1857874
0.4212278 0.2994473 0.2618569
0.3849474 0.2878149 0.2584972
0.4646318 0.2675804 0.2156825
0.5667013 0.2616150 0.1981772
0.6424103 0.2816443 0.2374796
0.0979091 0.1180358 0.0940417
0.1284216 0.1143467 0.1293631
0.1465920 0.1535448 0.1501714
0.2744693 0.2397229 0.1965434
0.3400647 0.2420434 0.1969237
0.3655961 0.2555582 0.2298529
0.4737840 0.3253196 0.2641960
0.5837958 0.3381910 0.2428538
0.6003829 0.3115360 0.2753112
0.0544512 0.2258516 0.0569376
0.1332113 0.2123594 0.1061981
0.2055903 0.2225185 0.1844681
0.2317482 0.2372239 0.1931735
0.3207279 0.2765532 0.2161130
0.3718994 0.2898840 0.2259685
0.5209135 0.3027988 0.2265682
0.6079244 0.3288479 0.2317271
0.6442176 0.4091002 0.2916918
0.0171915 0.3685711 0.0198275
0.0924821 0.3556866 0.0432698
0.1655646 0.3073754 0.1094474
0.2364772 0.2654133 0.1529105
0.2655455 0.2751392 0.1679983
0.3079083 0.2740057 0.2221683
0.3937445 0.3032733 0.2448400
0.5272411 0.3172689 0.2283487
0.6097414 0.2988873 0.1977899
0.0029024 0.6001239 0.0042724
0.0729858 0.5947100 0.0104891
0.1414246 0.5670926 0.0312730
0.2416754 0.5063786 0.0555905
0.2999103 0.4614408 0.0708485
0.3730705 0.4052504 0.1013988
0.4099870 0.3246867 0.1572889
0.4308928 0.3031144 0.2333723
0.5822291 0.3355934 0.2100141
0.0000000 0.8268876 0.0000000
0.0693016 0.8275914 0.0011608
0.1380924 0.8184902 0.0040695
0.2532947 0.7905698 0.0054739
0.3453635 0.7485304 0.0036021
0.5094205 0.7125810 0.0105449
0.6543860 0.6612218 0.0447366
0.5568834 0.4906197 0.1412538
0.6872463 0.4273022 0.2312791
0.0000000 0.8554638 0.0000000
0.0691786 0.8558927 0.0000000
0.1398232 0.8544728 0.0000000
0.2658966 0.8481116 0.0000000
0.3853009 0.8350551 0.0000000
0.5947814 0.8244440 0.0000000
0.7953172 0.8063408 0.0070329
0.7653546 0.7298552 0.0548767
0.6587486 0.5482840 0.1650298
0.0000000 0.8811708 0.0000000
0.0693692 0.8815108 0.0000000
0.1406834 0.8816598 0.0000000
0.2704450 0.8812965 0.0000000
0.3991679 0.8793992 0.0000000
0.6213945 0.8795263 0.0000000
0.8363682 0.8736299 0.0011202
0.8323971 0.8373937 0.0214358
0.7890581 0.7698961 0.0515297
0.1285527 0.1274635 0.1441763
0.1030364 0.1032276 0.0988573
0.1204447 0.1278489 0.1108123
0.2089494 0.1826491 0.1883055
0.3047052 0.2322044 0.2296233
0.4967675 0.2787205 0.2704015
0.6526345 0.2722344 0.2531078
0.6898853 0.2901290 0.2676761
0.6709105 0.2914551 0.2712175
0.1429493 0.1544000 0.1514080
0.1381986 0.1336907 0.1390669
0.1261673 0.1277117 0.1182970
0.1376397 0.1371375 0.1372971
0.2206651 0.1988904 0.1951189
0.3042816 0.2172089 0.2025470
0.4180571 0.2136912 0.1869597
0.5150028 0.2012625 0.1722747
0.6381212 0.2040649 0.1848529
0.1344447 0.1307272 0.1349525
0.1565793 0.1533266 0.1520774
0.1689563 0.1713732 0.1638281
0.1893742 0.1779854 0.1732454
0.1829484 0.1666382 0.1614675
0.2750112 0.2167065 0.2088878
0.3830681 0.2199680 0.1982535
0.5188254 0.2175339 0.1761623
0.6136826 0.2354658 0.1988322
0.0848024 0.2193354 0.1228713
0.1310210 0.2131910 0.1331344
0.1998276 0.1989986 0.2007655
0.2025321 0.2028336 0.1824944
0.2450176 0.2338665 0.2157870
0.2986073 0.2580438 0.2407138
0.3478413 0.2466792 0.2082180
0.4582628 0.2721654 0.2196065
0.6208533 0.3096567 0.2188509
0.0325897 0.3594235 0.0838004
0.0683012 0.3463414 0.0704468
0.1615844 0.2871677 0.1514697
0.2620815 0.2298953 0.2596089
0.2607287 0.2522676 0.2299851
0.2988867 0.2655966 0.2143539
0.3318681 0.2614415 0.2238081
0.4157737 0.2622588 0.1904922
0.5784598 0.3062128 0.2168636
0.0067790 0.5973035 0.0583642
0.0350682 0.5894178 0.0309432
0.1079470 0.5520798 0.0552485
0.1973890 0.4026155 0.0985594
0.2403851 0.2865053 0.1851142
0.3031129 0.2993549 0.2286306
0.3593439 0.3033350 0.1996838
0.4284768 0.3187963 0.2192135
0.5106146 0.3307367 0.2061079
0.0000000 0.8256391 0.0483376
0.0262122 0.8256746 0.0184335
0.0965820 0.8130417 0.0209547
0.2036323 0.7594104 0.0149002
0.2273145 0.6158671 0.0000000
0.3480467 0.5305066 0.0000000
0.5249503 0.5313718 0.0552900
0.5226445 0.4784585 0.1515609
0.5689659 0.4360093 0.1831098
0.0000000 0.8533668 0.0477768
0.0254267 0.8550507 0.0170127
0.0982176 0.8529207 0.0166237
0.2273864 0.8410802 0.0123713
0.3384600 0.8093903 0.0000000
0.5365290 0.7739414 0.0000000
0.7450175 0.7560563 0.0060191
0.7255057 0.6943204 0.0637842
0.6507397 0.5509801 0.1476056
0.0000000 0.8804736 0.0484155
0.0255528 0.8810543 0.0169944
0.0991790 0.8810422 0.0166994
0.2347454 0.8793036 0.0151955
0.3669954 0.8733925 0.0109057
0.5959662 0.8677633 0.0060276
0.8200306 0.8593236 0.0110585
0.8165775 0.8206398 0.0387708
0.7728095 0.7440918 0.0759125
0.1512425 0.1544797 0.2205638
0.1404696 0.1406165 0.1166358
0.0458050 0.0479077 0.0000000
0.1417481 0.0712226 0.0766139
0.3054548 0.1722129 0.2118243
0.5353533 0.1901472 0.2415062
0.7636869 0.1705026 0.2396729
0.7922331 0.2233467 0.2807954
0.8048626 0.2504404 0.3036631
0.1534009 0.1523860 0.1525443
0.1574018 0.1645354 0.1556448
0.0514198 0.0674807 0.0000000
0.1525428 0.1363611 0.1024846
0.2895598 0.2275268 0.2182868
0.4780669 0.2315516 0.2346294
0.6943656 0.1727831 0.1970031
0.7284723 0.1801851 0.2048849
0.7479839 0.1953799 0.2214583
0.1357023 0.1463011 0.1358384
0.2019115 0.2114484 0.2095642
0.1429682 0.1380503 0.1470083
0.2307296 0.2201712 0.2116364
0.2489432 0.2353443 0.2214937
0.3461760 0.2413419 0.2268192
0.5235794 0.2067412 0.1928109
0.6165922 0.1850682 0.1759610
0.6850204 0.2142278 0.2087279
0.1775486 0.1992381 0.1899864
0.2007350 0.2062423 0.1981324
0.1877681 0.1732945 0.1868799
0.2274308 0.2247715 0.2028685
0.2081454 0.2031806 0.1991488
0.2637825 0.2189328 0.1939020
0.3741557 0.2920522 0.2617782
0.4469272 0.2663247 0.2293218
0.6102029 0.2899916 0.2440317
0.0797468 0.3230337 0.1493783
0.1077894 0.3068902 0.1309529
0.1670431 0.2507982 0.1637966
0.3167021 0.2857642 0.2813331
0.2915392 0.2844317 0.2585248
0.3615575 0.3179159 0.2593395
0.3189136 0.2551955 0.2229805
0.3636930 0.2865510 0.2752973
0.5635351 0.3225989 0.2950076
0.0169745 0.5786967 0.1235581
0.0459089 0.5692914 0.0912984
0.0866479 0.5289178 0.0748727
0.2091918 0.4499103 0.1202935
0.2283620 0.3264167 0.1531478
0.3034460 0.3116307 0.2042046
0.3553344 0.3110445 0.2885333
0.3961869 0.3252648 0.2735013
0.5522339 0.3332274 0.2709802
0.0011391 0.8188140 0.1172350
0.0278249 0.8191299 0.0792574
0.0595393 0.8030497 0.0411515
0.1790390 0.7563108 0.0385821
0.2253900 0.6437215 0.0099288
0.3421028 0.5474707 0.0114157
0.4654911 0.4814894 0.1016384
0.4405522 0.4180653 0.2025848
0.5644509 0.3980782 0.2936133
0.0000000 0.8469061 0.1165835
0.0252568 0.8531765 0.0791226
0.0579360 0.8500945 0.0386778
0.1931539 0.8364899 0.0338139
0.3063685 0.7994808 0.0181348
0.5000984 0.7482624 0.0000000
0.7022887 0.7148025 0.0185108
0.6780634 0.6464809 0.0905601
0.6964350 0.4979860 0.2601929
0.0000000 0.8787974 0.1190074
0.0252481 0.8802410 0.0792369
0.0583702 0.8801077 0.0390115
0.1996296 0.8773136 0.0367221
0.3364396 0.8684724 0.0310790
0.5711936 0.8563115 0.0225809
0.8001072 0.8412163 0.0263279
0.7924986 0.7947096 0.0734182
0.6878571 0.6813938 0.1948602
0.1899762 0.1869592 0.3089087
0.1511426 0.1295200 0.1727622
0.0605598 0.0261736 0.0400790
0.0831075 0.0000000 0.0351319
0.2895420 0.0590305 0.2090460
0.5564815 0.0812474 0.2781448
0.8028378 0.0668047 0.2902436
0.8296283 0.0816072 0.3035514
0.8628348 0.0805485 0.3076507
0.1775763 0.2017053 0.2438417
0.1451324 0.1549796 0.1818712
0.0756232 0.0799453 0.0713046
0.1219631 0.0562794 0.0878548
0.2937114 0.1124352 0.2129858
0.5415220 0.1412001 0.2752000
0.7799594 0.1192621 0.2772910
0.8123641 0.1232700 0.2835011
0.8457513 0.1278172 0.2902952
0.1626947 0.1685611 0.1864491
0.1336952 0.1346966 0.1364558
0.1729536 0.1859660 0.1853206
0.1729045 0.1717278 0.1514016
0.2522474 0.1971178 0.2070572
0.4460068 0.2082439 0.2719606
0.6828993 0.2078420 0.2930191
0.7356437 0.1768533 0.2759604
0.7913083 0.2081016 0.3013052
0.1881138 0.2230825 0.2143197
0.2116761 0.2274070 0.2378336
0.2698431 0.3300874 0.3215139
0.2067134 0.2090075 0.2186751
0.2673165 0.2808727 0.2593092
0.2740368 0.2612585 0.2486267
0.4375939 0.2707968 0.2578570
0.5030799 0.2486663 0.2455574
0.6079284 0.2535426 0.2551857
0.1493417 0.2684369 0.2322938
0.1649212 0.2773018 0.2318895
0.2277658 0.2082579 0.2350100
0.2366532 0.1863499 0.2295736
0.2850092 0.2846874 0.2424756
0.2644171 0.2389925 0.2243821
0.3628660 0.2926757 0.2573328
0.4479830 0.3178526 0.2948763
0.5777108 0.3441897 0.3276570
0.0368002 0.5385118 0.2292093
0.0655003 0.5226361 0.2036220
0.1194610 0.4338522 0.1774654
0.2028580 0.3499460 0.1767469
0.3221744 0.4116418 0.2922461
0.4394620 0.4327332 0.3626722
0.3771559 0.3303862 0.2911684
0.3748923 0.3083081 0.2679315
0.5519925 0.3561473 0.3198866
0.0035930 0.8093824 0.2398233
0.0305979 0.8006494 0.2057409
0.0664360 0.7637349 0.1680771
0.1378377 0.7015101 0.1109340
0.2180691 0.6180737 0.1172659
0.3404239 0.5293063 0.1407733
0.4382950 0.4555887 0.1785919
0.4138018 0.3862948 0.2675200
0.5491849 0.3980800 0.3106276
0.0000000 0.8480498 0.2450840
0.0248932 0.8477769 0.2124363
0.0580610 0.8388023 0.1773579
0.1361217 0.8181206 0.1135966
0.2657129 0.7827835 0.1060669
0.4707992 0.7272589 0.0917759
0.6684432 0.6798440 0.1030410
0.6425065 0.6141201 0.1611615
0.6254509 0.4724623 0.2857921
0.0000000 0.8763822 0.2466498
0.0246674 0.8783589 0.2142693
0.0575013 0.8766639 0.1804112
0.1380518 0.8705820 0.1175116
0.2855139 0.8587166 0.1115924
0.5367439 0.8426505 0.1030439
0.7761033 0.8204587 0.1028580
0.7687534 0.7740359 0.1549722
0.7154527 0.6949294 0.3401711
0.2235968 0.2181740 0.3470330
0.1413107 0.0780973 0.2728367
0.0866867 0.0000000 0.1713093
0.1235207 0.0000000 0.1370704
0.3014049 0.0055515 0.2801572
0.5600452 0.0351710 0.3586726
0.8005015 0.0244418 0.3789146
0.8482751 0.0237848 0.3946853
0.8791730 0.0248124 0.3992300
0.1990749 0.2063818 0.2793508
0.1508628 0.1326260 0.2899913
0.1159348 0.0706498 0.2223064
0.1725644 0.0356581 0.2196143
0.3174379 0.0606256 0.3063417
0.5361072 0.0807194 0.3389555
0.8003027 0.0621727 0.3646701
0.8455509 0.0605775 0.3774970
0.8741128 0.0632253 0.3810224
0.1425555 0.1613125 0.1799286
0.2114723 0.2180192 0.3129339
0.1779150 0.1732653 0.2643946
0.2129577 0.1579261 0.2355435
0.2880352 0.1498534 0.2760312
0.4916114 0.1387221 0.3177111
0.7460996 0.1184478 0.3446290
0.8103643 0.1202865 0.3676701
0.8426514 0.1339959 0.3767462
0.2955780 0.4065495 0.4890882
0.2998870 0.3606433 0.4119986
0.1420344 0.1380737 0.1469916
0.2775771 0.2848038 0.3108710
0.2738870 0.2778570 0.2616636
0.3656662 0.2363953 0.2747600
0.5953033 0.2202025 0.3086312
0.6838460 0.2370572 0.3449080
0.7325237 0.2455985 0.3519884
0.1755877 0.3000203 0.2921325
0.2166063 0.3615678 0.3527747
0.3234935 0.4050244 0.4125217
0.3162680 0.3637030 0.3583079
0.2872573 0.2872589 0.2806769
0.2814387 0.2972657 0.2790433
0.3644360 0.2721990 0.2714197
0.4232942 0.3075233 0.2975120
0.5336283 0.3057781 0.3081698
0.0516209 0.5003245 0.3066610
0.0840593 0.4999413 0.2956165
0.1662308 0.3765286 0.2460249
0.2842952 0.2715282 0.2391779
0.2426075 0.2293391 0.2420629
0.4084782 0.4064092 0.3491382
0.3347437 0.3089986 0.2827066
0.5013857 0.3719209 0.3005175
0.5945627 0.3951856 0.3290614
0.0033834 0.7810780 0.3457354
0.0316747 0.7692075 0.3170897
0.0743021 0.6774292 0.2575647
0.1679833 0.5168424 0.1840003
0.2233922 0.4490851 0.1927710
0.4136352 0.5224064 0.3435478
0.5179191 0.5174129 0.3641975
0.4354562 0.3978488 0.3247498
0.5293039 0.4068915 0.3187861
0.0000000 0.8402602 0.3685161
0.0238564 0.8371946 0.3418877
0.0574380 0.8096861 0.3045285
0.1395193 0.7515438 0.2389108
0.2189950 0.6875658 0.1847142
0.4071506 0.6219267 0.1780701
0.5717637 0.5688493 0.1719015
0.5816172 0.5557941 0.2188276
0.6662418 0.5080698 0.3215255
0.0000000 0.8717086 0.3736334
0.0236544 0.8740933 0.3483099
0.0558506 0.8667016 0.3184349
0.1365470 0.8474293 0.2619503
0.2315687 0.8200063 0.2038080
0.4848558 0.7926168 0.1896208
0.7237504 0.7657385 0.1815017
0.7212840 0.7279339 0.2199717
0.7098858 0.6761251 0.3997079
0.2608928 0.2568128 0.4121320
0.1466722 0.0594539 0.5112504
0.1438026 0.0055088 0.4909482
0.2312337 0.0000000 0.4592988
0.3537042 0.0030621 0.5196962
0.5693802 0.0076156 0.5597278
0.8035069 0.0036285 0.5834704
0.8404073 0.0042527 0.5939908
0.8713685 0.0034493 0.5986476
0.2466930 0.2332587 0.3874790
0.1176061 0.0850559 0.5214850
0.1359642 0.0537282 0.5260770
0.2373838 0.0426437 0.5257524
0.3543095 0.0412794 0.5539075
0.5768747 0.0449863 0.5731532
0.8076382 0.0353585 0.5776767
0.8520292 0.0322454 0.5914557
0.8817161 0.0326192 0.5947112
0.2751518 0.2877068 0.3919129
0.1655137 0.1746385 0.5121821
0.1605951 0.1325766 0.5222314
0.2582823 0.1316137 0.5210898
0.3380380 0.1111139 0.5310935
0.5310920 0.1076984 0.5369082
0.7673886 0.0799485 0.5423700
0.8382826 0.0717589 0.5772668
0.8740348 0.0735079 0.5846471
0.1799890 0.2098933 0.2412219
0.2679272 0.3209155 0.4489387
0.2557145 0.2930970 0.4572804
0.2836880 0.2656234 0.4632450
0.3170798 0.2487557 0.4530739
0.4570183 0.2044570 0.4619246
0.6920936 0.1576964 0.4874586
0.7819940 0.1551083 0.5411109
0.8322056 0.1607909 0.5564569
0.3231860 0.4496153 0.5142455
0.2568971 0.2608090 0.2580099
0.3427031 0.4283496 0.4972482
0.2593054 0.2576479 0.2980952
0.3330201 0.3309936 0.3677026
0.3936665 0.2912905 0.3738864
0.5464380 0.2318124 0.4137668
0.6476895 0.2266310 0.4817002
0.7293039 0.2406987 0.5088558
0.1071061 0.5364197 0.4880580
0.1133676 0.5137246 0.4539155
0.1705355 0.4466737 0.4023309
0.3545671 0.4683970 0.4586770
0.4632416 0.5380927 0.5250143
0.3263884 0.3343698 0.3214878
0.3614599 0.3369949 0.3205323
0.3737475 0.2903452 0.3087357
0.6026436 0.3531659 0.4054688
0.0100906 0.7518577 0.5271867
0.0373369 0.7528444 0.5162146
0.0768914 0.6479384 0.4369465
0.1913667 0.4348200 0.3056557
0.2861581 0.3204679 0.2719494
0.3997408 0.4407297 0.3958887
0.4985502 0.4984021 0.4351369
0.4141919 0.3671212 0.3204022
0.5472625 0.4382299 0.3531634
0.0000000 0.8226123 0.5726624
0.0222849 0.8223841 0.5607903
0.0542623 0.7739888 0.5176254
0.1407590 0.6426641 0.4191523
0.2266993 0.4825829 0.3210783
0.3079385 0.4435930 0.2738633
0.4531060 0.4473121 0.2515301
0.5434914 0.5383153 0.3471015
0.6746554 0.5480315 0.4097061
0.0000000 0.8641001 0.5879897
0.0220628 0.8671584 0.5757792
0.0528396 0.8515100 0.5513040
0.1327742 0.8063000 0.4961781
0.2206145 0.7391509 0.4280437
0.3910998 0.6875666 0.3500303
0.6218478 0.6642684 0.3193411
0.6402562 0.6650453 0.3483839
0.6998375 0.6820092 0.4472574
0.3784660 0.3385085 0.4552173
0.1510454 0.0634423 0.7485598
0.1615221 0.0151997 0.7800220
0.2782031 0.0158579 0.7497968
0.3865505 0.0061144 0.7645377
0.5978052 0.0027502 0.7949997
0.8174169 0.0013844 0.8051161
0.8520396 0.0000000 0.8147609
0.8680151 0.0003877 0.8079965
0.2285966 0.2215169 0.5865543
0.0991148 0.0715566 0.7584179
0.1257301 0.0399636 0.7954661
0.2481740 0.0373713 0.7934426
0.3708239 0.0340037 0.8005271
0.5906446 0.0311519 0.8060815
0.8215158 0.0267681 0.8113121
0.8568315 0.0251804 0.8189875
0.8846055 0.0253333 0.8207178
0.2513063 0.2639232 0.5335094
0.1158981 0.1345631 0.7310800
0.1102941 0.0825603 0.7803843
0.2396506 0.0896879 0.7884570
0.3588692 0.0870110 0.7915041
0.5661584 0.0728620 0.7883073
0.8029903 0.0596732 0.7942806
0.8483492 0.0564635 0.8113113
0.8829129 0.0579492 0.8180043
0.2086471 0.2638084 0.4137546
0.1596733 0.2255374 0.5781583
0.1671687 0.2213151 0.6683180
0.2314630 0.1966315 0.7171452
0.3521953 0.2226400 0.7258329
0.5151479 0.1694046 0.7283322
0.7518925 0.1393240 0.7456225
0.8199037 0.1318879 0.7883628
0.8671796 0.1359822 0.8046365
0.1765884 0.2255748 0.2708562
0.2158557 0.2405049 0.2996872
0.2812063 0.3160644 0.4096578
0.2933932 0.3186489 0.4613262
0.3690916 0.3465139 0.6131274
0.4708421 0.2816986 0.6162841
0.6576973 0.2120800 0.6515478
0.7475779 0.2066163 0.7349078
0.8220595 0.2207805 0.7732216
0.2239554 0.5306949 0.6093604
0.1731513 0.4384428 0.5085843
0.1927955 0.3352222 0.3805568
0.2414639 0.2833949 0.3345555
0.4638712 0.5389526 0.6280306
0.4168713 0.4035037 0.4728905
0.5149972 0.3278028 0.5093460
0.6091116 0.3406286 0.6169841
0.7237397 0.3791999 0.6862486
0.0418103 0.7299197 0.7005947
0.0634190 0.7368684 0.7033400
0.0962261 0.6762421 0.6417770
0.1811622 0.5435419 0.5202153
0.2527195 0.4042182 0.3943068
0.3670975 0.4273179 0.4106507
0.4955059 0.4905978 0.4957999
0.4880727 0.4598673 0.4470214
0.6206001 0.5459571 0.5397582
0.0078716 0.7942721 0.7628173
0.0290218 0.8028037 0.7694785
0.0594750 0.7610601 0.7331747
0.1399109 0.6477645 0.6397583
0.2251957 0.4719790 0.4904267
0.3192879 0.3998868 0.4001179
0.3865401 0.4258815 0.4013895
0.5365585 0.5541404 0.5382339
0.6190105 0.5085189 0.4507615
0.0032992 0.8516249 0.7939511
0.0244903 0.8555643 0.7960453
0.0549250 0.8369710 0.7787018
0.1331097 0.7755934 0.7227685
0.2152071 0.6618703 0.6170342
0.3538386 0.5734653 0.5214815
0.5060598 0.5542675 0.5002215
0.5475177 0.5980686 0.5376068
0.6991287 0.6900120 0.5573649
0.2569450 0.2258076 0.6668889
0.1274211 0.0413333 0.8095040
0.1621074 0.0124542 0.8346721
0.2808808 0.0095257 0.8257958
0.3985493 0.0083757 0.8147858
0.6067418 0.0059053 0.8259087
0.8202677 0.0081371 0.8294649
0.8570699 0.0001765 0.8434542
0.8860920 0.0000000 0.8486939
0.1532413 0.1775138 0.7143786
0.0756251 0.0538090 0.8143295
0.1196941 0.0326825 0.8409664
0.2481362 0.0322340 0.8384094
0.3763592 0.0309449 0.8395909
0.5997155 0.0290722 0.8418969
0.8293477 0.0266939 0.8435939
0.8606978 0.0250518 0.8478187
0.8877488 0.0249512 0.8490208
0.2030485 0.2450106 0.6400215
0.0823631 0.1154563 0.7920417
0.0866900 0.0633549 0.8301394
0.2236717 0.0681290 0.8390140
0.3570724 0.0690633 0.8397395
0.5849019 0.0635529 0.8385988
0.8225738 0.0576798 0.8383012
0.8571198 0.0557942 0.8446244
0.8863354 0.0566978 0.8464592
0.1955303 0.2922624 0.5961092
0.1077162 0.2165258 0.6993299
0.1113495 0.1898010 0.7574917
0.1860930 0.1502188 0.7961024
0.3267941 0.1637768 0.8110688
0.5547911 0.1512209 0.8133795
0.7999254 0.1359611 0.8142276
0.8426870 0.1327163 0.8305490
0.8780678 0.1342668 0.8364459
0.2309177 0.2794805 0.3823554
0.1795074 0.2360547 0.4396693
0.1820697 0.2423126 0.5049120
0.2363046 0.2567392 0.6470945
0.3151163 0.2581552 0.7249941
0.5345522 0.2613446 0.7537019
0.7562897 0.2236627 0.7593435
0.8058044 0.2187892 0.7945048
0.8551274 0.2259338 0.8130793
0.2164472 0.2720990 0.3093971
0.2686759 0.3692813 0.5192812
0.2994692 0.3647528 0.5309684
0.3286923 0.4080833 0.5246264
0.3655584 0.4293766 0.5822636
0.4837804 0.4325665 0.6396206
0.6674974 0.3883983 0.6544088
0.7048425 0.3800999 0.6940193
0.7956721 0.4160909 0.7492698
0.1350741 0.5746658 0.5694709
0.1240453 0.6026364 0.6022187
0.1535701 0.5595487 0.5564707
0.2269925 0.4905603 0.4919078
0.3700527 0.4767752 0.5166657
0.4674287 0.5530016 0.6661963
0.5305555 0.5290371 0.5734937
0.5226387 0.5121627 0.5252786
0.6907254 0.6270130 0.6373331
0.0711807 0.7148939 0.7289059
0.0731408 0.7241494 0.7389364
0.0957464 0.7031013 0.7203590
0.1777410 0.6487906 0.6669910
0.2449102 0.5637592 0.5774915
0.3689129 0.5224347 0.5208582
0.5231880 0.5836778 0.5696862
0.4678343 0.4733954 0.4741730
0.7359175 0.7128864 0.6603024
0.0355754 0.8104153 0.7932765
0.0402778 0.8115740 0.7949048
0.0751703 0.7938870 0.7811940
0.1574004 0.7465829 0.7363063
0.2336577 0.6566962 0.6372436
0.3617552 0.5590605 0.5050438
0.4957550 0.5682488 0.4998861
0.5288065 0.6030957 0.5312506
0.6958769 0.6877099 0.5960446
0.0544270 0.0395559 0.8390168
0.0995372 0.0173501 0.8605340
0.1576216 0.0086099 0.8671509
0.2802581 0.0070728 0.8681648
0.4024258 0.0084282 0.8628316
0.6102309 0.0069793 0.8604065
0.8276401 0.0053792 0.8638446
0.8619620 0.0010537 0.8730095
0.8889624 0.0000430 0.8756049
0.0477686 0.0935917 0.8375913
0.0537433 0.0374636 0.8593568
0.1154897 0.0295027 0.8705029
0.2468195 0.0299427 0.8713680
0.3774874 0.0312173 0.8694531
0.6002796 0.0295812 0.8689889
0.8291206 0.0270271 0.8693141
0.8615064 0.0254259 0.8741466
0.8891632 0.0251105 0.8758261
0.0611597 0.1571290 0.8021784
0.0587925 0.1031745 0.8430239
0.0776754 0.0582639 0.8644543
0.2182388 0.0637700 0.8684409
0.3556873 0.0663180 0.8681843
0.5872760 0.0622266 0.8692670
0.8251126 0.0578909 0.8683937
0.8589636 0.0568348 0.8730750
0.8883500 0.0570713 0.8750348
0.1032243 0.2475284 0.6760500
0.0801053 0.2151850 0.7802444
0.0908060 0.1846872 0.8191959
0.1686168 0.1380351 0.8414305
0.3149215 0.1471806 0.8524323
0.5607780 0.1440475 0.8595587
0.8120920 0.1362044 0.8580884
0.8507678 0.1356174 0.8668888
0.8845563 0.1365800 0.8710469
0.2140265 0.2981311 0.5018860
0.1384762 0.2648459 0.6264535
0.1389045 0.2491154 0.6618631
0.1940560 0.2282014 0.7181241
0.2800831 0.2150586 0.7808935
0.5341193 0.2322386 0.8202833
0.7914257 0.2290955 0.8320314
0.8323973 0.2313035 0.8495621
0.8731260 0.2352072 0.8592848
0.2374211 0.2735952 0.3734523
0.2447325 0.2685649 0.3705883
0.2384975 0.2789481 0.3791827
0.2434923 0.2961095 0.4474715
0.2827715 0.3298628 0.5673359
0.4730526 0.3788032 0.7100895
0.7484258 0.4191584 0.7745442
0.7820434 0.4310435 0.8007928
0.8373562 0.4462461 0.8220063
0.2369183 0.3254585 0.4306522
0.2561086 0.3763443 0.4501236
0.2733956 0.3350511 0.4330435
0.2810215 0.3428022 0.4528440
0.2975724 0.3492434 0.4491796
0.3272318 0.3758711 0.4805507
0.6358888 0.6020359 0.6812422
0.6787901 0.6499227 0.7151517
0.7564454 0.6864362 0.7475784
0.3070265 0.4365139 0.6064943
0.2823193 0.4442041 0.6214234
0.3113775 0.4415081 0.6187445
0.3125716 0.4467756 0.6148174
0.3226415 0.4585065 0.5554747
0.3805085 0.4780373 0.6020023
0.4392819 0.5097381 0.5759282
0.6116306 0.6252141 0.6819166
0.7157247 0.6863358 0.7137397
0.0821424 0.7430966 0.7766491
0.0891665 0.7426068 0.7812690
0.1172381 0.7129163 0.7663636
0.2053330 0.6656946 0.7350312
0.2774469 0.6292110 0.6917520
0.3880495 0.6173824 0.6422627
0.5434947 0.6309447 0.6610015
0.5970528 0.6673647 0.7205540
0.7393597 0.7410752 0.7419963
