styles/experimental/experimental-flower/look.cube
# experimental-flower tuned
LUT_3D_SIZE 33
DOMAIN_MIN 0 0 0
DOMAIN_MAX 1 1 1
0.1199995 0.1188192 0.1213381
0.1707335 0.1670109 0.1697955
0.0894397 0.0912961 0.0917295
0.1024205 0.1022286 0.1046408
0.1242396 0.1180331 0.1144204
0.1383002 0.1358875 0.1339690
0.1818631 0.1673277 0.1636152
0.2399374 0.1922367 0.1917593
0.3020403 0.2177250 0.2156891
0.2923116 0.2039101 0.2042914
0.3280987 0.2103664 0.2143402
0.3359972 0.2108043 0.2152783
0.3488952 0.2151560 0.2207920
0.3733574 0.2263455 0.2298543
0.4007599 0.2284670 0.2321683
0.3987002 0.2327165 0.2303580
0.4372151 0.2393739 0.2298594
0.5287976 0.2449312 0.2252895
0.5265530 0.2432080 0.2191388
0.5180455 0.2386418 0.2208345
0.5588059 0.2451802 0.2253722
0.5676107 0.2425523 0.2255147
0.5584331 0.2373330 0.2260534
0.5966719 0.2392762 0.2193160
0.6357249 0.2419902 0.2175089
0.6001452 0.2456149 0.2263686
0.5867581 0.2487455 0.2331040
0.5925205 0.2516536 0.2341550
0.5911087 0.2517833 0.2336131
0.5821925 0.2568527 0.2414369
0.5724333 0.2647034 0.2563391
0.5838660 0.2593600 0.2547450
0.6127229 0.2614156 0.2664853
0.0928778 0.0972332 0.0947996
0.0708561 0.0736260 0.0773330
0.0989909 0.0991257 0.0979586
0.1186400 0.1128264 0.1132829
0.0912650 0.0940757 0.1030718
0.1242134 0.1158524 0.1132789
0.1258161 0.1272665 0.1259312
0.1155813 0.1197578 0.1204368
0.1438845 0.1377410 0.1358777
0.1922671 0.1696655 0.1637430
0.2316651 0.1938814 0.1854596
0.2576647 0.2091606 0.1978186
0.2680960 0.2112544 0.1981152
0.2830208 0.2151685 0.1999803
0.2759591 0.2091832 0.1945811
0.2471308 0.2001757 0.1867046
0.2323880 0.1983876 0.1866259
0.2499216 0.1998371 0.1888145
0.2499351 0.2018588 0.1913128
0.3222803 0.2196019 0.2036456
0.3663851 0.2289675 0.2084091
0.3888233 0.2293530 0.2065658
0.4128319 0.2248772 0.2015841
0.4746446 0.2278073 0.1979285
0.5422034 0.2369473 0.2007727
0.5502609 0.2440764 0.2058237
0.5727237 0.2510070 0.2112994
0.5973054 0.2545367 0.2139710
0.6121768 0.2532024 0.2131062
0.6209951 0.2514423 0.2146036
0.6266365 0.2524855 0.2205802
0.6379231 0.2521749 0.2246497
0.6558882 0.2569787 0.2347397
0.0957330 0.0983920 0.0954691
0.1013951 0.1008623 0.1014761
0.0803509 0.0806475 0.0831682
0.1225342 0.1206799 0.1148884
0.1526814 0.1456771 0.1373033
0.0875114 0.0931208 0.1007447
0.1309231 0.1213891 0.1113949
0.1680430 0.1555704 0.1503496
0.1725152 0.1590277 0.1584776
0.1819577 0.1642683 0.1620519
0.2137675 0.1855320 0.1773757
0.2600096 0.2146123 0.1989004
0.2990971 0.2355039 0.2150369
0.3357201 0.2490964 0.2243948
0.3328001 0.2461600 0.2207389
0.3097739 0.2395010 0.2157314
0.2631338 0.2224518 0.2070263
0.2510771 0.2174969 0.2084827
0.2540516 0.2230970 0.2170983
0.2909276 0.2347883 0.2226057
0.3093940 0.2385400 0.2210329
0.3085209 0.2368524 0.2169000
0.3385714 0.2357300 0.2114167
0.4037525 0.2362838 0.2035721
0.4851513 0.2420907 0.1998500
0.5094084 0.2476081 0.2001782
0.5460341 0.2535419 0.2028562
0.5805581 0.2580047 0.2058220
0.6065268 0.2564905 0.2037561
0.6237047 0.2524387 0.2026353
0.6333837 0.2533254 0.2085334
0.6487044 0.2540847 0.2135928
0.6660235 0.2593001 0.2237310
0.1081996 0.1085333 0.1061034
0.1744438 0.1805829 0.1711334
0.1499118 0.1513354 0.1433471
0.1017439 0.1031997 0.1064996
0.1691587 0.1647714 0.1498711
0.2021474 0.1904183 0.1760098
0.1070823 0.1174295 0.1285743
0.1448292 0.1376712 0.1298518
0.1694291 0.1544414 0.1501672
0.1902534 0.1699307 0.1699559
0.1983034 0.1750926 0.1714070
0.2256161 0.1904663 0.1799990
0.2951186 0.2323018 0.2149791
0.3680639 0.2662132 0.2409525
0.4131319 0.2858933 0.2519253
0.4142518 0.2920006 0.2550659
0.3651813 0.2680996 0.2399485
0.3526298 0.2620219 0.2402110
0.3457236 0.2616759 0.2431263
0.3459913 0.2642116 0.2455099
0.3407290 0.2632930 0.2419199
0.3229589 0.2574203 0.2346969
0.3311343 0.2525782 0.2263114
0.3756872 0.2516907 0.2177845
0.4497759 0.2538905 0.2090060
0.4864337 0.2584216 0.2061932
0.5231454 0.2606629 0.2036127
0.5613237 0.2615202 0.2018663
0.5912211 0.2577106 0.1980418
0.6083591 0.2563605 0.1994884
0.6193485 0.2585718 0.2065906
0.6372185 0.2613109 0.2146297
0.6597547 0.2696825 0.2272895
0.1059841 0.1043394 0.1019017
0.1539720 0.1568929 0.1519622
0.1689573 0.1772235 0.1627488
0.1607766 0.1630778 0.1534325
0.1066357 0.1110006 0.1173385
0.2021533 0.1903661 0.1657681
0.2504032 0.2252632 0.1900797
0.1909144 0.1827851 0.1766411
0.1500689 0.1430627 0.1335974
0.1429943 0.1349759 0.1340195
0.1868500 0.1705394 0.1691113
0.2168259 0.1894336 0.1819161
0.2306874 0.1946135 0.1857874
0.2837100 0.2205801 0.2057967
0.3464373 0.2523026 0.2262853
0.4078214 0.2894272 0.2525849
0.4212278 0.2994473 0.2618569
0.4325317 0.3031198 0.2659001
0.4244568 0.3039993 0.2696367
0.4005267 0.2940431 0.2648427
0.3849474 0.2878149 0.2584972
0.3569456 0.2782481 0.2490668
0.3621145 0.2739182 0.2400128
0.3989543 0.2701134 0.2281652
0.4646318 0.2675804 0.2156825
0.4880432 0.2661284 0.2081712
0.5102871 0.2650858 0.2026893
0.5433468 0.2646497 0.2002462
0.5667013 0.2616150 0.1981772
0.5843065 0.2613044 0.2013990
0.5942739 0.2662632 0.2124076
0.6167819 0.2706024 0.2218283
0.6424103 0.2816443 0.2374796
0.1060345 0.1028304 0.1012445
0.1362884 0.1333419 0.1312325
0.1454142 0.1494145 0.1446272
0.1657432 0.1720364 0.1579367
0.1757619 0.1775551 0.1677946
0.1084255 0.1155117 0.1256618
0.2073775 0.1851166 0.1499247
0.2771137 0.2408765 0.1901870
0.2403282 0.2150317 0.1767603
0.1900599 0.1722644 0.1471018
0.1187338 0.1168357 0.1192320
0.1574009 0.1422446 0.1443383
0.2515066 0.2005004 0.1860330
0.2706793 0.2068884 0.1938886
0.2695054 0.2010978 0.1882381
0.2993391 0.2218850 0.2029648
0.3409733 0.2524385 0.2272860
0.4012440 0.2871777 0.2516375
0.4282001 0.3129762 0.2716081
0.4262497 0.3159530 0.2758458
0.4273105 0.3220190 0.2790071
0.3940875 0.3056522 0.2653021
0.3938035 0.2983424 0.2542223
0.4284744 0.2898187 0.2374654
0.4910905 0.2844832 0.2222391
0.5045260 0.2786847 0.2109785
0.5136949 0.2725509 0.2029809
0.5338021 0.2700121 0.2000019
0.5485304 0.2685956 0.2006360
0.5605479 0.2675116 0.2054032
0.5666270 0.2750870 0.2215090
0.5955110 0.2797960 0.2315875
0.6238597 0.2924645 0.2512594
0.1093870 0.1063423 0.1024567
0.1312556 0.1244461 0.1245768
0.1313623 0.1254886 0.1296131
0.1361908 0.1371910 0.1365760
0.1671417 0.1742796 0.1568234
0.1842863 0.1914955 0.1714085
0.1147044 0.1239572 0.1285614
0.1562536 0.1520443 0.1429609
0.2870099 0.2569650 0.2021807
0.3159411 0.2742711 0.2018193
0.2649024 0.2336201 0.1859902
0.1288343 0.1273990 0.1233970
0.1220269 0.1164990 0.1174184
0.2307327 0.1824811 0.1690168
0.3045713 0.2173278 0.1966138
0.3014790 0.2086433 0.1900796
0.2824444 0.2032380 0.1889167
0.3027599 0.2167529 0.1963982
0.3504700 0.2557079 0.2260879
0.3917201 0.2899424 0.2526069
0.4335429 0.3268467 0.2768410
0.4296725 0.3337192 0.2803431
0.4247702 0.3340768 0.2796195
0.4435040 0.3198846 0.2595275
0.5075041 0.3091424 0.2380291
0.5192614 0.3003158 0.2233349
0.5281568 0.2921268 0.2125689
0.5393551 0.2856217 0.2068028
0.5463093 0.2774804 0.2031521
0.5495663 0.2764525 0.2106865
0.5523486 0.2840235 0.2287375
0.5813281 0.2884809 0.2412856
0.6091554 0.2989726 0.2614365
0.1059369 0.1111424 0.0993365
0.1282226 0.1250005 0.1227729
0.1309379 0.1199598 0.1285996
0.1259718 0.1131337 0.1282955
0.1399131 0.1402517 0.1397164
0.1874803 0.1991507 0.1694900
0.2031001 0.2126693 0.1818528
0.1339759 0.1411114 0.1410710
0.1373847 0.1445672 0.1451712
0.2888442 0.2639245 0.2073660
0.3528605 0.3031672 0.2202195
0.3083993 0.2683208 0.2050592
0.1863678 0.1677817 0.1499725
0.1482868 0.1350616 0.1320998
0.2187693 0.1795028 0.1648027
0.3206011 0.2278379 0.1940285
0.3545636 0.2380781 0.2008027
0.3301860 0.2198621 0.1917007
0.3044432 0.2117823 0.1911825
0.3438542 0.2455241 0.2181036
0.3846389 0.2814692 0.2424718
0.3956711 0.3015885 0.2571299
0.4030081 0.3225880 0.2736931
0.4192798 0.3325820 0.2789391
0.5106804 0.3375342 0.2634607
0.5316199 0.3316726 0.2475461
0.5489841 0.3219194 0.2315227
0.5595460 0.3113029 0.2214008
0.5609922 0.2989029 0.2156682
0.5554289 0.2927107 0.2217491
0.5547226 0.2939985 0.2358370
0.5756548 0.2960580 0.2490242
0.5984636 0.3033053 0.2689356
0.0979091 0.1180358 0.0940417
0.1222689 0.1301811 0.1170370
0.1313012 0.1264373 0.1261129
0.1296178 0.1131482 0.1279219
0.1284216 0.1143467 0.1293631
0.1560843 0.1575866 0.1508163
0.2103079 0.2221760 0.1841825
0.2127095 0.2180982 0.1845920
0.1465920 0.1535448 0.1501714
0.1408278 0.1421327 0.1426495
0.2344732 0.2096980 0.1695317
0.2970604 0.2529992 0.1869995
0.2744693 0.2397229 0.1965434
0.2104727 0.1831401 0.1690438
0.2017285 0.1755303 0.1628635
0.2425092 0.1950209 0.1706665
0.3400647 0.2420434 0.1969237
0.3974590 0.2589485 0.2035681
0.3820861 0.2468671 0.2025364
0.3413672 0.2361939 0.2092969
0.3655961 0.2555582 0.2298529
0.3744564 0.2669305 0.2382114
0.3798941 0.2855012 0.2522699
0.3861917 0.3075657 0.2700893
0.4737840 0.3253196 0.2641960
0.5232988 0.3435814 0.2624644
0.5610206 0.3496419 0.2525727
0.5840666 0.3505728 0.2485227
0.5837958 0.3381910 0.2428538
0.5755556 0.3186893 0.2382915
0.5708963 0.3112026 0.2469081
0.5812207 0.3084401 0.2578950
0.6003829 0.3115360 0.2753112
0.0867637 0.1397257 0.0876374
0.1117798 0.1500911 0.1061744
0.1277718 0.1499191 0.1189658
0.1368433 0.1402721 0.1288111
0.1336493 0.1227518 0.1305769
0.1453284 0.1396013 0.1433225
0.1886435 0.2014269 0.1733577
0.2353750 0.2529842 0.2004863
0.2247049 0.2387523 0.1939311
0.1689331 0.1755296 0.1606348
0.1449738 0.1457764 0.1411541
0.1656804 0.1594331 0.1420575
0.1854673 0.1751343 0.1554711
0.2084010 0.1878152 0.1689394
0.2422831 0.2082133 0.1860852
0.2497603 0.2119796 0.1872188
0.2840001 0.2268357 0.1908257
0.3436229 0.2497565 0.1954319
0.4060687 0.2710543 0.2052219
0.4287783 0.2680355 0.2076654
0.4154422 0.2703689 0.2262693
0.3690587 0.2662558 0.2402736
0.3972459 0.2787370 0.2463516
0.4034901 0.2951023 0.2594969
0.4448804 0.3071855 0.2561533
0.4916370 0.3244263 0.2516281
0.5383703 0.3368376 0.2426389
0.5802977 0.3538500 0.2437959
0.6024717 0.3660102 0.2520416
0.6088793 0.3597621 0.2533162
0.6000340 0.3506203 0.2601996
0.5956202 0.3427805 0.2709691
0.6085318 0.3431681 0.2880601
0.0748853 0.1644030 0.0779168
0.0985276 0.1719344 0.0919883
0.1179735 0.1724116 0.1056900
0.1344933 0.1657619 0.1204987
0.1443052 0.1524706 0.1331681
0.1513339 0.1473232 0.1447048
0.1671831 0.1718852 0.1574616
0.2147347 0.2361653 0.1890434
0.2499745 0.2760454 0.2110291
0.2377112 0.2531278 0.2016532
0.1884254 0.1960069 0.1704397
0.1713376 0.1737063 0.1551813
0.1771985 0.1747196 0.1533637
0.1960491 0.1852827 0.1633815
0.2471910 0.2173427 0.1857370
0.2806912 0.2378821 0.2006537
0.2946899 0.2473712 0.2068582
0.3116960 0.2484126 0.2029847
0.3484357 0.2613655 0.2051215
0.3986204 0.2744417 0.2085562
0.4604779 0.2788996 0.2033266
0.4730317 0.2817605 0.2142940
0.4748118 0.2933529 0.2418454
0.4632973 0.2975206 0.2533898
0.4650402 0.3015004 0.2569049
0.4960745 0.3163059 0.2551558
0.5329102 0.3261664 0.2430074
0.5695753 0.3347040 0.2317587
0.5975670 0.3481290 0.2334736
0.6187139 0.3573928 0.2402279
0.6193397 0.3685422 0.2582506
0.6172167 0.3828832 0.2875831
0.6215814 0.3923562 0.3126924
0.0640188 0.1942916 0.0671428
0.0849838 0.1981869 0.0768572
0.1052009 0.1976724 0.0893221
0.1242935 0.1918518 0.1045573
0.1407980 0.1806885 0.1220037
0.1530974 0.1681899 0.1391883
0.1637792 0.1630386 0.1535608
0.1845933 0.1932922 0.1675418
0.2274954 0.2546374 0.1972533
0.2629314 0.2872178 0.2150787
0.2463593 0.2621921 0.2059380
0.2129995 0.2205555 0.1830090
0.2030742 0.2027520 0.1720958
0.2140487 0.2048647 0.1717982
0.2418926 0.2176647 0.1781201
0.2858003 0.2460140 0.1992104
0.3071742 0.2598617 0.2101923
0.3268175 0.2683328 0.2182285
0.3445773 0.2774825 0.2230688
0.3612935 0.2787595 0.2180616
0.4063986 0.2845764 0.2151591
0.4661853 0.2922134 0.2112777
0.4828489 0.2916018 0.2161681
0.5213802 0.2950511 0.2226093
0.5403911 0.3008923 0.2387341
0.5179450 0.3073699 0.2556928
0.5381580 0.3159696 0.2504911
0.5674105 0.3218516 0.2336023
0.5963198 0.3316773 0.2249145
0.6237212 0.3438380 0.2243418
0.6353304 0.3597198 0.2378771
0.6367673 0.3885196 0.2747118
0.6498189 0.4436359 0.3363594
0.0544512 0.2258516 0.0569376
0.0734027 0.2283497 0.0635986
0.0930057 0.2270138 0.0738710
0.1134343 0.2214839 0.0883407
0.1332113 0.2123594 0.1061981
0.1511260 0.1999211 0.1265784
0.1663594 0.1867077 0.1469041
0.1795448 0.1841229 0.1625620
0.2055903 0.2225185 0.1844681
0.2471578 0.2697552 0.2073428
0.2657464 0.2868124 0.2181483
0.2483569 0.2635595 0.2074058
0.2317482 0.2372239 0.1931735
0.2315870 0.2278039 0.1840543
0.2524013 0.2358824 0.1865654
0.2871707 0.2554320 0.2023618
0.3207279 0.2765532 0.2161130
0.3293117 0.2726816 0.2178512
0.3387978 0.2756039 0.2215747
0.3598800 0.2903196 0.2286002
0.3718994 0.2898840 0.2259685
0.3938057 0.2896444 0.2238198
0.4159333 0.2911468 0.2229816
0.4524512 0.2996873 0.2290108
0.5209135 0.3027988 0.2265682
0.5577749 0.3072872 0.2341488
0.5707112 0.3044488 0.2339008
0.5817546 0.3120603 0.2382882
0.6079244 0.3288479 0.2317271
0.6321720 0.3400972 0.2202351
0.6449797 0.3515380 0.2227136
0.6438216 0.3713753 0.2479317
0.6442176 0.4091002 0.2916918
0.0438118 0.2575662 0.0455832
0.0618966 0.2603058 0.0503835
0.0812662 0.2588154 0.0588278
0.1022519 0.2542267 0.0716626
0.1236098 0.2466339 0.0886608
0.1436111 0.2354647 0.1086020
0.1616400 0.2211029 0.1303181
0.1781544 0.2084626 0.1529589
0.1958127 0.2119119 0.1774385
0.2240143 0.2384098 0.1965820
0.2498262 0.2660109 0.2104772
0.2617147 0.2764455 0.2153843
0.2586306 0.2676383 0.2079350
0.2520103 0.2525902 0.1951246
0.2641890 0.2551676 0.1957788
0.2799715 0.2605935 0.2050922
0.2983984 0.2721194 0.2143274
0.3164886 0.2737125 0.2166074
0.3243213 0.2705828 0.2147984
0.3455717 0.2830184 0.2195412
0.3530305 0.2848998 0.2177592
0.3726858 0.2916970 0.2236105
0.3964371 0.3044072 0.2367346
0.4231202 0.3143014 0.2446371
0.4457258 0.3064694 0.2408805
0.4885044 0.3068718 0.2432944
0.5932295 0.3323487 0.2452819
0.6110670 0.3304235 0.2487893
0.6217355 0.3382359 0.2447005
0.6366000 0.3422997 0.2222458
0.6497238 0.3470411 0.2134937
0.6493060 0.3533796 0.2220613
0.6464035 0.3674873 0.2416170
0.0330062 0.2932655 0.0352573
0.0511420 0.2949712 0.0389755
0.0704027 0.2933105 0.0460779
0.0911003 0.2891446 0.0570839
0.1121989 0.2823464 0.0718438
0.1325357 0.2722361 0.0895768
0.1517859 0.2588373 0.1099187
0.1700672 0.2441553 0.1337035
0.1904770 0.2352417 0.1643806
0.2179872 0.2376668 0.1922336
0.2344546 0.2483232 0.2031930
0.2495175 0.2630405 0.2044148
0.2599083 0.2701420 0.2024078
0.2637255 0.2685857 0.1954421
0.2656249 0.2642984 0.1910902
0.2715127 0.2643051 0.1977476
0.2780359 0.2680267 0.2083082
0.2952278 0.2684949 0.2146701
0.3129138 0.2750163 0.2207998
0.3381792 0.2893967 0.2255008
0.3399888 0.2846653 0.2169238
0.3563515 0.2905318 0.2183239
0.3757761 0.3034350 0.2316851
0.4076289 0.3199865 0.2469982
0.4453248 0.3306338 0.2588944
0.4450822 0.3190259 0.2572531
0.5206238 0.3321489 0.2541014
0.6055881 0.3578395 0.2635862
0.6207015 0.3526302 0.2479005
0.6309600 0.3445717 0.2207437
0.6476403 0.3439632 0.2067543
0.6470161 0.3405193 0.2068939
0.6458662 0.3409364 0.2148606
0.0239296 0.3312737 0.0265558
0.0420850 0.3312843 0.0295682
0.0610073 0.3292289 0.0353331
0.0809773 0.3252340 0.0443423
0.1015101 0.3188205 0.0566296
0.1217993 0.3095636 0.0718031
0.1414931 0.2975677 0.0899912
0.1602940 0.2835979 0.1117582
0.1767746 0.2686186 0.1364718
0.2029394 0.2556830 0.1628287
0.2241991 0.2520472 0.1845281
0.2362906 0.2545951 0.1866132
0.2469914 0.2615264 0.1810671
0.2568110 0.2682250 0.1758776
0.2649646 0.2717727 0.1756182
0.2675675 0.2697360 0.1806854
0.2661942 0.2677575 0.1897486
0.2841156 0.2676081 0.2052375
0.3022306 0.2743564 0.2225985
0.3249902 0.2893758 0.2334571
0.3310033 0.2880667 0.2289309
0.3466353 0.2935337 0.2272682
0.3628550 0.3011627 0.2304104
0.3864623 0.3125235 0.2399906
0.4254766 0.3253901 0.2545772
0.4453646 0.3395826 0.2718619
0.4837810 0.3398805 0.2664622
0.5335384 0.3378682 0.2507564
0.5777071 0.3382459 0.2335924
0.6074564 0.3355471 0.2129417
0.6324959 0.3352851 0.1991809
0.6351478 0.3277806 0.1971140
0.6291417 0.3175642 0.2011180
0.0171915 0.3685711 0.0198275
0.0349964 0.3675391 0.0218668
0.0535193 0.3653750 0.0263735
0.0727347 0.3615802 0.0334636
0.0924821 0.3556866 0.0432698
0.1123996 0.3473352 0.0558939
0.1317062 0.3363745 0.0712165
0.1499945 0.3230954 0.0893884
0.1655646 0.3073754 0.1094474
0.1906748 0.2905418 0.1291059
0.2097636 0.2741754 0.1452270
0.2241032 0.2651166 0.1533924
0.2364772 0.2654133 0.1529105
0.2498878 0.2712507 0.1527467
0.2634286 0.2793471 0.1552112
0.2689628 0.2798423 0.1605958
0.2655455 0.2751392 0.1679983
0.2820603 0.2713661 0.1834196
0.2927864 0.2685508 0.2013121
0.3019156 0.2727886 0.2152610
0.3079083 0.2740057 0.2221683
0.3285804 0.2851155 0.2310764
0.3494495 0.2955379 0.2391431
0.3647082 0.2996764 0.2380434
0.3937445 0.3032733 0.2448400
0.4154400 0.3255004 0.2680835
0.4571107 0.3422369 0.2799078
0.4852736 0.3260564 0.2545919
0.5272411 0.3172689 0.2283487
0.5738855 0.3188649 0.2073417
0.6082407 0.3204086 0.1932241
0.6182450 0.3134894 0.1906680
0.6097414 0.2988873 0.1977899
0.0117630 0.4271064 0.0140539
0.0294899 0.4261538 0.0156527
0.0476319 0.4241709 0.0190647
0.0662343 0.4208033 0.0244822
0.0853422 0.4156376 0.0320705
0.1047692 0.4083425 0.0420666
0.1236937 0.3985684 0.0543721
0.1412395 0.3863461 0.0686924
0.1566373 0.3714642 0.0844367
0.1825351 0.3545043 0.0998779
0.2036931 0.3359952 0.1125677
0.2200693 0.3191891 0.1204444
0.2337249 0.3088846 0.1234501
0.2500644 0.3104379 0.1263940
0.2636306 0.3147712 0.1286921
0.2722051 0.3154973 0.1341656
0.2733369 0.3126604 0.1418365
0.2897794 0.3057561 0.1549450
0.2964199 0.2941621 0.1711952
0.2959502 0.2834847 0.1880812
0.2925842 0.2749249 0.2007599
0.3044513 0.2790837 0.2118589
0.3304209 0.2926937 0.2272050
0.3477002 0.3001950 0.2412101
0.3572437 0.2922824 0.2414103
0.3821881 0.3095134 0.2576706
0.4208603 0.3339612 0.2752743
0.4461851 0.3348953 0.2730632
0.4777735 0.3165549 0.2398435
0.5353690 0.3193455 0.2128266
0.5776753 0.3223031 0.1941806
0.5996556 0.3198993 0.1881425
0.5983829 0.3072778 0.1922076
0.0081379 0.4857119 0.0099644
0.0254466 0.4846848 0.0109123
0.0432283 0.4829809 0.0133494
0.0613455 0.4801311 0.0173361
0.0799226 0.4757786 0.0230164
0.0987904 0.4696206 0.0305506
0.1171642 0.4612089 0.0399123
0.1344021 0.4502534 0.0509068
0.1498139 0.4365965 0.0630215
0.1766983 0.4204069 0.0752245
0.2002924 0.4023062 0.0860972
0.2195808 0.3834021 0.0941178
0.2355620 0.3672283 0.0989124
0.2525519 0.3612613 0.1032913
0.2672885 0.3606231 0.1061763
0.2768541 0.3578848 0.1096598
0.2814048 0.3544814 0.1163217
0.3016008 0.3475028 0.1263457
0.3118773 0.3341190 0.1398299
0.3098611 0.3138261 0.1565095
0.3044266 0.2961310 0.1769585
0.3032020 0.2868677 0.1896385
0.3191016 0.2892502 0.2073648
0.3429378 0.2955593 0.2286365
0.3610819 0.2944109 0.2388703
0.3660251 0.2977208 0.2464243
0.4007496 0.3156458 0.2598947
0.4220103 0.3226695 0.2704285
0.4437167 0.3154049 0.2619898
0.4942852 0.3138208 0.2310054
0.5476171 0.3222790 0.2081444
0.5793013 0.3239361 0.1937674
0.5847775 0.3142708 0.1934283
0.0051508 0.5428171 0.0068085
0.0224385 0.5425978 0.0073352
0.0400125 0.5413815 0.0090101
0.0577611 0.5390836 0.0118233
0.0758482 0.5354560 0.0158723
0.0943708 0.5305206 0.0213860
0.1123535 0.5234912 0.0282434
0.1293449 0.5140475 0.0363420
0.1448022 0.5019382 0.0453313
0.1724413 0.4871899 0.0546048
0.1979263 0.4705266 0.0635374
0.2199390 0.4523338 0.0709083
0.2389299 0.4350055 0.0763926
0.2554833 0.4216200 0.0800162
0.2709566 0.4147460 0.0839269
0.2831138 0.4094901 0.0884475
0.2907622 0.4043488 0.0941109
0.3152693 0.3969760 0.1004572
0.3322189 0.3853611 0.1091717
0.3383834 0.3668178 0.1217542
0.3348816 0.3419044 0.1397828
0.3241496 0.3161915 0.1551400
0.3225909 0.2975708 0.1732047
0.3378958 0.2896413 0.1907928
0.3809361 0.2999169 0.2025519
0.3857144 0.3038007 0.2159076
0.3914154 0.3009183 0.2323575
0.4041112 0.2995167 0.2416138
0.4324411 0.3101700 0.2591379
0.4529125 0.2986150 0.2456603
0.5213513 0.3215463 0.2367344
0.5651932 0.3291805 0.2103538
0.5810949 0.3251812 0.1994905
0.0029024 0.6001239 0.0042724
0.0202538 0.6001926 0.0046551
0.0377372 0.5993969 0.0058034
0.0552564 0.5976432 0.0077271
0.0729858 0.5947100 0.0104891
0.0912829 0.5909331 0.0143945
0.1089958 0.5852466 0.0192142
0.1258399 0.5773906 0.0249179
0.1414246 0.5670926 0.0312730
0.1695285 0.5541271 0.0378031
0.1962785 0.5394394 0.0446115
0.2204355 0.5231707 0.0507537
0.2416754 0.5063786 0.0555905
0.2594027 0.4901572 0.0586997
0.2742062 0.4766874 0.0608108
0.2879261 0.4674329 0.0646260
0.2999103 0.4614408 0.0708485
0.3294294 0.4539409 0.0769368
0.3527376 0.4433708 0.0836987
0.3680044 0.4281006 0.0917835
0.3730705 0.4052504 0.1013988
0.3715965 0.3790346 0.1138664
0.3650327 0.3477022 0.1277335
0.3716805 0.3250427 0.1411255
0.4099870 0.3246867 0.1572889
0.4136666 0.3249508 0.1812245
0.4077059 0.3119390 0.2052103
0.4033639 0.2959544 0.2157495
0.4308928 0.3031144 0.2333723
0.4583909 0.3049167 0.2454299
0.5172310 0.3318431 0.2621219
0.5592288 0.3351399 0.2345700
0.5822291 0.3355934 0.2100141
0.0012523 0.6571615 0.0024479
0.0186881 0.6574305 0.0026981
0.0361860 0.6570435 0.0035052
0.0536684 0.6558977 0.0048297
0.0713769 0.6538679 0.0067292
0.0892996 0.6508312 0.0093034
0.1068028 0.6463298 0.0125257
0.1235816 0.6400048 0.0163426
0.1393107 0.6315424 0.0205804
0.1678586 0.6205983 0.0248720
0.1954320 0.6080469 0.0295074
0.2210227 0.5939103 0.0339166
0.2440073 0.5785568 0.0374596
0.2640492 0.5629499 0.0400241
0.2815007 0.5485528 0.0420257
0.2969283 0.5364759 0.0447548
0.3102452 0.5269212 0.0487970
0.3423563 0.5168680 0.0530815
0.3708846 0.5060101 0.0582743
0.3941092 0.4930115 0.0639486
0.4107654 0.4758287 0.0704028
0.4206854 0.4533508 0.0784820
0.4236889 0.4235024 0.0871370
0.4347637 0.3985525 0.0994517
0.4572060 0.3790090 0.1170724
0.4375031 0.3558826 0.1503236
0.4133792 0.3241777 0.1874600
0.4087735 0.3040567 0.1983255
0.4254054 0.2986004 0.2102533
0.4580044 0.3037810 0.2284269
0.5184636 0.3340481 0.2435957
0.5569687 0.3354029 0.2304668
0.5915252 0.3431389 0.2185645
0.0000000 0.7133210 0.0007273
0.0175264 0.7142376 0.0012253
0.0351392 0.7142963 0.0018863
0.0526318 0.7136592 0.0028113
0.0702898 0.7122924 0.0040710
0.0880724 0.7100472 0.0057252
0.1054896 0.7066272 0.0077815
0.1223029 0.7017215 0.0101996
0.1382742 0.6950594 0.0128624
0.1674798 0.6863989 0.0155564
0.1952797 0.6755432 0.0179876
0.2221474 0.6638593 0.0208759
0.2465955 0.6504531 0.0229833
0.2683957 0.6360323 0.0243740
0.2883280 0.6223425 0.0256930
0.3063652 0.6099975 0.0275076
0.3220414 0.5987883 0.0299294
0.3579258 0.5882055 0.0326935
0.3905151 0.5766473 0.0355004
0.4185369 0.5630279 0.0386030
0.4450261 0.5500102 0.0442764
0.4683186 0.5348284 0.0520091
0.4870704 0.5146277 0.0595487
0.5040787 0.4900561 0.0690945
0.5237535 0.4637192 0.0855635
0.4902975 0.4252065 0.1155720
0.4362753 0.3633134 0.1656862
0.4176154 0.3246950 0.1890360
0.4367585 0.3170844 0.1941176
0.4569795 0.3079809 0.2088092
0.5008440 0.3199663 0.2192571
0.5586524 0.3495710 0.2232368
0.6132125 0.3638338 0.2257436
0.0000000 0.7699488 0.0000000
0.0168104 0.7709515 0.0002535
0.0344940 0.7712834 0.0008115
0.0520038 0.7710213 0.0014689
0.0696397 0.7701662 0.0022898
0.0873773 0.7686041 0.0033185
0.1047935 0.7661140 0.0045656
0.1217094 0.7624485 0.0060012
0.1379578 0.7573930 0.0075447
0.1677382 0.7507692 0.0090636
0.1965307 0.7424049 0.0104056
0.2240596 0.7326433 0.0116761
0.2497820 0.7213921 0.0124800
0.2734798 0.7090867 0.0128455
0.2953706 0.6966204 0.0130750
0.3154433 0.6845572 0.0135450
0.3336179 0.6731575 0.0144707
0.3728731 0.6626587 0.0158388
0.4099758 0.6517421 0.0174013
0.4434326 0.6391752 0.0191127
0.4768021 0.6282679 0.0234438
0.5112158 0.6194209 0.0314839
0.5408220 0.6051212 0.0390457
0.5676187 0.5860445 0.0482854
0.5943046 0.5632249 0.0627943
0.5704746 0.5315015 0.0851917
0.5342239 0.4840754 0.1163856
0.5060421 0.4352191 0.1438665
0.4843365 0.3814895 0.1730892
0.4852629 0.3487139 0.1919810
0.5035664 0.3249824 0.2185223
0.5628904 0.3502991 0.2210431
0.6631811 0.3916272 0.2297042
0.0000000 0.8268876 0.0000000
0.0165260 0.8277141 0.0000000
0.0341743 0.8281140 0.0001685
0.0516748 0.8280767 0.0006337
0.0693016 0.8275914 0.0011608
