presets/experimental/experimental-church-soft/look.cube
# experimental-church-soft tuned
LUT_3D_SIZE 33
DOMAIN_MIN 0 0 0
DOMAIN_MAX 1 1 1
0.1658831 0.2135496 0.1995122
0.1909620 0.1941832 0.1740045
0.1855713 0.1595831 0.1400178
0.1606995 0.1182374 0.0947109
0.1680034 0.1107960 0.0843516
0.1936762 0.1223760 0.0988992
0.2050173 0.1265421 0.1037598
0.2016378 0.1237706 0.0972765
0.1944614 0.1149690 0.0852407
0.2024735 0.1139520 0.0839947
0.2267853 0.1236686 0.0981657
0.2656451 0.1386302 0.1191739
0.3041770 0.1503611 0.1339271
0.3427664 0.1577341 0.1420771
0.3858449 0.1630272 0.1452094
0.4455083 0.1691983 0.1469580
0.5170333 0.1810632 0.1452549
0.5721448 0.1866753 0.1371426
0.6015147 0.1920871 0.1377008
0.6459240 0.1994343 0.1401624
0.6768335 0.2000043 0.1404865
0.6941613 0.1958570 0.1427026
0.7362444 0.2035854 0.1498857
0.7336386 0.2013528 0.1452798
0.7181322 0.1915141 0.1397879
0.7118047 0.1876443 0.1409911
0.7070818 0.1970494 0.1524654
0.7092830 0.2085577 0.1606050
0.7299750 0.2146164 0.1633101
0.7959844 0.1704194 0.1244801
0.8606280 0.1208870 0.0825656
0.9078160 0.0906741 0.0558934
0.9141309 0.0784923 0.0445872
0.1475029 0.1983999 0.1641749
0.1744944 0.1837001 0.1480942
0.1810527 0.1651781 0.1235558
0.1362908 0.1125365 0.0709263
0.1489038 0.1117014 0.0712379
0.1816601 0.1308890 0.0960364
0.1923102 0.1342668 0.0985513
0.1880516 0.1295976 0.0886959
0.1865408 0.1248203 0.0809102
0.2097210 0.1314944 0.0877965
0.2450649 0.1461336 0.1059977
0.2790369 0.1572130 0.1212449
0.3127442 0.1643905 0.1282461
0.3406508 0.1625933 0.1279626
0.3696328 0.1549359 0.1213607
0.4139011 0.1501987 0.1142364
0.4786259 0.1514397 0.1085989
0.5446240 0.1475832 0.0981166
0.6041656 0.1492848 0.0964590
0.6518597 0.1626860 0.1047906
0.6835742 0.1814833 0.1187830
0.7122896 0.1924148 0.1283378
0.7363712 0.1995541 0.1315015
0.7315602 0.1975886 0.1243581
0.7243396 0.1925955 0.1198554
0.7203220 0.1914772 0.1214530
0.7246006 0.1944326 0.1261903
0.7385336 0.1962993 0.1273246
0.7663603 0.1917955 0.1217547
0.8163100 0.1662212 0.0980292
0.8675205 0.1369656 0.0717580
0.9106691 0.1156774 0.0523635
0.9161981 0.1058867 0.0429584
0.1095362 0.1622859 0.1194720
0.1135029 0.1322662 0.0944068
0.1129044 0.1177419 0.0688128
0.1030168 0.1029152 0.0586714
0.1325615 0.1179369 0.0693137
0.1535421 0.1315204 0.0928520
0.1565605 0.1303928 0.0882845
0.1514989 0.1254208 0.0754476
0.1594721 0.1254970 0.0747395
0.2046164 0.1416321 0.0922105
0.2519634 0.1604636 0.1123681
0.2864333 0.1712669 0.1236926
0.3115299 0.1754278 0.1259653
0.3321923 0.1694607 0.1212812
0.3513566 0.1520219 0.1066056
0.3876600 0.1375331 0.0929888
0.4567464 0.1392513 0.0907593
0.5299351 0.1412585 0.0876550
0.5932599 0.1448301 0.0888588
0.6420056 0.1587541 0.1001208
0.6789081 0.1786433 0.1179244
0.7117321 0.1932869 0.1295743
0.7301143 0.2012925 0.1278923
0.7209530 0.1991781 0.1149329
0.7164680 0.1970787 0.1087816
0.7135709 0.1975887 0.1104297
0.7219955 0.2010877 0.1149951
0.7402428 0.2027353 0.1156498
0.7702287 0.2001845 0.1105678
0.8194073 0.1800293 0.0894351
0.8692750 0.1576235 0.0672852
0.9116824 0.1399927 0.0498108
0.9170086 0.1317515 0.0411605
0.0884991 0.1532778 0.0898444
0.0967654 0.1305986 0.0806840
0.1048915 0.1159459 0.0798991
0.1046425 0.1143919 0.0765614
0.1084173 0.1221561 0.0856067
0.1099010 0.1205622 0.0898990
0.1187568 0.1179975 0.0736092
0.1283280 0.1208988 0.0628433
0.1439391 0.1250027 0.0724350
0.1914462 0.1441393 0.1044920
0.2386926 0.1661121 0.1244770
0.2703205 0.1805160 0.1321387
0.3079220 0.1946088 0.1348525
0.3566584 0.2016960 0.1334064
0.3840441 0.1858674 0.1132540
0.4026131 0.1550523 0.0881224
0.4663169 0.1455553 0.0809394
0.5389868 0.1500955 0.0832067
0.5989288 0.1585367 0.0908053
0.6403532 0.1720050 0.1057305
0.6830427 0.1887581 0.1248212
0.7181366 0.2016010 0.1338098
0.7320010 0.2085290 0.1259575
0.7164463 0.2065404 0.1099642
0.7101168 0.2056911 0.1032573
0.7042869 0.2075251 0.1069511
0.7131697 0.2115818 0.1121117
0.7321018 0.2139181 0.1129491
0.7641529 0.2137227 0.1073155
0.8158649 0.1999227 0.0886269
0.8687064 0.1798390 0.0662000
0.9125328 0.1639007 0.0482509
0.9186567 0.1567035 0.0396265
0.0702872 0.1522500 0.0664284
0.0907532 0.1388354 0.0744029
0.1137690 0.1254191 0.0915281
0.1166037 0.1167846 0.0962832
0.1087436 0.1196740 0.0902848
0.1237951 0.1314142 0.0871702
0.1654999 0.1514375 0.0953754
0.1794485 0.1555412 0.0892736
0.1703660 0.1376171 0.0834804
0.1981386 0.1418645 0.1174898
0.2324197 0.1565853 0.1277480
0.2570044 0.1670806 0.1276396
0.3023930 0.1887614 0.1307256
0.3808016 0.2173925 0.1321255
0.4421228 0.2276016 0.1196071
0.4776159 0.2133697 0.0994160
0.5200420 0.1878965 0.0806876
0.5816269 0.1858811 0.0821756
0.6265993 0.1936428 0.0946894
0.6638722 0.1982409 0.1067976
0.6965542 0.2057657 0.1259191
0.7209082 0.2164348 0.1343271
0.7264826 0.2222174 0.1239827
0.7075097 0.2198410 0.1066605
0.6988108 0.2183414 0.1009712
0.6918272 0.2193141 0.1054085
0.6991629 0.2224143 0.1119019
0.7198740 0.2248000 0.1116378
0.7533659 0.2269322 0.1056513
0.8081660 0.2179633 0.0882490
0.8637105 0.2011266 0.0660040
0.9108800 0.1873542 0.0473379
0.9189678 0.1810796 0.0381857
0.0531775 0.1614236 0.0435339
0.0818066 0.1550696 0.0563873
0.1107766 0.1451053 0.0789325
0.1318921 0.1366266 0.1075785
0.1306623 0.1287794 0.1171223
0.1332163 0.1311820 0.1103720
0.1878919 0.1744521 0.1107492
0.2208328 0.1908447 0.1052226
0.1969335 0.1581131 0.0841382
0.1977419 0.1459344 0.1020990
0.2353826 0.1629397 0.1203684
0.2705696 0.1705506 0.1224586
0.3022398 0.1751701 0.1206532
0.3385139 0.1772516 0.1056122
0.4053884 0.1934222 0.0873361
0.4773900 0.2084316 0.0835122
0.5480950 0.2140041 0.0773203
0.6330834 0.2285703 0.0763464
0.6818589 0.2550634 0.0942201
0.6991103 0.2476145 0.1043426
0.7109396 0.2390474 0.1224191
0.7185551 0.2420746 0.1311655
0.7153623 0.2446462 0.1166805
0.7018083 0.2396271 0.0992349
0.6954495 0.2347134 0.0943446
0.6867538 0.2321957 0.0997131
0.6885612 0.2320270 0.1072274
0.7115209 0.2341021 0.1065506
0.7483249 0.2380395 0.1003897
0.8006906 0.2333817 0.0860925
0.8587339 0.2207712 0.0651491
0.9103994 0.2100296 0.0457817
0.9206863 0.2052286 0.0361613
0.0490604 0.1830280 0.0347593
0.0809851 0.1812724 0.0458842
0.1106442 0.1759922 0.0615954
0.1409467 0.1738857 0.0869693
0.1651694 0.1737152 0.1160933
0.1744187 0.1719732 0.1356291
0.1733649 0.1656705 0.1124230
0.1962668 0.1735452 0.0854794
0.2062027 0.1730476 0.0884371
0.2186078 0.1719363 0.1048436
0.2550489 0.1866094 0.1163398
0.2843206 0.1874834 0.1118029
0.3235058 0.1922535 0.1128317
0.3865299 0.2144325 0.1255883
0.4345091 0.2134920 0.1091097
0.5025453 0.2144568 0.0885058
0.5722133 0.2242881 0.0910842
0.6653840 0.2372349 0.0711415
0.7202372 0.2813286 0.0839569
0.7383452 0.2962908 0.0965356
0.7441494 0.2989951 0.1134413
0.7342587 0.2933097 0.1188912
0.7164082 0.2830944 0.1048766
0.7044162 0.2698181 0.0905739
0.6998518 0.2582545 0.0853612
0.6928227 0.2493000 0.0886408
0.6920100 0.2436880 0.0960869
0.7118666 0.2438354 0.0966549
0.7460406 0.2459440 0.0919000
0.7961129 0.2439662 0.0798928
0.8567052 0.2360505 0.0593926
0.9114946 0.2310236 0.0413660
0.9232541 0.2288990 0.0327528
0.0552493 0.2173720 0.0379929
0.0875015 0.2163315 0.0476939
0.1171277 0.2110002 0.0608688
0.1450332 0.2031147 0.0795463
0.1706698 0.1951346 0.1008033
0.2069515 0.2104217 0.1320239
0.2272869 0.2255560 0.1415054
0.2150627 0.2071981 0.1146861
0.2273803 0.2107910 0.1168982
0.2610163 0.2248360 0.1331102
0.2810690 0.2213234 0.1300174
0.2887112 0.1973796 0.0957404
0.3375290 0.2142789 0.1016355
0.3935296 0.2220742 0.0959590
0.4620787 0.2316533 0.0943009
0.5517465 0.2512664 0.0939875
0.6367809 0.2858487 0.1273016
0.7120813 0.2971561 0.1239276
0.7648332 0.3074921 0.0838880
0.7648624 0.3162562 0.0856382
0.7505613 0.3239853 0.0970863
0.7442394 0.3329318 0.0986316
0.7343956 0.3303094 0.0906492
0.7276062 0.3159238 0.0821389
0.7179231 0.2962874 0.0760545
0.7091131 0.2782214 0.0764479
0.7070406 0.2644427 0.0811855
0.7180196 0.2570891 0.0838168
0.7470605 0.2550642 0.0792541
0.7975667 0.2536181 0.0676874
0.8572166 0.2516975 0.0505684
0.9156498 0.2534014 0.0351683
0.9282885 0.2539114 0.0281348
0.0641282 0.2572036 0.0444769
0.0972272 0.2561355 0.0534057
0.1284533 0.2510613 0.0668712
0.1577110 0.2404567 0.0861664
0.1796967 0.2227564 0.1036939
0.2058724 0.2233774 0.1248384
0.2328241 0.2386622 0.1423861
0.2369971 0.2373418 0.1344768
0.2407312 0.2341893 0.1289976
0.2796799 0.2505784 0.1342971
0.3113796 0.2555353 0.1302248
0.3387323 0.2489863 0.1086927
0.3775757 0.2513090 0.0968323
0.4601529 0.2750316 0.1061936
0.5041199 0.2564988 0.0616583
0.5947533 0.2801173 0.0685574
0.6731860 0.2976411 0.0711490
0.7346418 0.2957448 0.0413253
0.8024361 0.3402401 0.0698724
0.7889003 0.3422167 0.0785218
0.7559880 0.3372478 0.0833742
0.7383159 0.3351918 0.0764192
0.7313371 0.3344603 0.0707074
0.7344434 0.3327438 0.0659414
0.7340003 0.3255191 0.0635023
0.7351670 0.3101005 0.0618627
0.7310199 0.2944221 0.0640240
0.7349858 0.2805334 0.0663231
0.7603581 0.2735487 0.0628862
0.8070331 0.2708521 0.0534581
0.8675596 0.2748146 0.0400716
0.9236251 0.2793850 0.0284939
0.9354252 0.2806338 0.0227587
0.0716173 0.2986145 0.0496688
0.1050755 0.2977299 0.0578888
0.1367517 0.2929711 0.0701970
0.1673686 0.2832049 0.0885526
0.1895790 0.2622613 0.1043571
0.2091008 0.2456602 0.1198799
0.2289330 0.2472073 0.1332743
0.2405268 0.2542722 0.1313074
0.2602665 0.2622447 0.1250512
0.2892712 0.2681166 0.1214626
0.3294442 0.2813995 0.1150071
0.3801143 0.3005648 0.1115475
0.4336051 0.3135619 0.1015887
0.5044070 0.3208591 0.0900583
0.5721735 0.3253409 0.0698369
0.6446407 0.3519533 0.0755739
0.7173059 0.3630744 0.0811964
0.7640555 0.3497580 0.0366147
0.8307586 0.3948649 0.0701539
0.7935963 0.3785203 0.0828219
0.7602585 0.3606423 0.0797829
0.7491796 0.3524963 0.0650529
0.7459434 0.3457727 0.0563255
0.7448401 0.3395536 0.0496910
0.7469914 0.3338485 0.0462396
0.7515923 0.3265135 0.0444440
0.7556832 0.3197643 0.0444176
0.7634446 0.3123292 0.0451054
0.7829280 0.3064909 0.0437283
0.8239260 0.3005008 0.0375305
0.8827582 0.3045921 0.0276692
0.9331958 0.3081776 0.0204283
0.9433460 0.3096697 0.0167839
0.0741143 0.3371759 0.0490447
0.1077082 0.3369244 0.0555716
0.1397614 0.3332234 0.0651687
0.1710883 0.3260994 0.0795816
0.1958931 0.3104330 0.0924131
0.2170783 0.2929442 0.1049799
0.2396800 0.2881315 0.1151506
0.2628192 0.3024258 0.1213268
0.2871119 0.3099271 0.1186258
0.3139497 0.3102546 0.1112382
0.3511461 0.3186981 0.1018048
0.3991697 0.3393084 0.0881185
0.4639803 0.3693030 0.0835443
0.5448780 0.3858169 0.0833617
0.6219770 0.3917724 0.0612168
0.6818398 0.4018672 0.0248023
0.7547546 0.4340606 0.0161704
0.8215161 0.4494853 0.0321641
0.8435421 0.4505367 0.0628845
0.7986137 0.4171474 0.0764908
0.7690521 0.3896325 0.0711656
0.7591984 0.3738348 0.0558056
0.7575907 0.3627298 0.0462564
0.7597508 0.3545561 0.0388742
0.7665139 0.3489039 0.0339987
0.7740195 0.3434286 0.0306012
0.7830483 0.3388718 0.0279389
0.7909952 0.3336435 0.0257602
0.8079476 0.3325121 0.0236197
0.8437904 0.3340303 0.0207356
0.8973809 0.3383824 0.0160140
0.9430353 0.3386361 0.0126108
0.9517989 0.3399152 0.0110431
0.0735727 0.3739504 0.0444173
0.1068240 0.3737625 0.0489168
0.1390742 0.3712667 0.0554609
0.1714002 0.3673008 0.0650453
0.1996216 0.3582637 0.0725937
0.2240942 0.3466883 0.0772519
0.2511704 0.3440640 0.0802398
0.2858284 0.3582930 0.0802670
0.3067777 0.3611519 0.0757641
0.3405891 0.3655291 0.0737974
0.3765495 0.3704389 0.0633734
0.4296724 0.3969840 0.0575443
0.4992553 0.4385535 0.0525259
0.5789190 0.4645203 0.0424114
0.6638299 0.4836380 0.0358606
0.7231915 0.4950699 0.0076115
0.7949179 0.5343299 0.0000000
0.8569748 0.5548197 0.0253312
0.8448410 0.5111499 0.0605194
0.8204002 0.4723994 0.0719290
0.7947998 0.4358418 0.0653594
0.7742872 0.4051856 0.0486650
0.7697726 0.3871057 0.0377202
0.7718913 0.3756748 0.0307383
0.7817522 0.3701076 0.0255827
0.7937750 0.3662252 0.0216113
0.8089171 0.3639282 0.0184173
0.8213961 0.3600413 0.0149995
0.8347212 0.3560523 0.0111329
0.8629780 0.3572774 0.0095252
0.9042198 0.3636622 0.0068532
0.9445649 0.3681040 0.0062328
0.9533433 0.3714153 0.0064473
0.0729619 0.4108462 0.0392935
0.1063332 0.4109315 0.0424749
0.1389853 0.4097376 0.0466860
0.1722955 0.4083875 0.0526423
0.2035330 0.4048313 0.0569811
0.2344976 0.4020193 0.0594228
0.2641989 0.4014422 0.0566233
0.2957078 0.4069673 0.0484046
0.3255398 0.4118273 0.0422138
0.3611369 0.4188862 0.0416349
0.4063323 0.4337170 0.0428791
0.4602810 0.4570080 0.0439552
0.5304191 0.4991015 0.0453714
0.6144123 0.5460425 0.0422508
0.7011430 0.5852506 0.0257355
0.7767650 0.6196252 0.0000000
0.8446078 0.6400243 0.0233241
0.8800699 0.6328030 0.0485112
0.8494475 0.5641166 0.0622128
0.8312493 0.5180862 0.0687072
0.8082962 0.4746179 0.0624876
0.7830471 0.4331168 0.0456919
0.7776150 0.4099109 0.0330577
0.7798410 0.3966880 0.0266534
0.7921146 0.3917939 0.0210458
0.8081843 0.3900131 0.0166812
0.8289398 0.3907129 0.0132163
0.8485366 0.3904182 0.0101735
0.8702153 0.3902709 0.0071388
0.8975323 0.3912727 0.0048975
0.9237689 0.3949423 0.0030644
0.9522216 0.3992071 0.0030193
0.9574605 0.4034120 0.0035270
0.0719945 0.4451657 0.0342203
0.1053066 0.4463688 0.0364449
0.1381823 0.4463177 0.0391246
0.1720988 0.4466159 0.0429545
0.2050511 0.4458966 0.0456610
0.2388864 0.4465512 0.0475349
0.2722781 0.4484641 0.0466301
0.3067135 0.4531300 0.0433965
0.3413808 0.4588812 0.0397052
0.3800083 0.4673958 0.0376287
0.4270816 0.4839265 0.0393031
0.4841330 0.5095167 0.0430286
0.5562030 0.5515842 0.0507250
0.6444422 0.6089766 0.0600590
0.7518543 0.6864606 0.0665481
0.8514033 0.7515670 0.0548907
0.8739251 0.7244461 0.0545898
0.8509928 0.6546087 0.0588274
0.8310430 0.5952017 0.0586944
0.8139421 0.5435533 0.0582359
0.7903115 0.4924032 0.0520818
0.7684442 0.4472749 0.0425837
0.7705045 0.4247255 0.0344468
0.7784349 0.4138624 0.0274494
0.7954629 0.4122780 0.0210905
0.8152898 0.4132593 0.0156300
0.8402249 0.4169365 0.0114227
0.8651050 0.4198874 0.0083988
0.8931476 0.4233936 0.0061189
0.9225228 0.4260920 0.0041061
0.9439953 0.4299296 0.0029045
0.9641382 0.4327731 0.0023578
0.9663364 0.4351490 0.0022076
0.0716799 0.4792644 0.0300212
0.1048735 0.4816110 0.0316650
0.1379341 0.4824569 0.0333916
0.1721820 0.4837532 0.0358334
0.2059756 0.4844420 0.0374600
0.2408244 0.4862353 0.0385202
0.2756118 0.4887488 0.0380332
0.3117744 0.4931517 0.0364566
0.3492522 0.4995214 0.0348053
0.3907276 0.5095869 0.0342445
0.4385620 0.5263399 0.0365432
0.4959453 0.5526015 0.0416189
0.5665735 0.5935311 0.0506044
0.6580240 0.6578167 0.0629960
0.7953013 0.7773690 0.0781791
0.8598741 0.8028204 0.0898362
0.8320578 0.7245830 0.0709493
0.8211879 0.6737080 0.0582831
0.8130665 0.6246656 0.0518982
0.8051585 0.5748157 0.0492040
0.7839721 0.5213394 0.0425908
0.7593470 0.4687526 0.0382754
0.7618561 0.4392032 0.0440079
0.7750324 0.4298770 0.0364994
0.7953400 0.4316415 0.0269990
0.8183418 0.4358854 0.0189526
0.8466228 0.4426787 0.0136287
0.8752932 0.4485298 0.0098718
0.9070206 0.4546701 0.0070434
0.9379338 0.4586150 0.0044878
0.9564503 0.4633777 0.0034965
0.9726291 0.4661826 0.0027327
0.9742831 0.4682462 0.0023670
0.0706614 0.5135525 0.0263766
0.1040277 0.5158831 0.0276070
0.1372532 0.5170709 0.0287757
0.1716886 0.5188692 0.0304846
0.2059304 0.5202916 0.0316296
0.2413363 0.5227200 0.0325152
0.2768640 0.5256176 0.0324998
0.3138463 0.5300473 0.0319380
0.3522412 0.5363351 0.0314157
0.3941080 0.5460030 0.0316149
0.4407288 0.5609033 0.0337865
0.4945037 0.5831168 0.0380758
0.5569105 0.6150918 0.0453431
0.6297206 0.6587977 0.0548603
0.7124646 0.7142461 0.0646697
0.7590556 0.7251314 0.0673591
0.7729338 0.7006144 0.0589766
0.7882311 0.6804646 0.0506183
0.7878363 0.6414257 0.0415623
0.7796573 0.5923652 0.0340386
0.7661114 0.5443528 0.0275182
0.7521334 0.4986495 0.0261559
0.7523137 0.4642959 0.0415810
0.7662726 0.4465535 0.0535965
0.7896811 0.4489117 0.0436956
0.8151407 0.4566705 0.0307375
0.8459483 0.4666192 0.0205550
0.8785811 0.4758861 0.0143365
0.9139057 0.4848525 0.0102612
0.9473189 0.4908317 0.0071618
0.9638305 0.4960547 0.0051161
0.9777470 0.4990642 0.0038065
0.9794444 0.5011588 0.0031714
0.0701282 0.5484055 0.0236472
0.1036152 0.5500857 0.0245219
0.1369590 0.5512640 0.0253167
0.1714495 0.5532220 0.0265128
0.2058702 0.5549634 0.0273124
0.2414252 0.5575993 0.0279569
0.2771976 0.5605881 0.0280518
0.3144296 0.5649221 0.0278562
0.3528862 0.5707776 0.0277375
0.3941677 0.5794292 0.0281440
0.4387339 0.5918373 0.0298645
0.4880412 0.6092474 0.0330393
0.5420165 0.6321104 0.0379009
0.5997926 0.6593152 0.0435161
0.6570352 0.6862636 0.0482455
0.7006337 0.6971015 0.0489521
0.7328793 0.6961398 0.0456194
0.7652312 0.6960270 0.0424321
0.7696568 0.6643047 0.0328711
0.7580813 0.6141225 0.0208854
0.7513999 0.5717909 0.0150060
0.7484873 0.5345219 0.0142663
0.7532609 0.5049583 0.0247511
0.7614958 0.4788638 0.0461626
0.7799241 0.4699303 0.0582865
0.8085949 0.4775173 0.0502217
0.8436960 0.4915983 0.0334320
0.8797712 0.5041718 0.0225789
0.9176975 0.5151995 0.0158192
0.9532710 0.5226004 0.0109321
0.9683789 0.5285329 0.0075427
0.9805077 0.5318502 0.0054255
0.9825129 0.5340849 0.0044148
0.0695308 0.5818871 0.0212314
0.1029943 0.5831622 0.0218962
0.1363762 0.5842686 0.0224912
0.1708491 0.5862541 0.0234357
0.2053224 0.5881380 0.0241130
0.2408779 0.5908609 0.0247434
0.2766662 0.5938510 0.0250252
0.3137517 0.5979529 0.0251286
0.3517644 0.6031524 0.0252597
0.3918768 0.6103880 0.0256482
0.4340634 0.6200372 0.0267720
0.4791030 0.6327084 0.0286259
0.5262576 0.6480088 0.0312324
0.5741190 0.6642839 0.0336303
0.6200676 0.6787512 0.0350542
0.6606837 0.6870265 0.0348203
0.6948933 0.6890683 0.0318313
0.7274961 0.6897581 0.0282997
0.7389852 0.6668318 0.0203546
0.7384722 0.6301798 0.0149156
0.7404610 0.5978310 0.0104719
0.7445172 0.5685338 0.0067397
0.7532055 0.5447609 0.0105965
0.7628014 0.5236116 0.0230714
0.7792316 0.5114029 0.0468281
0.8032898 0.5081054 0.0605340
0.8356979 0.5148192 0.0503237
0.8757751 0.5318279 0.0345502
0.9169943 0.5451646 0.0241820
0.9553824 0.5539308 0.0161126
0.9703335 0.5605758 0.0106272
0.9817154 0.5642480 0.0073541
0.9841435 0.5666178 0.0058434
0.0692611 0.6147027 0.0192392
0.1026728 0.6158193 0.0197564
0.1360450 0.6168712 0.0202140
0.1704337 0.6188007 0.0209589
0.2048588 0.6206968 0.0215217
0.2402799 0.6233715 0.0220780
0.2759166 0.6262515 0.0224018
0.3126824 0.6300663 0.0226059
0.3501082 0.6346376 0.0227930
0.3890667 0.6406739 0.0230821
0.4292545 0.6481815 0.0237259
0.4711032 0.6574840 0.0246685
0.5137801 0.6679704 0.0258350
0.5564074 0.6785955 0.0266576
0.5971327 0.6874747 0.0265674
0.6345474 0.6928194 0.0250963
0.6674024 0.6936058 0.0217667
0.6979206 0.6919729 0.0177058
0.7145710 0.6754418 0.0133873
0.7237779 0.6506957 0.0099603
0.7334575 0.6271600 0.0067607
0.7438865 0.6049489 0.0039971
0.7566703 0.5861403 0.0023746
0.7704888 0.5697496 0.0107411
0.7879633 0.5586228 0.0284651
0.8077989 0.5506909 0.0553308
0.8316638 0.5487138 0.0704536
0.8688899 0.5616190 0.0527404
0.9133934 0.5759567 0.0373772
0.9560109 0.5858633 0.0228276
0.9713351 0.5930240 0.0139878
0.9821069 0.5969052 0.0092066
0.9849742 0.5993395 0.0071225
0.0687905 0.6466290 0.0174210
0.1021340 0.6476509 0.0178512
0.1354677 0.6486573 0.0182385
0.1697417 0.6505058 0.0188814
0.2040728 0.6523617 0.0194050
0.2393057 0.6549310 0.0199549
0.2747238 0.6576536 0.0203446
0.3110833 0.6611275 0.0206343
0.3478912 0.6650864 0.0208659
0.3857845 0.6700369 0.0210632
0.4243659 0.6758212 0.0213707
0.4638865 0.6826115 0.0216906
0.5036267 0.6898628 0.0219778
0.5430718 0.6969647 0.0218799
0.5809727 0.7027136 0.0210378
0.6166942 0.7063024 0.0191856
0.6491599 0.7067732 0.0161358
0.6795633 0.7052061 0.0125393
0.7003158 0.6934647 0.0085149
0.7157656 0.6760318 0.0062100
0.7304250 0.6584200 0.0039805
0.7449433 0.6412179 0.0019772
0.7605687 0.6260997 0.0002784
0.7766551 0.6126106 0.0041349
0.7949404 0.6027180 0.0172765
0.8132731 0.5950542 0.0395955
0.8306734 0.5905512 0.0731353
0.8587409 0.5943228 0.0752816
0.9016887 0.6054560 0.0623822
0.9547061 0.6179646 0.0301112
0.9717526 0.6255420 0.0165557
0.9824357 0.6294555 0.0103561
0.9856099 0.6318313 0.0078428
0.0684721 0.6783284 0.0157937
0.1017360 0.6792644 0.0161449
0.1350092 0.6802136 0.0164688
0.1691370 0.6819453 0.0170070
0.2033309 0.6837056 0.0174665
0.2383251 0.6861139 0.0179602
0.2734722 0.6886382 0.0183386
0.3093997 0.6917799 0.0186316
0.3456217 0.6952240 0.0188441
0.3826121 0.6993507 0.0189598
0.4199529 0.7039175 0.0190488
0.4577965 0.7090284 0.0190096
0.4955388 0.7142056 0.0187978
0.5328614 0.7190861 0.0181830
0.5688177 0.7227695 0.0169400
0.6031005 0.7248659 0.0149386
0.6344858 0.7241816 0.0120016
0.6637571 0.7214242 0.0085607
0.6877604 0.7133234 0.0050984
0.7088167 0.7022352 0.0035832
0.7281261 0.6898563 0.0020597
0.7465978 0.6771358 0.0006212
0.7649846 0.6652116 0.0000000
0.7832146 0.6541286 0.0007101
0.8028191 0.6455073 0.0094662
0.8236286 0.6392324 0.0224883
0.8475013 0.6369685 0.0389677
0.8728775 0.6372685 0.0530569
0.9057195 0.6415673 0.0582258
0.9584509 0.6524765 0.0284434
0.9739744 0.6591059 0.0158489
0.9834430 0.6625385 0.0100394
0.9865328 0.6646697 0.0076682
0.0679732 0.7095633 0.0142952
0.1011571 0.7104210 0.0145923
0.1343630 0.7113102 0.0148764
0.1683420 0.7129185 0.0153468
0.2023909 0.7145676 0.0157681
0.2371476 0.7167978 0.0162264
0.2720332 0.7191181 0.0166018
0.3075634 0.7219405 0.0168954
0.3432916 0.7249480 0.0171022
0.3795742 0.7284195 0.0171711
0.4160303 0.7321112 0.0171492
0.4527603 0.7360885 0.0169288
0.4892965 0.7399894 0.0164974
0.5254455 0.7436035 0.0156972
0.5605388 0.7463206 0.0144081
0.5944180 0.7479461 0.0125681
0.6261163 0.7475517 0.0100628
0.6561235 0.7455776 0.0071745
0.6822456 0.7397977 0.0036883
0.7060377 0.7317888 0.0018725
0.7280217 0.7224349 0.0008414
0.7489765 0.7125449 0.0000000
0.7693836 0.7028952 0.0000000
0.7893676 0.6936471 0.0000000
0.8103330 0.6861316 0.0051123
0.8329436 0.6806114 0.0127459
0.8599681 0.6789148 0.0209769
0.8905753 0.6797462 0.0269366
0.9264471 0.6834641 0.0274512
0.9665918 0.6885562 0.0187369
0.9776688 0.6930473 0.0122210
0.9852803 0.6956092 0.0084030
0.9879080 0.6973517 0.0066753
0.0675307 0.7407242 0.0128673
0.1006292 0.7414960 0.0131083
0.1337557 0.7423086 0.0133457
0.1675697 0.7437686 0.0137343
0.2014518 0.7452751 0.0140922
0.2359472 0.7472964 0.0144796
0.2705490 0.7493904 0.0148051
0.3056760 0.7518965 0.0150548
0.3409328 0.7545140 0.0152185
0.3765834 0.7574494 0.0152349
0.4122970 0.7604715 0.0151324
0.4481286 0.7636157 0.0148114
0.4837143 0.7665932 0.0142698
0.5189123 0.7692620 0.0133933
0.5532288 0.7711744 0.0121173
0.5865622 0.7722167 0.0104130
0.6181939 0.7717089 0.0082094
0.6484438 0.7699450 0.0057008
0.6762029 0.7658653 0.0028394
0.7023676 0.7603765 0.0008413
0.7268505 0.7536201 0.0001464
0.7502930 0.7462679 0.0000000
0.7729046 0.7387401 0.0000000
0.7950048 0.7313345 0.0000000
0.8177318 0.7250440 0.0028746
0.8419311 0.7202156 0.0074524
0.8701178 0.7183885 0.0118680
0.9019022 0.7187270 0.0146629
0.9374356 0.7212404 0.0147069
0.9737477 0.7240758 0.0116907
0.9816958 0.7270513 0.0085784
0.9875039 0.7288176 0.0063886
0.9895928 0.7301635 0.0053000
0.0669783 0.7716744 0.0115893
0.0999999 0.7723667 0.0117881
0.1330531 0.7731037 0.0119890
0.1667171 0.7744234 0.0123149
0.2004473 0.7757924 0.0126226
0.2347127 0.7776181 0.0129537
0.2690697 0.7795058 0.0132379
0.3038633 0.7817359 0.0134490
0.3387511 0.7840379 0.0135828
0.3739322 0.7865655 0.0135673
0.4091322 0.7891203 0.0134314
0.4443830 0.7917196 0.0130799
0.4794078 0.7941496 0.0125263
0.5141029 0.7963122 0.0116816
0.5481056 0.7978884 0.0105173
0.5813425 0.7988070 0.0090162
0.6132595 0.7985556 0.0071308
0.6440676 0.7973333 0.0049951
0.6729418 0.7943741 0.0025697
0.7005110 0.7903119 0.0002742
0.7266005 0.7851474 0.0000000
0.7517435 0.7794205 0.0000000
0.7760752 0.7734074 0.0000000
0.7999510 0.7673938 0.0000000
0.8242738 0.7621151 0.0016588
0.8496933 0.7577868 0.0043449
0.8783176 0.7557433 0.0068201
0.9100714 0.7555375 0.0083539
0.9446421 0.7570027 0.0084324
0.9791570 0.7585868 0.0072391
0.9852073 0.7605197 0.0057443
0.9897856 0.7616602 0.0045535
0.9913892 0.7626619 0.0039193
0.0664430 0.8026011 0.0103359
0.0993856 0.8032096 0.0104895
0.1323593 0.8038619 0.0106478
0.1658649 0.8050277 0.0109009
0.1994308 0.8062420 0.0111432
