presets/experimental/experimental-church-soft/look.cube
# experimental-church-soft tuned
LUT_3D_SIZE 9
DOMAIN_MIN 0 0 0
DOMAIN_MAX 1 1 1
0.1658831 0.2135496 0.1995122
0.1680034 0.1107960 0.0843516
0.1944614 0.1149690 0.0852407
0.3041770 0.1503611 0.1339271
0.5170333 0.1810632 0.1452549
0.6768335 0.2000043 0.1404865
0.7181322 0.1915141 0.1397879
0.7299750 0.2146164 0.1633101
0.9141309 0.0784923 0.0445872
0.0702872 0.1522500 0.0664284
0.1087436 0.1196740 0.0902848
0.1703660 0.1376171 0.0834804
0.3023930 0.1887614 0.1307256
0.5200420 0.1878965 0.0806876
0.6965542 0.2057657 0.1259191
0.6988108 0.2183414 0.1009712
0.7533659 0.2269322 0.1056513
0.9189678 0.1810796 0.0381857
0.0641282 0.2572036 0.0444769
0.1796967 0.2227564 0.1036939
0.2407312 0.2341893 0.1289976
0.3775757 0.2513090 0.0968323
0.6731860 0.2976411 0.0711490
0.7559880 0.3372478 0.0833742
0.7340003 0.3255191 0.0635023
0.7603581 0.2735487 0.0628862
0.9354252 0.2806338 0.0227587
0.0729619 0.4108462 0.0392935
0.2035330 0.4048313 0.0569811
0.3255398 0.4118273 0.0422138
0.5304191 0.4991015 0.0453714
0.8446078 0.6400243 0.0233241
0.8082962 0.4746179 0.0624876
0.7921146 0.3917939 0.0210458
0.8702153 0.3902709 0.0071388
0.9574605 0.4034120 0.0035270
0.0701282 0.5484055 0.0236472
0.2058702 0.5549634 0.0273124
0.3528862 0.5707776 0.0277375
0.5420165 0.6321104 0.0379009
0.7328793 0.6961398 0.0456194
0.7513999 0.5717909 0.0150060
0.7799241 0.4699303 0.0582865
0.9176975 0.5151995 0.0158192
0.9825129 0.5340849 0.0044148
0.0684721 0.6783284 0.0157937
0.2033309 0.6837056 0.0174665
0.3456217 0.6952240 0.0188441
0.4955388 0.7142056 0.0187978
0.6344858 0.7241816 0.0120016
0.7281261 0.6898563 0.0020597
0.8028191 0.6455073 0.0094662
0.9057195 0.6415673 0.0582258
0.9865328 0.6646697 0.0076682
0.0664430 0.8026011 0.0103359
0.1994308 0.8062420 0.0111432
0.3365143 0.8134555 0.0118338
0.4751270 0.8217919 0.0106367
0.6078815 0.8251080 0.0057149
0.7250652 0.8152580 0.0000000
0.8293977 0.7972834 0.0009267
0.9503643 0.7916737 0.0049419
0.9931379 0.7950443 0.0027345
0.0643706 0.9260598 0.0065584
0.1959239 0.9282475 0.0067351
0.3296392 0.9324600 0.0065512
0.4635787 0.9367481 0.0049889
0.5944375 0.9382577 0.0013098
0.7191600 0.9346515 0.0000000
0.8390286 0.9275503 0.0001047
0.9624564 0.9227876 0.0004929
0.9980818 0.9220803 0.0003939
0.0632862 0.9999833 0.0048548
0.1942257 0.9999906 0.0047762
0.3265619 0.9999943 0.0041880
0.4587623 0.9999863 0.0024027
0.5888031 0.9999531 0.0000000
0.7154074 0.9998342 0.0000000
0.8396040 0.9995867 0.0000000
0.9647559 0.9995708 0.0000282
0.9995508 0.9997599 0.0000318
0.0898575 0.0998372 0.1492689
0.0731657 0.0540946 0.0639651
0.1326127 0.0894907 0.0844416
0.3325491 0.1507344 0.1610640
0.6290529 0.2183563 0.1692234
0.8578081 0.2418239 0.1453240
0.8769923 0.2391814 0.1697302
0.8704140 0.1102888 0.1187722
0.9422179 0.0572747 0.0945977
0.1316238 0.1750043 0.1408545
0.1042942 0.1002111 0.0960837
0.1631095 0.1322008 0.1218384
0.2555319 0.1334907 0.1224777
0.5583944 0.1893330 0.1210581
0.7862229 0.2020615 0.1107067
0.7895627 0.1833082 0.1052521
0.8517175 0.1552808 0.0813583
0.9431872 0.1397057 0.0666446
0.0690954 0.2366578 0.1161475
0.1800089 0.2314550 0.1540743
0.2232292 0.2129884 0.1556711
0.4086199 0.2790594 0.1827995
0.6902923 0.3454709 0.1933927
0.7806788 0.3121105 0.1484858
0.7852893 0.2586212 0.0967764
0.8649944 0.2529232 0.0759141
0.9596843 0.2529460 0.0648703
0.0746172 0.4042188 0.1432864
0.1880726 0.4089359 0.1368064
0.3237755 0.3916294 0.1062709
0.5198846 0.4820197 0.1417401
0.8583182 0.6727377 0.2603294
0.7909687 0.4286179 0.1055123
0.7996031 0.3612770 0.0756941
0.8931929 0.3678817 0.0649790
0.9692520 0.3762655 0.0615962
0.0685998 0.5448544 0.1392753
0.1783082 0.5512858 0.1183878
0.3216127 0.5549285 0.1100654
0.4789012 0.5742115 0.1019266
0.6389330 0.6136941 0.1042230
0.6665480 0.4872871 0.0292639
0.7454765 0.4305986 0.0282565
0.9170914 0.4959551 0.0639817
0.9848662 0.5141892 0.0670818
0.0650517 0.6737973 0.1333722
0.1739611 0.6796180 0.1101755
0.3184941 0.6879999 0.1098198
0.4648739 0.6968411 0.1037965
0.5999213 0.6973339 0.0895991
0.6965294 0.6611186 0.0643161
0.7760966 0.6168562 0.0429804
0.9219233 0.6343969 0.0733093
0.9877537 0.6500508 0.0732515
0.0632833 0.7987393 0.1284288
0.1700794 0.8029062 0.1036371
0.3111960 0.8093606 0.1042866
0.4535019 0.8161675 0.1022488
0.5903779 0.8181146 0.0957505
0.7126385 0.8083208 0.0860268
0.8164922 0.7886910 0.0796246
0.9392621 0.7804031 0.0776694
0.9922767 0.7845143 0.0755194
0.0616906 0.9232683 0.1251651
0.1666532 0.9256973 0.0989025
0.3044675 0.9296168 0.0989141
0.4428770 0.9338633 0.0975165
0.5785461 0.9354958 0.0936852
0.7079006 0.9319621 0.0877808
0.8311900 0.9245833 0.0818834
0.9582639 0.9189390 0.0779227
0.9975192 0.9160473 0.0764251
0.0608201 0.9999609 0.1236087
0.1647443 0.9999780 0.0965614
0.3008026 0.9999858 0.0961636
0.4370690 0.9999655 0.0946157
0.5714457 0.9999123 0.0912975
0.7022661 0.9997801 0.0864777
0.8304124 0.9993941 0.0815307
0.9596379 0.9993620 0.0780168
0.9993824 0.9996569 0.0768468
0.1098330 0.1227412 0.1936806
0.1166517 0.0913738 0.1482700
0.1178233 0.0940264 0.0969870
0.3156080 0.0826347 0.1846140
0.5593722 0.1074612 0.2311057
0.7248590 0.1142002 0.2292872
0.8098417 0.0945065 0.2124875
0.8832394 0.0561226 0.1987514
0.9656883 0.0375470 0.1952777
0.0741768 0.1146339 0.1131133
0.1674029 0.1647952 0.1735177
0.1636868 0.1139465 0.1250727
0.3378741 0.1732657 0.1946132
0.5962865 0.2123834 0.2373783
0.7378751 0.2068281 0.2211439
0.8031591 0.1684321 0.1905474
0.8825266 0.1405906 0.1726348
0.9636187 0.1263418 0.1698320
0.1121043 0.2076010 0.1655971
0.1653758 0.1992249 0.1770352
0.2429856 0.2297108 0.1999020
0.3920562 0.2620896 0.2452052
0.7253049 0.3551375 0.2860729
0.8038672 0.3284572 0.2432854
0.8010853 0.2458886 0.1713792
0.8854444 0.2259632 0.1520903
0.9723720 0.2241653 0.1497383
0.0882462 0.3957287 0.2412773
0.1960888 0.4245435 0.2470513
0.3568576 0.4989097 0.2577830
0.5596407 0.5127243 0.2493721
0.8267118 0.6412795 0.3737967
0.8002636 0.4579684 0.2469581
0.8456562 0.3792728 0.1821026
0.8987854 0.3474736 0.1544694
0.9857802 0.3516532 0.1530925
0.0694673 0.5415941 0.2550548
0.1778274 0.5571167 0.2450643
0.3170477 0.5813383 0.2324114
0.4601395 0.5626175 0.1937958
0.5939466 0.5627061 0.1946859
0.6673471 0.4716197 0.1531474
0.7909105 0.4639292 0.1389284
0.9187454 0.4841894 0.1513438
0.9858737 0.4905219 0.1569790
0.0591585 0.6663808 0.2488761
0.1660526 0.6748642 0.2321933
0.2916290 0.6835477 0.2143005
0.4288234 0.6764281 0.1949741
0.5443695 0.6488815 0.1577575
0.6582815 0.6271003 0.1429847
0.7781536 0.6173652 0.1465327
0.9174020 0.6210238 0.1565399
0.9863777 0.6310296 0.1629804
0.0566648 0.7910521 0.2437920
0.1616324 0.7965388 0.2235362
0.2828613 0.8027273 0.2050900
0.4265834 0.8062697 0.2006606
0.5644280 0.8035794 0.1897876
0.6924154 0.7944272 0.1785204
0.8076755 0.7818683 0.1729941
0.9324569 0.7706097 0.1690961
0.9906760 0.7709770 0.1694186
0.0560222 0.9172747 0.2414836
0.1591487 0.9201770 0.2183925
0.2767873 0.9243543 0.1983364
0.4188738 0.9280258 0.1969291
0.5585927 0.9291014 0.1926251
0.6926731 0.9256952 0.1861024
0.8209821 0.9195928 0.1801316
0.9524718 0.9137280 0.1761004
0.9968223 0.9078479 0.1737505
0.0555906 0.9999292 0.2402860
0.1577336 0.9999511 0.2157094
0.2729032 0.9999606 0.1943060
0.4128024 0.9999161 0.1929962
0.5511633 0.9998163 0.1897641
0.6863157 0.9996939 0.1848237
0.8187543 0.9992022 0.1797487
0.9524050 0.9991641 0.1762514
0.9991793 0.9995366 0.1751153
0.1305180 0.1355136 0.2307097
0.1222475 0.1133721 0.1659214
0.1546146 0.0610702 0.1672979
0.3374006 0.0495408 0.2631807
0.5258432 0.0491138 0.3183262
0.6639019 0.0454315 0.3250071
0.7790287 0.0359538 0.3197314
0.8928953 0.0265700 0.3147318
0.9818462 0.0222787 0.3133944
0.1462655 0.1704801 0.2269340
0.1434560 0.1392910 0.1875940
0.1935506 0.1298870 0.2108837
0.3398888 0.1418877 0.2753317
0.5391527 0.1499860 0.3210373
0.6818339 0.1514616 0.3214238
0.7856130 0.1350636 0.3048490
0.8951360 0.1223855 0.2945764
0.9828230 0.1176858 0.2919859
0.1993035 0.2786395 0.3285593
0.1887558 0.2092078 0.2478325
0.2882819 0.2756895 0.3302187
0.3296012 0.2343240 0.2874594
0.5538379 0.2762551 0.3428387
0.7125705 0.2775631 0.3277882
0.8103184 0.2553058 0.2931936
0.9005636 0.2222820 0.2730465
0.9884313 0.2194200 0.2707231
0.1780953 0.4576678 0.4224361
0.2366245 0.4483763 0.3963313
0.2896652 0.4452774 0.3794481
0.6129745 0.5874308 0.5402528
0.6625434 0.5048468 0.4495257
0.7214797 0.4184241 0.3367733
0.8583135 0.3769926 0.2894070
0.9058576 0.3291165 0.2550197
0.9912768 0.3275849 0.2538443
0.0856856 0.5500506 0.3861318
0.1891833 0.5702434 0.3916704
0.3347293 0.6272625 0.4136110
0.5334895 0.6891233 0.4297565
0.6125155 0.6002453 0.3710797
0.7425551 0.5505430 0.3262680
0.8282917 0.4976687 0.2726035
0.9122445 0.4682639 0.2529415
0.9818725 0.4624633 0.2544353
0.0534096 0.6598225 0.3632681
0.1592744 0.6681374 0.3562866
0.2814564 0.6825724 0.3470988
0.4089461 0.6812958 0.3149131
0.5051870 0.6220759 0.2428663
0.6157794 0.5925543 0.2193422
0.7580882 0.5999777 0.2333554
0.8967236 0.5997488 0.2473974
0.9763809 0.6029052 0.2561975
0.0486028 0.7821919 0.3569941
0.1522766 0.7864250 0.3425125
0.2684525 0.7928708 0.3273120
0.3971546 0.7958915 0.3080229
0.5343903 0.7872589 0.2903245
0.6630213 0.7727633 0.2722503
0.7902156 0.7695857 0.2671353
0.9202980 0.7588320 0.2640891
0.9844580 0.7512908 0.2662066
0.0484855 0.9089150 0.3556223
0.1510517 0.9115706 0.3374579
0.2643786 0.9154864 0.3191691
0.3915832 0.9191826 0.3029142
0.5344173 0.9190745 0.2977364
0.6723448 0.9148678 0.2896514
0.8069885 0.9114548 0.2838765
0.9441126 0.9065073 0.2803655
0.9951205 0.8965563 0.2761414
0.0485686 0.9998569 0.3551216
0.1504149 0.9998788 0.3348439
0.2615913 0.9998942 0.3143937
0.3858602 0.9998449 0.2971951
0.5277480 0.9996844 0.2940684
0.6669902 0.9994196 0.2889463
0.8042549 0.9988910 0.2838725
0.9428390 0.9989439 0.2806091
0.9987697 0.9993483 0.2795105
0.1588576 0.1522660 0.2270999
0.1754277 0.1322495 0.2886869
0.2537990 0.0457789 0.3486140
0.3817533 0.0284223 0.3965922
0.5336680 0.0246738 0.4330394
0.6541870 0.0214140 0.4372371
0.7747585 0.0187520 0.4353456
0.9018660 0.0161763 0.4356288
0.9943980 0.0152368 0.4353315
0.1936488 0.1985338 0.2959939
0.1791988 0.1446150 0.3289106
0.2609547 0.1360971 0.3774558
0.3867184 0.1288663 0.4147183
0.5336353 0.1242742 0.4363726
0.6612802 0.1211021 0.4338174
0.7817856 0.1170564 0.4261979
0.9038597 0.1131593 0.4207115
0.9955171 0.1116724 0.4184250
0.1505797 0.2063300 0.2699468
0.2168413 0.2403827 0.3945819
0.2967031 0.2658370 0.4457056
0.4032951 0.2636347 0.4544584
0.5277885 0.2457766 0.4443356
0.6622756 0.2337094 0.4298001
0.7883208 0.2252753 0.4153880
0.9088372 0.2179376 0.4057238
0.9985309 0.2150979 0.4015149
0.2664903 0.5280729 0.6628021
0.2624798 0.5163995 0.6558524
0.3693260 0.4881134 0.5995480
0.4876940 0.4930201 0.5628633
0.5460376 0.4356123 0.4724475
0.6361949 0.3555745 0.4199518
0.7841885 0.3337535 0.3975054
0.9107995 0.3270043 0.3878883
0.9949776 0.3234279 0.3834214
0.1162527 0.5601610 0.5256645
0.1989652 0.5737483 0.5399855
0.3402491 0.6310520 0.5878942
0.4772253 0.6343255 0.5560126
0.6015681 0.6039459 0.5261455
0.6394765 0.4810370 0.4074382
0.7173350 0.4170821 0.3522672
0.8900964 0.4341886 0.3610319
0.9793699 0.4366181 0.3626812
0.0489929 0.6466607 0.4736746
0.1505605 0.6550793 0.4747512
0.2684277 0.6723470 0.4782570
0.3866935 0.6880148 0.4520169
0.5211961 0.6715843 0.3826099
0.5518531 0.5243994 0.2921848
0.8101829 0.6445000 0.4208061
0.8678869 0.5662837 0.3452345
0.9589255 0.5660691 0.3502672
0.0402855 0.7676200 0.4657314
0.1419551 0.7736880 0.4582396
0.2549419 0.7794762 0.4495329
0.3756475 0.7837906 0.4326927
0.5053078 0.7774423 0.4042685
0.6255048 0.7431955 0.3684723
0.7461501 0.7308108 0.3511069
0.8892611 0.7282106 0.3543423
0.9626187 0.7152051 0.3541135
0.0404628 0.8987758 0.4675379
0.1420926 0.9012739 0.4545109
0.2536469 0.9042022 0.4410348
0.3745534 0.9069113 0.4255200
0.5073827 0.9068995 0.4098990
0.6472575 0.8999258 0.3994127
0.7862902 0.8969105 0.3922807
0.9289497 0.8925114 0.3872377
0.9874410 0.8779338 0.3789542
0.0410420 0.9996308 0.4686536
0.1422528 0.9997143 0.4524853
0.2522950 0.9997556 0.4361844
0.3711162 0.9997197 0.4190019
0.5022428 0.9994878 0.4044365
0.6451044 0.9985894 0.3993098
0.7867958 0.9975885 0.3941631
0.9300961 0.9979058 0.3903379
0.9963410 0.9975106 0.3886322
0.2176255 0.2007917 0.3183715
0.2043403 0.1458582 0.3673695
0.2850181 0.0325247 0.4992193
0.4032731 0.0110192 0.5367110
0.5320902 0.0101287 0.5522900
0.6572596 0.0107169 0.5565235
0.7819945 0.0111785 0.5569408
0.9088524 0.0110973 0.5570020
0.9999942 0.0110252 0.5570426
0.2093136 0.2036285 0.3693278
0.1860674 0.1369737 0.4719704
0.2734525 0.1160308 0.5207900
0.3956412 0.1124325 0.5429937
0.5272478 0.1092179 0.5541589
0.6578019 0.1090472 0.5553155
0.7832003 0.1086435 0.5503074
0.9096614 0.1080124 0.5463304
0.9999914 0.1076042 0.5443303
0.2006983 0.2788277 0.4907339
0.1881080 0.2360872 0.5152543
0.2703819 0.2288127 0.5471683
0.3956993 0.2364337 0.5624477
0.5233480 0.2278555 0.5607970
0.6541057 0.2178529 0.5523009
0.7832896 0.2141814 0.5427117
0.9118993 0.2128088 0.5359035
0.9997279 0.2116114 0.5318761
0.1555938 0.3270161 0.4874923
0.1894682 0.3694650 0.5723574
0.3036630 0.3850438 0.5794619
0.4284771 0.4237379 0.6235973
0.5432921 0.3981394 0.5797477
0.6296950 0.3267486 0.5329279
0.7665733 0.3155192 0.5224233
0.9090080 0.3211294 0.5212207
0.9965519 0.3213159 0.5179401
0.0974882 0.5134784 0.5857247
0.1466236 0.5008506 0.5970185
0.2839524 0.5554945 0.6617310
0.4129242 0.5351016 0.6058994
0.7153119 0.6815752 0.6461849
0.5406949 0.3804578 0.4599154
0.6959728 0.3798056 0.4603999
0.8793728 0.4154771 0.4848243
0.9809809 0.4291412 0.4940605
0.0390549 0.6300572 0.5746407
0.1371353 0.6353811 0.5816775
0.2527399 0.6536182 0.6013467
0.3750512 0.6741506 0.6121089
0.4257411 0.5873504 0.5080742
0.5212894 0.4954752 0.4491483
0.6230664 0.4578127 0.4023124
0.7783036 0.4522961 0.3782137
0.9418077 0.5270694 0.4480529
0.0312180 0.7586329 0.5740451
0.1326926 0.7624662 0.5729250
0.2431782 0.7666960 0.5710524
0.3589398 0.7691056 0.5635689
0.4730177 0.7611453 0.5385548
0.6141051 0.7453603 0.5216160
0.6461899 0.6195826 0.4088741
0.7831945 0.6008664 0.3706837
0.9132745 0.6494100 0.4129653
0.0332860 0.8887702 0.5782008
0.1341934 0.8916981 0.5711342
0.2441740 0.8934669 0.5623217
0.3623047 0.8947503 0.5517867
0.4877410 0.8929259 0.5371724
0.6222282 0.8856855 0.5223376
0.7605987 0.8761246 0.5138401
0.8957188 0.8564098 0.4860175
0.9604516 0.8388403 0.4651585
0.0342733 0.9993720 0.5820277
0.1348105 0.9995915 0.5698265
0.2437430 0.9997094 0.5574860
0.3609625 0.9996521 0.5443972
0.4862728 0.9990762 0.5296804
0.6222246 0.9973053 0.5170914
0.7658445 0.9941779 0.5106461
0.9096079 0.9884199 0.5002926
0.9852008 0.9863012 0.4952746
0.2968480 0.2538293 0.5481695
0.2120550 0.0740476 0.5942772
0.2882749 0.0154001 0.6411051
0.4049261 0.0030574 0.6607684
0.5305232 0.0026190 0.6707760
0.6577183 0.0051519 0.6754928
0.7849839 0.0069111 0.6773378
0.9129061 0.0077870 0.6779871
0.9999956 0.0080353 0.6781510
0.1344296 0.1756815 0.5796791
0.1659018 0.1164857 0.6202181
0.2665359 0.0999047 0.6476962
0.3891877 0.0978576 0.6617509
0.5197886 0.0993763 0.6708419
0.6538335 0.1024722 0.6757940
0.7851994 0.1042745 0.6754919
0.9133707 0.1047096 0.6717770
0.9999890 0.1046423 0.6694742
0.0946405 0.2452222 0.6136602
0.1553547 0.2202677 0.6361183
0.2467106 0.2024702 0.6545898
0.3752429 0.2072357 0.6668368
0.5087453 0.2078478 0.6719635
0.6471376 0.2085778 0.6746831
0.7843635 0.2103782 0.6731430
0.9142201 0.2098776 0.6657643
0.9998206 0.2089922 0.6611645
0.0929673 0.3318354 0.6009818
0.1492348 0.3355470 0.6421429
0.2444262 0.3327465 0.6623926
0.3640615 0.3331618 0.6768017
0.4989629 0.3301281 0.6721669
0.6299877 0.3167906 0.6646086
0.7743028 0.3181185 0.6635502
0.9118407 0.3203014 0.6570284
0.9980479 0.3199284 0.6519820
0.0472771 0.4779406 0.6538475
0.1332409 0.4724864 0.6672533
0.2357990 0.4702447 0.6805004
0.3538360 0.4712146 0.6908084
0.4512153 0.4201463 0.6280029
0.5740656 0.3977334 0.6217702
0.7269157 0.4009460 0.6231661
0.8905013 0.4217345 0.6315364
0.9869084 0.4304766 0.6341989
0.0286168 0.6201704 0.6801955
0.1264371 0.6176334 0.6847462
0.2340183 0.6189172 0.6958448
0.3484468 0.6227709 0.7169863
0.5437798 0.6914417 0.8029767
0.5453752 0.5183619 0.6226730
0.5857009 0.4043040 0.5055771
0.8123479 0.4769272 0.5496545
0.9463730 0.5216259 0.5843176
0.0261449 0.7528773 0.6883013
0.1268384 0.7551395 0.6902768
0.2364628 0.7567453 0.6924588
0.3516542 0.7561048 0.6931207
0.4558496 0.7340624 0.6731673
0.5814397 0.7167700 0.6664511
0.8334331 0.8117700 0.7929547
0.6206285 0.4163103 0.3150213
0.8767825 0.5955609 0.4932017
0.0281365 0.8841208 0.6940555
0.1284826 0.8855071 0.6898710
0.2377403 0.8864105 0.6852439
0.3548202 0.8861520 0.6793356
0.4764341 0.8811603 0.6688902
0.6013349 0.8702697 0.6552488
0.7316987 0.8545313 0.6441278
0.8183510 0.7754107 0.5348171
0.9003198 0.7698944 0.5191235
0.0291117 0.9995793 0.6969306
0.1291470 0.9997603 0.6883551
0.2373859 0.9998674 0.6797544
0.3536664 0.9996754 0.6706169
0.4772500 0.9983801 0.6599507
0.6056701 0.9938173 0.6460984
0.7369787 0.9806936 0.6273977
0.8693060 0.9585947 0.5985023
0.9541901 0.9568269 0.5906992
0.0890859 0.0529102 0.7362727
0.1746658 0.0184107 0.7593811
0.2828277 0.0049823 0.7708670
0.4043640 0.0012820 0.7815102
0.5305416 0.0002759 0.7904349
0.6581048 0.0023327 0.7950590
0.7862346 0.0044339 0.7974439
0.9148182 0.0056496 0.7985201
0.9999995 0.0060261 0.7988131
0.0534892 0.1315807 0.7552533
0.1402349 0.0965368 0.7638230
0.2597656 0.0920362 0.7744550
0.3860446 0.0930262 0.7821893
0.5172110 0.0959072 0.7903036
0.6501571 0.0990245 0.7953073
0.7837186 0.1015035 0.7978511
0.9151057 0.1026000 0.7966684
0.9999956 0.1026298 0.7940868
0.0400425 0.2381176 0.7635397
0.1326274 0.2151256 0.7693359
0.2358741 0.1946384 0.7764025
0.3670656 0.1974376 0.7837330
0.5025372 0.2006758 0.7906811
0.6406258 0.2038389 0.7952994
0.7806993 0.2073904 0.7983963
0.9156083 0.2082015 0.7951931
0.9999380 0.2071887 0.7897915
0.0347238 0.3559617 0.7687435
0.1285009 0.3398141 0.7741743
0.2309757 0.3244593 0.7807752
0.3469158 0.3110825 0.7861495
0.4847384 0.3124053 0.7895998
0.6248674 0.3124980 0.7911128
0.7741622 0.3194065 0.7966110
0.9150154 0.3213376 0.7929905
0.9992543 0.3192825 0.7854334
0.0279315 0.4852479 0.7822797
0.1241414 0.4726355 0.7851655
0.2276191 0.4598367 0.7884838
0.3387597 0.4455112 0.7896457
0.4558588 0.4234650 0.7797577
0.5955476 0.4181963 0.7761775
0.7527224 0.4273942 0.7831611
0.9057707 0.4353567 0.7833528
0.9938059 0.4353478 0.7769387
0.0236562 0.6178993 0.7950184
0.1221258 0.6111087 0.7986586
0.2278131 0.6022769 0.8006772
0.3380560 0.5893206 0.7990748
0.4379225 0.5548970 0.7760158
0.5350504 0.5098389 0.7410681
0.6878283 0.5093468 0.7376948
0.8615983 0.5277495 0.7426292
0.9679773 0.5418157 0.7482701
0.0237789 0.7515883 0.8062501
0.1234434 0.7482600 0.8071879
0.2317704 0.7447725 0.8085198
0.3463963 0.7389838 0.8081346
0.4537253 0.7176676 0.7930035
0.5145036 0.6576681 0.7446097
0.5297621 0.5457847 0.6357158
0.7299817 0.5605517 0.6234426
0.9042887 0.6253219 0.6800223
0.0250461 0.8815421 0.8116194
0.1251733 0.8818085 0.8107796
0.2344273 0.8821021 0.8100931
0.3520461 0.8816185 0.8086588
0.4738034 0.8766079 0.8029425
0.5856354 0.8566929 0.7841110
0.6533222 0.7926144 0.7247452
0.6421218 0.6374711 0.5627928
0.8674825 0.7459553 0.6500532
0.0257856 0.9998885 0.8136471
0.1255637 0.9999307 0.8086863
0.2335441 0.9999495 0.8037984
0.3496157 0.9997278 0.7986142
0.4725463 0.9980584 0.7918571
0.5962246 0.9896739 0.7788018
0.7063272 0.9601484 0.7454903
0.8127809 0.9135983 0.6939805
0.9213950 0.9301225 0.7035952
0.0374243 0.0084719 0.8868912
0.1592022 0.0043192 0.8918831
0.2802212 0.0012462 0.8980739
0.4043721 0.0003151 0.9046827
0.5307505 0.0000491 0.9108442
0.6583997 0.0011370 0.9151291
0.7867657 0.0032688 0.9176513
0.9155959 0.0045754 0.9189118
0.9999999 0.0049937 0.9192729
0.0323968 0.1186763 0.8901944
0.1294054 0.0894395 0.8929781
0.2563379 0.0895067 0.8986293
0.3846884 0.0915352 0.9046132
0.5153161 0.0944369 0.9108058
0.6475076 0.0974019 0.9153618
0.7804885 0.0998094 0.9180151
0.9138562 0.1012849 0.9193057
0.9999988 0.1015944 0.9184638
0.0276587 0.2385793 0.8946916
0.1253097 0.2144012 0.8964454
0.2317154 0.1925685 0.8999057
0.3643190 0.1950422 0.9056366
0.4991149 0.1981632 0.9114977
0.6359346 0.2014495 0.9160167
0.7740170 0.2044083 0.9187923
0.9123033 0.2062863 0.9201462
0.9999788 0.2062463 0.9181022
0.0248087 0.3623526 0.9004509
0.1227619 0.3425297 0.9015880
0.2277595 0.3233678 0.9042606
0.3431420 0.3067465 0.9076918
0.4814399 0.3092444 0.9122862
0.6225270 0.3122586 0.9160844
0.7663757 0.3162444 0.9192187
0.9105003 0.3192405 0.9210628
0.9997124 0.3188521 0.9180252
0.0226900 0.4899908 0.9085750
0.1209097 0.4741500 0.9093828
0.2259982 0.4583914 0.9109104
0.3383980 0.4420556 0.9118821
0.4611486 0.4268676 0.9118730
0.6041321 0.4273801 0.9128999
0.7530596 0.4316639 0.9156242
0.9050081 0.4373619 0.9190473
0.9970875 0.4378143 0.9162593
0.0220551 0.6192063 0.9159553
0.1206012 0.6085228 0.9181530
0.2264184 0.5966898 0.9191401
0.3383317 0.5829322 0.9182363
0.4540094 0.5645168 0.9128345
0.5767935 0.5452037 0.9041990
0.7204371 0.5409984 0.8980983
0.8815551 0.5495955 0.9021203
0.9822402 0.5553196 0.9037511
0.0225156 0.7506812 0.9250069
0.1217686 0.7434908 0.9256444
0.2288655 0.7360853 0.9262664
0.3426046 0.7272617 0.9255635
0.4578535 0.7124928 0.9190836
0.5640840 0.6848521 0.9002923
0.6656534 0.6454403 0.8651448
0.8206223 0.6425742 0.8539460
0.9410415 0.6608399 0.8680712
0.0235411 0.8799644 0.9301434
0.1232344 0.8770125 0.9303531
0.2312986 0.8741274 0.9307042
0.3473459 0.8708533 0.9306224
0.4685094 0.8647458 0.9276705
0.5832034 0.8468591 0.9132876
0.6716565 0.7992177 0.8678598
0.7631750 0.7368268 0.7975101
0.9053933 0.7779747 0.8376215
0.0241478 0.9999703 0.9320505
0.1238453 0.9999791 0.9309739
0.2317870 0.9999745 0.9299963
0.3479438 0.9998057 0.9288570
0.4712124 0.9983681 0.9263670
0.5950003 0.9899457 0.9170322
0.7044208 0.9600798 0.8859342
0.8142614 0.9202411 0.8419705
0.9245959 0.9344994 0.8535992
