presets/experimental/experimental-church-soft/look.cube
# experimental-church-soft tuned
LUT_3D_SIZE 5
DOMAIN_MIN 0 0 0
DOMAIN_MAX 1 1 1
0.1658831 0.2135496 0.1995122
0.1944614 0.1149690 0.0852407
0.5170333 0.1810632 0.1452549
0.7181322 0.1915141 0.1397879
0.9141309 0.0784923 0.0445872
0.0641282 0.2572036 0.0444769
0.2407312 0.2341893 0.1289976
0.6731860 0.2976411 0.0711490
0.7340003 0.3255191 0.0635023
0.9354252 0.2806338 0.0227587
0.0701282 0.5484055 0.0236472
0.3528862 0.5707776 0.0277375
0.7328793 0.6961398 0.0456194
0.7799241 0.4699303 0.0582865
0.9825129 0.5340849 0.0044148
0.0664430 0.8026011 0.0103359
0.3365143 0.8134555 0.0118338
0.6078815 0.8251080 0.0057149
0.8293977 0.7972834 0.0009267
0.9931379 0.7950443 0.0027345
0.0632862 0.9999833 0.0048548
0.3265619 0.9999943 0.0041880
0.5888031 0.9999531 0.0000000
0.8396040 0.9995867 0.0000000
0.9995508 0.9997599 0.0000318
0.1098330 0.1227412 0.1936806
0.1178233 0.0940264 0.0969870
0.5593722 0.1074612 0.2311057
0.8098417 0.0945065 0.2124875
0.9656883 0.0375470 0.1952777
0.1121043 0.2076010 0.1655971
0.2429856 0.2297108 0.1999020
0.7253049 0.3551375 0.2860729
0.8010853 0.2458886 0.1713792
0.9723720 0.2241653 0.1497383
0.0694673 0.5415941 0.2550548
0.3170477 0.5813383 0.2324114
0.5939466 0.5627061 0.1946859
0.7909105 0.4639292 0.1389284
0.9858737 0.4905219 0.1569790
0.0566648 0.7910521 0.2437920
0.2828613 0.8027273 0.2050900
0.5644280 0.8035794 0.1897876
0.8076755 0.7818683 0.1729941
0.9906760 0.7709770 0.1694186
0.0555906 0.9999292 0.2402860
0.2729032 0.9999606 0.1943060
0.5511633 0.9998163 0.1897641
0.8187543 0.9992022 0.1797487
0.9991793 0.9995366 0.1751153
0.1588576 0.1522660 0.2270999
0.2537990 0.0457789 0.3486140
0.5336680 0.0246738 0.4330394
0.7747585 0.0187520 0.4353456
0.9943980 0.0152368 0.4353315
0.1505797 0.2063300 0.2699468
0.2967031 0.2658370 0.4457056
0.5277885 0.2457766 0.4443356
0.7883208 0.2252753 0.4153880
0.9985309 0.2150979 0.4015149
0.1162527 0.5601610 0.5256645
0.3402491 0.6310520 0.5878942
0.6015681 0.6039459 0.5261455
0.7173350 0.4170821 0.3522672
0.9793699 0.4366181 0.3626812
0.0402855 0.7676200 0.4657314
0.2549419 0.7794762 0.4495329
0.5053078 0.7774423 0.4042685
0.7461501 0.7308108 0.3511069
0.9626187 0.7152051 0.3541135
0.0410420 0.9996308 0.4686536
0.2522950 0.9997556 0.4361844
0.5022428 0.9994878 0.4044365
0.7867958 0.9975885 0.3941631
0.9963410 0.9975106 0.3886322
0.2968480 0.2538293 0.5481695
0.2882749 0.0154001 0.6411051
0.5305232 0.0026190 0.6707760
0.7849839 0.0069111 0.6773378
0.9999956 0.0080353 0.6781510
0.0946405 0.2452222 0.6136602
0.2467106 0.2024702 0.6545898
0.5087453 0.2078478 0.6719635
0.7843635 0.2103782 0.6731430
0.9998206 0.2089922 0.6611645
0.0472771 0.4779406 0.6538475
0.2357990 0.4702447 0.6805004
0.4512153 0.4201463 0.6280029
0.7269157 0.4009460 0.6231661
0.9869084 0.4304766 0.6341989
0.0261449 0.7528773 0.6883013
0.2364628 0.7567453 0.6924588
0.4558496 0.7340624 0.6731673
0.8334331 0.8117700 0.7929547
0.8767825 0.5955609 0.4932017
0.0291117 0.9995793 0.6969306
0.2373859 0.9998674 0.6797544
0.4772500 0.9983801 0.6599507
0.7369787 0.9806936 0.6273977
0.9541901 0.9568269 0.5906992
0.0374243 0.0084719 0.8868912
0.2802212 0.0012462 0.8980739
0.5307505 0.0000491 0.9108442
0.7867657 0.0032688 0.9176513
0.9999999 0.0049937 0.9192729
0.0276587 0.2385793 0.8946916
0.2317154 0.1925685 0.8999057
0.4991149 0.1981632 0.9114977
0.7740170 0.2044083 0.9187923
0.9999788 0.2062463 0.9181022
0.0226900 0.4899908 0.9085750
0.2259982 0.4583914 0.9109104
0.4611486 0.4268676 0.9118730
0.7530596 0.4316639 0.9156242
0.9970875 0.4378143 0.9162593
0.0225156 0.7506812 0.9250069
0.2288655 0.7360853 0.9262664
0.4578535 0.7124928 0.9190836
0.6656534 0.6454403 0.8651448
0.9410415 0.6608399 0.8680712
0.0241478 0.9999703 0.9320505
0.2317870 0.9999745 0.9299963
0.4712124 0.9983681 0.9263670
0.7044208 0.9600798 0.8859342
0.9245959 0.9344994 0.8535992
