catalog/styles/series/movie/series-movie-desert-signal/look.cube
# series-movie-desert-signal iteration 3
LUT_3D_SIZE 9
DOMAIN_MIN 0 0 0
DOMAIN_MAX 1 1 1
0.1075606 0.1134826 0.1121007
0.1281936 0.1305087 0.1179977
0.1164368 0.1114650 0.0998381
0.1574642 0.1146590 0.0950929
0.2708929 0.1318249 0.1013405
0.4631387 0.1627479 0.1070656
0.6793199 0.1699520 0.0788684
0.8303030 0.1563629 0.0478119
0.9384337 0.1623339 0.0628839
0.1626390 0.1661146 0.1406429
0.1392064 0.1324774 0.1033043
0.1440318 0.1215132 0.0790375
0.1629386 0.1224096 0.0854469
0.2524438 0.1453884 0.1161048
0.4265390 0.1752564 0.1123768
0.6105646 0.1944477 0.0866230
0.7618992 0.1973286 0.0682534
0.9127445 0.2041328 0.0717991
0.1157496 0.1358907 0.0816714
0.0985251 0.1045322 0.0728124
0.1271845 0.1173469 0.0747041
0.1998722 0.1581727 0.0945708
0.3084005 0.1884070 0.1132014
0.4720454 0.2149708 0.1099065
0.6487817 0.2495565 0.1007435
0.7753219 0.2696216 0.0800508
0.8932627 0.2857955 0.0668799
0.1744322 0.2497518 0.1420498
0.1444579 0.1979442 0.1119629
0.1270496 0.1578157 0.0773264
0.2042812 0.1858014 0.0606284
0.5547441 0.3499020 0.0716377
0.5964513 0.3257112 0.1251484
0.7199289 0.3239481 0.1086264
0.8499992 0.3849119 0.0913416
0.8999677 0.4287957 0.0718340
0.2391523 0.3867238 0.2344047
0.2279687 0.3662993 0.1956318
0.2473788 0.3718662 0.1701830
0.3324730 0.4041229 0.1342087
0.4747700 0.4229164 0.1086289
0.6547674 0.4597574 0.1522670
0.8090545 0.4990801 0.1367595
0.8845878 0.5538856 0.1288559
0.9045395 0.5897754 0.1586851
0.2605482 0.4953527 0.2908464
0.2709946 0.5040367 0.2453669
0.2860214 0.5117603 0.2030109
0.3255190 0.5208456 0.1606733
0.4732836 0.5679495 0.1350749
0.6335641 0.5778265 0.1208252
0.8245593 0.6570369 0.1461775
0.9105676 0.7180775 0.1855798
0.9202767 0.7337437 0.1992562
0.2684760 0.6104123 0.3356514
0.2856964 0.6184233 0.2723453
0.3042831 0.6215792 0.2095930
0.3475141 0.6259615 0.1535210
0.4509253 0.6408523 0.1148791
0.5946051 0.6679070 0.1151463
0.7539605 0.7359388 0.1729531
0.8793231 0.8052139 0.2351186
0.9412271 0.7975345 0.1450890
0.2729697 0.7367992 0.3762639
0.2936394 0.7303247 0.2957858
0.3199702 0.7238918 0.2193057
0.3651716 0.7200863 0.1570151
0.4413315 0.7257308 0.1249114
0.5527494 0.7537870 0.1409294
0.6870581 0.8020579 0.2019948
0.8261400 0.8493128 0.2559900
0.9544469 0.8735852 0.2298969
0.2754952 0.8675482 0.4149050
0.3017817 0.8438069 0.3199278
0.3326197 0.8226927 0.2324098
0.3725294 0.8100769 0.1686780
0.4279493 0.8142623 0.1466215
0.5091175 0.8351185 0.1685684
0.6249511 0.8633307 0.2195674
0.7784108 0.8967347 0.2923160
0.9586934 0.9380247 0.3897674
0.1601156 0.1666462 0.1695240
0.1424197 0.1443745 0.1337795
0.1269850 0.1190633 0.1004627
0.1551324 0.1072239 0.0902334
0.2790104 0.1239415 0.1116253
0.4753794 0.1481753 0.1244359
0.6868102 0.1581639 0.1089234
0.8366440 0.1463266 0.0696559
0.9054267 0.1452498 0.0366340
0.1163584 0.1247317 0.1122399
0.1181754 0.1192107 0.1065424
0.1329695 0.1191486 0.0960912
0.1582348 0.1197704 0.0990997
0.2511412 0.1375241 0.1261625
0.4360813 0.1714145 0.1404789
0.6367368 0.2036765 0.1290223
0.7965186 0.2290440 0.1091971
0.9294121 0.2527179 0.0952778
0.1057973 0.1321729 0.0988286
0.1109699 0.1210223 0.0932388
0.1411468 0.1353185 0.1015900
0.1708735 0.1417440 0.1040265
0.2549052 0.1627715 0.1198471
0.4168801 0.1953695 0.1409936
0.6081458 0.2404122 0.1368679
0.7757540 0.3019544 0.1261033
0.9166009 0.3629184 0.1280629
0.1391728 0.2056177 0.1473790
0.1492266 0.1969802 0.1344754
0.1687646 0.2004196 0.1138541
0.2453136 0.2339622 0.1075080
0.5141397 0.3556886 0.1080609
0.5502968 0.3229661 0.1241700
0.6318511 0.3089717 0.1457137
0.7742271 0.3846463 0.1468023
0.8901082 0.4888143 0.1620859
0.1856447 0.3221193 0.2322475
0.2131162 0.3324607 0.2092236
0.2665499 0.3676206 0.1836911
0.3700961 0.4277126 0.1566684
0.5022681 0.4555704 0.1219086
0.7080322 0.5498343 0.1588036
0.7482532 0.4982111 0.1947330
0.8210189 0.5408763 0.2185285
0.8806850 0.6381251 0.2545637
0.2238727 0.4565916 0.3174097
0.2707288 0.4835060 0.2848263
0.3323039 0.5211484 0.2498053
0.4163528 0.5643462 0.2083048
0.5161116 0.5891566 0.1742207
0.6406667 0.5954426 0.1764589
0.7807572 0.6476233 0.2441822
0.8720209 0.7212256 0.3294963
0.8946593 0.7685300 0.3919570
0.2589337 0.6042373 0.3934029
0.3079620 0.6241464 0.3448954
0.3579981 0.6419835 0.2935586
0.4176168 0.6580392 0.2430009
0.5034231 0.6703899 0.2057805
0.6151379 0.6812207 0.2033077
0.7406104 0.7293692 0.2702040
0.8493431 0.8020906 0.3809482
0.9247513 0.8527882 0.4777305
0.2941715 0.7599400 0.4614976
0.3345969 0.7579009 0.3957245
0.3753426 0.7536587 0.3315610
0.4225213 0.7471795 0.2756517
0.4876806 0.7447908 0.2420842
0.5796093 0.7604207 0.2513223
0.6933676 0.7988436 0.3134519
0.8156123 0.8494597 0.4150585
0.9385261 0.9012308 0.5422400
0.3290572 0.9179354 0.5255111
0.3596076 0.8905935 0.4442766
0.3919995 0.8635793 0.3696163
0.4292978 0.8411002 0.3139166
0.4773749 0.8319994 0.2907164
0.5463685 0.8403776 0.3070308
0.6476202 0.8625954 0.3632104
0.7839572 0.8961242 0.4607872
0.9408805 0.9380052 0.5886044
0.1497008 0.1527763 0.1602990
0.1325870 0.1334467 0.1329348
0.1261441 0.1177529 0.1137085
0.1519427 0.1050642 0.1096451
0.2629018 0.1137260 0.1349820
0.4539033 0.1345630 0.1587469
0.6647430 0.1521111 0.1628853
0.8292439 0.1582335 0.1394718
0.9257765 0.1740956 0.0986033
0.1078640 0.1192898 0.1130733
0.0997064 0.1049312 0.1018907
0.1214884 0.1138857 0.1113350
0.1703049 0.1281096 0.1285936
0.2710922 0.1432346 0.1513431
0.4514045 0.1705988 0.1749556
0.6528347 0.2027750 0.1768042
0.8143546 0.2413667 0.1672606
0.9418701 0.2856789 0.1592538
0.1059303 0.1376888 0.1164815
0.1062272 0.1195746 0.1051623
0.1416061 0.1368980 0.1221225
0.1974142 0.1633826 0.1459964
0.2580758 0.1642857 0.1504295
0.4368426 0.2002059 0.1763875
0.6400059 0.2509798 0.1802807
0.7954062 0.3215650 0.1872393
0.9165437 0.4104999 0.2058224
0.1326424 0.2021680 0.1710762
0.1528983 0.1933927 0.1565620
0.1902312 0.2103051 0.1564622
0.2645456 0.2485007 0.1632101
0.3360935 0.2489762 0.1661450
0.4774329 0.2679240 0.1557151
0.6453126 0.3234853 0.1751943
0.7740782 0.4096407 0.2121965
0.8840437 0.5287710 0.2633578
0.1665456 0.3054935 0.2575724
0.2141031 0.3207542 0.2416579
0.2808750 0.3604297 0.2318579
0.3730366 0.4190840 0.2151582
0.4755493 0.4356952 0.1803404
0.6922279 0.5565863 0.2100813
0.7127661 0.4929268 0.2438716
0.7845105 0.5432219 0.2877897
0.8647338 0.6563558 0.3566075
0.2037275 0.4422389 0.3549909
0.2761358 0.4769071 0.3368618
0.3587178 0.5217046 0.3160408
0.4406925 0.5629828 0.2721959
0.5210125 0.5835158 0.2165785
0.6421878 0.6047785 0.2377373
0.7646301 0.6530979 0.3316251
0.8403734 0.7211001 0.4202247
0.8717357 0.7746824 0.5006472
0.2548468 0.6069612 0.4527627
0.3284392 0.6338876 0.4212299
0.4009397 0.6589520 0.3841779
0.4671714 0.6749758 0.3358507
0.5336807 0.6779588 0.2910497
0.6271408 0.6888700 0.2961898
0.7357610 0.7317907 0.3696991
0.8288713 0.7996248 0.4914873
0.8975389 0.8548669 0.6167338
0.3157510 0.7837037 0.5435895
0.3735318 0.7850917 0.4938500
0.4284048 0.7830018 0.4435604
0.4797709 0.7746250 0.3960172
0.5333811 0.7631288 0.3624094
0.6034710 0.7651315 0.3655340
0.6986422 0.7955661 0.4287442
0.8076354 0.8468833 0.5501665
0.9203290 0.9048673 0.7060507
0.3790237 0.9622635 0.6289279
0.4164467 0.9332491 0.5616243
0.4529687 0.9028496 0.5000780
0.4900125 0.8736753 0.4542150
0.5331465 0.8541200 0.4340441
0.5909156 0.8502253 0.4472880
0.6752490 0.8635820 0.5036417
0.7931256 0.8952020 0.6119535
0.9315756 0.9389375 0.7560964
0.1483233 0.1534493 0.1929467
0.1252048 0.1269140 0.1658958
0.1256829 0.1153676 0.1479839
0.1576389 0.1107093 0.1466862
0.2480249 0.1161007 0.1730686
0.4237197 0.1343905 0.2125848
0.6243158 0.1514278 0.2351214
0.8059784 0.1628149 0.2280620
0.9709212 0.1832958 0.2102623
0.1148524 0.1318533 0.1470421
0.1121878 0.1234589 0.1461314
0.1390814 0.1344680 0.1654466
0.2001945 0.1533493 0.1946271
0.3023480 0.1639743 0.2154358
0.4643524 0.1768342 0.2344485
0.6510697 0.2020245 0.2455434
0.8163444 0.2444408 0.2523014
0.9568545 0.2961580 0.2598116
0.1152269 0.1537231 0.1464463
0.1192250 0.1441824 0.1479826
0.1408157 0.1461230 0.1605623
0.2585914 0.2186837 0.2472498
0.3436216 0.2187114 0.2515456
0.4891992 0.2197851 0.2401502
0.6839815 0.2594574 0.2487987
0.8259055 0.3329475 0.2787575
0.9256054 0.4289461 0.3235305
0.1413335 0.2284520 0.2142365
0.1695189 0.2237091 0.2099576
0.2032631 0.2325360 0.2155401
0.2535735 0.2404292 0.2162686
0.3713436 0.2764109 0.2459477
0.5199517 0.2926818 0.2285543
0.6986039 0.3474436 0.2364396
0.8196751 0.4478397 0.3151212
0.8901643 0.5677886 0.4078574
0.1692949 0.3335690 0.3139914
0.2228357 0.3403176 0.3012912
0.2965356 0.3761186 0.3137470
0.3826448 0.4202977 0.3189693
0.4663010 0.4256750 0.2659837
0.6140193 0.4662516 0.3059146
0.7222531 0.4777899 0.2536379
0.8089341 0.5893415 0.3873428
0.8605681 0.6919955 0.5137219
0.2034552 0.4636748 0.4134573
0.2822107 0.4922733 0.4070860
0.3693394 0.5278602 0.4047162
0.4625439 0.5707286 0.3948082
0.5378494 0.5911266 0.3393575
0.6431708 0.6123214 0.3314598
0.7510764 0.6754447 0.4462416
0.8191241 0.7393154 0.5319607
0.8569717 0.7885766 0.6099646
0.2639514 0.6298083 0.5191212
0.3469372 0.6549233 0.5046867
0.4298661 0.6779619 0.4860872
0.5057003 0.6940796 0.4563108
0.5654950 0.6949581 0.4161789
0.6295946 0.6967928 0.4080823
0.7263558 0.7404686 0.4854320
0.8109857 0.7989961 0.5919989
0.8780033 0.8494789 0.6906661
0.3410011 0.8104450 0.6197107
0.4096392 0.8122298 0.5869096
0.4749825 0.8105591 0.5529453
0.5325236 0.8015411 0.5187798
0.5821424 0.7865661 0.4928037
0.6347591 0.7784502 0.4938027
0.7103334 0.7987859 0.5490809
0.8047271 0.8436093 0.6536029
0.9053917 0.8966613 0.7792445
0.4219020 0.9926240 0.7146988
0.4699400 0.9646461 0.6617411
0.5147538 0.9345892 0.6137727
0.5555596 0.9033231 0.5795497
0.5971989 0.8774709 0.5672224
0.6472875 0.8645271 0.5823336
0.7153981 0.8689816 0.6320376
0.8120435 0.8958810 0.7269464
0.9296890 0.9392733 0.8545547
0.1255433 0.1471466 0.2852028
0.1156308 0.1230652 0.2577298
0.1267261 0.1147143 0.2197892
0.1629047 0.1157842 0.1947517
0.2497402 0.1288529 0.2225703
0.4141180 0.1503081 0.2855591
0.5997078 0.1579238 0.3213819
0.7818919 0.1565790 0.3226414
0.9679111 0.1557113 0.3117631
0.1075774 0.1472177 0.2272148
0.1207619 0.1506791 0.2426665
0.1499621 0.1582641 0.2567021
0.2135588 0.1714935 0.2749861
0.3220907 0.1829082 0.2972414
0.4708350 0.1911716 0.3181256
0.6395675 0.2113822 0.3368799
0.8058036 0.2505239 0.3557756
0.9633651 0.2991116 0.3745803
0.1131305 0.1767682 0.2075634
0.1388570 0.1957679 0.2472120
0.1845910 0.2195132 0.2961534
0.2709917 0.2454699 0.3500003
0.3691550 0.2363014 0.3441153
0.5092288 0.2329466 0.3336390
0.6838301 0.2771715 0.3547616
0.8318936 0.3561238 0.3980496
0.9474979 0.4476959 0.4475374
0.1490657 0.2689630 0.2833851
0.1905713 0.2939384 0.3183280
0.2282210 0.3004986 0.3290277
0.3038071 0.3134279 0.3554041
0.4059575 0.3052929 0.3598896
0.5489350 0.3145578 0.3540312
0.7276694 0.3871821 0.3795662
0.8456356 0.4862847 0.4486517
0.9143203 0.5956805 0.5373120
0.1761867 0.3860960 0.3946988
0.2355743 0.4036816 0.4040999
0.2982951 0.4231205 0.4110111
0.3844274 0.4520413 0.4202663
0.4831583 0.4529643 0.4093592
0.6228559 0.5060194 0.4425469
0.7560959 0.5547796 0.4275796
0.8384814 0.6160712 0.4719387
0.8795140 0.7261837 0.6422909
0.2175512 0.5180946 0.4976925
0.2944320 0.5417651 0.5024546
0.3726783 0.5647991 0.5097303
0.4735086 0.5963081 0.5197770
0.5484428 0.6116331 0.4907564
0.6435840 0.6444005 0.4823823
0.7512119 0.7263790 0.5852465
0.8279890 0.7387349 0.5631558
0.8704760 0.8231199 0.7306255
0.2908473 0.6761803 0.5975008
0.3685879 0.6931680 0.5949214
0.4478906 0.7087786 0.5927527
0.5292087 0.7221631 0.5881783
0.6020886 0.7307536 0.5743940
0.6621048 0.7357314 0.5609337
0.7307156 0.7656356 0.6153661
0.8031546 0.8150283 0.7039231
0.8738498 0.8612862 0.7730915
0.3738412 0.8408123 0.6893185
0.4440193 0.8386046 0.6702941
0.5126289 0.8344345 0.6520759
0.5769897 0.8262253 0.6365240
0.6348322 0.8152312 0.6280250
0.6864593 0.8082766 0.6349507
0.7445876 0.8201137 0.6744963
0.8154454 0.8525040 0.7459381
0.8920196 0.8888419 0.8196037
0.4586966 1.0000000 0.7755715
0.5180873 0.9793962 0.7379126
0.5741573 0.9519045 0.7042672
0.6234089 0.9224286 0.6822248
0.6670747 0.8953841 0.6793278
0.7113640 0.8780034 0.6977588
0.7651007 0.8770512 0.7368938
0.8400464 0.8996854 0.8035851
0.9346353 0.9426574 0.8956913
0.0933608 0.1537669 0.4601078
0.1073478 0.1346981 0.4261056
0.1344414 0.1277730 0.3646399
0.1797719 0.1318147 0.3016213
0.2766951 0.1494964 0.3218094
0.4268865 0.1661530 0.3840807
0.5894942 0.1630025 0.4172149
0.7558328 0.1495048 0.4208388
0.9287326 0.1365085 0.4160199
0.0861291 0.1847402 0.3745524
0.1235822 0.1978219 0.3997509
0.1652635 0.2013600 0.4048737
0.2316243 0.2011318 0.3997299
0.3371141 0.2040788 0.4036727
0.4742582 0.2117677 0.4213193
0.6278501 0.2305364 0.4430494
0.7865332 0.2621154 0.4647065
0.9447135 0.2992506 0.4854320
0.1034415 0.2352335 0.3411314
0.1501876 0.2702139 0.4052624
0.2012589 0.2830238 0.4487895
0.2729746 0.2736135 0.4636754
0.3720434 0.2535974 0.4479739
0.5107989 0.2608796 0.4491948
0.6702660 0.3135467 0.4782698
0.8171167 0.3855229 0.5178633
0.9499345 0.4579147 0.5557911
0.1459273 0.3320874 0.4047264
0.1893415 0.3638775 0.4491263
0.2304915 0.3693172 0.4741320
0.3002625 0.3591947 0.4922553
0.3997078 0.3246009 0.4729379
0.5501085 0.3488454 0.4855798
0.7168290 0.4391540 0.5333430
0.8398281 0.5247510 0.5787176
0.9345941 0.6021388 0.6236558
0.1949973 0.4750702 0.5210751
0.2452988 0.4843197 0.5272351
0.2927348 0.4950292 0.5348295
0.3404562 0.4967783 0.5446028
0.4908125 0.5152082 0.5605282
0.6204246 0.5400519 0.5745044
0.7542260 0.6176700 0.6179049
0.8453322 0.6631778 0.6270004
0.9063441 0.7211086 0.6878691
0.2565847 0.6102726 0.6144807
0.3173106 0.6159279 0.6120377
0.3799869 0.6374686 0.6271477
0.4336251 0.6419413 0.6292866
0.5439236 0.6762497 0.6383807
0.6593203 0.7119868 0.6452842
0.7622988 0.7610920 0.6950194
0.8427867 0.7785822 0.6705695
0.8854960 0.8107105 0.7549806
0.3313980 0.7383157 0.6852531
0.3961795 0.7418654 0.6825456
0.4586215 0.7483721 0.6865514
0.5256564 0.7549311 0.6942892
0.6144190 0.7637783 0.7006185
0.7031349 0.7848961 0.7081360
0.7903618 0.8326785 0.7570299
0.8315614 0.8465128 0.7801747
0.8938992 0.8825173 0.8323025
0.4133924 0.8699807 0.7502627
0.4783435 0.8613716 0.7394799
0.5425352 0.8522583 0.7311495
0.6093581 0.8442122 0.7303514
0.6794632 0.8383650 0.7394623
0.7453361 0.8411418 0.7576936
0.7999293 0.8566477 0.7852368
0.8434054 0.8763677 0.8245237
0.8998368 0.9025734 0.8593794
0.4977639 1.0000000 0.8136502
0.5628582 0.9791332 0.7917772
0.6285826 0.9543353 0.7725247
0.6904442 0.9291056 0.7624291
0.7400038 0.9061002 0.7675445
0.7768801 0.8890230 0.7862330
0.8142235 0.8865749 0.8149794
0.8692015 0.9086484 0.8566288
0.9380921 0.9477184 0.9113290
0.0774751 0.2138741 0.6722717
0.1196039 0.1948635 0.6190949
0.1643234 0.1809774 0.5601278
0.2231948 0.1733524 0.5023720
0.3174685 0.1734550 0.4944373
0.4404304 0.1714758 0.5116206
0.5779430 0.1623354 0.5220011
0.7251108 0.1485981 0.5220412
0.8780853 0.1356047 0.5202917
0.0864035 0.2738325 0.5724792
0.1435900 0.2825403 0.5911736
0.1952883 0.2733834 0.5906321
0.2612942 0.2537518 0.5671710
0.3564235 0.2410239 0.5470147
0.4787276 0.2426243 0.5477733
0.6157458 0.2561618 0.5586533
0.7599110 0.2765817 0.5716862
0.9059326 0.2985694 0.5842800
0.1193182 0.3648458 0.5537922
0.1701027 0.3731299 0.5899551
0.2225954 0.3663598 0.6145138
0.2914954 0.3395666 0.6072186
0.3906948 0.3168128 0.5864398
0.5174504 0.3249020 0.5846912
0.6563933 0.3629848 0.6028824
0.7937806 0.4098578 0.6255120
0.9270314 0.4547130 0.6462844
0.1558194 0.4413027 0.5745023
0.2018033 0.4668706 0.6077564
0.2539650 0.4739018 0.6354199
0.3307337 0.4623821 0.6480415
0.4347741 0.4354775 0.6333801
0.5645388 0.4449533 0.6349054
0.7015879 0.4969602 0.6622138
0.8225032 0.5480167 0.6833820
0.9319406 0.5921607 0.6982613
0.1855477 0.5002994 0.5976305
0.2546561 0.5713316 0.6507520
0.3115642 0.5967581 0.6758991
0.3838904 0.6157260 0.7027268
0.5019989 0.6240935 0.7144983
0.6321661 0.6251750 0.7140925
0.7468343 0.6498103 0.7295675
0.8385259 0.6784163 0.7386395
0.9194520 0.7028806 0.7371930
0.2792216 0.6845064 0.7186804
0.3304620 0.6774760 0.7020075
0.3924519 0.7010633 0.7176335
0.4134730 0.7131432 0.7368054
0.5150178 0.7516153 0.7652246
0.7068031 0.7934374 0.7904795
0.7781753 0.7759018 0.7797771
0.8410762 0.7848919 0.7839466
0.9035377 0.7921757 0.7760888
0.3653566 0.7934300 0.7657200
0.4192514 0.7810177 0.7511798
0.4740317 0.7826741 0.7528282
0.5098921 0.7849383 0.7627130
0.5813250 0.7889787 0.7702760
0.7359484 0.8389303 0.8071054
0.8018260 0.8453386 0.8135173
0.8503192 0.8588186 0.8232890
0.9029644 0.8707554 0.8369570
0.4573123 0.8918392 0.7999942
0.5125693 0.8765986 0.7923017
0.5682119 0.8630504 0.7878318
0.6320145 0.8546294 0.7911749
0.7103698 0.8549240 0.8063442
0.7822942 0.8624588 0.8273393
0.8387498 0.8853945 0.8520056
0.8665863 0.8945114 0.8635918
0.9213128 0.9253903 0.8945815
0.5517477 0.9949694 0.8391474
0.6114642 0.9716822 0.8318548
0.6776405 0.9486621 0.8257143
0.7486176 0.9283161 0.8257001
0.8039313 0.9110134 0.8345356
0.8350330 0.8998550 0.8501595
0.8597649 0.9035357 0.8711373
0.8974566 0.9272787 0.8985759
0.9392851 0.9540802 0.9231996
0.1399227 0.3528339 0.7851217
0.1816861 0.3104418 0.7759986
0.2138331 0.2616674 0.7585238
0.2654278 0.2201191 0.7272292
0.3430501 0.1897222 0.6916633
0.4437732 0.1706461 0.6620416
0.5612122 0.1597952 0.6403307
0.6895198 0.1528560 0.6253071
0.8228528 0.1477693 0.6142409
0.1575592 0.4223988 0.7503554
0.2012112 0.4063496 0.7711788
0.2384732 0.3680067 0.7720710
0.2958132 0.3275794 0.7485601
0.3794841 0.2988832 0.7179057
0.4843441 0.2864182 0.6952607
0.6025263 0.2861712 0.6825254
0.7289336 0.2913516 0.6759963
0.8584864 0.2976648 0.6713347
0.1787071 0.5306623 0.7534426
0.2210048 0.5083412 0.7721487
0.2650433 0.4766859 0.7798419
0.3311072 0.4439334 0.7684943
0.4213801 0.4185120 0.7458973
0.5278880 0.4100649 0.7303966
0.6448423 0.4171888 0.7263940
0.7670961 0.4295157 0.7260548
0.8903633 0.4415407 0.7253957
0.1993258 0.6345216 0.7762780
0.2445648 0.6045274 0.7747830
0.3011457 0.5925537 0.7877097
0.3794802 0.5773555 0.7898953
0.4758815 0.5602207 0.7802539
0.5796676 0.5502802 0.7723339
0.6906443 0.5543555 0.7734150
0.8020444 0.5631364 0.7734470
0.9116822 0.5711263 0.7715855
0.1690765 0.5629236 0.6829710
0.2778620 0.6820757 0.7784050
0.3513390 0.6968108 0.7952892
0.4330382 0.7004266 0.8036894
0.5312079 0.7069981 0.8165371
0.6382636 0.6987861 0.8191578
0.7419520 0.6881612 0.8180596
0.8314776 0.6834672 0.8151902
0.9177107 0.6820749 0.8085092
0.1757034 0.6408990 0.7247935
0.3362742 0.7374506 0.7794167
0.4129440 0.7594278 0.7909333
0.4844580 0.7710883 0.7956623
0.5258677 0.8041280 0.8371271
0.6911871 0.8150432 0.8471889
0.7901977 0.7981626 0.8485990
0.8508745 0.7830734 0.8459476
0.9149124 0.7761982 0.8399677
0.3724714 0.8067627 0.8064059
0.4259322 0.8016905 0.7967760
0.4870925 0.8053401 0.7966395
0.5402345 0.8139576 0.8049088
0.5993573 0.8332090 0.8264459
0.7438550 0.8636167 0.8520351
0.8088961 0.8651719 0.8628618
0.8630492 0.8585329 0.8677792
0.9147029 0.8548046 0.8704444
0.5051947 0.9033509 0.8382881
0.5453197 0.8827332 0.8310355
0.5952467 0.8704242 0.8307016
0.6590265 0.8663844 0.8367320
0.7412863 0.8715058 0.8477147
0.8140639 0.8871120 0.8674505
0.8549647 0.9021728 0.8836855
0.8957210 0.9199702 0.9039569
0.9214500 0.9125624 0.9027834
0.6266692 0.9877337 0.8620367
0.6696579 0.9632152 0.8662353
0.7229508 0.9410655 0.8712370
0.7885319 0.9255244 0.8790816
0.8414575 0.9155326 0.8876909
0.8685146 0.9120865 0.8941661
0.8879344 0.9243595 0.9051049
0.9085718 0.9430941 0.9175254
0.9396243 0.9597030 0.9312251
0.3706762 0.6185961 0.8538419
0.2860542 0.4583320 0.9195503
0.2632639 0.3449689 0.9546595
0.2945777 0.2619768 0.9416840
0.3584238 0.2036640 0.8897364
0.4431250 0.1704589 0.8240602
0.5433453 0.1585562 0.7687368
0.6524859 0.1592171 0.7305408
0.7647011 0.1639133 0.7009985
0.3747930 0.6602813 0.8794921
0.2845854 0.5507379 0.9343513
0.2865514 0.4735069 0.9519019
0.3332080 0.4125637 0.9367923
0.4042319 0.3674924 0.8994226
0.4907245 0.3372522 0.8530480
0.5892048 0.3183971 0.8115663
0.6965262 0.3060459 0.7794623
0.8076465 0.2960337 0.7523582
0.2901410 0.7184850 0.9172158
0.2930450 0.6589159 0.9446485
0.3193239 0.6005377 0.9459178
0.3763399 0.5580607 0.9320751
0.4533055 0.5277860 0.9096628
0.5400162 0.4998803 0.8804618
0.6355553 0.4727244 0.8508684
0.7400772 0.4478128 0.8248976
0.8491938 0.4246358 0.8009140
0.2832360 0.8535824 0.9661329
0.3077586 0.7595829 0.9404449
0.3537242 0.7034216 0.9241307
0.4221260 0.6807002 0.9170835
0.5029422 0.6660862 0.9103351
0.5904022 0.6435885 0.8983943
0.6837730 0.6115111 0.8809016
0.7833053 0.5778427 0.8623381
0.8855301 0.5460084 0.8443255
0.3259849 0.9469966 0.9784686
0.3150240 0.8035731 0.9046700
0.3837734 0.7682147 0.8861701
0.4709186 0.7665771 0.8851730
0.5558618 0.7641766 0.8898173
0.6421751 0.7523715 0.8975436
0.7340876 0.7254540 0.8969823
0.8245804 0.6915674 0.8892020
0.9118729 0.6578263 0.8805252
0.2774158 0.8374638 0.8776615
0.3399860 0.8033575 0.8560725
0.4238196 0.8034233 0.8507392
0.5251873 0.8188844 0.8532190
0.6376256 0.8300748 0.8612184
0.7106572 0.8275645 0.8822143
0.7841629 0.8124198 0.9001459
0.8580412 0.7868356 0.9063815
0.9264850 0.7573405 0.9065567
0.3335437 0.8171195 0.8448755
0.4392681 0.8266162 0.8409518
0.5038175 0.8345448 0.8426674
0.6034428 0.8557867 0.8576007
0.7023778 0.8700034 0.8654092
0.7793508 0.8758027 0.8758427
0.8311921 0.8745856 0.8978305
0.8807644 0.8617754 0.9154127
0.9333043 0.8399710 0.9215965
0.5586046 0.9029187 0.8657600
0.5775305 0.8844318 0.8634782
0.6263194 0.8798936 0.8710533
0.7049889 0.8915069 0.8933418
0.7813014 0.9009959 0.9057239
0.8287339 0.9056161 0.9018111
0.8585864 0.9092053 0.9022628
0.8924583 0.9125649 0.9155907
0.9362439 0.9018748 0.9303893
0.7140026 0.9823385 0.8858022
0.7337589 0.9543935 0.8984644
0.7660877 0.9324179 0.9132086
0.8129490 0.9209210 0.9264379
0.8583931 0.9209139 0.9334601
0.8865722 0.9293450 0.9309917
0.8963991 0.9429548 0.9246001
0.9022536 0.9539203 0.9248193
0.9281328 0.9596133 0.9346456
