catalog/styles/series/movie/series-movie-desert-signal/look.cube
# series-movie-desert-signal iteration 3
LUT_3D_SIZE 5
DOMAIN_MIN 0 0 0
DOMAIN_MAX 1 1 1
0.1075606 0.1134826 0.1121007
0.1164368 0.1114650 0.0998381
0.2708929 0.1318249 0.1013405
0.6793199 0.1699520 0.0788684
0.9384337 0.1623339 0.0628839
0.1157496 0.1358907 0.0816714
0.1271845 0.1173469 0.0747041
0.3084005 0.1884070 0.1132014
0.6487817 0.2495565 0.1007435
0.8932627 0.2857955 0.0668799
0.2391523 0.3867238 0.2344047
0.2473788 0.3718662 0.1701830
0.4747700 0.4229164 0.1086289
0.8090545 0.4990801 0.1367595
0.9045395 0.5897754 0.1586851
0.2684760 0.6104123 0.3356514
0.3042831 0.6215792 0.2095930
0.4509253 0.6408523 0.1148791
0.7539605 0.7359388 0.1729531
0.9412271 0.7975345 0.1450890
0.2754952 0.8675482 0.4149050
0.3326197 0.8226927 0.2324098
0.4279493 0.8142623 0.1466215
0.6249511 0.8633307 0.2195674
0.9586934 0.9380247 0.3897674
0.1497008 0.1527763 0.1602990
0.1261441 0.1177529 0.1137085
0.2629018 0.1137260 0.1349820
0.6647430 0.1521111 0.1628853
0.9257765 0.1740956 0.0986033
0.1059303 0.1376888 0.1164815
0.1416061 0.1368980 0.1221225
0.2580758 0.1642857 0.1504295
0.6400059 0.2509798 0.1802807
0.9165437 0.4104999 0.2058224
0.1665456 0.3054935 0.2575724
0.2808750 0.3604297 0.2318579
0.4755493 0.4356952 0.1803404
0.7127661 0.4929268 0.2438716
0.8647338 0.6563558 0.3566075
0.2548468 0.6069612 0.4527627
0.4009397 0.6589520 0.3841779
0.5336807 0.6779588 0.2910497
0.7357610 0.7317907 0.3696991
0.8975389 0.8548669 0.6167338
0.3790237 0.9622635 0.6289279
0.4529687 0.9028496 0.5000780
0.5331465 0.8541200 0.4340441
0.6752490 0.8635820 0.5036417
0.9315756 0.9389375 0.7560964
0.1255433 0.1471466 0.2852028
0.1267261 0.1147143 0.2197892
0.2497402 0.1288529 0.2225703
0.5997078 0.1579238 0.3213819
0.9679111 0.1557113 0.3117631
0.1131305 0.1767682 0.2075634
0.1845910 0.2195132 0.2961534
0.3691550 0.2363014 0.3441153
0.6838301 0.2771715 0.3547616
0.9474979 0.4476959 0.4475374
0.1761867 0.3860960 0.3946988
0.2982951 0.4231205 0.4110111
0.4831583 0.4529643 0.4093592
0.7560959 0.5547796 0.4275796
0.8795140 0.7261837 0.6422909
0.2908473 0.6761803 0.5975008
0.4478906 0.7087786 0.5927527
0.6020886 0.7307536 0.5743940
0.7307156 0.7656356 0.6153661
0.8738498 0.8612862 0.7730915
0.4586966 1.0000000 0.7755715
0.5741573 0.9519045 0.7042672
0.6670747 0.8953841 0.6793278
0.7651007 0.8770512 0.7368938
0.9346353 0.9426574 0.8956913
0.0774751 0.2138741 0.6722717
0.1643234 0.1809774 0.5601278
0.3174685 0.1734550 0.4944373
0.5779430 0.1623354 0.5220011
0.8780853 0.1356047 0.5202917
0.1193182 0.3648458 0.5537922
0.2225954 0.3663598 0.6145138
0.3906948 0.3168128 0.5864398
0.6563933 0.3629848 0.6028824
0.9270314 0.4547130 0.6462844
0.1855477 0.5002994 0.5976305
0.3115642 0.5967581 0.6758991
0.5019989 0.6240935 0.7144983
0.7468343 0.6498103 0.7295675
0.9194520 0.7028806 0.7371930
0.3653566 0.7934300 0.7657200
0.4740317 0.7826741 0.7528282
0.5813250 0.7889787 0.7702760
0.8018260 0.8453386 0.8135173
0.9029644 0.8707554 0.8369570
0.5517477 0.9949694 0.8391474
0.6776405 0.9486621 0.8257143
0.8039313 0.9110134 0.8345356
0.8597649 0.9035357 0.8711373
0.9392851 0.9540802 0.9231996
0.3706762 0.6185961 0.8538419
0.2632639 0.3449689 0.9546595
0.3584238 0.2036640 0.8897364
0.5433453 0.1585562 0.7687368
0.7647011 0.1639133 0.7009985
0.2901410 0.7184850 0.9172158
0.3193239 0.6005377 0.9459178
0.4533055 0.5277860 0.9096628
0.6355553 0.4727244 0.8508684
0.8491938 0.4246358 0.8009140
0.3259849 0.9469966 0.9784686
0.3837734 0.7682147 0.8861701
0.5558618 0.7641766 0.8898173
0.7340876 0.7254540 0.8969823
0.9118729 0.6578263 0.8805252
0.3335437 0.8171195 0.8448755
0.5038175 0.8345448 0.8426674
0.7023778 0.8700034 0.8654092
0.8311921 0.8745856 0.8978305
0.9333043 0.8399710 0.9215965
0.7140026 0.9823385 0.8858022
0.7660877 0.9324179 0.9132086
0.8583931 0.9209139 0.9334601
0.8963991 0.9429548 0.9246001
0.9281328 0.9596133 0.9346456
