catalog/styles/series/movie/series-movie-desert-signal/look.cube
# series-movie-desert-signal iteration 3
LUT_3D_SIZE 33
DOMAIN_MIN 0 0 0
DOMAIN_MAX 1 1 1
0.1075606 0.1134826 0.1121007
0.1396117 0.1455322 0.1373523
0.1452687 0.1506060 0.1390178
0.1384372 0.1424298 0.1297855
0.1281936 0.1305087 0.1179977
0.1199128 0.1207933 0.1087924
0.1155004 0.1152538 0.1037499
0.1146734 0.1128002 0.1014946
0.1164368 0.1114650 0.0998381
0.1208674 0.1105440 0.0976415
0.1286761 0.1107066 0.0957758
0.1405029 0.1119870 0.0948187
0.1574642 0.1146590 0.0950929
0.1794271 0.1181837 0.0961541
0.2054494 0.1217892 0.0973167
0.2358219 0.1262466 0.0991097
0.2708929 0.1318249 0.1013405
0.3114773 0.1389423 0.1039983
0.3576110 0.1471186 0.1064580
0.4085493 0.1553658 0.1077770
0.4631387 0.1627479 0.1070656
0.5195602 0.1684430 0.1038724
0.5754999 0.1714577 0.0976936
0.6292434 0.1718276 0.0890470
0.6793199 0.1699520 0.0788684
0.7246081 0.1662951 0.0681486
0.7645510 0.1621356 0.0585683
0.7994486 0.1585235 0.0514933
0.8303030 0.1563629 0.0478119
0.8585255 0.1559075 0.0476593
0.8853251 0.1569562 0.0505658
0.9117948 0.1591911 0.0558929
0.9384337 0.1623339 0.0628839
0.1607725 0.1668283 0.1540027
0.1640300 0.1698768 0.1551962
0.1578397 0.1625509 0.1469830
0.1479297 0.1506663 0.1343305
0.1383189 0.1385954 0.1214655
0.1311466 0.1289289 0.1109984
0.1266571 0.1222172 0.1036210
0.1244599 0.1178518 0.0988206
0.1241919 0.1148084 0.0953457
0.1263957 0.1127846 0.0926096
0.1319425 0.1120279 0.0908016
0.1416660 0.1126334 0.0902697
0.1563992 0.1149101 0.0915425
0.1764610 0.1187125 0.0944148
0.2015216 0.1235743 0.0981539
0.2312634 0.1292618 0.1020924
0.2657957 0.1357098 0.1057009
0.3054338 0.1429308 0.1085960
0.3500751 0.1506123 0.1103045
0.3988918 0.1581473 0.1103216
0.4507061 0.1648848 0.1082459
0.5039354 0.1702050 0.1039488
0.5568195 0.1735522 0.0974716
0.6079900 0.1748419 0.0892833
0.6561148 0.1742956 0.0801988
0.7002598 0.1723444 0.0710942
0.7401492 0.1697425 0.0629900
0.7762475 0.1673256 0.0568469
0.8095440 0.1658935 0.0534601
0.8410954 0.1657251 0.0529657
0.8717255 0.1667230 0.0550602
0.9021042 0.1686388 0.0591625
0.9325508 0.1710710 0.0643476
0.1803858 0.1858607 0.1666923
0.1729585 0.1777211 0.1583880
0.1633037 0.1666555 0.1472734
0.1530034 0.1539443 0.1338349
0.1449263 0.1426652 0.1209489
0.1398277 0.1340732 0.1102834
0.1364523 0.1275635 0.1019162
0.1338007 0.1223258 0.0955590
0.1320841 0.1180303 0.0906981
0.1322964 0.1148595 0.0872173
0.1357071 0.1131730 0.0852938
0.1435076 0.1134460 0.0855617
0.1564243 0.1158525 0.0884164
0.1746681 0.1200674 0.0932918
0.1982232 0.1256423 0.0991817
0.2268669 0.1320436 0.1049101
0.2604795 0.1389476 0.1095586
0.2990506 0.1462149 0.1126038
0.3424170 0.1536525 0.1137410
0.3896921 0.1609118 0.1127894
0.4394350 0.1674658 0.1096822
0.4901803 0.1728418 0.1045917
0.5405040 0.1766430 0.0978539
0.5893173 0.1788173 0.0900384
0.6354138 0.1794155 0.0818557
0.6780921 0.1787460 0.0739635
0.7175690 0.1774254 0.0670861
0.7545674 0.1761570 0.0618910
0.7900222 0.1755337 0.0588796
0.8245361 0.1757920 0.0581847
0.8585178 0.1768555 0.0596021
0.8923839 0.1786252 0.0627755
0.9264692 0.1808294 0.0669776
0.1774298 0.1817872 0.1590928
0.1680024 0.1711758 0.1488552
0.1589493 0.1604293 0.1379488
0.1509133 0.1496264 0.1260250
0.1457550 0.1407117 0.1146948
0.1436553 0.1344460 0.1052186
0.1427216 0.1297353 0.0975001
0.1411553 0.1251008 0.0908733
0.1391532 0.1204515 0.0852835
0.1380039 0.1164471 0.0811792
0.1399724 0.1142886 0.0794036
0.1466410 0.1148880 0.0810452
0.1583898 0.1181365 0.0861835
0.1750814 0.1230036 0.0933387
0.1966639 0.1287861 0.1009798
0.2234446 0.1351525 0.1078706
0.2556587 0.1419551 0.1130413
0.2931867 0.1490970 0.1160074
0.3357574 0.1565163 0.1166438
0.3822177 0.1639234 0.1149670
0.4308675 0.1708262 0.1111972
0.4802322 0.1767800 0.1056839
0.5288732 0.1813883 0.0989020
0.5756233 0.1844523 0.0914620
0.6196540 0.1859925 0.0839950
0.6607309 0.1863137 0.0770378
0.6994013 0.1859754 0.0710948
0.7367595 0.1856576 0.0665922
0.7735008 0.1857268 0.0638110
0.8099782 0.1864123 0.0628841
0.8463127 0.1876681 0.0637426
0.8828097 0.1894860 0.0662459
0.9198785 0.1918094 0.0699635
0.1626390 0.1661146 0.1406429
0.1541372 0.1561724 0.1314718
0.1467677 0.1468955 0.1221719
0.1413930 0.1386196 0.1125139
0.1392064 0.1324774 0.1033043
0.1401934 0.1290137 0.0956682
0.1426958 0.1272018 0.0897740
0.1442391 0.1248986 0.0842895
0.1440318 0.1215132 0.0790375
0.1433988 0.1180785 0.0752160
0.1453010 0.1164453 0.0743152
0.1518624 0.1180318 0.0778121
0.1629386 0.1224096 0.0854469
0.1782621 0.1279857 0.0948844
0.1975993 0.1336180 0.1038324
0.2219722 0.1392614 0.1110566
0.2524438 0.1453884 0.1161048
0.2891880 0.1521986 0.1186461
0.3315244 0.1597053 0.1187127
0.3779294 0.1675649 0.1164880
0.4265390 0.1752564 0.1123768
0.4754963 0.1821899 0.1068087
0.5231255 0.1878610 0.1002986
0.5682694 0.1919350 0.0934069
0.6105646 0.1944477 0.0866230
0.6503053 0.1957481 0.0803907
0.6881754 0.1963236 0.0750838
0.7251379 0.1967336 0.0709759
0.7618992 0.1973286 0.0682534
0.7989093 0.1983432 0.0670064
0.8362693 0.1998050 0.0672625
0.8741844 0.2017509 0.0689804
0.9127445 0.2041328 0.0717991
0.1434552 0.1474102 0.1183304
0.1365791 0.1389003 0.1113939
0.1307525 0.1310092 0.1042503
0.1270226 0.1244745 0.0968985
0.1264922 0.1202838 0.0899857
0.1297244 0.1191283 0.0843232
0.1355574 0.1201765 0.0801639
0.1417037 0.1215489 0.0767147
0.1462210 0.1219028 0.0735264
0.1486378 0.1208401 0.0710373
0.1520254 0.1207181 0.0715554
0.1594612 0.1238026 0.0771278
0.1702699 0.1292384 0.0869005
0.1841577 0.1350787 0.0977770
0.2013108 0.1402109 0.1071422
0.2235170 0.1448763 0.1139811
0.2525438 0.1500711 0.1182909
0.2888006 0.1563860 0.1200658
0.3314114 0.1640028 0.1195434
0.3784300 0.1724546 0.1169771
0.4276836 0.1811416 0.1128454
0.4767332 0.1892334 0.1076322
0.5238298 0.1961269 0.1018042
0.5679791 0.2014091 0.0957423
0.6090995 0.2051063 0.0897464
0.6476716 0.2075003 0.0841254
0.6844365 0.2089918 0.0791718
0.7203359 0.2100550 0.0751721
0.7560419 0.2110126 0.0721896
0.7920810 0.2121659 0.0703350
0.8288958 0.2137608 0.0697713
0.8667837 0.2159128 0.0705032
0.9054765 0.2184360 0.0721442
0.1261216 0.1328381 0.0981776
0.1208410 0.1254979 0.0937051
0.1159336 0.1183024 0.0887806
0.1126996 0.1123905 0.0837856
0.1125553 0.1090380 0.0794234
0.1167592 0.1092388 0.0761319
0.1248069 0.1124211 0.0736497
0.1347536 0.1170194 0.0718319
0.1445112 0.1215774 0.0707354
0.1519696 0.1243007 0.0700316
0.1587793 0.1268633 0.0721203
0.1680341 0.1318225 0.0793417
0.1795317 0.1382425 0.0901235
0.1927719 0.1440194 0.1009232
0.2087698 0.1485225 0.1095111
0.2298917 0.1524904 0.1153949
0.2585894 0.1572281 0.1188785
0.2950557 0.1633071 0.1199703
0.3380856 0.1709264 0.1189673
0.3855460 0.1796909 0.1162264
0.4352144 0.1890683 0.1124107
0.4844352 0.1982095 0.1080082
0.5313829 0.2063458 0.1033172
0.5750980 0.2129847 0.0983904
0.6155114 0.2180401 0.0932579
0.6530074 0.2216781 0.0881275
0.6883782 0.2242117 0.0832753
0.7225885 0.2260066 0.0790031
0.7564099 0.2274275 0.0754433
0.7904107 0.2287937 0.0727471
0.8251678 0.2305101 0.0711696
0.8615300 0.2329993 0.0707742
0.8989402 0.2358467 0.0711704
0.1161589 0.1282029 0.0852388
0.1116814 0.1210718 0.0826111
0.1069889 0.1136041 0.0794155
0.1035140 0.1071837 0.0763566
0.1026926 0.1032425 0.0740899
0.1058781 0.1029005 0.0727104
0.1133222 0.1061541 0.0717131
0.1242864 0.1121808 0.0711513
0.1371899 0.1195407 0.0712876
0.1502525 0.1267403 0.0726282
0.1630074 0.1337997 0.0765254
0.1760481 0.1412311 0.0840280
0.1897648 0.1484383 0.0935250
0.2046693 0.1543940 0.1024766
0.2223923 0.1591470 0.1094879
0.2450673 0.1635711 0.1142863
0.2750732 0.1689365 0.1173110
0.3121512 0.1752823 0.1181104
0.3545756 0.1824892 0.1168216
0.4009779 0.1907282 0.1142568
0.4498424 0.1999489 0.1112220
0.4988524 0.2095579 0.1081162
0.5458028 0.2186850 0.1049190
0.5894462 0.2266460 0.1013068
0.6292853 0.2330183 0.0970226
0.6656062 0.2379032 0.0921936
0.6993751 0.2416696 0.0871410
0.7315828 0.2446121 0.0822916
0.7631333 0.2470810 0.0779598
0.7945647 0.2492517 0.0743302
0.8265458 0.2515684 0.0716611
0.8600556 0.2545903 0.0700631
0.8947388 0.2580246 0.0692802
0.1157496 0.1358907 0.0816714
0.1108921 0.1276420 0.0796639
0.1056046 0.1187923 0.0770655
0.1010302 0.1105937 0.0745278
0.0985251 0.1045322 0.0728124
0.0993755 0.1019564 0.0722193
0.1044190 0.1035086 0.0724485
0.1137613 0.1088582 0.0731998
0.1271845 0.1173469 0.0747041
0.1435002 0.1276323 0.0773944
0.1613943 0.1384493 0.0817390
0.1802434 0.1489136 0.0878604
0.1998722 0.1581727 0.0945708
0.2210834 0.1661826 0.1008572
0.2454567 0.1733758 0.1060099
0.2745002 0.1806833 0.1100752
0.3084005 0.1884070 0.1132014
0.3454501 0.1953581 0.1141840
0.3847004 0.2014462 0.1132743
0.4265906 0.2075872 0.1115473
0.4720454 0.2149708 0.1099065
0.5194543 0.2236864 0.1084593
0.5660452 0.2330411 0.1067904
0.6095615 0.2419612 0.1043428
0.6487817 0.2495565 0.1007435
0.6837881 0.2556508 0.0959742
0.7159270 0.2608439 0.0905975
0.7461509 0.2654045 0.0851435
0.7753219 0.2696216 0.0800508
0.8040297 0.2735100 0.0755174
0.8329717 0.2773937 0.0717886
0.8627074 0.2815382 0.0689697
0.8932627 0.2857955 0.0668799
0.1231161 0.1542823 0.0867007
0.1176813 0.1444924 0.0845372
0.1114429 0.1337751 0.0814296
0.1053411 0.1231557 0.0779459
0.1005979 0.1140151 0.0749943
0.0984902 0.1079250 0.0733832
0.1001991 0.1061371 0.0733426
0.1061924 0.1088609 0.0744871
0.1168611 0.1157686 0.0764507
0.1320910 0.1258390 0.0790103
0.1524596 0.1384472 0.0826063
0.1783071 0.1527033 0.0874460
0.2092329 0.1673272 0.0925836
0.2439961 0.1812674 0.0971097
0.2820915 0.1943680 0.1004921
0.3228639 0.2074095 0.1036439
0.3621505 0.2184719 0.1059396
0.3970366 0.2256399 0.1070468
0.4293844 0.2296408 0.1077629
0.4627551 0.2321240 0.1086197
0.5009262 0.2354333 0.1095066
0.5444048 0.2412189 0.1099171
0.5893982 0.2491689 0.1091881
0.6322172 0.2581461 0.1071473
0.6709552 0.2668782 0.1037981
0.7051552 0.2744632 0.0990479
0.7361332 0.2814044 0.0934983
0.7646888 0.2878825 0.0876531
0.7916761 0.2942959 0.0819762
0.8174484 0.3005088 0.0766761
0.8426667 0.3065836 0.0719619
0.8679741 0.3126646 0.0680224
0.8936729 0.3185223 0.0646641
0.1363334 0.1807992 0.0992108
0.1305645 0.1698901 0.0964053
0.1235696 0.1577015 0.0921936
0.1160750 0.1449365 0.0869585
0.1092027 0.1327704 0.0815889
0.1042453 0.1227830 0.0772097
0.1024036 0.1165352 0.0746650
0.1042976 0.1149058 0.0740272
0.1103831 0.1179502 0.0747292
0.1214938 0.1251671 0.0760207
0.1404761 0.1368697 0.0780637
0.1704983 0.1531889 0.0814085
0.2139595 0.1743697 0.0863758
0.2696481 0.1991523 0.0917910
0.3318329 0.2244171 0.0955061
0.3894996 0.2455749 0.0961317
0.4331834 0.2593067 0.0945270
0.4621813 0.2658122 0.0955390
0.4846271 0.2673221 0.1005240
0.5064124 0.2648128 0.1067722
0.5334484 0.2616204 0.1113724
0.5690324 0.2617343 0.1132124
0.6104074 0.2662730 0.1122867
0.6524957 0.2744176 0.1094517
0.6919718 0.2845570 0.1056747
0.7269210 0.2944056 0.1009158
0.7580768 0.3037305 0.0957018
0.7858609 0.3125406 0.0900976
0.8107111 0.3209718 0.0841574
0.8332300 0.3293514 0.0782605
0.8543176 0.3379275 0.0728248
0.8747538 0.3464981 0.0680805
0.8952213 0.3548426 0.0639251
0.1540938 0.2134491 0.1182263
0.1480208 0.2019209 0.1141970
0.1405171 0.1889225 0.1085569
0.1322827 0.1750599 0.1016156
0.1243390 0.1613093 0.0940401
0.1176078 0.1486877 0.0866153
0.1129007 0.1383935 0.0802349
0.1109191 0.1316901 0.0755448
0.1121872 0.1293344 0.0727046
0.1179817 0.1317831 0.0711039
0.1321818 0.1398923 0.0703335
0.1608337 0.1546823 0.0709732
0.2111175 0.1789132 0.0748074
0.2853749 0.2137955 0.0819485
0.3747831 0.2543260 0.0883929
0.4555564 0.2877098 0.0869794
0.5065252 0.3061566 0.0798448
0.5309233 0.3142566 0.0814850
0.5425467 0.3130387 0.0941710
0.5514257 0.3035695 0.1079780
0.5668490 0.2928358 0.1168535
0.5925703 0.2859643 0.1193972
0.6274541 0.2854289 0.1169665
0.6666666 0.2910620 0.1119445
0.7076593 0.3024864 0.1066363
0.7462470 0.3163115 0.1017118
0.7795365 0.3292434 0.0973159
0.8078471 0.3407855 0.0927672
0.8310242 0.3507698 0.0871902
0.8501302 0.3602727 0.0810010
0.8667433 0.3703254 0.0751565
0.8821478 0.3809908 0.0701172
0.8974207 0.3923893 0.0659566
0.1744322 0.2497518 0.1420498
0.1680114 0.2380778 0.1361971
0.1603572 0.2250811 0.1290038
0.1521785 0.2113940 0.1207662
0.1444579 0.1979442 0.1119629
0.1378293 0.1853373 0.1029326
0.1326465 0.1741056 0.0939658
0.1289691 0.1647085 0.0852576
0.1270496 0.1578157 0.0773264
0.1278182 0.1542219 0.0703948
0.1354255 0.1559574 0.0647501
0.1573855 0.1651171 0.0607749
0.2042812 0.1858014 0.0606284
0.2828056 0.2221635 0.0664887
0.3860525 0.2716826 0.0758979
0.4866420 0.3188047 0.0782424
0.5547441 0.3499020 0.0716377
0.5877091 0.3664937 0.0750517
0.5929116 0.3621907 0.0940250
0.5900439 0.3436581 0.1136327
0.5964513 0.3257112 0.1251484
0.6153696 0.3140575 0.1277205
0.6445743 0.3098527 0.1235090
0.6802527 0.3131957 0.1161816
0.7199289 0.3239481 0.1086264
0.7603925 0.3402083 0.1024736
0.7973095 0.3582221 0.0986210
0.8274966 0.3738228 0.0957120
0.8499992 0.3849119 0.0913416
0.8661753 0.3942877 0.0855416
0.8787311 0.4045802 0.0800096
0.8895491 0.4160730 0.0754598
0.8999677 0.4287957 0.0718340
0.1945290 0.2867560 0.1676299
0.1883007 0.2758050 0.1600916
0.1810484 0.2637209 0.1515679
0.1735170 0.2511991 0.1424229
0.1668642 0.2393828 0.1332052
0.1617734 0.2288744 0.1240593
0.1584614 0.2199165 0.1148610
0.1569168 0.2126780 0.1052867
0.1566627 0.2067368 0.0949149
0.1569369 0.2010904 0.0833915
0.1595610 0.1963052 0.0711770
0.1717844 0.1959745 0.0598757
0.2058181 0.2060840 0.0524049
0.2713682 0.2326741 0.0518439
0.3658889 0.2772000 0.0590402
0.4691062 0.3297321 0.0682332
0.5544480 0.3753674 0.0750305
0.6049711 0.4021664 0.0856664
0.6197411 0.4017600 0.1051626
0.6165434 0.3805389 0.1244781
0.6193655 0.3582109 0.1345990
0.6361760 0.3448907 0.1356607
0.6640450 0.3410161 0.1306079
0.6982194 0.3447510 0.1225721
0.7351334 0.3545058 0.1135719
0.7731875 0.3701437 0.1058893
0.8101870 0.3903747 0.1013002
0.8413465 0.4098668 0.0991151
0.8642244 0.4238222 0.0968263
0.8789874 0.4330745 0.0929420
0.8884141 0.4420458 0.0886941
0.8955434 0.4526391 0.0853731
0.9022593 0.4641188 0.0826033
0.2125459 0.3224708 0.1924542
0.2070989 0.3130584 0.1837446
0.2007755 0.3026539 0.1742808
0.1943830 0.2920653 0.1645995
0.1892192 0.2826040 0.1553848
0.1861613 0.2750531 0.1468575
0.1855474 0.2696705 0.1387642
0.1877356 0.2667347 0.1306392
0.1926066 0.2658755 0.1215956
0.1993289 0.2656044 0.1107137
0.2059903 0.2629782 0.0966795
0.2136513 0.2570274 0.0795137
0.2319310 0.2537105 0.0628530
0.2744565 0.2633330 0.0524473
0.3457421 0.2921226 0.0527918
0.4342363 0.3357417 0.0634933
0.5195728 0.3813848 0.0805394
0.5824301 0.4135211 0.1003046
0.6154058 0.4223171 0.1207250
0.6276058 0.4105364 0.1375809
0.6376611 0.3926196 0.1445630
0.6560052 0.3797865 0.1419168
0.6855235 0.3780812 0.1356635
0.7213735 0.3853307 0.1291828
0.7574927 0.3967276 0.1215664
0.7915604 0.4109880 0.1134555
0.8232646 0.4288185 0.1073695
0.8507309 0.4481611 0.1044024
0.8722665 0.4659430 0.1047427
0.8865546 0.4785199 0.1059253
0.8938077 0.4851059 0.1043756
0.8984412 0.4922784 0.1019175
0.9035366 0.5013898 0.1001180
0.2275787 0.3559458 0.2149976
0.2232494 0.3485320 0.2055684
0.2183549 0.3404303 0.1956349
0.2135162 0.3323096 0.1857541
0.2099447 0.3254236 0.1766382
0.2087022 0.3207396 0.1686935
0.2103305 0.3185964 0.1617456
0.2152888 0.3191901 0.1552473
0.2242230 0.3226628 0.1484729
0.2374367 0.3283784 0.1405407
0.2535572 0.3339402 0.1302045
0.2692054 0.3347664 0.1155419
0.2844399 0.3296648 0.0965798
0.3084252 0.3260619 0.0784046
0.3521568 0.3349115 0.0692740
0.4160941 0.3599556 0.0741901
0.4872926 0.3928717 0.0906767
0.5495696 0.4204543 0.1119969
0.5946533 0.4341960 0.1320005
0.6252089 0.4342944 0.1463807
0.6500198 0.4273376 0.1517794
0.6764722 0.4208450 0.1478562
0.7085342 0.4211339 0.1393354
0.7466554 0.4317572 0.1339823
0.7840088 0.4468584 0.1300903
0.8159533 0.4618890 0.1243762
0.8417323 0.4766584 0.1178892
0.8619858 0.4921422 0.1133310
0.8774601 0.5091403 0.1144580
0.8879155 0.5253904 0.1231999
0.8936027 0.5351707 0.1309927
0.8973887 0.5373552 0.1284218
0.9039086 0.5428881 0.1255997
0.2391523 0.3867238 0.2344047
0.2362390 0.3815909 0.2246456
0.2330391 0.3760756 0.2146119
0.2299285 0.3706079 0.2047037
0.2279687 0.3662993 0.1956318
0.2281890 0.3640592 0.1878876
0.2311353 0.3641786 0.1814118
0.2372547 0.3666984 0.1757095
0.2473788 0.3718662 0.1701830
0.2626021 0.3798769 0.1641845
0.2837406 0.3904023 0.1572334
0.3083486 0.3998886 0.1476439
0.3324730 0.4041229 0.1342087
0.3554794 0.4025702 0.1179783
0.3837926 0.4014484 0.1047185
0.4242480 0.4082755 0.1011019
0.4747700 0.4229164 0.1086289
0.5274407 0.4393574 0.1230867
0.5752949 0.4513467 0.1377633
0.6170252 0.4575117 0.1482166
0.6547674 0.4597574 0.1522670
0.6918455 0.4620425 0.1497247
0.7304492 0.4683713 0.1432628
0.7705865 0.4813384 0.1382149
0.8090545 0.4990801 0.1367595
0.8404880 0.5159670 0.1347232
0.8627676 0.5299005 0.1308166
0.8766758 0.5417596 0.1272712
0.8845878 0.5538856 0.1288559
0.8881596 0.5668261 0.1395490
0.8892729 0.5775966 0.1556331
0.8931413 0.5828778 0.1607300
0.9045395 0.5897754 0.1586851
0.2475813 0.4152333 0.2510302
0.2461065 0.4122919 0.2409785
0.2445564 0.4092215 0.2308498
0.2432019 0.4063298 0.2209191
0.2428041 0.4044063 0.2117366
0.2441737 0.4041247 0.2037613
0.2477522 0.4056422 0.1970051
0.2538651 0.4088774 0.1910679
0.2629113 0.4136683 0.1853141
0.2759622 0.4204587 0.1792976
0.2950513 0.4301186 0.1730613
0.3214034 0.4424657 0.1661958
0.3521465 0.4540269 0.1576325
0.3827062 0.4612549 0.1472824
0.4117945 0.4636456 0.1368751
0.4423974 0.4643145 0.1297943
0.4781085 0.4666746 0.1288357
0.5195790 0.4718503 0.1335873
0.5638785 0.4779430 0.1401680
0.6090219 0.4842765 0.1451845
0.6540214 0.4911218 0.1471252
0.6990819 0.5000611 0.1462594
0.7442056 0.5126785 0.1437279
0.7879803 0.5294308 0.1417008
0.8276845 0.5488261 0.1415838
0.8592897 0.5672311 0.1423347
0.8803849 0.5816715 0.1422783
0.8911293 0.5916322 0.1418330
0.8940588 0.5990179 0.1438783
0.8927244 0.6065349 0.1524459
0.8906803 0.6154351 0.1676943
0.8929198 0.6256545 0.1825182
0.9061731 0.6391350 0.1921745
0.2534672 0.4422385 0.2654950
0.2534052 0.4413060 0.2551267
0.2533880 0.4403888 0.2447623
0.2536659 0.4397528 0.2346328
0.2546813 0.4398272 0.2250982
0.2569141 0.4409585 0.2164820
0.2607006 0.4431935 0.2088165
0.2661344 0.4462773 0.2017460
0.2732328 0.4497984 0.1946958
0.2825924 0.4539166 0.1873093
0.2962333 0.4598042 0.1797827
0.3173365 0.4692301 0.1725059
0.3469008 0.4817600 0.1656005
0.3819912 0.4946983 0.1586497
0.4176244 0.5043712 0.1516520
0.4508769 0.5091262 0.1452827
0.4832975 0.5098519 0.1407590
0.5186318 0.5094638 0.1389468
0.5586112 0.5105268 0.1389378
0.6026173 0.5143356 0.1391136
0.6495804 0.5218867 0.1389528
0.6986342 0.5341648 0.1390010
0.7479716 0.5509014 0.1397260
0.7949139 0.5709241 0.1412625
0.8363971 0.5922679 0.1436594
0.8690087 0.6122021 0.1473713
0.8905902 0.6278856 0.1515917
0.9014975 0.6378143 0.1549631
0.9034005 0.6426516 0.1574277
0.9006294 0.6461892 0.1625865
0.8979109 0.6525174 0.1740046
0.8994752 0.6644734 0.1927596
0.9089569 0.6829903 0.2171113
0.2575423 0.4686665 0.2785923
0.2588277 0.4694573 0.2677362
0.2601840 0.4703012 0.2569294
0.2618145 0.4713873 0.2463251
0.2639394 0.4728867 0.2361416
0.2668206 0.4749170 0.2265708
0.2705519 0.4773214 0.2175559
0.2751064 0.4797908 0.2088287
0.2804579 0.4820062 0.2000269
0.2869158 0.4839040 0.1908621
0.2958779 0.4863660 0.1814561
0.3103423 0.4913636 0.1724171
0.3334607 0.5004667 0.1645627
0.3666196 0.5139674 0.1581939
0.4054508 0.5278930 0.1523230
0.4448509 0.5387211 0.1467255
0.4815473 0.5435997 0.1414589
0.5173499 0.5439710 0.1369822
0.5551530 0.5432136 0.1334576
0.5965993 0.5446744 0.1308781
0.6423698 0.5510766 0.1296564
0.6917995 0.5638089 0.1304064
0.7425717 0.5823129 0.1333202
0.7914496 0.6046695 0.1382327
0.8347038 0.6282107 0.1445507
0.8690967 0.6499544 0.1520793
0.8925131 0.6671864 0.1605723
0.9052659 0.6779379 0.1672540
0.9095508 0.6829432 0.1710486
0.9086078 0.6849422 0.1738247
0.9070107 0.6886503 0.1801862
0.9087034 0.6983802 0.1953202
0.9144923 0.7151474 0.2217142
0.2605482 0.4953527 0.2908464
0.2629432 0.4973785 0.2792883
0.2654054 0.4994527 0.2677904
0.2680627 0.5016730 0.2564539
0.2709946 0.5040367 0.2453669
0.2742706 0.5064618 0.2345884
0.2778721 0.5087283 0.2240438
0.2817749 0.5105577 0.2135853
0.2860214 0.5117603 0.2030109
0.2909883 0.5124329 0.1922213
0.2975509 0.5130278 0.1811664
0.3079920 0.5151137 0.1703626
0.3255190 0.5208456 0.1606733
0.3535691 0.5321082 0.1530883
0.3905113 0.5461342 0.1467077
0.4320963 0.5593472 0.1407742
0.4732836 0.5679495 0.1350749
0.5124699 0.5714721 0.1299880
0.5507529 0.5719056 0.1254931
0.5903031 0.5727174 0.1220183
0.6335641 0.5778265 0.1208252
0.6809546 0.5895935 0.1227240
0.7307738 0.6081390 0.1277606
0.7800048 0.6317309 0.1358428
0.8245593 0.6570369 0.1461775
0.8609086 0.6805754 0.1579952
0.8868403 0.6993446 0.1700615
0.9025694 0.7116273 0.1798339
0.9105676 0.7180775 0.1855798
0.9135605 0.7204037 0.1870269
0.9145674 0.7221078 0.1877661
0.9165245 0.7264043 0.1915901
0.9202767 0.7337437 0.1992562
0.2629228 0.5227314 0.3025392
0.2661803 0.5254918 0.2901119
0.2694643 0.5282591 0.2777189
0.2728262 0.5310363 0.2654138
0.2762659 0.5337241 0.2532071
0.2797849 0.5361775 0.2411106
0.2833586 0.5381915 0.2290794
0.2870231 0.5395845 0.2170472
0.2909349 0.5402782 0.2049439
0.2955249 0.5404062 0.1927498
0.3015415 0.5403499 0.1804371
0.3108069 0.5413434 0.1684257
0.3261138 0.5454212 0.1574172
0.3503897 0.5543023 0.1481150
0.3835674 0.5662296 0.1402327
0.4227911 0.5780073 0.1333574
0.4641555 0.5870722 0.1272498
0.5053686 0.5928794 0.1221710
0.5450230 0.5958033 0.1179511
0.5834998 0.5974173 0.1146873
0.6240362 0.6019917 0.1142085
0.6684249 0.6128248 0.1175289
0.7158400 0.6305914 0.1248279
0.7638521 0.6540863 0.1360235
0.8088064 0.6801726 0.1501839
0.8469472 0.7049886 0.1658364
0.8756719 0.7252501 0.1809919
0.8948915 0.7394012 0.1935418
0.9068083 0.7475712 0.2011300
0.9140998 0.7508593 0.2015316
0.9187357 0.7511567 0.1957153
0.9222046 0.7501067 0.1862154
0.9259800 0.7484614 0.1731585
0.2649868 0.5510458 0.3138709
0.2688137 0.5540224 0.3004063
0.2726350 0.5569676 0.2869506
0.2764420 0.5598105 0.2735117
0.2802149 0.5624290 0.2600888
0.2839343 0.5646661 0.2466735
0.2876188 0.5663709 0.2332583
0.2913851 0.5674539 0.2198462
0.2955091 0.5679354 0.2064563
0.3004954 0.5680015 0.1931288
0.3072013 0.5681111 0.1799598
0.3171006 0.5691956 0.1672477
0.3322354 0.5726118 0.1554633
0.3547267 0.5795771 0.1450800
0.3848074 0.5890745 0.1358394
0.4201349 0.5980435 0.1275998
0.4581222 0.6049224 0.1208738
0.4980411 0.6108715 0.1160158
0.5376066 0.6154782 0.1125769
0.5754869 0.6188299 0.1103909
0.6142376 0.6243081 0.1111193
0.6558918 0.6350082 0.1160533
0.7005644 0.6520290 0.1255527
0.7464833 0.6744989 0.1394234
0.7908276 0.7000219 0.1565463
0.8299794 0.7249691 0.1750297
0.8612834 0.7461636 0.1926168
0.8840726 0.7618312 0.2071316
0.8997795 0.7716347 0.2159907
0.9109991 0.7758099 0.2152065
0.9193193 0.7752480 0.2033756
0.9256235 0.7707096 0.1824556
0.9315498 0.7640570 0.1556818
0.2668328 0.5803026 0.3249008
0.2710006 0.5830572 0.3102886
0.2751463 0.5857564 0.2956718
0.2792367 0.5882982 0.2810363
0.2832474 0.5905581 0.2663758
0.2871823 0.5924087 0.2516976
0.2911139 0.5937560 0.2370242
0.2952383 0.5945831 0.2224081
0.2999303 0.5949887 0.2079294
0.3057787 0.5952166 0.1936934
0.3136431 0.5957001 0.1798570
0.3246423 0.5970296 0.1666237
0.3400665 0.5998547 0.1542402
0.3610960 0.6046601 0.1429421
0.3879698 0.6109562 0.1327605
0.4195700 0.6172539 0.1238518
0.4541547 0.6226073 0.1167132
0.4911133 0.6279224 0.1120052
0.5291348 0.6334334 0.1095297
0.5667107 0.6389412 0.1091870
0.6045511 0.6461420 0.1117689
0.6442406 0.6573723 0.1184674
0.6862387 0.6736643 0.1298376
0.7295586 0.6945313 0.1455489
0.7723078 0.7183735 0.1644224
0.8114602 0.7421686 0.1843562
0.8447200 0.7632619 0.2032182
0.8709274 0.7796633 0.2185397
0.8906177 0.7905149 0.2273549
0.9056296 0.7956537 0.2256018
0.9176031 0.7949885 0.2097436
0.9274658 0.7891482 0.1815139
0.9364600 0.7801030 0.1458121
0.2684760 0.6104123 0.3356514
0.2728430 0.6126114 0.3198483
0.2771857 0.6147481 0.3040362
0.2814762 0.6167228 0.2882031
0.2856964 0.6184233 0.2723453
