styles/film/film-polaroid/look.cube
# film-polaroid tuned
LUT_3D_SIZE 5
DOMAIN_MIN 0 0 0
DOMAIN_MAX 1 1 1
0.1283916 0.1364628 0.1394091
0.3127287 0.1887361 0.1589409
0.7696423 0.2149459 0.1504829
0.9456808 0.2089187 0.1351921
0.9904816 0.2033971 0.1139390
0.1079434 0.2218834 0.1290144
0.2259840 0.2706307 0.1800144
0.5183978 0.2263264 0.0956091
0.8160556 0.3280107 0.1185234
1.0000000 0.3073017 0.1578528
0.1224276 0.3345671 0.1598262
0.1998714 0.4101618 0.1081242
0.4252696 0.4608199 0.1347766
0.7155963 0.5084039 0.1627225
0.9139671 0.5208507 0.1406743
0.1184551 0.5403351 0.1977529
0.1408012 0.5525009 0.0989881
0.3145560 0.5840538 0.1031083
0.6309594 0.6475837 0.1170168
0.9285340 0.7379706 0.1174755
0.1128839 0.6589711 0.2185282
0.1298235 0.6678144 0.1191811
0.2504375 0.6972811 0.0879475
0.5727700 0.7606479 0.1390508
0.9052054 0.9076615 0.1171048
0.1990456 0.1796837 0.3681559
0.1371938 0.1181425 0.1329505
0.4210941 0.1597355 0.2152326
0.7530428 0.2436290 0.3133313
0.9237549 0.3828225 0.4397860
0.1569597 0.2575617 0.2469318
0.2230497 0.2493001 0.2501768
0.3987543 0.2130306 0.1898556
0.6933747 0.3049024 0.2736310
0.9353199 0.2943569 0.2642419
0.1585341 0.3691225 0.2632357
0.2670818 0.3864424 0.2613354
0.4604062 0.4578991 0.2472836
0.6282858 0.4554162 0.2764790
0.9367159 0.5174532 0.3358868
0.1156410 0.5569256 0.3020812
0.2153331 0.5452179 0.2650446
0.3038131 0.5658954 0.1801326
0.6047737 0.6169609 0.2636225
0.8482253 0.6957063 0.5197567
0.1064435 0.6710113 0.3204478
0.1990896 0.6578371 0.2810228
0.2282585 0.6742981 0.1641790
0.5611090 0.7487613 0.2226809
0.9433010 0.9424830 0.3679123
0.2356903 0.2052991 0.5356935
0.1991375 0.1640153 0.2848525
0.2513531 0.1075495 0.2644554
0.6142173 0.1655368 0.4488201
0.7462324 0.1931136 0.4854786
0.1230397 0.2366735 0.3902352
0.1945493 0.2087176 0.3025257
0.3330467 0.1955485 0.3197295
0.6626428 0.3042744 0.4478790
0.7968132 0.3559321 0.4965327
0.2259232 0.5583441 0.5130983
0.4020559 0.5241555 0.4971764
0.5047887 0.5069223 0.4439958
0.7080042 0.5218041 0.4991218
0.9688017 0.5704024 0.5703197
0.1460335 0.6101044 0.4363426
0.2711337 0.5948849 0.4182581
0.4926874 0.6229347 0.4592397
0.7519468 0.7484295 0.5791873
0.8727402 0.7310364 0.5859936
0.1199453 0.7112102 0.4453095
0.2034429 0.6836038 0.4118893
0.3359395 0.6677602 0.3817546
0.5700147 0.7496967 0.3581585
0.9253997 0.9029389 0.6878625
0.3616087 0.3567044 0.7466277
0.1987450 0.1084771 0.4920767
0.2914348 0.1218842 0.4934983
0.4569899 0.1117604 0.5290421
0.6720985 0.1267166 0.6601606
0.2489639 0.3707332 0.6863990
0.2724279 0.2704308 0.5311090
0.3231400 0.2128500 0.5352714
0.4918469 0.2072606 0.5470568
0.7053016 0.2148341 0.6704621
0.2490867 0.4735127 0.6089591
0.3800532 0.4883305 0.5898459
0.5728120 0.5703442 0.6955634
0.6406496 0.4439075 0.6488019
0.7401910 0.3718693 0.6643960
0.2740844 0.6803333 0.6644029
0.3253051 0.6574124 0.6381058
0.5404267 0.6757266 0.6398218
0.7984060 0.7862757 0.7883769
0.9342979 0.8025282 0.7885656
0.1761123 0.7798179 0.6541052
0.2689655 0.7739290 0.6449485
0.4427098 0.7770230 0.6555697
0.6568580 0.7523456 0.6539935
0.9203731 0.9061483 0.7813941
0.2745041 0.2584832 0.6613913
0.2132094 0.1133552 0.6204345
0.2997887 0.1151379 0.6296848
0.4578576 0.1122746 0.6571181
0.5485763 0.1000038 0.6551610
0.2944778 0.3842913 0.7370178
0.2868919 0.2893740 0.6598276
0.3098245 0.2025804 0.6390362
0.4558088 0.1870318 0.6484912
0.5677205 0.1893629 0.6558277
0.3043796 0.5173331 0.7406309
0.3464103 0.4357859 0.6835030
0.4391615 0.4391397 0.7054452
0.5133163 0.3390470 0.6836098
0.6074259 0.3212889 0.6701459
0.3105456 0.6489650 0.7716394
0.4851233 0.6512027 0.7525562
0.5697032 0.6646485 0.7542143
0.7862317 0.7771226 0.8807780
0.8006326 0.6902930 0.8182606
0.2845931 0.7890201 0.7836279
0.3735238 0.7904880 0.7859000
0.4964829 0.8124336 0.7956319
0.7480046 0.8692901 0.8628603
1.0000000 1.0000000 1.0000000
