styles/film/film-polaroid/look.cube
# film-polaroid tuned
LUT_3D_SIZE 9
DOMAIN_MIN 0 0 0
DOMAIN_MAX 1 1 1
0.1283916 0.1364628 0.1394091
0.1522490 0.1439333 0.1323278
0.3127287 0.1887361 0.1589409
0.6870122 0.2195327 0.1633970
0.7696423 0.2149459 0.1504829
0.8902303 0.2038333 0.1280056
0.9456808 0.2089187 0.1351921
0.9669323 0.2275851 0.1384370
0.9904816 0.2033971 0.1139390
0.0945416 0.1334408 0.1403890
0.0738857 0.1109365 0.1609239
0.2902550 0.2527777 0.2350373
0.5225234 0.2220131 0.1600761
0.6072231 0.2939911 0.1847529
0.7582468 0.3157357 0.1584066
0.8563911 0.3006834 0.1536463
0.9111537 0.2850983 0.1649030
1.0000000 0.2468375 0.1459988
0.1079434 0.2218834 0.1290144
0.2233708 0.3102344 0.1587634
0.2259840 0.2706307 0.1800144
0.6430782 0.4872353 0.0787131
0.5183978 0.2263264 0.0956091
0.6941296 0.2779827 0.1361593
0.8160556 0.3280107 0.1185234
0.8989913 0.4016232 0.1756836
1.0000000 0.3073017 0.1578528
0.1108245 0.2716332 0.1364143
0.1478056 0.3287318 0.1223726
0.3066716 0.4180600 0.1374442
0.3340355 0.3664001 0.1311998
0.4109446 0.3127378 0.1083652
0.6360387 0.3983648 0.1413925
0.8414214 0.4399921 0.1116246
0.9055733 0.5126068 0.2383612
0.9518342 0.5327069 0.2476833
0.1224276 0.3345671 0.1598262
0.1306005 0.3474536 0.1120022
0.1998714 0.4101618 0.1081242
0.3518676 0.4808884 0.1266952
0.4252696 0.4608199 0.1347766
0.5901383 0.5057688 0.1567559
0.7155963 0.5084039 0.1627225
0.8732376 0.5594928 0.1457037
0.9139671 0.5208507 0.1406743
0.1193497 0.4332801 0.1763961
0.1319850 0.4394718 0.1297887
0.1698041 0.4646392 0.0975141
0.2950513 0.5110078 0.1215869
0.3842864 0.5167078 0.1242955
0.5124851 0.5355531 0.1131475
0.7519066 0.6528227 0.0983696
0.8194298 0.6148619 0.1235221
0.9284304 0.6339833 0.1339366
0.1184551 0.5403351 0.1977529
0.1276661 0.5425991 0.1486181
0.1408012 0.5525009 0.0989881
0.2162313 0.5693684 0.0916281
0.3145560 0.5840538 0.1031083
0.4615303 0.6094478 0.1149667
0.6309594 0.6475837 0.1170168
0.8046010 0.7261304 0.1291526
0.9285340 0.7379706 0.1174755
0.1150926 0.6005215 0.2077785
0.1234670 0.6031109 0.1589128
0.1341874 0.6106739 0.1089716
0.1827650 0.6243792 0.0817723
0.2782223 0.6412536 0.0959783
0.4316758 0.6692783 0.1164792
0.5957729 0.6998096 0.1358457
0.7186437 0.7282758 0.1365849
0.9523480 0.8349316 0.0987414
0.1128839 0.6589711 0.2185282
0.1202529 0.6610685 0.1693291
0.1298235 0.6678144 0.1191811
0.1573312 0.6803399 0.0734759
0.2504375 0.6972811 0.0879475
0.4063930 0.7280318 0.1131789
0.5727700 0.7606479 0.1390508
0.6994261 0.7963566 0.1458544
0.9052054 0.9076615 0.1171048
0.1344931 0.1506554 0.2499253
0.1796435 0.1787233 0.2081559
0.2009679 0.1393918 0.1294656
0.4307912 0.1869470 0.1657001
0.5361816 0.2009495 0.1796550
0.7322382 0.2365286 0.2142899
0.8852224 0.2650599 0.2362037
0.9159924 0.2704579 0.2372062
0.9629378 0.2763345 0.1761041
0.1109573 0.1989949 0.1787333
0.1522990 0.1449629 0.1676900
0.2207103 0.2000236 0.1811777
0.3012916 0.1646919 0.1688070
0.4644817 0.2073322 0.1856667
0.5996101 0.2200389 0.1814004
0.7186106 0.2182463 0.1677769
0.8381572 0.2326384 0.1693835
0.9553583 0.2655921 0.1851604
0.1316954 0.1766395 0.1424515
0.2217317 0.2805362 0.2017386
0.2090974 0.2252957 0.1685294
0.2638050 0.1993636 0.1672364
0.4154770 0.2054806 0.1298214
0.5528882 0.2508579 0.1729866
0.7012377 0.2432556 0.1588756
0.8181284 0.2727907 0.1763529
0.9606254 0.2684546 0.1777122
0.1242906 0.2581154 0.1682348
0.1799459 0.2863820 0.1796655
0.2646540 0.3647571 0.2097624
0.3065425 0.3219033 0.2065074
0.3953272 0.3218918 0.2063778
0.4859799 0.3260087 0.1968644
0.7115636 0.3075523 0.1132190
0.8148126 0.3679833 0.1645266
0.9048042 0.4147136 0.2274607
0.1271900 0.3345901 0.2060057
0.1690566 0.3339306 0.1908750
0.2012375 0.3886099 0.1639944
0.3098887 0.4302325 0.1769259
0.3976770 0.3965382 0.1897255
0.5266985 0.4292462 0.1911348
0.6921662 0.4789785 0.2038924
0.7857740 0.4363409 0.0701684
0.8624272 0.4744901 0.1834552
0.1192090 0.4393000 0.2286321
0.1672872 0.4371056 0.2096463
0.1934531 0.4575085 0.1658303
0.2799668 0.4923883 0.1402073
0.4034130 0.4935900 0.1263320
0.5046668 0.4982149 0.1568462
0.6725346 0.5688273 0.1291178
0.8152845 0.5963720 0.1754959
0.8366520 0.5797661 0.2045452
0.1132697 0.5439080 0.2482675
0.1614661 0.5400465 0.2277696
0.1763008 0.5456636 0.1790430
0.1991593 0.5546039 0.1198215
0.2887219 0.5482399 0.1093239
0.4356348 0.5673999 0.1236799
0.6051514 0.6140654 0.1426698
0.7956905 0.7143128 0.1738944
0.8937311 0.7237372 0.1738907
0.1101217 0.6041786 0.2585880
0.1571438 0.6001778 0.2380227
0.1679910 0.6034299 0.1885908
0.1824317 0.6133549 0.1292799
0.2598259 0.6255430 0.1240314
0.4152882 0.6515165 0.1433874
0.5864123 0.6883313 0.1704566
0.7132624 0.7221444 0.1852815
0.9246507 0.8326879 0.1608395
0.1079905 0.6621598 0.2691361
0.1545098 0.6583146 0.2485007
0.1637930 0.6609504 0.1989949
0.1765616 0.6706093 0.1405515
0.2338599 0.6854094 0.1198767
0.3930097 0.7173471 0.1457237
0.5663575 0.7544160 0.1761919
0.6962277 0.7918583 0.1922845
0.8754686 0.8764938 0.1790476
0.1990456 0.1796837 0.3681559
0.1609316 0.1585548 0.2102936
0.1371938 0.1181425 0.1329505
0.2525484 0.1198888 0.1634867
0.4210941 0.1597355 0.2152326
0.6164876 0.2074203 0.2380259
0.7530428 0.2436290 0.3133313
0.8541965 0.3126202 0.3865131
0.9237549 0.3828225 0.4397860
0.2020347 0.2228845 0.2390780
0.2222745 0.2111388 0.2271007
0.2200232 0.1830042 0.2265318
0.2833392 0.1325299 0.1486801
0.4788860 0.2096740 0.2162120
0.6455781 0.2631038 0.2534993
0.7272291 0.2767375 0.2936474
0.7948972 0.2904127 0.3168130
0.8975642 0.3197967 0.3353227
0.1569597 0.2575617 0.2469318
0.2578991 0.3752283 0.3428665
0.2230497 0.2493001 0.2501768
0.3079764 0.2529882 0.2261617
0.3987543 0.2130306 0.1898556
0.5869030 0.2869874 0.2451533
0.6933747 0.3049024 0.2736310
0.7908877 0.3150026 0.2899639
0.9353199 0.2943569 0.2642419
0.1641805 0.2745094 0.2166109
0.2020178 0.2997534 0.2248940
0.2660015 0.3498731 0.2403565
0.3283000 0.3303956 0.2282253
0.4036546 0.3348331 0.2726361
0.4821750 0.2915819 0.1549018
0.7055066 0.3968646 0.2619124
0.7956562 0.3880210 0.2960177
0.9425614 0.3663311 0.2703785
0.1585341 0.3691225 0.2632357
0.1982643 0.3561521 0.2520490
0.2670818 0.3864424 0.2613354
0.3309879 0.4132411 0.2216788
0.4604062 0.4578991 0.2472836
0.5918707 0.4831147 0.2566629
0.6282858 0.4554162 0.2764790
0.7591316 0.4927807 0.3401998
0.9367159 0.5174532 0.3358868
0.1334449 0.4607755 0.2863450
0.1770594 0.4499287 0.2691889
0.2436244 0.4611205 0.2607748
0.3134079 0.5002742 0.2198599
0.4191034 0.5200646 0.2120046
0.5174719 0.5218616 0.2584141
0.6226809 0.5451948 0.3491819
0.7639304 0.6076021 0.4010180
0.8657034 0.6073513 0.4094271
0.1156410 0.5569256 0.3020812
0.1591730 0.5461827 0.2823537
0.2153331 0.5452179 0.2650446
0.2448634 0.5556869 0.2105788
0.3038131 0.5658954 0.1801326
0.4498778 0.5841849 0.2110438
0.6047737 0.6169609 0.2636225
0.7521961 0.6917253 0.3608178
0.8482253 0.6957063 0.5197567
0.1094610 0.6147392 0.3106294
0.1526706 0.6046324 0.2910895
0.2030287 0.6005560 0.2713018
0.2205563 0.6058515 0.2143715
0.2503881 0.6178773 0.1650606
0.4087690 0.6448680 0.1890502
0.5841717 0.6846203 0.2304135
0.7084481 0.7170894 0.2834440
0.9274616 0.8127100 0.3909090
0.1064435 0.6710113 0.3204478
0.1502481 0.6622487 0.3010495
0.1990896 0.6578371 0.2810228
0.2127585 0.6619938 0.2240258
0.2282585 0.6742981 0.1641790
0.3802710 0.7064363 0.1829544
0.5611090 0.7487613 0.2226809
0.6987637 0.7912018 0.2714246
0.9433010 0.9424830 0.3679123
0.2254732 0.1970952 0.4970809
0.1888822 0.1699993 0.3000324
0.1561654 0.1523412 0.1937111
0.1577085 0.1168884 0.1624570
0.3195753 0.1064241 0.2539985
0.5180539 0.1602132 0.3283945
0.6639070 0.2001285 0.3813872
0.7240619 0.2213604 0.4134799
0.7949612 0.2494389 0.4409872
0.1710070 0.2526211 0.3355505
0.2570646 0.2681827 0.3581699
0.2119721 0.1899581 0.2805826
0.1880010 0.1150501 0.1802015
0.3456371 0.1320189 0.2431242
0.5568299 0.2193076 0.3197172
0.7047601 0.2805800 0.3865765
0.7410704 0.2820632 0.4050678
0.8130297 0.3148753 0.4350490
0.1918364 0.3082911 0.3847002
0.2325940 0.3180603 0.3864769
0.2127353 0.2170799 0.2711775
0.2389803 0.1799406 0.2327527
0.3750700 0.1863911 0.2413533
0.5824959 0.2913819 0.3242779
0.7152514 0.3524383 0.3954563
0.7722859 0.3596680 0.4128202
0.8609869 0.4047504 0.4528930
0.1487004 0.3235661 0.2986063
0.2253999 0.3720735 0.3497547
0.3100432 0.3863108 0.3431588
0.2962640 0.3240370 0.2970067
0.4638818 0.4006060 0.3712382
0.5639808 0.3862808 0.3413742
0.7220138 0.4164784 0.3824648
0.8096027 0.4243828 0.4044920
0.9047278 0.4410377 0.4300464
0.2065617 0.4141816 0.3359813
0.2428550 0.4074843 0.3397619
0.2943582 0.4151714 0.3306024
0.3286575 0.3944869 0.2864854
0.4706842 0.4588980 0.3394889
0.5212668 0.4334900 0.3093239
0.6615528 0.4637159 0.2877766
0.8359424 0.5351552 0.4273642
0.9446578 0.5512526 0.4775841
0.1736346 0.5027085 0.3646013
0.2091465 0.4855769 0.3460253
0.2865900 0.4915748 0.3427890
0.3882228 0.5146150 0.3548949
0.5697112 0.6513280 0.4674556
0.6678167 0.6534217 0.4859166
0.6743267 0.5954587 0.4192773
0.7585649 0.5988614 0.4259155
0.8564782 0.6136417 0.4576466
0.1245347 0.5787657 0.3657038
0.1689869 0.5659767 0.3489312
0.2274361 0.5597790 0.3360645
0.3146544 0.5672412 0.3318042
0.3733786 0.5971470 0.3107522
0.5242217 0.6417558 0.3589405
0.6449470 0.6539542 0.3848088
0.7577336 0.6951701 0.4433216
0.8924214 0.7255795 0.4994934
0.1127464 0.6331167 0.3724360
0.1546791 0.6197096 0.3544444
0.2030519 0.6095311 0.3370342
0.2698609 0.6057326 0.3192664
0.2997984 0.6172030 0.2714192
0.4232569 0.6535391 0.2667473
0.6033869 0.6990846 0.3194082
0.7140092 0.7215200 0.3864688
0.8966085 0.7887376 0.5382226
0.1098075 0.6879831 0.3811259
0.1507508 0.6752808 0.3627777
0.1964346 0.6647525 0.3443190
0.2566584 0.6587437 0.3233300
0.2763612 0.6650876 0.2682543
0.3723570 0.6976010 0.2353990
0.5603991 0.7463241 0.2849872
0.6994640 0.7895076 0.3646284
0.9300241 0.9126572 0.5919072
0.2356903 0.2052991 0.5356935
0.1868866 0.1564391 0.3600465
0.1991375 0.1640153 0.2848525
0.1690674 0.1157907 0.2114365
0.2513531 0.1075495 0.2644554
0.4914848 0.1456133 0.4081312
0.6142173 0.1655368 0.4488201
0.6794429 0.1754036 0.4668292
0.7462324 0.1931136 0.4854786
0.1753921 0.2339142 0.4263402
0.2381002 0.2422692 0.3908750
0.2331259 0.2089671 0.3498653
0.1916483 0.1286794 0.2534534
0.2774093 0.1383665 0.2842612
0.4951140 0.1812163 0.3949561
0.6329926 0.2222061 0.4406881
0.6947213 0.2358392 0.4589211
0.7595833 0.2562686 0.4777417
0.1230397 0.2366735 0.3902352
0.1975176 0.2391879 0.3453030
0.1945493 0.2087176 0.3025257
0.2350291 0.1860760 0.3005414
0.3330467 0.1955485 0.3197295
0.5268002 0.2560021 0.4015797
0.6626428 0.3042744 0.4478790
0.7268666 0.3201170 0.4677809
0.7968132 0.3559321 0.4965327
0.2161147 0.4105365 0.4795045
0.2178863 0.3505146 0.4454137
0.2018839 0.2527330 0.3040474
0.3755659 0.3709060 0.4088203
0.4070257 0.3313603 0.3656811
0.5760564 0.3872678 0.4373211
0.7121943 0.4286921 0.4904772
0.7853032 0.4347621 0.4978648
0.8600421 0.4637509 0.5247406
0.2259232 0.5583441 0.5130983
0.3031224 0.4873535 0.4727176
0.4020559 0.5241555 0.4971764
0.5473119 0.6041997 0.5836717
0.5047887 0.5069223 0.4439958
0.5891273 0.5138834 0.4817828
0.7080042 0.5218041 0.4991218
0.8608685 0.5497451 0.5334536
0.9688017 0.5704024 0.5703197
0.2049875 0.5436311 0.4475375
0.2491803 0.5347712 0.4353642
0.3447225 0.5347979 0.4298487
0.3988207 0.5070650 0.3967351
0.4397680 0.4972386 0.3748470
0.6852346 0.6709866 0.5891426
0.6475452 0.5697987 0.4599118
0.8420266 0.6802211 0.4991015
0.9099331 0.6390836 0.5455985
0.1460335 0.6101044 0.4363426
0.1902489 0.5976331 0.4223656
0.2711337 0.5948849 0.4182581
0.3898656 0.6045415 0.4308408
0.4926874 0.6229347 0.4592397
0.6528523 0.7336095 0.5610667
0.7519468 0.7484295 0.5791873
0.7438376 0.6796926 0.5201535
0.8727402 0.7310364 0.5859936
0.1229879 0.6576487 0.4374015
0.1637367 0.6438354 0.4213861
0.2188566 0.6333222 0.4094914
0.2992197 0.6285741 0.4028394
0.3901985 0.6353173 0.4061906
0.4679729 0.6754695 0.3681207
0.6498434 0.7315306 0.4321949
0.7396981 0.7455310 0.4808983
0.9080503 0.8000763 0.5956288
0.1199453 0.7112102 0.4453095
0.1575495 0.6966870 0.4276343
0.2034429 0.6836038 0.4118893
0.2649550 0.6720061 0.3957570
0.3359395 0.6677602 0.3817546
0.3769041 0.6920866 0.2989384
0.5700147 0.7496967 0.3581585
0.7064332 0.7936371 0.4416194
0.9253997 0.9029389 0.6878625
0.2806147 0.2631639 0.6755554
0.1929101 0.1467128 0.4581083
0.1894200 0.1238940 0.3813616
0.2013470 0.1143024 0.3302155
0.2678148 0.1157844 0.3724861
0.3879270 0.1209343 0.4253979
0.5720091 0.1345919 0.5361109
0.6530355 0.1387370 0.5715132
0.7140394 0.1495903 0.5870599
0.2268708 0.2592187 0.5556345
0.2196210 0.2142978 0.4512081
0.2091630 0.1655523 0.4184260
0.2170736 0.1355020 0.3780063
0.2860800 0.1438555 0.4067734
0.3921017 0.1531270 0.4284667
0.5923149 0.1770019 0.5424929
0.6550201 0.1824744 0.5592657
0.7218310 0.1985677 0.5763242
0.2323902 0.3175377 0.5758279
0.2899216 0.3223268 0.5068703
0.2556228 0.2571690 0.4294037
0.2492141 0.1947053 0.4069731
0.3256871 0.2135767 0.4402908
0.4402356 0.2369916 0.4620435
0.6256726 0.2545745 0.5517844
0.6702372 0.2465047 0.5551264
0.7363267 0.2625170 0.5707177
0.2581488 0.4198091 0.5477186
0.4185600 0.5215143 0.6598490
0.3520974 0.4063085 0.5286417
0.3837772 0.3914445 0.5145279
0.4112455 0.3576214 0.4921845
0.5287185 0.3737057 0.5201864
0.6660018 0.3611770 0.5755915
0.7021592 0.3395814 0.5616235
0.7671373 0.3530431 0.5746176
0.3548464 0.6165150 0.6368582
0.4487138 0.6440984 0.6807811
0.6863835 0.7949321 0.8203335
0.3176418 0.3993094 0.4715599
0.6028987 0.5768229 0.6204392
0.6334864 0.5327357 0.5814076
0.7224329 0.4977541 0.6097420
0.7485125 0.4551234 0.5797968
0.8197825 0.4616888 0.5962268
0.2792120 0.6004003 0.5797824
0.2804391 0.5810427 0.5643551
0.3751745 0.6034639 0.5738267
0.5973035 0.7101148 0.6821930
0.7111634 0.7579943 0.7437551
0.6444715 0.6392236 0.5882921
0.6934070 0.6092235 0.5840240
0.7419621 0.5790781 0.5568010
0.8959481 0.6443487 0.6511586
0.1968606 0.6603392 0.5591409
0.2274101 0.6483028 0.5450753
0.3135023 0.6478050 0.5420189
0.4526332 0.6548127 0.5524749
0.5522674 0.6630638 0.5676480
0.6477365 0.6894507 0.5972348
0.7276107 0.7187594 0.6041098
0.7676528 0.6902682 0.5990513
0.8737844 0.7284262 0.6444027
0.1521314 0.6982746 0.5460133
0.1923144 0.6903598 0.5362935
0.2568941 0.6869930 0.5330857
0.3668124 0.6913417 0.5421806
0.4925708 0.7032823 0.5654271
0.5966181 0.6975696 0.5665190
0.7052263 0.7680939 0.5817444
0.7942411 0.8021415 0.6438564
0.9235188 0.8177863 0.6860918
0.1400603 0.7501942 0.5485935
0.1797903 0.7405120 0.5370693
0.2293163 0.7312664 0.5277835
0.2987698 0.7208496 0.5203661
0.3781415 0.7115368 0.5171970
0.4940132 0.6992509 0.5049459
0.5864021 0.7488611 0.4776989
0.7260654 0.8074418 0.5604560
0.9221127 0.9137214 0.7321983
0.3616087 0.3567044 0.7466277
0.2209260 0.1649213 0.5654541
0.1987450 0.1084771 0.4920767
0.2400224 0.1162523 0.4751020
0.2914348 0.1218842 0.4934983
0.3695786 0.1145640 0.5162594
0.4569899 0.1117604 0.5290421
0.5615313 0.1125037 0.5918018
0.6720985 0.1267166 0.6601606
0.2545726 0.2739467 0.6500676
0.2311535 0.2209152 0.5306513
0.2134002 0.1580167 0.4923003
0.2431796 0.1448991 0.4975630
0.2911369 0.1443184 0.5104173
0.3736872 0.1438237 0.5253900
0.4647147 0.1453854 0.5318991
0.5703683 0.1517312 0.5916114
0.6863583 0.1638257 0.6655286
0.2489639 0.3707332 0.6863990
0.2555315 0.2981522 0.5655863
0.2724279 0.2704308 0.5311090
0.2744887 0.2142368 0.5154028
0.3231400 0.2128500 0.5352714
0.4011534 0.2090698 0.5451359
0.4918469 0.2072606 0.5470568
0.5907796 0.2054479 0.5995094
0.7053016 0.2148341 0.6704621
0.1802459 0.3499775 0.6382304
0.3179975 0.4173392 0.6192537
0.3558582 0.4146078 0.6148927
0.3836736 0.3944495 0.6017258
0.3940937 0.3364348 0.5819562
0.4733243 0.3306343 0.5946211
0.5506374 0.3094933 0.5857918
0.6244909 0.2812322 0.6158647
0.7164163 0.2842995 0.6621862
0.2490867 0.4735127 0.6089591
0.2039715 0.3642315 0.4765466
0.3800532 0.4883305 0.5898459
0.5102442 0.6019095 0.7383103
0.5728120 0.5703442 0.6955634
0.6103570 0.5099979 0.6840973
0.6406496 0.4439075 0.6488019
0.6812539 0.3842227 0.6524219
0.7401910 0.3718693 0.6643960
0.4569816 0.7309109 0.7724782
0.3133028 0.6181335 0.7012948
0.3164019 0.5656158 0.6360937
0.4085689 0.5620814 0.6220287
0.7640179 0.7972926 0.8349395
0.7129491 0.6801414 0.7212373
0.7480064 0.6453983 0.7342810
0.7623547 0.5658300 0.7007725
0.8044218 0.5536837 0.6921600
0.2740844 0.6803333 0.6644029
0.2765099 0.6622052 0.6486376
0.3253051 0.6574124 0.6381058
0.4211407 0.6618249 0.6325082
0.5404267 0.6757266 0.6398218
0.6405308 0.7062074 0.6727060
0.7984060 0.7862757 0.7883769
0.8367424 0.7544556 0.7313613
0.9342979 0.8025282 0.7885656
0.2066355 0.7253928 0.6550969
0.2402928 0.7195674 0.6477893
0.2987524 0.7222567 0.6486326
0.3980465 0.7313752 0.6587885
0.5284104 0.7430209 0.6784767
0.6500563 0.7574611 0.6990596
0.7277480 0.7684825 0.7112391
0.8221583 0.8379761 0.7819487
0.9184192 0.8136828 0.7694715
0.1761123 0.7798179 0.6541052
0.2176291 0.7756971 0.6481749
0.2689655 0.7739290 0.6449485
0.3445605 0.7740321 0.6460601
0.4427098 0.7770230 0.6555697
0.5676775 0.7736374 0.6668157
0.6568580 0.7523456 0.6539935
0.7481156 0.8158676 0.6827167
0.9203731 0.9061483 0.7813941
0.4511769 0.4410910 0.7970796
0.2348816 0.1732726 0.6016293
0.2074456 0.1060672 0.5634201
0.2540881 0.1140348 0.5623474
0.2939953 0.1134550 0.5590531
0.3648628 0.1048483 0.5734310
0.4528560 0.1030832 0.5922994
0.5129430 0.1038107 0.5990060
0.6016259 0.1090857 0.6523445
0.4343365 0.4428424 0.7839791
0.2581233 0.2463529 0.5969406
0.2271368 0.1688530 0.5486634
0.2491058 0.1453202 0.5600570
0.2902298 0.1416654 0.5668868
0.3640579 0.1375058 0.5794765
0.4503147 0.1378174 0.5873909
0.5119437 0.1408570 0.5945508
0.6111423 0.1504763 0.6523983
0.3044664 0.4128413 0.7470926
0.2606347 0.3069313 0.6243239
0.2736320 0.2733430 0.5937030
0.2693132 0.2090904 0.5693357
0.3045702 0.1962103 0.5781868
0.3786633 0.1913103 0.5894070
0.4637911 0.1889724 0.5935680
0.5242605 0.1899155 0.5976696
0.6255824 0.1988734 0.6554445
0.3229257 0.5130299 0.7690180
0.2758239 0.3785925 0.6368514
0.3060478 0.3622914 0.6274097
0.3531156 0.3599874 0.6349124
0.3535733 0.2960327 0.6159423
0.4169542 0.2779873 0.6155310
0.4955320 0.2663668 0.6131206
0.5480704 0.2584092 0.6085575
0.6479901 0.2629864 0.6627583
0.2704651 0.5188830 0.6958589
0.2917420 0.3992030 0.5404027
0.3586566 0.4505912 0.6347224
0.4309489 0.4847848 0.6876487
0.4879719 0.4875922 0.6935619
0.5111715 0.4204838 0.6769589
0.5620059 0.3791965 0.6598449
0.5916585 0.3498679 0.6364279
0.6794977 0.3401319 0.6778742
0.1720584 0.5321718 0.6160771
0.4727490 0.6700332 0.8279322
0.4943102 0.6573874 0.8005532
0.5550240 0.6823124 0.7871671
0.6201222 0.6793970 0.7829480
0.7139508 0.6991060 0.8056386
0.6981749 0.5941787 0.7657840
0.6864337 0.5271589 0.7039354
0.7520267 0.4944749 0.7216935
0.3724373 0.6866029 0.7133108
0.3820494 0.6738136 0.7085175
0.4177063 0.6722793 0.7031994
0.4748185 0.6819511 0.7106757
0.6943880 0.8453112 0.8754508
0.7473217 0.8077456 0.8760898
0.8982067 0.8858855 0.9619884
0.8287980 0.7487156 0.8254806
0.8624515 0.7210713 0.7985520
0.2830632 0.7199221 0.7131723
0.3132347 0.7177405 0.7103094
0.3550482 0.7201250 0.7103350
0.4209671 0.7278207 0.7138244
0.5142053 0.7478371 0.7346852
0.6542109 0.7858871 0.7803176
0.7355066 0.7865498 0.7678556
0.7898342 0.7847967 0.7797219
0.9912778 0.9367332 0.9139206
0.2231087 0.7934798 0.7247521
0.2659770 0.7915535 0.7217462
0.3140623 0.7913618 0.7200430
0.3792286 0.7942973 0.7205987
0.4693688 0.8031755 0.7307225
0.6139632 0.8216124 0.7592587
0.7177338 0.8240545 0.7730148
0.7737181 0.8281760 0.7776571
0.9235608 0.9156468 0.8501493
0.2745041 0.2584832 0.6613913
0.2301485 0.1711425 0.6241878
0.2132094 0.1133552 0.6204345
0.2521145 0.1096993 0.6240098
0.2997887 0.1151379 0.6296848
0.3744778 0.1136516 0.6437561
0.4578576 0.1122746 0.6571181
0.4990035 0.1002056 0.6522002
0.5485763 0.1000038 0.6551610
0.2906197 0.3196444 0.6963580
0.2685832 0.2603469 0.6544414
0.2445959 0.1899464 0.6148448
0.2545752 0.1505038 0.6209870
0.2971873 0.1490152 0.6297647
0.3697394 0.1453930 0.6414662
0.4495333 0.1418153 0.6473616
0.5013129 0.1391565 0.6487743
0.5567455 0.1423175 0.6544186
0.2944778 0.3842913 0.7370178
0.2743210 0.3215110 0.6825668
0.2868919 0.2893740 0.6598276
0.2831818 0.2273863 0.6394849
0.3098245 0.2025804 0.6390362
0.3795996 0.1954426 0.6478942
0.4558088 0.1870318 0.6484912
0.5099551 0.1855282 0.6499233
0.5677205 0.1893629 0.6558277
0.2912670 0.4547004 0.7547799
0.2861105 0.3889128 0.6971293
0.3031460 0.3614551 0.6791171
0.3467178 0.3545300 0.6805805
0.3497455 0.2958051 0.6686349
0.4015621 0.2660912 0.6615212
0.4747325 0.2518917 0.6592906
0.5261845 0.2474170 0.6559597
0.5841481 0.2499131 0.6601774
0.3043796 0.5173331 0.7406309
0.3260625 0.4493995 0.6839342
0.3464103 0.4357859 0.6835030
0.3902207 0.4391830 0.6986090
0.4391615 0.4391397 0.7054452
0.4484867 0.3594901 0.6885079
0.5133163 0.3390470 0.6836098
0.5546787 0.3245717 0.6725000
0.6074259 0.3212889 0.6701459
0.3790983 0.5806242 0.7887569
0.4204733 0.5711268 0.7355864
0.4359831 0.5712871 0.7270024
0.4720121 0.5755006 0.7380735
0.5132113 0.5724162 0.7420744
0.5921810 0.5839999 0.7624706
0.6130100 0.5189535 0.7562334
0.6270392 0.4818616 0.7240840
0.6647765 0.4644028 0.7045500
0.3105456 0.6489650 0.7716394
0.4837668 0.6604516 0.7538346
0.4851233 0.6512027 0.7525562
0.5063398 0.6512228 0.7634287
0.5697032 0.6646485 0.7542143
0.6721230 0.7282415 0.8351394
0.7862317 0.7771226 0.8807780
0.7780344 0.7201997 0.8533597
0.8006326 0.6902930 0.8182606
0.5679833 0.7734545 0.8710753
0.5705216 0.7677234 0.8762280
0.5917189 0.7617591 0.8781227
0.6074149 0.7629454 0.8797998
0.6639033 0.8355721 0.8947828
0.7090450 0.7975514 0.8580246
0.7392049 0.7825730 0.8277033
0.9054986 0.9062586 0.9479497
1.0000000 1.0000000 1.0000000
0.2845931 0.7890201 0.7836279
0.3283816 0.7889305 0.7841845
0.3735238 0.7904880 0.7859000
0.4293609 0.7975840 0.7885988
0.4964829 0.8124336 0.7956319
0.6124087 0.8314103 0.8150950
0.7480046 0.8692901 0.8628603
0.9306272 0.9307501 0.9469767
1.0000000 1.0000000 1.0000000
