styles/film/film-polaroid/look.cube
# film-polaroid tuned
LUT_3D_SIZE 33
DOMAIN_MIN 0 0 0
DOMAIN_MAX 1 1 1
0.1283916 0.1364628 0.1394091
0.2470641 0.2155146 0.1897206
0.2031714 0.1666241 0.1207279
0.1003230 0.1466568 0.1987085
0.1522490 0.1439333 0.1323278
0.1766633 0.1345909 0.0867113
0.1781578 0.1415895 0.1145974
0.2490052 0.1701563 0.1423724
0.3127287 0.1887361 0.1589409
0.4634427 0.2163502 0.1776908
0.6297643 0.2179393 0.1668407
0.6663125 0.2208920 0.1738034
0.6870122 0.2195327 0.1633970
0.7306682 0.2182486 0.1497015
0.7821087 0.2077167 0.1400801
0.7718904 0.2174323 0.1476746
0.7696423 0.2149459 0.1504829
0.8261300 0.2107646 0.1501794
0.8256824 0.2153182 0.1552829
0.8301785 0.2147882 0.1486360
0.8902303 0.2038333 0.1280056
0.8962164 0.2030175 0.1249655
0.8906555 0.2114545 0.1413662
0.9289004 0.2016124 0.1380932
0.9456808 0.2089187 0.1351921
0.9521638 0.2095611 0.1426604
0.9624830 0.2137125 0.1511628
0.9664758 0.2188832 0.1457056
0.9669323 0.2275851 0.1384370
0.9750595 0.2246399 0.1311857
0.9808187 0.2181471 0.1255732
0.9870125 0.2074791 0.1180208
0.9904816 0.2033971 0.1139390
0.1580918 0.1773682 0.1558235
0.0862219 0.1131400 0.1489123
0.2651001 0.2324587 0.1689279
0.2440177 0.2172931 0.1434836
0.0669958 0.1253535 0.2020980
0.0722164 0.1400628 0.1706453
0.1754783 0.1867952 0.1338574
0.1582038 0.1520626 0.1305558
0.1828408 0.1809989 0.1747920
0.2415722 0.2049201 0.1948767
0.2858971 0.2020165 0.1875014
0.3518439 0.2027657 0.1762624
0.4573529 0.2237335 0.1736005
0.5606835 0.2489973 0.1650336
0.6047999 0.2411128 0.1475295
0.6290386 0.2465698 0.1514759
0.6191165 0.2281681 0.1481521
0.6222589 0.2127672 0.1486432
0.6496772 0.2183468 0.1506445
0.7010375 0.2266139 0.1485079
0.7451997 0.2205139 0.1374776
0.7879888 0.2247327 0.1324291
0.8164901 0.2276590 0.1321836
0.8472708 0.2208886 0.1293468
0.8890272 0.2223521 0.1284542
0.9202038 0.2195148 0.1298847
0.9374338 0.2193656 0.1309852
0.9585779 0.2280151 0.1353806
0.9758686 0.2365200 0.1381787
0.9874665 0.2365362 0.1359158
0.9898067 0.2334398 0.1328696
0.9934049 0.2267374 0.1282109
0.9955260 0.2236277 0.1271999
0.0989796 0.1085312 0.0936283
0.1029273 0.1001168 0.0878381
0.0147653 0.0604256 0.1249444
0.2203779 0.2032038 0.1412233
0.2721554 0.2088713 0.1118981
0.1025612 0.1166184 0.1750374
0.0925726 0.1369600 0.1746012
0.1880884 0.1943558 0.1430825
0.1477512 0.1439398 0.1356010
0.2923772 0.1734817 0.1600413
0.3518910 0.2130224 0.1927876
0.3251834 0.2104429 0.1916480
0.3890846 0.2205842 0.1813007
0.5276354 0.2634204 0.1709746
0.6087690 0.2846618 0.1595809
0.6346563 0.2956175 0.1628040
0.6130678 0.2737553 0.1620055
0.5948108 0.2500949 0.1608423
0.6121645 0.2491159 0.1609838
0.6687098 0.2567410 0.1575942
0.7165979 0.2493579 0.1482098
0.7646467 0.2543795 0.1456574
0.8010639 0.2550674 0.1416010
0.8291452 0.2526960 0.1398297
0.8617048 0.2554885 0.1416805
0.8832209 0.2485975 0.1413659
0.8974152 0.2436367 0.1413098
0.9166184 0.2492343 0.1456422
0.9398110 0.2550140 0.1496266
0.9634196 0.2536349 0.1487317
0.9964906 0.2491845 0.1458979
1.0000000 0.2414499 0.1407346
1.0000000 0.2382010 0.1401390
0.0888742 0.1150681 0.1291224
0.1704962 0.1952782 0.1253868
0.1335749 0.1373533 0.1135726
0.0665544 0.0975138 0.1348309
0.2602978 0.2003384 0.1064530
0.3744796 0.2378429 0.0752185
0.2079072 0.1720214 0.1825181
0.1442114 0.1729984 0.2158300
0.2358196 0.2145233 0.1639476
0.3018452 0.1697547 0.1378546
0.3546885 0.1873295 0.1602584
0.3951165 0.2096222 0.1781378
0.4036864 0.2135877 0.1775566
0.4679635 0.2315680 0.1725692
0.5536861 0.2626779 0.1647244
0.6245464 0.3038197 0.1744318
0.6262641 0.3047027 0.1758503
0.6314670 0.2984099 0.1755665
0.6404553 0.2896218 0.1701029
0.6837900 0.2909305 0.1645455
0.7233850 0.2763878 0.1528431
0.7667478 0.2773059 0.1509206
0.8034957 0.2771283 0.1466609
0.8320486 0.2776756 0.1477498
0.8559178 0.2782509 0.1501961
0.8704246 0.2768640 0.1540243
0.8819228 0.2696635 0.1544266
0.8986946 0.2698859 0.1576506
0.9219359 0.2697129 0.1592403
0.9447961 0.2659950 0.1573514
0.9748542 0.2592384 0.1534355
1.0000000 0.2493102 0.1469454
1.0000000 0.2439806 0.1451863
0.0945416 0.1334408 0.1403890
0.1824098 0.2270017 0.1754556
0.1780656 0.2073186 0.1383957
0.1700200 0.1864234 0.1402142
0.0738857 0.1109365 0.1609239
0.3276633 0.2336116 0.1088214
0.4477427 0.2808291 0.0460502
0.3370653 0.2482117 0.1779602
0.2902550 0.2527777 0.2350373
0.3114977 0.2345421 0.1761343
0.4013790 0.1959602 0.1430079
0.5224575 0.2238557 0.1551398
0.5225234 0.2220131 0.1600761
0.4872313 0.2139108 0.1721947
0.5018671 0.2236224 0.1717129
0.5667487 0.2630712 0.1784696
0.6072231 0.2939911 0.1847529
0.6473937 0.3070071 0.1822763
0.6849407 0.3153542 0.1775411
0.7192663 0.3215462 0.1698378
0.7582468 0.3157357 0.1584066
0.7942572 0.3138498 0.1550501
0.8201348 0.3038649 0.1484341
0.8430924 0.3006910 0.1484313
0.8563911 0.3006834 0.1536463
0.8654444 0.2985902 0.1577459
0.8727572 0.2924825 0.1609347
0.8893747 0.2894412 0.1650496
0.9111537 0.2850983 0.1649030
0.9332862 0.2753742 0.1598746
0.9657518 0.2643048 0.1540945
1.0000000 0.2526520 0.1473123
1.0000000 0.2468375 0.1459988
0.1078846 0.1677966 0.1340008
0.1930381 0.2593658 0.2010532
0.1857193 0.2335134 0.1857711
0.2156824 0.2495819 0.1568734
0.2126729 0.2344461 0.1627267
0.1114531 0.1544789 0.1915396
0.3402507 0.2747085 0.1505803
0.5411533 0.3821244 0.0479221
0.4333013 0.3344517 0.1674499
0.4187388 0.3345355 0.2266605
0.3873120 0.2563305 0.1597075
0.4092716 0.1860708 0.1448404
0.5090256 0.2169178 0.1535708
0.5835610 0.2429667 0.1494088
0.5949424 0.2399254 0.1572182
0.5676083 0.2381838 0.1794477
0.5961962 0.2651356 0.1893481
0.6430323 0.2850488 0.1855446
0.6854772 0.3022615 0.1788335
0.7313011 0.3216929 0.1714530
0.7828871 0.3415910 0.1683369
0.8152038 0.3456128 0.1625964
0.8408979 0.3337346 0.1522960
0.8582193 0.3259529 0.1453559
0.8614274 0.3226316 0.1487230
0.8658403 0.3187853 0.1540845
0.8718858 0.3126382 0.1595401
0.8925129 0.3102289 0.1652958
0.9120394 0.3009267 0.1646636
0.9303697 0.2838887 0.1588315
0.9639689 0.2682009 0.1516163
1.0000000 0.2570520 0.1458258
1.0000000 0.2525696 0.1469479
0.1100932 0.1874923 0.1313208
0.1856459 0.2667796 0.1862420
0.1856518 0.2545569 0.1869019
0.2228488 0.2827935 0.1769993
0.2367575 0.2927006 0.1383820
0.2392639 0.2692969 0.1765399
0.1521843 0.1933835 0.2008083
0.3320400 0.2994888 0.1484172
0.5699787 0.4248151 0.0143730
0.5175693 0.3987541 0.1267740
0.5630823 0.3929089 0.0759138
0.4511420 0.2816061 0.1168800
0.3473847 0.1614467 0.1303050
0.4363259 0.1988270 0.1501492
0.5721138 0.2468963 0.1434695
0.6400947 0.2701704 0.1594398
0.6181943 0.2612110 0.1783217
0.6126599 0.2451161 0.1616201
0.6501360 0.2669700 0.1605008
0.7076187 0.2993887 0.1643122
0.7651469 0.3290458 0.1615308
0.7953083 0.3418423 0.1569111
0.8256714 0.3439805 0.1491989
0.8450950 0.3304560 0.1336942
0.8616538 0.3425640 0.1428116
0.8692259 0.3477344 0.1550518
0.8727036 0.3361433 0.1567348
0.8911483 0.3310083 0.1624693
0.9090501 0.3203519 0.1653503
0.9285146 0.3013930 0.1625590
0.9636688 0.2823190 0.1556150
1.0000000 0.2685640 0.1482971
1.0000000 0.2591491 0.1458811
0.1096494 0.2047117 0.1297665
0.1752920 0.2723225 0.1664466
0.1816547 0.2723999 0.1632995
0.2183226 0.2967062 0.1758153
0.2368767 0.3222320 0.1430345
0.2629651 0.3397820 0.1290896
0.2701922 0.3080247 0.1736916
0.2039343 0.2438350 0.1894435
0.2614371 0.2747192 0.1647297
0.5092499 0.4484331 0.1606632
0.5759552 0.4407480 0.0613089
0.5965464 0.4285321 0.0556432
0.4974121 0.3331235 0.1066154
0.3709166 0.1815497 0.0965336
0.4110928 0.1785243 0.1118241
0.5315231 0.2376997 0.1336069
0.6605908 0.2764266 0.1257976
0.6715743 0.2635627 0.1354091
0.6206531 0.2314813 0.1368746
0.6654614 0.2678402 0.1532571
0.7347389 0.3027631 0.1494453
0.7638487 0.3181699 0.1462750
0.7813143 0.3170245 0.1394268
0.8111672 0.3181361 0.1254264
0.8426264 0.3397715 0.1303770
0.8623623 0.3700146 0.1519859
0.8738760 0.3700753 0.1566591
0.8883344 0.3701445 0.1656958
0.9075726 0.3548855 0.1697255
0.9275312 0.3305282 0.1693816
0.9598993 0.3064167 0.1618434
1.0000000 0.2884434 0.1524024
1.0000000 0.2717276 0.1449763
0.1079434 0.2218834 0.1290144
0.1656627 0.2793946 0.1580712
0.1667226 0.2743773 0.1439949
0.1907423 0.2877879 0.1518040
0.2233708 0.3102344 0.1587634
0.2490782 0.3356202 0.1340471
0.2907140 0.3656848 0.1130019
0.2871133 0.3400038 0.1553774
0.2259840 0.2706307 0.1800144
0.2696247 0.2912452 0.1509696
0.4743134 0.4236151 0.1312706
0.5983430 0.4795988 0.0879199
0.6430782 0.4872353 0.0787131
0.5839278 0.4226565 0.1123771
0.4010789 0.2222126 0.0741210
0.4102561 0.1911681 0.0942680
0.5183978 0.2263264 0.0956091
0.6415535 0.2730902 0.1030441
0.6712351 0.2723320 0.1134166
0.6470735 0.2416311 0.1158319
0.6941296 0.2779827 0.1361593
0.7268568 0.2945263 0.1386241
0.7391441 0.2911303 0.1288800
0.7786337 0.3070562 0.1215150
0.8160556 0.3280107 0.1185234
0.8382025 0.3587607 0.1332661
0.8570790 0.3794641 0.1463246
0.8728516 0.4002896 0.1636245
0.8989913 0.4016232 0.1756836
0.9170627 0.3794602 0.1831880
0.9476514 0.3499742 0.1771754
0.9927338 0.3255690 0.1656825
1.0000000 0.3073017 0.1578528
0.1079432 0.2343175 0.1239214
0.1558669 0.2826652 0.1541658
0.1616606 0.2887789 0.1453319
0.1646711 0.2851056 0.1394362
0.1999974 0.3002515 0.1509917
0.2427396 0.3280646 0.1567144
0.2633588 0.3433226 0.1281148
0.3196311 0.3825724 0.1179865
0.3184909 0.3690437 0.1429146
0.2501865 0.2959932 0.1390512
0.2487517 0.2620716 0.1059644
0.4409811 0.3990990 0.1305621
0.6297553 0.5153068 0.1190331
0.6865156 0.5434311 0.1038766
0.6899228 0.5359217 0.1461893
0.5338874 0.3558101 0.1456227
0.4528684 0.2399664 0.0929968
0.5093563 0.2416278 0.0721253
0.6417130 0.2985915 0.0970629
0.7195971 0.3083103 0.0919943
0.7321572 0.2873828 0.0798162
0.7314646 0.2990129 0.1204868
0.7250111 0.2964559 0.1283736
0.7493709 0.3025597 0.1102382
0.7763590 0.3076887 0.1018827
0.8081348 0.3356767 0.1126500
0.8233670 0.3658742 0.1349852
0.8448307 0.3989989 0.1590444
0.8746916 0.4189199 0.1777942
0.8976578 0.4173238 0.1908888
0.9316871 0.4064490 0.1968002
0.9736477 0.3876611 0.1920262
1.0000000 0.3704339 0.1858797
0.1076540 0.2435488 0.1234468
0.1434127 0.2788711 0.1477104
0.1566730 0.2982758 0.1473798
0.1558153 0.3030918 0.1358270
0.1753285 0.3148732 0.1365094
0.2048308 0.3236740 0.1385565
0.2562493 0.3397503 0.1536443
0.3001240 0.3690239 0.1431048
0.3327501 0.3932222 0.1315289
0.3488302 0.3935564 0.1355360
0.2899948 0.3200509 0.1283555
0.2565702 0.2676267 0.0924955
0.4211533 0.3787219 0.1201881
0.6504224 0.5521840 0.1418805
0.7138239 0.5903797 0.1530730
0.6017890 0.4565343 0.1695862
0.4906846 0.3114238 0.1082306
0.4921285 0.2788558 0.0888147
0.5337231 0.2786867 0.0870359
0.6394360 0.3231957 0.1047359
0.7318862 0.3471444 0.0924436
0.7892242 0.3505704 0.0740714
0.8061135 0.3731895 0.1182277
0.7920258 0.3665714 0.1182460
0.7891660 0.3518842 0.1250204
0.8171421 0.3745745 0.1459402
0.8276873 0.3908307 0.1614164
0.8428110 0.4158313 0.1805420
0.8546990 0.4255998 0.1860064
0.8780272 0.4292507 0.1951728
0.9086539 0.4356530 0.2076546
0.9487562 0.4472377 0.2176001
1.0000000 0.4663790 0.2322078
0.1090882 0.2570957 0.1270769
0.1319413 0.2797875 0.1401064
0.1420333 0.2957000 0.1387582
0.1447476 0.3068316 0.1303877
0.1587662 0.3243130 0.1295423
0.1785755 0.3395100 0.1237282
0.2178501 0.3421492 0.1262175
0.2819082 0.3758669 0.1505682
0.3212910 0.4002079 0.1415325
0.3630426 0.4207459 0.1341063
0.3674430 0.4068658 0.1374676
0.3272254 0.3525207 0.1255517
0.2910887 0.2969430 0.1025896
0.3334265 0.2975715 0.0829483
0.3912558 0.3186547 0.0895467
0.4339440 0.3257907 0.1154341
0.4723937 0.3274002 0.1114645
0.5292612 0.3512494 0.1131020
0.5575038 0.3489916 0.1099276
0.5815604 0.3369090 0.1104799
0.6486048 0.3510484 0.1116190
0.7484583 0.3811667 0.0977573
0.8065017 0.3922770 0.0986028
0.8335321 0.4170689 0.1169264
0.8673131 0.4594572 0.1408825
0.9018211 0.5107771 0.2170013
0.8750885 0.4810393 0.2376637
0.8720472 0.4716037 0.2370945
0.8746373 0.4615173 0.2097887
0.8833609 0.4531486 0.1986643
0.9012987 0.4578272 0.2062704
0.9303345 0.4782688 0.2231378
0.9802977 0.5461145 0.2726601
0.1108245 0.2716332 0.1364143
0.1242409 0.2848314 0.1383676
0.1315238 0.2965253 0.1337945
0.1363629 0.3098248 0.1260605
0.1478056 0.3287318 0.1223726
0.1696799 0.3522602 0.1215879
0.1881154 0.3649099 0.1104211
0.2357295 0.3803120 0.1183998
0.3066716 0.4180600 0.1374442
0.3625685 0.4464450 0.1406752
0.3816328 0.4392408 0.1352672
0.3767727 0.4172977 0.1350880
0.3340355 0.3664001 0.1311998
0.3204027 0.3252129 0.1192978
0.3267377 0.2984059 0.1067999
0.3556168 0.2937401 0.1121320
0.4109446 0.3127378 0.1083652
0.4968003 0.3598340 0.1095055
0.5557261 0.3904861 0.1134362
0.5969305 0.3930577 0.1298389
0.6360387 0.3983648 0.1413925
0.7002071 0.4114130 0.1350435
0.7677010 0.4180884 0.0982629
0.8213227 0.4370957 0.1142868
0.8414214 0.4399921 0.1116246
0.8919379 0.4945987 0.1411069
0.9099060 0.5250684 0.2151669
0.9026131 0.5275730 0.2721378
0.9055733 0.5126068 0.2383612
0.8980483 0.4875883 0.2023979
0.9001015 0.4802131 0.2010264
0.9162232 0.4910389 0.2154633
0.9518342 0.5327069 0.2476833
0.1144674 0.2850477 0.1446972
0.1199411 0.2913148 0.1382251
0.1251858 0.3009835 0.1305967
0.1311723 0.3150573 0.1225668
0.1393139 0.3318329 0.1152253
0.1597908 0.3508041 0.1172343
0.1761555 0.3679424 0.1123602
0.2033985 0.3851548 0.1064831
0.2511399 0.4029571 0.1104116
0.3289797 0.4413602 0.1315519
0.3878027 0.4666080 0.1507300
0.4109804 0.4669407 0.1571226
0.3969346 0.4463953 0.1456141
0.3597000 0.3976906 0.1366535
0.3474618 0.3558398 0.1300923
0.3618782 0.3384625 0.1173672
0.3925095 0.3373376 0.1046768
0.4646514 0.3663710 0.1009404
0.5468977 0.4082684 0.1117198
0.5868579 0.4173287 0.1254485
0.6322801 0.4314028 0.1505251
0.6601614 0.4294471 0.1406488
0.7300588 0.4597047 0.1400587
0.7942159 0.4846572 0.1314534
0.8420895 0.4896834 0.1238594
0.8565555 0.4735342 0.1046714
0.8960996 0.5078793 0.1307119
0.9205284 0.5293554 0.1596982
0.9292013 0.5333194 0.1771591
0.9104393 0.5148574 0.1831170
0.9009366 0.4999128 0.1885652
0.9088679 0.4992223 0.1993789
0.9373675 0.5181260 0.2157494
0.1185980 0.3002995 0.1521522
0.1189785 0.3013742 0.1398541
0.1227163 0.3081983 0.1304327
0.1268037 0.3185305 0.1211306
0.1344970 0.3328395 0.1133242
0.1531445 0.3509181 0.1134036
0.1716377 0.3688206 0.1134420
0.1899527 0.3867469 0.1068755
0.2246687 0.4127040 0.1073878
0.2790818 0.4317504 0.1181376
0.3427380 0.4590868 0.1464983
0.4049039 0.4870985 0.1679544
0.4336606 0.4986980 0.1668044
0.4062412 0.4673231 0.1562392
0.3806621 0.4195888 0.1441423
0.3792222 0.3869071 0.1280028
0.4223367 0.4000500 0.1125451
0.4560832 0.3955777 0.0999497
0.5391893 0.4344840 0.1161976
0.6053197 0.4657146 0.1479186
0.6338201 0.4647327 0.1628080
0.6522711 0.4594184 0.1491674
0.6980498 0.4766146 0.1562429
0.7480171 0.4982827 0.1621943
0.8093220 0.5251783 0.1717381
0.8526795 0.5358637 0.1677462
0.8636840 0.5195864 0.1415782
0.9139678 0.5548237 0.1538856
0.9263661 0.5580038 0.1687596
0.9131281 0.5400037 0.1765335
0.9016029 0.5203452 0.1790994
0.9053307 0.5097305 0.1817560
0.9302249 0.5137229 0.1871183
0.1206442 0.3158342 0.1556910
0.1187500 0.3134312 0.1414460
0.1207668 0.3173306 0.1302779
0.1246378 0.3253662 0.1204921
0.1319311 0.3371575 0.1124818
0.1462966 0.3520794 0.1092519
0.1679630 0.3700788 0.1125845
0.1843468 0.3880797 0.1097834
0.2053185 0.4110029 0.1067050
0.2478774 0.4402905 0.1141871
0.3013964 0.4624927 0.1329040
0.3459639 0.4692919 0.1420214
0.4017894 0.4941005 0.1533071
0.4256424 0.5038852 0.1644919
0.4171532 0.4756399 0.1555873
0.4114194 0.4442920 0.1442004
0.4313858 0.4383379 0.1279632
0.4730055 0.4433301 0.1109761
0.5024097 0.4389253 0.1057470
0.5827302 0.4829304 0.1461322
0.6160843 0.4880101 0.1785437
0.6464279 0.4866268 0.1750430
0.6816567 0.4913838 0.1674041
0.7085291 0.4961023 0.1640130
0.7527513 0.5133913 0.1697631
0.8118696 0.5391889 0.1768502
0.8494560 0.5495157 0.1644818
0.8778061 0.5516776 0.1519266
0.8986670 0.5592777 0.1605909
0.8956838 0.5466429 0.1654051
0.8916793 0.5288000 0.1650489
0.8971583 0.5164732 0.1631264
0.9211591 0.5158071 0.1631613
0.1224276 0.3345671 0.1598262
0.1193323 0.3286473 0.1439656
0.1207529 0.3304586 0.1317226
0.1243738 0.3373260 0.1209501
0.1306005 0.3474536 0.1120022
0.1402315 0.3596641 0.1046798
0.1635154 0.3753903 0.1091152
0.1806508 0.3918171 0.1095598
0.1998714 0.4101618 0.1081242
0.2280256 0.4320177 0.1068958
0.2681340 0.4578540 0.1097928
0.3072765 0.4684068 0.1143446
0.3518676 0.4808884 0.1266952
0.3939490 0.4945980 0.1451505
0.4113934 0.4873045 0.1498502
0.4208184 0.4759107 0.1462645
0.4252696 0.4608199 0.1347766
0.4635910 0.4633570 0.1238449
0.5075678 0.4743760 0.1134943
0.5443039 0.4871446 0.1266704
0.5901383 0.5057688 0.1567559
0.6383828 0.5180299 0.1793379
0.6790025 0.5214420 0.1891558
0.6941557 0.5114253 0.1713604
0.7155963 0.5084039 0.1627225
0.7650617 0.5309434 0.1699776
0.8266041 0.5669975 0.1762712
0.8658931 0.5772912 0.1622640
0.8732376 0.5594928 0.1457037
0.8740478 0.5445096 0.1446769
0.8742999 0.5283490 0.1429280
0.8838904 0.5187071 0.1406814
0.9139671 0.5208507 0.1406743
0.1191052 0.3572862 0.1612688
0.1195431 0.3540685 0.1476818
0.1215795 0.3555862 0.1357238
0.1256013 0.3609202 0.1250464
0.1313678 0.3692401 0.1155049
0.1390766 0.3790347 0.1067180
0.1538860 0.3906922 0.1036677
0.1753556 0.4047732 0.1065992
0.1986953 0.4221152 0.1088660
0.2263345 0.4405596 0.1084371
0.2534357 0.4571617 0.1031665
0.2840476 0.4701819 0.1004527
0.3214204 0.4835323 0.1100928
0.3623248 0.4972585 0.1239127
0.3851280 0.4921890 0.1293568
0.4015716 0.4858277 0.1311060
0.4125321 0.4800348 0.1308190
0.4379090 0.4749908 0.1263316
0.4826548 0.4865087 0.1216702
0.5526605 0.5233234 0.1198918
0.5955066 0.5414448 0.1266808
0.6431845 0.5567201 0.1372049
0.6918728 0.5668864 0.1581777
0.7092266 0.5546197 0.1605447
0.7053138 0.5295074 0.1549785
0.7373515 0.5379992 0.1572908
0.7934014 0.5680427 0.1668522
0.8371080 0.5836030 0.1559222
0.8635346 0.5798537 0.1396481
0.8694899 0.5633136 0.1322249
0.8715013 0.5502041 0.1343207
0.8803285 0.5402077 0.1333519
0.9061386 0.5407513 0.1318553
0.1180877 0.3803559 0.1651437
0.1196923 0.3792051 0.1525604
0.1223194 0.3805444 0.1408071
0.1262647 0.3843474 0.1299069
0.1313663 0.3904988 0.1195996
0.1378163 0.3985217 0.1097261
0.1454770 0.4084435 0.0999141
0.1685071 0.4197813 0.1027668
0.1943074 0.4351788 0.1075508
0.2238349 0.4513565 0.1107333
0.2523899 0.4665225 0.1097327
0.2788779 0.4790504 0.1073682
0.3089203 0.4890769 0.1104374
0.3404580 0.4952148 0.1165216
0.3625271 0.4911025 0.1215342
0.3832525 0.4905588 0.1239865
0.4013540 0.4910047 0.1265663
0.4285598 0.4917281 0.1269545
0.4555454 0.4898424 0.1237337
0.5127902 0.5137879 0.1168484
0.5943059 0.5630887 0.1071503
0.6444910 0.5836201 0.1030700
0.7022139 0.6050025 0.1090192
0.7280061 0.5996894 0.1206093
0.7203060 0.5689281 0.1315470
0.7245838 0.5539839 0.1341065
0.7750642 0.5759196 0.1529330
0.8147134 0.5896039 0.1526095
0.8463714 0.5913269 0.1365863
0.8673548 0.5862178 0.1222783
0.8759366 0.5765564 0.1244576
0.8816342 0.5621938 0.1252125
0.8993252 0.5603429 0.1225473
0.1190552 0.4077938 0.1711711
0.1207547 0.4062359 0.1583281
0.1235875 0.4070591 0.1465826
0.1273111 0.4098225 0.1353999
0.1319086 0.4143809 0.1246040
0.1373252 0.4205624 0.1139495
0.1438630 0.4281854 0.1035170
0.1572705 0.4366508 0.0980495
0.1820699 0.4479209 0.1024938
0.2117308 0.4616894 0.1077610
0.2444792 0.4764910 0.1119573
0.2730829 0.4887764 0.1142358
0.3043322 0.4999965 0.1187943
0.3326335 0.5050816 0.1222584
0.3522384 0.5009611 0.1230963
0.3728310 0.5007256 0.1242361
0.3938314 0.5034094 0.1268873
0.4196357 0.5049582 0.1281920
0.4505814 0.5075088 0.1274516
0.4874483 0.5154587 0.1206817
0.5415797 0.5378951 0.1084758
0.6282070 0.5910944 0.0888144
0.6976112 0.6298567 0.0857761
0.7391931 0.6393295 0.0908214
0.7477821 0.6197527 0.1082947
0.7403907 0.5930346 0.1161705
0.7671949 0.5959981 0.1319816
0.8022386 0.6028930 0.1396376
0.8279679 0.5970573 0.1278150
0.8603034 0.5972253 0.1051651
0.8862429 0.5983010 0.1032579
0.8999375 0.5972746 0.1258265
0.9087236 0.5921433 0.1256739
0.1193497 0.4332801 0.1763961
0.1213314 0.4329563 0.1639148
0.1242009 0.4337309 0.1522127
0.1277365 0.4359108 0.1408635
0.1319850 0.4394718 0.1297887
0.1369359 0.4443128 0.1188227
0.1425261 0.4501493 0.1077331
0.1486128 0.4565693 0.0960947
0.1698041 0.4646392 0.0975141
0.2002197 0.4765760 0.1044653
0.2332843 0.4892258 0.1110485
0.2649174 0.5008400 0.1165091
0.2950513 0.5110078 0.1215869
0.3259234 0.5195719 0.1253989
0.3433660 0.5161666 0.1224617
0.3638399 0.5158873 0.1227388
0.3842864 0.5167078 0.1242955
0.4108026 0.5181474 0.1262113
0.4428522 0.5219866 0.1257137
0.4756138 0.5278804 0.1232414
0.5124851 0.5355531 0.1131475
0.5746418 0.5662193 0.0931536
0.6671626 0.6285218 0.0868474
0.7241868 0.6557813 0.0859949
0.7519066 0.6528227 0.0983696
0.7676827 0.6433770 0.1102246
0.7817973 0.6352428 0.1223401
0.7993041 0.6261035 0.1268520
0.8194298 0.6148619 0.1235221
0.8580096 0.6214606 0.1131423
0.8861140 0.6150926 0.0797921
0.9157682 0.6347909 0.1275549
0.9284304 0.6339833 0.1339366
0.1205049 0.4610382 0.1829611
0.1226286 0.4608242 0.1703639
0.1253297 0.4615335 0.1583789
0.1286047 0.4631762 0.1468145
0.1323940 0.4658613 0.1354131
0.1366819 0.4695123 0.1240371
0.1414215 0.4739844 0.1124920
0.1462861 0.4787655 0.1003462
0.1566896 0.4842894 0.0925101
0.1840599 0.4926593 0.0977016
0.2140531 0.5021182 0.1035611
0.2446703 0.5111431 0.1085280
0.2737259 0.5192010 0.1135430
0.3041178 0.5269130 0.1181624
0.3296542 0.5303882 0.1197045
0.3527894 0.5315073 0.1208761
0.3775857 0.5344361 0.1242007
0.4039232 0.5356776 0.1253240
0.4326916 0.5377448 0.1237753
0.4634513 0.5430894 0.1223143
0.5001773 0.5507080 0.1152363
0.5438204 0.5645577 0.1039654
0.6090993 0.5962114 0.0895788
0.6925687 0.6512657 0.0932653
0.7392817 0.6695736 0.1031397
0.7643670 0.6682591 0.1117582
0.7854364 0.6681883 0.1208395
0.8024667 0.6594496 0.1254872
0.8173193 0.6438452 0.1213105
0.8479465 0.6430965 0.1179106
0.8839415 0.6500715 0.1116601
0.9215608 0.6706456 0.1383190
0.9289854 0.6671432 0.1350664
0.1199439 0.4879030 0.1881373
0.1219120 0.4875923 0.1754922
0.1243631 0.4882124 0.1632274
0.1272894 0.4894633 0.1514197
0.1306573 0.4915680 0.1397467
0.1344591 0.4944643 0.1281104
0.1386533 0.4980323 0.1163580
0.1429996 0.5019331 0.1040906
0.1475190 0.5060323 0.0912547
0.1681863 0.5117425 0.0909578
0.1964782 0.5191738 0.0965266
0.2253139 0.5262055 0.1013592
0.2543469 0.5328006 0.1060977
0.2833521 0.5392373 0.1107537
0.3120969 0.5451914 0.1149838
0.3340836 0.5466649 0.1157208
0.3573667 0.5494285 0.1177775
0.3846203 0.5514674 0.1182352
0.4161582 0.5542654 0.1181122
0.4515497 0.5613707 0.1184311
0.4891273 0.5693354 0.1161421
0.5296894 0.5798935 0.1120494
0.5769540 0.5945035 0.1034983
0.6354344 0.6211461 0.1005880
0.7058055 0.6634174 0.1097294
0.7528368 0.6858386 0.1190088
0.7809151 0.6903342 0.1253900
0.8094622 0.6921366 0.1327294
0.8235039 0.6804212 0.1242907
0.8428663 0.6710954 0.1172566
0.8754304 0.6702155 0.1165563
0.9172536 0.6821897 0.1248932
0.9182946 0.6873678 0.1259148
0.1198737 0.5162116 0.1938613
0.1217744 0.5153418 0.1811198
0.1241110 0.5156873 0.1687851
0.1267779 0.5167309 0.1567163
0.1297352 0.5183635 0.1447834
0.1330448 0.5206499 0.1328751
0.1366805 0.5235001 0.1208822
0.1404310 0.5266578 0.1084470
0.1442184 0.5299230 0.0954073
0.1541835 0.5339838 0.0856504
0.1799735 0.5394751 0.0898622
0.2066954 0.5451488 0.0941578
0.2334569 0.5504033 0.0978270
0.2600108 0.5554280 0.1017646
0.2867480 0.5602041 0.1054675
0.3109164 0.5632258 0.1077201
0.3338776 0.5657464 0.1093967
0.3656108 0.5698873 0.1118314
0.4011230 0.5743115 0.1138287
0.4382998 0.5815280 0.1154578
0.4757912 0.5892203 0.1154522
0.5154974 0.5990113 0.1155676
0.5594687 0.6108843 0.1129417
0.6037562 0.6221117 0.1092870
0.6588489 0.6435802 0.1083227
0.7131643 0.6739451 0.1178606
0.7568771 0.6967417 0.1264690
0.8013057 0.7164092 0.1347076
0.8259468 0.7153610 0.1277311
0.8453439 0.7056984 0.1167829
0.8675024 0.6936231 0.1066901
0.9018511 0.6927557 0.1041050
0.9234087 0.7095382 0.1204061
0.1184551 0.5403351 0.1977529
0.1203056 0.5398996 0.1852424
0.1224884 0.5402489 0.1729237
0.1249872 0.5412412 0.1607268
0.1276661 0.5425991 0.1486181
