catalog/styles/film/film-matte/look.cube
# film-matte iteration 20
LUT_3D_SIZE 5
DOMAIN_MIN 0 0 0
DOMAIN_MAX 1 1 1
0.2638779 0.2863874 0.2387311
0.3221459 0.2043525 0.1470081
0.5203431 0.1945918 0.1441497
0.7038364 0.1703715 0.1173939
0.8684838 0.1251751 0.1259375
0.1524577 0.2221407 0.2229062
0.2636113 0.2514300 0.1822776
0.4019670 0.2627734 0.1949087
0.5865375 0.2575107 0.1767664
0.8324376 0.2540519 0.1729101
0.1396791 0.3116842 0.2961643
0.2247793 0.3602447 0.2664271
0.3478656 0.3744321 0.2360583
0.5931827 0.4075711 0.2237234
0.7709024 0.4007537 0.2216026
0.0781023 0.3844968 0.3719955
0.1672892 0.4367549 0.3131441
0.2829676 0.4825846 0.2318403
0.5058903 0.5565097 0.2098789
0.8015094 0.6200635 0.1305238
0.0031926 0.4653939 0.4760069
0.0842255 0.4993238 0.3180261
0.2069793 0.5570714 0.2081289
0.4430787 0.6669041 0.1987102
0.8065738 0.8118592 0.3282161
0.1912033 0.2309942 0.3531141
0.2249412 0.1762343 0.2299550
0.4814342 0.1874810 0.2591547
0.7632703 0.2402406 0.3045748
0.8698842 0.3142633 0.3442689
0.1653791 0.2682990 0.2859161
0.2469910 0.2472920 0.2804483
0.3496037 0.2334110 0.2660987
0.6132218 0.2850355 0.3112502
0.8227251 0.3569113 0.3565374
0.1735495 0.3398016 0.3601596
0.2753483 0.3658277 0.3557666
0.3669002 0.3695430 0.3101516
0.5489219 0.3928490 0.3204167
0.7529443 0.4147577 0.3355669
0.1717380 0.4558506 0.4604918
0.2622888 0.4726626 0.4147871
0.3598573 0.4948376 0.3571541
0.5167739 0.5416535 0.3350256
0.7586558 0.6094521 0.3885432
0.1492379 0.5446378 0.5304350
0.2281975 0.5648048 0.4408384
0.3262665 0.6009678 0.3750254
0.5014894 0.6792549 0.3786751
0.7872075 0.8127341 0.5148822
0.2246853 0.2375804 0.5610824
0.2547654 0.1980742 0.4280800
0.3985093 0.1748935 0.3812682
0.6388100 0.2284851 0.4594560
0.8748727 0.3346361 0.5666541
0.2029388 0.3015088 0.4650495
0.2618931 0.2853135 0.4439336
0.3667017 0.2215996 0.3776470
0.6287290 0.3117606 0.4571832
0.8271872 0.4049018 0.5248391
0.2496101 0.4501337 0.5113289
0.2806633 0.3957868 0.4703056
0.4067537 0.4078289 0.4555993
0.5996932 0.4263616 0.4383385
0.7962738 0.4809976 0.4945619
0.2841795 0.5494325 0.5617604
0.3362722 0.5186432 0.5211243
0.4424027 0.5396467 0.5052027
0.5718941 0.5976181 0.5067489
0.7538714 0.6258014 0.4989696
0.2940584 0.6182983 0.5863947
0.3592205 0.6162087 0.5414909
0.4326211 0.6299391 0.5225554
0.5669852 0.6942596 0.5492620
0.8068482 0.8037081 0.6240789
0.3111511 0.3518997 0.7170611
0.3360109 0.2843608 0.6427592
0.4011522 0.2114272 0.5781609
0.5585033 0.2066634 0.6060446
0.7652369 0.2404950 0.6822025
0.2764964 0.3990217 0.6842350
0.3403675 0.3831117 0.6285408
0.4302825 0.3337906 0.5977553
0.6026381 0.3508994 0.6270048
0.7988569 0.3989841 0.6724031
0.1753689 0.4016417 0.5502803
0.3262185 0.4631284 0.5954689
0.5324411 0.5729211 0.6938957
0.6338163 0.5114809 0.6522474
0.8110275 0.5463535 0.6552933
0.3864034 0.6158441 0.6470892
0.3753135 0.5724067 0.6235739
0.5005912 0.6181318 0.6512283
0.6666313 0.6839124 0.6968866
0.7975261 0.6885977 0.6700767
0.4621102 0.7176322 0.6798782
0.4797269 0.6885544 0.6536614
0.5088211 0.6598320 0.6359587
0.5959777 0.6910037 0.6560947
0.8077065 0.7998431 0.7240946
0.4891719 0.5551114 0.7804402
0.4474758 0.4154822 0.8477814
0.4501066 0.2940134 0.8237683
0.5125807 0.1966695 0.7793707
0.6176171 0.1242064 0.7561959
0.4011077 0.5742432 0.8136438
0.4245259 0.4917333 0.7966433
0.5136314 0.4671164 0.8123455
0.6112569 0.4272605 0.8215927
0.7240898 0.3752378 0.8215838
0.3542797 0.6398364 0.7930835
0.3923890 0.5385458 0.7304735
0.5120275 0.5606784 0.7560114
0.6948974 0.6304247 0.8460452
0.8122722 0.6013672 0.8710620
0.3902431 0.6408505 0.7325563
0.4486424 0.6635289 0.7565922
0.5238880 0.6662445 0.7442289
0.6730241 0.7114201 0.7830026
0.8683620 0.7746419 0.8776474
0.6762853 0.8365338 0.7944914
0.6041302 0.8148617 0.8229445
0.6083398 0.7845633 0.8078362
0.6622575 0.7603760 0.7721190
0.8262943 0.8267126 0.8308227
