catalog/styles/film/film-matte/look.cube
# film-matte iteration 20
LUT_3D_SIZE 9
DOMAIN_MIN 0 0 0
DOMAIN_MAX 1 1 1
0.2638779 0.2863874 0.2387311
0.2970884 0.2518956 0.1821241
0.3221459 0.2043525 0.1470081
0.3980592 0.1843670 0.1413661
0.5203431 0.1945918 0.1441497
0.6166518 0.1885289 0.1311243
0.7038364 0.1703715 0.1173939
0.7901819 0.1527867 0.1157125
0.8684838 0.1251751 0.1259375
0.1922982 0.2334896 0.2218215
0.2230983 0.2110975 0.1926686
0.3015568 0.2244890 0.1470882
0.3985465 0.2432067 0.1586669
0.4469878 0.2266432 0.1692917
0.5113146 0.2180822 0.1643107
0.6072152 0.2175341 0.1603692
0.7224909 0.2043024 0.1512704
0.8474179 0.1729040 0.1414039
0.1524577 0.2221407 0.2229062
0.1946679 0.2357779 0.2240650
0.2636113 0.2514300 0.1822776
0.3736484 0.2918907 0.1747485
0.4019670 0.2627734 0.1949087
0.4902553 0.2487393 0.1858534
0.5865375 0.2575107 0.1767664
0.6976441 0.2654371 0.1734301
0.8324376 0.2540519 0.1729101
0.1443523 0.2588310 0.2560693
0.2029075 0.3061343 0.2583274
0.2624529 0.3411057 0.2389705
0.3083530 0.3329546 0.2128858
0.3645753 0.3123879 0.2321883
0.4695704 0.3052151 0.2212458
0.5899890 0.3040252 0.1812331
0.7180164 0.3512966 0.1907138
0.8028726 0.3559724 0.2099093
0.1396791 0.3116842 0.2961643
0.1879173 0.3463401 0.2867698
0.2247793 0.3602447 0.2664271
0.2699948 0.3714421 0.2520177
0.3478656 0.3744321 0.2360583
0.4736120 0.3953188 0.2196667
0.5931827 0.4075711 0.2237234
0.6525260 0.3915258 0.2181856
0.7709024 0.4007537 0.2216026
0.1143634 0.3500730 0.3302431
0.1557615 0.3755290 0.3133426
0.2010401 0.4013673 0.3002090
0.2603073 0.4337763 0.2877848
0.3196223 0.4398993 0.2400225
0.4218787 0.4512512 0.2030289
0.5646087 0.5012462 0.2160501
0.6725656 0.5104388 0.2213698
0.7714505 0.5046249 0.1979342
0.0781023 0.3844968 0.3719955
0.1198835 0.4088041 0.3418135
0.1672892 0.4367549 0.3131441
0.2208438 0.4638530 0.2774133
0.2829676 0.4825846 0.2318403
0.3742198 0.5064829 0.2030208
0.5058903 0.5565097 0.2098789
0.6537880 0.6082337 0.2198756
0.8015094 0.6200635 0.1305238
0.0407454 0.4235953 0.4227208
0.0818817 0.4451697 0.3693649
0.1262257 0.4678202 0.3157410
0.1777534 0.4913701 0.2628547
0.2453019 0.5192879 0.2200318
0.3397984 0.5576516 0.2004405
0.4700318 0.6113793 0.2098761
0.6328133 0.6738563 0.2208293
0.8114369 0.7297817 0.1629245
0.0031926 0.4653939 0.4760069
0.0424718 0.4819359 0.3956826
0.0842255 0.4993238 0.3180261
0.1357377 0.5223107 0.2519396
0.2069793 0.5570714 0.2081289
0.3071908 0.6059157 0.1911113
0.4430787 0.6669041 0.1987102
0.6148877 0.7374098 0.2358551
0.8065738 0.8118592 0.3282161
0.2142770 0.2528895 0.2810149
0.2333754 0.2237656 0.2278036
0.2688364 0.1894265 0.1834225
0.3774512 0.1849553 0.1887737
0.5335014 0.2000835 0.2081233
0.6682366 0.2085226 0.2094267
0.7741221 0.2094581 0.2005995
0.8390714 0.2079791 0.1932186
0.8580523 0.2272189 0.2029350
0.1799249 0.2437667 0.2473558
0.2128170 0.2153535 0.2193990
0.2418529 0.2106784 0.2066908
0.3133857 0.2123333 0.2158861
0.4180383 0.2182092 0.2281279
0.5464947 0.2313318 0.2313721
0.6663014 0.2449323 0.2316197
0.7641581 0.2588168 0.2364941
0.8528428 0.2723717 0.2441679
0.1566036 0.2414015 0.2387287
0.2205633 0.2579129 0.2514471
0.2656621 0.2743865 0.2508342
0.3654944 0.2947558 0.2331406
0.3430023 0.2372680 0.2271591
0.4523328 0.2467890 0.2409293
0.5872151 0.2690516 0.2469218
0.7120178 0.2953821 0.2552521
0.8252799 0.3151559 0.2672024
0.1570338 0.2719126 0.2750095
0.2203577 0.3064173 0.2893667
0.2816840 0.3481177 0.2954008
0.3362601 0.3454720 0.2506263
0.4900028 0.4050587 0.2374991
0.4322040 0.2940134 0.2619088
0.5414292 0.3060693 0.2643341
0.6690050 0.3356101 0.2698074
0.7783292 0.3541809 0.2782166
0.1555092 0.3204628 0.3228302
0.2080656 0.3483435 0.3217316
0.2595816 0.3769833 0.3197947
0.3046624 0.3886099 0.3062605
0.3576844 0.3748690 0.2811084
0.4568909 0.3867036 0.2868611
0.5528789 0.3967605 0.2923580
0.6482470 0.4042047 0.2882721
0.7506299 0.4016225 0.2779879
0.1426744 0.3702911 0.3688574
0.1902965 0.3915111 0.3563716
0.2379372 0.4116335 0.3446062
0.2880582 0.4284234 0.3318202
0.3482344 0.4406300 0.3069460
0.4334154 0.4556613 0.2837538
0.5435043 0.4813419 0.2928134
0.6525309 0.4998970 0.3041858
0.7613136 0.5020996 0.2983234
0.1233346 0.4177540 0.4147256
0.1684333 0.4353600 0.3890823
0.2145421 0.4529871 0.3625737
0.2640490 0.4701199 0.3316736
0.3233216 0.4874782 0.2973746
0.4037978 0.5111790 0.2745297
0.5119549 0.5458427 0.2783111
0.6403061 0.5845253 0.3012567
0.7796522 0.6192838 0.3309232
0.1006885 0.4625525 0.4598166
0.1430768 0.4778063 0.4167077
0.1868293 0.4936898 0.3730110
0.2349103 0.5109870 0.3293193
0.2939258 0.5321694 0.2917212
0.3751378 0.5630966 0.2717845
0.4874472 0.6077700 0.2780383
0.6297606 0.6629594 0.3105414
0.7923831 0.7233904 0.3689579
0.0767188 0.5060123 0.5038693
0.1159805 0.5190219 0.4414409
0.1570115 0.5332806 0.3810403
0.2045322 0.5519098 0.3284033
0.2663907 0.5791572 0.2910221
0.3521505 0.6183883 0.2750175
0.4705978 0.6718127 0.2871699
0.6227410 0.7395410 0.3360574
0.7946154 0.8163026 0.4161023
0.1912033 0.2309942 0.3531141
0.1914305 0.1996147 0.2870754
0.2249412 0.1762343 0.2299550
0.3324465 0.1746673 0.2322308
0.4814342 0.1874810 0.2591547
0.6348188 0.2105709 0.2848613
0.7632703 0.2402406 0.3045748
0.8372449 0.2701184 0.3193458
0.8698842 0.3142633 0.3442689
0.1668320 0.2391755 0.2875665
0.2156685 0.2349459 0.2941549
0.2444197 0.2222534 0.2836991
0.2906803 0.2025025 0.2569747
0.4231314 0.2152514 0.2737119
0.5719550 0.2402912 0.2989345
0.6860988 0.2639322 0.3134424
0.7773782 0.2972818 0.3304076
0.8554726 0.3395746 0.3526992
0.1653791 0.2682990 0.2859161
0.2293749 0.2623803 0.2973913
0.2469910 0.2472920 0.2804483
0.2692857 0.2379181 0.2746175
0.3496037 0.2334110 0.2660987
0.4974649 0.2604111 0.2933703
0.6132218 0.2850355 0.3112502
0.7217005 0.3202491 0.3330431
0.8227251 0.3569113 0.3565374
0.1712819 0.2950144 0.3134622
0.2237837 0.2949413 0.3170137
0.2705381 0.3084443 0.3211994
0.2962573 0.3021298 0.2986420
0.3475054 0.2932369 0.2962583
0.4291577 0.2789348 0.2635662
0.5607993 0.3140229 0.2966035
0.6762581 0.3491507 0.3259841
0.7793381 0.3713130 0.3487077
0.1735495 0.3398016 0.3601596
0.2259036 0.3524348 0.3598934
0.2753483 0.3658277 0.3557666
0.3158423 0.3735530 0.3381863
0.3669002 0.3695430 0.3101516
0.4606639 0.3860521 0.3158813
0.5489219 0.3928490 0.3204167
0.6489322 0.4052095 0.3266289
0.7529443 0.4147577 0.3355669
0.1751573 0.3999315 0.4143574
0.2252792 0.4120479 0.4039836
0.2737662 0.4227772 0.3919470
0.3190262 0.4308844 0.3722180
0.3734939 0.4423241 0.3448967
0.4502046 0.4605523 0.3266374
0.5444097 0.4810462 0.3345848
0.6505434 0.4998835 0.3466232
0.7487287 0.5005875 0.3434607
0.1717380 0.4558506 0.4604918
0.2170077 0.4642662 0.4381432
0.2622888 0.4726626 0.4147871
0.3091594 0.4827533 0.3882989
0.3598573 0.4948376 0.3571541
0.4246602 0.5124992 0.3338422
0.5167739 0.5416535 0.3350256
0.6320436 0.5777134 0.3586631
0.7586558 0.6094521 0.3885432
0.1619973 0.5025153 0.4975660
0.2035827 0.5103634 0.4633265
0.2462520 0.5195586 0.4293293
0.2916266 0.5315885 0.3960717
0.3426598 0.5471363 0.3656408
0.4086306 0.5699966 0.3462741
0.5029126 0.6069042 0.3515175
0.6272208 0.6564029 0.3879599
0.7737341 0.7138113 0.4504508
0.1492379 0.5446378 0.5304350
0.1882072 0.5539773 0.4847342
0.2281975 0.5648048 0.4408384
0.2721106 0.5793788 0.4025221
0.3262665 0.6009678 0.3750254
0.3998061 0.6332969 0.3642648
0.5014894 0.6792549 0.3786751
0.6345596 0.7406778 0.4292208
0.7872075 0.8127341 0.5148822
0.1969681 0.2245338 0.4554775
0.2017598 0.2023543 0.3906182
0.2235268 0.1772573 0.3156455
0.3031951 0.1687017 0.2932351
0.4280070 0.1755739 0.3122735
0.5694761 0.1992146 0.3473841
0.7015860 0.2401549 0.3882737
0.8051699 0.2918285 0.4296346
0.8880275 0.3472034 0.4710616
0.1788302 0.2437476 0.3830776
0.2234518 0.2465462 0.3912886
0.2478950 0.2265850 0.3528912
0.2869490 0.1936001 0.3000340
0.3988096 0.1952170 0.3072328
0.5484233 0.2301759 0.3521937
0.6720605 0.2719990 0.3918847
0.7688722 0.3175350 0.4241642
0.8563277 0.3692282 0.4580133
0.1777791 0.2818420 0.3599428
0.2332335 0.2850345 0.3790447
0.2581293 0.2645540 0.3531398
0.2798380 0.2308467 0.3098039
0.3710040 0.2256609 0.3107215
0.5180555 0.2620932 0.3488310
0.6365105 0.3027821 0.3833826
0.7310842 0.3420319 0.4117437
0.8244741 0.3881654 0.4445593
0.1801077 0.3188944 0.3718852
0.2321365 0.3189435 0.3818960
0.2774527 0.3204094 0.3797597
0.2999783 0.2997723 0.3485855
0.3744259 0.3062621 0.3555553
0.4674795 0.2972402 0.3308382
0.5878245 0.3247138 0.3417322
0.6981637 0.3704024 0.3858613
0.7953418 0.4041905 0.4268940
0.2000237 0.3799660 0.4217983
0.2457176 0.3782168 0.4177955
0.2920160 0.3747113 0.4093232
0.3238938 0.3664617 0.3841243
0.3721937 0.3714030 0.3603957
0.4680573 0.3930025 0.3681875
0.5508846 0.3710113 0.3081270
0.6809589 0.4262044 0.3714246
0.7740826 0.4448736 0.4147336
0.2195050 0.4480310 0.4740873
0.2592185 0.4427902 0.4596460
0.3024126 0.4382059 0.4448208
0.3492047 0.4395748 0.4260701
0.3997790 0.4515409 0.3980090
0.4749349 0.4791885 0.3837694
0.5519591 0.4865928 0.3787081
0.6582790 0.5061058 0.3956795
0.7574465 0.5192440 0.4115919
0.2258410 0.5011374 0.5103770
0.2633233 0.4963469 0.4887062
0.3047577 0.4946068 0.4681433
0.3512791 0.4995803 0.4478937
0.4021005 0.5142128 0.4273335
0.4562846 0.5316971 0.4075801
0.5279374 0.5521532 0.4029654
0.6280068 0.5803201 0.4121942
0.7478400 0.6072369 0.4198064
0.2241874 0.5428981 0.5354045
0.2618281 0.5424858 0.5083262
0.3017317 0.5448064 0.4829654
0.3455353 0.5529440 0.4611193
0.3936229 0.5678263 0.4435607
0.4493383 0.5884694 0.4317713
0.5256154 0.6187348 0.4348884
0.6307963 0.6582593 0.4539421
0.7596490 0.7003976 0.4743940
0.2207691 0.5807815 0.5563011
0.2582710 0.5856574 0.5241425
0.2958911 0.5919224 0.4941595
0.3357823 0.6019833 0.4698699
0.3833953 0.6190052 0.4549522
0.4473186 0.6472197 0.4535929
0.5362977 0.6889797 0.4701846
0.6543837 0.7433266 0.5107010
0.7933032 0.8073713 0.5776868
0.2246853 0.2375804 0.5610824
0.2400014 0.2279460 0.5074758
0.2547654 0.1980742 0.4280800
0.3057214 0.1764671 0.3803135
0.3985093 0.1748935 0.3812682
0.5154299 0.1917050 0.4120887
0.6388100 0.2284851 0.4594560
0.7590294 0.2794926 0.5130368
0.8748727 0.3346361 0.5666541
0.2145742 0.2690780 0.5099832
0.2369275 0.2600944 0.4833998
0.2558505 0.2347753 0.4324548
0.2936397 0.2008347 0.3806068
0.3808492 0.1921501 0.3740329
0.5082777 0.2218878 0.4118895
0.6356104 0.2690921 0.4606886
0.7463981 0.3189112 0.5046748
0.8495479 0.3692844 0.5457150
0.2029388 0.3015088 0.4650495
0.2329579 0.3014014 0.4635806
0.2618931 0.2853135 0.4439336
0.2832967 0.2333701 0.3851474
0.3667017 0.2215996 0.3776470
0.5020454 0.2613404 0.4163257
0.6287290 0.3117606 0.4571832
0.7312384 0.3572894 0.4907641
0.8271872 0.4049018 0.5248391
0.2112984 0.3654077 0.4674011
0.2490008 0.3685318 0.4789284
0.2640849 0.3323627 0.4429137
0.3162669 0.3238252 0.4320159
0.3849497 0.3063910 0.4202036
0.4974562 0.3253083 0.4319377
0.6137734 0.3588400 0.4430441
0.7154288 0.3974929 0.4662865
0.8107955 0.4405827 0.5052910
0.2496101 0.4501337 0.5113289
0.2724285 0.4323919 0.5014361
0.2806633 0.3957868 0.4703056
0.3379438 0.4005187 0.4623109
0.4067537 0.4078289 0.4555993
0.4908207 0.4111468 0.4552658
0.5996932 0.4263616 0.4383385
0.7134791 0.4601156 0.4422285
0.7962738 0.4809976 0.4945619
0.2782376 0.5109034 0.5452727
0.2883417 0.4810297 0.5202203
0.3114759 0.4588936 0.4990436
0.3615142 0.4562941 0.4859253
0.4213514 0.4710079 0.4718874
0.5104734 0.5148869 0.4830835
0.5635037 0.5029436 0.4648777
0.6985266 0.5411236 0.4575189
0.7774511 0.5529243 0.4965971
0.2841795 0.5494325 0.5617604
0.3040189 0.5296010 0.5386840
0.3362722 0.5186432 0.5211243
0.3856185 0.5216108 0.5103389
0.4424027 0.5396467 0.5052027
0.5180354 0.5873054 0.5210254
0.5718941 0.5976181 0.5067489
0.6289729 0.5878899 0.4847812
0.7538714 0.6258014 0.4989696
0.2878376 0.5831957 0.5737937
0.3165805 0.5743113 0.5519506
0.3497850 0.5692055 0.5331467
0.3911978 0.5728216 0.5210308
0.4428799 0.5907504 0.5199149
0.5034376 0.6211371 0.5274506
0.5706107 0.6521789 0.5340448
0.6485264 0.6729146 0.5304376
0.7560724 0.6920257 0.5146925
0.2940584 0.6182983 0.5863947
0.3269382 0.6168615 0.5626740
0.3592205 0.6162087 0.5414909
0.3926674 0.6192596 0.5271964
0.4326211 0.6299391 0.5225554
0.4869891 0.6532195 0.5290995
0.5669852 0.6942596 0.5492620
0.6775082 0.7477087 0.5805433
0.8068482 0.8037081 0.6240789
0.2567975 0.2707425 0.6429613
0.2791613 0.2704996 0.6078797
0.2929657 0.2346489 0.5386903
0.3269764 0.2003269 0.4858292
0.3917779 0.1866169 0.4709102
0.4824836 0.1924088 0.4887268
0.5913249 0.2158621 0.5292726
0.7092850 0.2524910 0.5806655
0.8295618 0.2939949 0.6343055
0.2515393 0.3092111 0.6201580
0.2670388 0.2962106 0.5767037
0.2863098 0.2699441 0.5291191
0.3209049 0.2362482 0.4868177
0.3873291 0.2192707 0.4724221
0.4866748 0.2334109 0.4925736
0.6013108 0.2683378 0.5323988
0.7151816 0.3093331 0.5757955
0.8256048 0.3507274 0.6177412
0.2365622 0.3404598 0.5824642
0.2612900 0.3397110 0.5589614
0.2964233 0.3310749 0.5411196
0.3243223 0.2869369 0.4991668
0.3864787 0.2627215 0.4816176
0.4953745 0.2859638 0.5052134
0.6121428 0.3253716 0.5378392
0.7193131 0.3658381 0.5687204
0.8207866 0.4061795 0.5989828
0.2095631 0.3402027 0.4853291
0.2720244 0.4070326 0.5647140
0.3121771 0.4031795 0.5597671
0.3526626 0.3733681 0.5330548
0.4148410 0.3543615 0.5225066
0.5098882 0.3603325 0.5298579
0.6197318 0.3907246 0.5454575
0.7198688 0.4246233 0.5593300
0.8159188 0.4611447 0.5793289
0.2920542 0.4975519 0.5834508
0.2881747 0.4644618 0.5677933
0.2879323 0.4281568 0.5402097
0.3466763 0.4409573 0.5486305
0.4710240 0.4851117 0.5868860
0.5230398 0.4522767 0.5550877
0.6096525 0.4602614 0.5507141
0.7136204 0.4902303 0.5520187
0.8126453 0.5215400 0.5660061
0.3301804 0.5661166 0.6123874
0.3093909 0.5118446 0.5738558
0.3141017 0.4880224 0.5584887
0.3714984 0.5032043 0.5636768
0.4780281 0.5499478 0.5897581
0.5318630 0.5473920 0.5750467
0.5770446 0.5251641 0.5517190
0.6979826 0.5610769 0.5492984
0.8017176 0.5931231 0.5724000
0.3391457 0.5908868 0.6090129
0.3393832 0.5605551 0.5857884
0.3546944 0.5434277 0.5723945
0.4028996 0.5483115 0.5707242
0.4808480 0.5787567 0.5831876
0.5731029 0.6368874 0.6219082
0.6517493 0.6719308 0.6402222
0.6550531 0.6112698 0.5581169
0.7708737 0.6528050 0.5863304
0.3552049 0.6235521 0.6146011
0.3683848 0.6069940 0.5963091
0.3890201 0.5944505 0.5811368
0.4242347 0.5924246 0.5746332
0.4786934 0.6084671 0.5830328
0.5535804 0.6494190 0.6103446
0.6346905 0.6985192 0.6399721
0.6755515 0.6963070 0.6160523
0.7712562 0.7084322 0.6002343
0.3729882 0.6633027 0.6273692
0.3964962 0.6542894 0.6079609
0.4194086 0.6449119 0.5903422
0.4430120 0.6377151 0.5791995
0.4722776 0.6381796 0.5781874
0.5148081 0.6530106 0.5869271
0.5832532 0.6900131 0.6072038
0.6905147 0.7475131 0.6401968
0.8106869 0.8007187 0.6718905
0.3111511 0.3518997 0.7170611
0.3283014 0.3323082 0.6884557
0.3360109 0.2843608 0.6427592
0.3570507 0.2390976 0.6001806
0.4011522 0.2114272 0.5781609
0.4691402 0.2014655 0.5810189
0.5585033 0.2066634 0.6060446
0.6604733 0.2219065 0.6429923
0.7652369 0.2404950 0.6822025
0.2931985 0.3615807 0.6920477
0.3145781 0.3550879 0.6652766
0.3341026 0.3278158 0.6315447
0.3633989 0.2924766 0.6007073
0.4125810 0.2671591 0.5844997
0.4869641 0.2633073 0.5910368
0.5802853 0.2770737 0.6150827
0.6814150 0.2982205 0.6463343
0.7836546 0.3210333 0.6787533
0.2764964 0.3990217 0.6842350
0.3022483 0.3918690 0.6482091
0.3403675 0.3831117 0.6285408
0.3791394 0.3573380 0.6088336
0.4302825 0.3337906 0.5977553
0.5081011 0.3337914 0.6070896
0.6026381 0.3508994 0.6270048
0.7012119 0.3744391 0.6496722
0.7988569 0.3989841 0.6724031
0.2199173 0.4066425 0.6413294
0.2931437 0.4363461 0.6316748
0.3506039 0.4423283 0.6255367
0.4085901 0.4413659 0.6276097
0.4684184 0.4338209 0.6336049
0.5363951 0.4222764 0.6334744
0.6218409 0.4290068 0.6406949
0.7151595 0.4499881 0.6523206
0.8084182 0.4735937 0.6633577
0.1753689 0.4016417 0.5502803
0.3038086 0.4879619 0.6239791
0.3262185 0.4631284 0.5954689
0.4388816 0.5447820 0.6660919
0.5324411 0.5729211 0.6938957
0.5713722 0.5287148 0.6643057
0.6338163 0.5114809 0.6522474
0.7176598 0.5233269 0.6535160
0.8110275 0.5463535 0.6552933
0.3032104 0.5575160 0.6370924
0.3248745 0.5273385 0.6129342
0.3420391 0.5270262 0.6238613
0.3690838 0.5379161 0.6379632
0.5805438 0.6810743 0.7298075
0.6299386 0.6563592 0.7096929
0.6426529 0.5983715 0.6656414
0.7073240 0.5912403 0.6520541
0.8082120 0.6205155 0.6566235
0.3864034 0.6158441 0.6470892
0.3680720 0.5830390 0.6261239
0.3753135 0.5724067 0.6235739
0.4072491 0.5751221 0.6264775
0.5005912 0.6181318 0.6512283
0.6570274 0.7181845 0.7272776
0.6666313 0.6839124 0.6968866
0.6846340 0.6475914 0.6511774
0.7975261 0.6885977 0.6700767
0.4240899 0.6646554 0.6610774
0.4187818 0.6430876 0.6458984
0.4234092 0.6249185 0.6319250
0.4502930 0.6195121 0.6269604
0.5015648 0.6311086 0.6364182
0.5804984 0.6677928 0.6668183
0.6617440 0.7145390 0.7013384
0.6825876 0.7033753 0.6738341
0.7809949 0.7285402 0.6837030
0.4621102 0.7176322 0.6798782
0.4706084 0.7040481 0.6671772
0.4797269 0.6885544 0.6536614
0.4913061 0.6719162 0.6417437
0.5088211 0.6598320 0.6359587
0.5386341 0.6617779 0.6386185
0.5959777 0.6910037 0.6560947
0.6905511 0.7439516 0.6893907
0.8077065 0.7998431 0.7240946
0.4196336 0.4813510 0.7623263
0.3928720 0.4052839 0.7600101
0.3884475 0.3461743 0.7452645
0.3969530 0.2927315 0.7209314
0.4225023 0.2490399 0.6980777
0.4687895 0.2186570 0.6870784
0.5343950 0.2008455 0.6909079
0.6118282 0.1907489 0.7043886
0.6929153 0.1831124 0.7209070
0.3547948 0.4448124 0.7470800
0.3720948 0.4266066 0.7435886
0.3870104 0.3930291 0.7303445
0.4101699 0.3556135 0.7137704
0.4470256 0.3241569 0.7015747
0.5005853 0.3036737 0.6991661
0.5695198 0.2934497 0.7065524
0.6479389 0.2889893 0.7195778
0.7297712 0.2864154 0.7345542
0.3284550 0.4750756 0.7524205
0.3514587 0.4563516 0.7286682
0.3832726 0.4368487 0.7120962
0.4249564 0.4193929 0.7067889
0.4737632 0.4030091 0.7073498
0.5330563 0.3915793 0.7131926
0.6039717 0.3866812 0.7228410
0.6826555 0.3863808 0.7344531
0.7642057 0.3878404 0.7467671
0.2953463 0.5313923 0.7641097
0.3286777 0.4861470 0.7047917
0.3763513 0.4738239 0.6875219
0.4391585 0.4828648 0.6996694
0.5043156 0.4907328 0.7195224
0.5666901 0.4854217 0.7303221
0.6357899 0.4798307 0.7381784
0.7129116 0.4808616 0.7474689
0.7919535 0.4839656 0.7558922
0.2423716 0.5350665 0.7044756
0.3160672 0.5127740 0.6764654
0.3753422 0.5116798 0.6701663
0.4380588 0.5355505 0.6929517
0.5340089 0.5831430 0.7365414
0.6056319 0.5870027 0.7497699
0.6671022 0.5741599 0.7525933
0.7365666 0.5704195 0.7573524
0.8080111 0.5703008 0.7596097
0.2523367 0.5113176 0.6344832
0.3334638 0.5436650 0.6557127
0.3834444 0.5573232 0.6695876
0.4568375 0.6140109 0.7241438
0.5275067 0.6304940 0.7251705
0.6479222 0.6846202 0.7672590
0.7058822 0.6733381 0.7733467
0.7480088 0.6482847 0.7608567
0.8143537 0.6474667 0.7596011
0.3986408 0.6227205 0.6810060
0.3897662 0.6062964 0.6723783
0.4035131 0.6029553 0.6722272
0.4383253 0.6127509 0.6791493
0.5139023 0.6465526 0.7013299
0.6496042 0.7236571 0.7588176
0.7179543 0.7394428 0.7781231
0.7379578 0.7015902 0.7515244
0.8204918 0.7221408 0.7659209
0.4862111 0.7023417 0.7103319
0.4701445 0.6872801 0.7073979
0.4658664 0.6738149 0.7018376
0.4829228 0.6652382 0.6947162
0.5247313 0.6701262 0.6958884
0.5846789 0.6896574 0.7096710
0.6520175 0.7160751 0.7270081
0.7152606 0.7331427 0.7403563
0.8069773 0.7687573 0.7666823
0.5654182 0.7769370 0.7373081
0.5510598 0.7639244 0.7378333
0.5419722 0.7489058 0.7352505
0.5436435 0.7312760 0.7274245
0.5549896 0.7124242 0.7146015
0.5782917 0.7019075 0.7042469
0.6238840 0.7155958 0.7109527
0.6927960 0.7479901 0.7321420
0.7951916 0.7925179 0.7591707
0.4891719 0.5551114 0.7804402
0.4637401 0.4818093 0.8247387
0.4474758 0.4154822 0.8477814
0.4429973 0.3540320 0.8444342
0.4501066 0.2940134 0.8237683
0.4731997 0.2406080 0.7991283
0.5125807 0.1966695 0.7793707
0.5629268 0.1592617 0.7661061
0.6176171 0.1242064 0.7561959
0.4313578 0.5511767 0.8028428
0.4330872 0.5028001 0.8167352
0.4401052 0.4585043 0.8251170
0.4572127 0.4197178 0.8256168
0.4840409 0.3836780 0.8199670
0.5187364 0.3476767 0.8105487
0.5623171 0.3128456 0.8010978
0.6146456 0.2807824 0.7942003
0.6715085 0.2505364 0.7891347
0.4011077 0.5742432 0.8136438
0.4065932 0.5277307 0.8039673
0.4245259 0.4917333 0.7966433
0.4637553 0.4753050 0.8009318
0.5136314 0.4671164 0.8123455
0.5622509 0.4514122 0.8197971
0.6112569 0.4272605 0.8215927
0.6655548 0.4008649 0.8214350
0.7240898 0.3752378 0.8215838
0.4053175 0.6270615 0.8136674
0.3804256 0.5524019 0.7817853
0.4023219 0.5137425 0.7623019
0.4581074 0.5131655 0.7681897
0.5271328 0.5302973 0.7931366
0.5966464 0.5426804 0.8214045
0.6578522 0.5361859 0.8386500
0.7150856 0.5169767 0.8461613
0.7722437 0.4940563 0.8505766
0.3542797 0.6398364 0.7930835
0.3472920 0.5635134 0.7475161
0.3923890 0.5385458 0.7304735
0.4496186 0.5419166 0.7340544
0.5120275 0.5606784 0.7560114
0.6042178 0.6034406 0.8041846
0.6948974 0.6304247 0.8460452
0.7608522 0.6242719 0.8646570
0.8122722 0.6013672 0.8710620
0.1939573 0.5778287 0.7423777
0.3490703 0.5858633 0.7267457
0.4029130 0.5802192 0.7168067
0.4478414 0.5802261 0.7149298
0.4901340 0.5855709 0.7232125
0.5729345 0.6249697 0.7613565
0.7044629 0.6929721 0.8298749
0.7925343 0.7114089 0.8678118
0.8434621 0.6946485 0.8801925
0.3902431 0.6408505 0.7325563
0.4152706 0.6537092 0.7493064
0.4486424 0.6635289 0.7565922
0.4766231 0.6583400 0.7441541
0.5238880 0.6662445 0.7442289
0.5628597 0.6605995 0.7349983
0.6730241 0.7114201 0.7830026
0.7934633 0.7631922 0.8455774
0.8683620 0.7746419 0.8776474
0.5467286 0.7339839 0.7565617
0.5238910 0.7399053 0.7806274
0.5238432 0.7477979 0.8007579
0.5422014 0.7460730 0.8005396
0.5718777 0.7363000 0.7850306
0.6136267 0.7338884 0.7692008
0.6655544 0.7367616 0.7673842
0.7578650 0.7750960 0.8036771
0.8725684 0.8234530 0.8552918
0.6762853 0.8365338 0.7944914
0.6346336 0.8260604 0.8108962
0.6041302 0.8148617 0.8229445
0.5976690 0.8025296 0.8245962
0.6083398 0.7845633 0.8078362
0.6286875 0.7659844 0.7832605
0.6622575 0.7603760 0.7721190
0.7214318 0.7727524 0.7817115
0.8262943 0.8267126 0.8308227
