catalog/styles/film/film-matte/look.cube
# film-matte iteration 20
LUT_3D_SIZE 33
DOMAIN_MIN 0 0 0
DOMAIN_MAX 1 1 1
0.2638779 0.2863874 0.2387311
0.2724786 0.2782447 0.2232685
0.2812073 0.2701398 0.2084917
0.2895764 0.2615177 0.1946739
0.2970884 0.2518956 0.1821241
0.3034635 0.2409975 0.1710586
0.3088354 0.2287548 0.1613256
0.3144791 0.2160960 0.1531939
0.3221459 0.2043525 0.1470081
0.3335153 0.1947158 0.1428889
0.3498042 0.1880199 0.1407643
0.3715163 0.1846703 0.1404396
0.3980592 0.1843670 0.1413661
0.4280058 0.1862844 0.1428463
0.4594911 0.1893235 0.1441624
0.4907187 0.1923841 0.1447175
0.5203431 0.1945918 0.1441497
0.5476113 0.1953998 0.1423385
0.5723687 0.1945684 0.1393612
0.5950965 0.1921622 0.1354853
0.6166518 0.1885289 0.1311243
0.6379085 0.1841313 0.1267583
0.6594434 0.1794190 0.1228195
0.6814456 0.1747778 0.1196560
0.7038364 0.1703715 0.1173939
0.7263663 0.1662360 0.1160043
0.7486693 0.1621967 0.1153524
0.7700330 0.1578242 0.1152722
0.7901819 0.1527867 0.1157125
0.8094643 0.1469722 0.1168197
0.8286630 0.1403456 0.1188091
0.8483289 0.1330053 0.1218599
0.8684838 0.1251751 0.1259375
0.2439338 0.2708364 0.2337230
0.2525283 0.2634476 0.2210502
0.2613492 0.2562719 0.2086069
0.2702485 0.2491438 0.1963608
0.2789949 0.2417617 0.1843506
0.2873759 0.2337455 0.1727094
0.2956255 0.2250577 0.1618690
0.3047436 0.2163738 0.1527222
0.3159997 0.2086421 0.1461060
0.3305237 0.2027030 0.1424489
0.3489142 0.1990110 0.1415805
0.3709819 0.1975112 0.1427987
0.3958680 0.1977294 0.1451482
0.4223626 0.1989879 0.1477088
0.4492021 0.2005744 0.1497338
0.4753440 0.2018831 0.1507319
0.5001328 0.2024936 0.1504897
0.5233375 0.2021847 0.1490305
0.5451351 0.2009063 0.1465527
0.5660703 0.1987550 0.1433730
0.5868407 0.1959368 0.1398633
0.6080661 0.1926917 0.1363790
0.6301701 0.1892558 0.1332127
0.6531434 0.1857826 0.1305683
0.6767428 0.1823127 0.1285309
0.7006341 0.1787615 0.1270624
0.7245584 0.1749117 0.1260070
0.7482181 0.1704862 0.1252334
0.7714284 0.1652697 0.1247268
0.7941821 0.1592099 0.1246750
0.8167506 0.1523527 0.1252611
0.8394611 0.1448659 0.1264754
0.8623686 0.1370317 0.1281219
0.2248849 0.2562424 0.2290966
0.2332338 0.2493622 0.2191178
0.2418554 0.2428318 0.2089666
0.2509355 0.2368554 0.1982625
0.2606008 0.2314119 0.1867523
0.2708058 0.2261178 0.1744458
0.2819891 0.2210399 0.1624444
0.2949117 0.2165687 0.1522877
0.3102722 0.2131965 0.1453558
0.3284736 0.2112893 0.1423135
0.3492466 0.2107595 0.1427442
0.3716868 0.2110903 0.1454729
0.3947353 0.2116816 0.1491674
0.4175351 0.2120813 0.1527217
0.4395363 0.2120335 0.1553815
0.4605222 0.2114675 0.1567649
0.4805322 0.2104224 0.1568053
0.4998150 0.2089903 0.1556745
0.5187870 0.2072683 0.1536772
0.5379659 0.2053391 0.1511632
0.5579001 0.2032807 0.1484721
0.5790740 0.2011565 0.1458684
0.6017069 0.1989778 0.1435074
0.6256278 0.1966893 0.1414495
0.6504165 0.1941713 0.1396956
0.6756657 0.1912398 0.1381859
0.7012637 0.1876828 0.1367694
0.7271109 0.1832870 0.1353594
0.7531309 0.1779156 0.1339184
0.7790648 0.1716182 0.1327408
0.8048331 0.1645080 0.1320235
0.8306577 0.1567615 0.1316344
0.8565980 0.1486524 0.1314321
0.2075283 0.2435707 0.2250685
0.2153153 0.2369133 0.2176280
0.2233108 0.2306161 0.2097055
0.2319273 0.2251442 0.2005429
0.2417436 0.2208764 0.1894794
0.2532134 0.2177829 0.1763798
0.2673646 0.2163309 0.1632175
0.2848345 0.2166301 0.1522624
0.3054404 0.2183928 0.1453081
0.3283614 0.2211718 0.1430581
0.3520561 0.2241001 0.1447500
0.3748506 0.2261880 0.1488230
0.3956795 0.2268355 0.1536738
0.4143142 0.2259608 0.1580409
0.4311806 0.2239153 0.1611895
0.4470064 0.2212394 0.1628440
0.4625233 0.2184436 0.1630765
0.4783368 0.2158897 0.1622047
0.4949429 0.2137382 0.1606181
0.5127011 0.2120032 0.1586841
0.5319591 0.2106303 0.1567156
0.5530801 0.2095572 0.1549312
0.5761072 0.2085876 0.1533761
0.6007950 0.2074798 0.1519508
0.6266724 0.2059409 0.1505065
0.6533286 0.2036877 0.1489188
0.6805643 0.2005126 0.1471051
0.7082971 0.1962602 0.1450838
0.7365660 0.1908700 0.1428949
0.7651667 0.1844298 0.1407904
0.7938654 0.1770626 0.1389532
0.8226765 0.1689294 0.1373485
0.8515988 0.1603258 0.1358993
0.1922982 0.2334896 0.2218215
0.1995042 0.2271839 0.2167539
0.2066835 0.2209849 0.2109533
0.2142161 0.2153305 0.2033007
0.2230983 0.2110975 0.1926686
0.2348047 0.2092415 0.1789509
0.2516202 0.2111112 0.1649676
0.2743826 0.2167014 0.1537437
0.3015568 0.2244890 0.1470882
0.3302333 0.2325944 0.1454574
0.3572761 0.2391742 0.1479657
0.3803075 0.2428511 0.1529358
0.3985465 0.2432067 0.1586669
0.4126342 0.2406206 0.1636728
0.4243111 0.2362398 0.1671911
0.4353283 0.2312561 0.1689912
0.4469878 0.2266432 0.1692917
0.4601752 0.2229956 0.1685671
0.4752286 0.2204469 0.1672758
0.4922502 0.2188725 0.1657619
0.5113146 0.2180822 0.1643107
0.5325008 0.2179397 0.1631722
0.5557328 0.2180855 0.1623160
0.5807434 0.2180924 0.1614905
0.6072152 0.2175341 0.1603692
0.6349234 0.2160232 0.1586903
0.6634338 0.2133533 0.1564794
0.6925791 0.2094475 0.1539563
0.7224909 0.2043024 0.1512704
0.7531187 0.1979665 0.1485759
0.7842161 0.1905031 0.1460046
0.8156865 0.1820463 0.1436262
0.8474179 0.1729040 0.1414039
0.1791903 0.2262348 0.2195404
0.1863056 0.2210634 0.2166873
0.1931207 0.2156052 0.2129497
0.1996478 0.2098731 0.2069136
0.2069191 0.2048845 0.1972175
0.2177038 0.2030606 0.1839317
0.2359839 0.2071026 0.1698601
0.2634236 0.2173093 0.1585179
0.2973121 0.2311380 0.1518363
0.3320384 0.2446935 0.1500372
0.3624269 0.2547757 0.1523571
0.3855452 0.2597784 0.1574303
0.4010969 0.2596087 0.1636314
0.4109292 0.2552901 0.1692953
0.4180812 0.2486225 0.1732527
0.4252771 0.2414272 0.1751795
0.4342647 0.2351100 0.1754708
0.4460038 0.2304086 0.1747529
0.4606455 0.2274487 0.1735579
0.4779392 0.2259788 0.1722200
0.4974786 0.2256292 0.1709941
0.5191197 0.2262719 0.1701975
0.5425988 0.2273931 0.1697278
0.5674612 0.2283818 0.1692975
0.5937116 0.2287488 0.1684529
0.6216132 0.2280311 0.1667212
0.6506878 0.2260860 0.1642695
0.6805557 0.2228802 0.1615464
0.7114330 0.2183686 0.1587091
0.7433660 0.2125217 0.1558288
0.7761651 0.2053308 0.1530063
0.8097005 0.1969124 0.1503489
0.8437201 0.1875992 0.1478587
0.1681277 0.2218612 0.2186031
0.1759245 0.2189605 0.2177354
0.1833420 0.2155993 0.2160226
0.1901537 0.2113856 0.2121721
0.1969586 0.2067831 0.2048240
0.2062497 0.2041545 0.1933474
0.2231271 0.2075997 0.1796214
0.2517154 0.2194101 0.1675012
0.2899695 0.2373663 0.1597276
0.3297477 0.2554875 0.1566466
0.3630271 0.2685712 0.1576500
0.3861463 0.2746226 0.1618049
0.3996761 0.2741158 0.1678722
0.4066279 0.2687024 0.1742214
0.4109544 0.2605042 0.1790151
0.4159243 0.2516356 0.1813046
0.4236895 0.2438790 0.1816575
0.4353055 0.2380955 0.1808054
0.4508361 0.2346034 0.1794229
0.4695465 0.2331197 0.1779414
0.4904936 0.2331602 0.1766232
0.5131326 0.2344237 0.1757285
0.5368764 0.2362476 0.1751606
0.5613859 0.2380149 0.1746611
0.5870634 0.2392230 0.1737613
0.6143079 0.2395152 0.1721591
0.6429434 0.2386814 0.1699227
0.6727288 0.2365840 0.1674232
0.7037987 0.2331688 0.1648642
0.7362209 0.2283489 0.1623191
0.7699388 0.2220642 0.1598474
0.8046929 0.2143613 0.1574710
0.8400599 0.2055393 0.1551627
0.1591876 0.2204492 0.2196006
0.1683339 0.2207832 0.2203635
0.1772026 0.2207620 0.2204495
0.1855576 0.2199040 0.2188131
0.1936346 0.2180709 0.2142725
0.2026651 0.2161504 0.2057767
0.2160283 0.2169548 0.1932545
0.2402161 0.2253343 0.1798757
0.2775148 0.2427767 0.1699008
0.3195942 0.2631320 0.1646761
0.3548691 0.2783947 0.1636167
0.3779465 0.2852254 0.1659999
0.3907167 0.2849002 0.1712098
0.3971317 0.2796260 0.1778609
0.4010668 0.2713570 0.1837661
0.4055958 0.2618617 0.1870264
0.4134909 0.2530302 0.1879100
0.4262691 0.2461653 0.1869727
0.4439483 0.2420155 0.1851707
0.4654758 0.2403998 0.1832026
0.4889501 0.2406798 0.1813641
0.5128813 0.2421823 0.1797849
0.5366519 0.2443153 0.1785343
0.5605492 0.2466674 0.1775283
0.5853986 0.2488389 0.1764487
0.6117709 0.2505003 0.1750838
0.6396122 0.2512155 0.1733877
0.6687351 0.2506621 0.1715008
0.6993209 0.2488201 0.1696822
0.7315592 0.2456782 0.1680239
0.7654228 0.2411292 0.1665179
0.8005474 0.2350404 0.1650460
0.8363765 0.2276567 0.1634886
0.1524577 0.2221407 0.2229062
0.1632372 0.2260908 0.2247899
0.1739058 0.2298883 0.2261686
0.1843546 0.2332236 0.2262416
0.1946679 0.2357779 0.2240650
0.2052278 0.2373398 0.2186038
0.2171719 0.2381790 0.2089276
0.2345330 0.2410115 0.1954477
0.2636113 0.2514300 0.1822776
0.3014491 0.2683743 0.1735501
0.3366362 0.2838740 0.1700630
0.3603569 0.2915669 0.1706270
0.3736484 0.2918907 0.1747485
0.3812541 0.2876155 0.1814555
0.3868930 0.2805739 0.1884180
0.3930155 0.2718513 0.1931952
0.4019670 0.2627734 0.1949087
0.4161834 0.2550193 0.1938989
0.4369551 0.2501895 0.1914869
0.4627095 0.2483864 0.1886979
0.4902553 0.2487393 0.1858534
0.5163360 0.2501394 0.1829548
0.5398705 0.2519738 0.1802758
0.5626323 0.2544015 0.1782126
0.5865375 0.2575107 0.1767664
0.6122653 0.2608482 0.1756666
0.6394383 0.2635174 0.1747213
0.6678249 0.2650872 0.1739606
0.6976441 0.2654371 0.1734301
0.7292537 0.2647246 0.1732609
0.7625784 0.2627660 0.1733083
0.7971624 0.2591505 0.1732614
0.8324376 0.2540519 0.1729101
0.1479204 0.2270815 0.2285543
0.1602579 0.2343827 0.2309931
0.1726033 0.2416724 0.2330416
0.1850070 0.2488441 0.2341045
0.1976311 0.2557292 0.2335156
0.2107488 0.2620124 0.2305583
0.2246033 0.2669781 0.2242865
0.2394034 0.2694539 0.2133162
0.2580799 0.2715784 0.1984627
0.2844402 0.2787801 0.1853189
0.3136468 0.2890320 0.1778711
0.3371884 0.2960801 0.1763647
0.3524495 0.2975121 0.1798852
0.3623603 0.2947180 0.1870550
0.3703058 0.2891496 0.1950524
0.3785875 0.2816551 0.2010760
0.3891100 0.2731338 0.2035931
0.4041343 0.2650455 0.2026026
0.4268514 0.2596458 0.1995678
0.4565783 0.2575447 0.1956032
0.4892962 0.2579496 0.1912879
0.5193431 0.2592744 0.1865630
0.5443779 0.2606828 0.1817767
0.5665191 0.2625785 0.1777896
0.5891864 0.2658077 0.1752535
0.6140736 0.2703234 0.1740815
0.6408986 0.2752541 0.1741175
0.6690286 0.2796299 0.1750287
0.6984027 0.2829845 0.1764565
0.7293562 0.2854220 0.1783873
0.7616245 0.2866699 0.1804778
0.7945380 0.2860700 0.1822636
0.8277520 0.2837447 0.1834991
0.1453647 0.2351826 0.2362984
0.1589507 0.2451190 0.2387868
0.1725892 0.2550656 0.2409481
0.1863946 0.2649821 0.2422907
0.2005956 0.2748047 0.2423045
0.2155229 0.2844037 0.2405256
0.2314245 0.2933636 0.2364392
0.2477593 0.3001794 0.2290480
0.2629862 0.3022509 0.2168318
0.2783539 0.3010543 0.2018278
0.2967665 0.3016595 0.1900559
0.3162017 0.3041520 0.1853715
0.3325732 0.3052721 0.1877993
0.3450088 0.3034875 0.1952046
0.3550069 0.2988224 0.2041210
0.3649715 0.2920445 0.2110190
0.3774166 0.2844301 0.2139576
0.3944471 0.2774998 0.2133389
0.4173140 0.2722249 0.2101601
0.4459229 0.2690205 0.2051200
0.4790089 0.2680994 0.1988942
0.5132039 0.2691282 0.1920941
0.5448381 0.2712171 0.1850871
0.5701133 0.2729447 0.1783504
0.5925491 0.2754600 0.1734742
0.6163577 0.2801347 0.1715029
0.6430758 0.2871602 0.1724022
0.6722073 0.2952581 0.1755289
0.7021840 0.3024327 0.1795794
0.7324911 0.3080603 0.1839556
0.7627650 0.3119662 0.1881718
0.7923552 0.3137283 0.1916743
0.8215398 0.3139240 0.1945744
0.1443826 0.2460204 0.2456738
0.1587750 0.2576444 0.2478167
0.1732068 0.2692206 0.2496601
0.1877414 0.2806176 0.2507274
0.2025027 0.2916568 0.2504993
0.2177173 0.3022124 0.2485610
0.2337254 0.3123011 0.2447710
0.2505813 0.3217095 0.2391758
0.2668736 0.3283096 0.2311124
0.2801603 0.3286308 0.2196646
0.2911616 0.3239641 0.2070983
0.3037386 0.3197883 0.1993211
0.3176135 0.3171997 0.1989737
0.3307281 0.3143908 0.2049396
0.3424610 0.3098876 0.2137071
0.3544448 0.3038351 0.2211189
0.3691097 0.2974059 0.2243407
0.3887613 0.2923767 0.2237773
0.4130755 0.2887757 0.2209361
0.4403460 0.2858317 0.2163660
0.4695336 0.2831942 0.2096945
0.5015514 0.2822582 0.2016093
0.5360273 0.2837713 0.1923651
0.5682909 0.2861604 0.1824549
0.5945592 0.2882241 0.1741156
0.6172273 0.2914813 0.1701946
0.6435182 0.2993465 0.1708981
0.6763173 0.3125872 0.1763918
0.7095289 0.3254640 0.1840258
0.7394762 0.3341799 0.1911255
0.7661993 0.3386177 0.1968383
0.7902742 0.3396047 0.2008511
0.8131194 0.3391085 0.2039715
0.1443523 0.2588310 0.2560693
0.1590676 0.2711831 0.2575767
0.1737707 0.2833948 0.2587966
0.1884122 0.2951837 0.2592449
0.2029075 0.3061343 0.2583274
0.2172578 0.3159284 0.2555824
0.2316648 0.3246201 0.2509496
0.2466486 0.3329540 0.2451060
0.2624529 0.3411057 0.2389705
0.2772855 0.3463110 0.2320658
0.2889586 0.3455246 0.2236741
0.2983870 0.3397278 0.2159958
0.3083530 0.3329546 0.2128858
0.3198917 0.3271893 0.2155951
0.3325663 0.3219199 0.2220263
0.3468866 0.3167836 0.2286387
0.3645753 0.3123879 0.2321883
0.3868513 0.3094712 0.2315936
0.4128600 0.3077446 0.2285092
0.4411374 0.3068724 0.2256368
0.4695704 0.3052151 0.2212458
0.4984974 0.3030067 0.2137684
0.5297958 0.3022483 0.2034615
0.5619678 0.3032453 0.1918178
0.5899890 0.3040252 0.1812331
0.6130058 0.3048814 0.1741453
0.6394021 0.3116733 0.1728099
0.6773123 0.3296854 0.1789884
0.7180164 0.3512966 0.1907138
0.7493394 0.3643107 0.2009442
0.7705902 0.3660708 0.2066776
0.7872180 0.3617193 0.2088908
0.8028726 0.3559724 0.2099093
0.1445389 0.2726646 0.2668277
0.1590952 0.2848979 0.2674824
0.1735865 0.2969253 0.2678840
0.1878472 0.3083300 0.2675510
0.2016405 0.3185198 0.2658984
0.2147197 0.3269471 0.2624044
0.2270315 0.3334550 0.2568889
0.2391025 0.3388592 0.2500409
0.2522051 0.3448611 0.2436635
0.2665309 0.3513905 0.2387070
0.2805057 0.3558349 0.2344363
0.2918129 0.3545378 0.2299126
0.3010767 0.3480644 0.2264892
0.3115919 0.3407505 0.2263804
0.3247892 0.3347102 0.2292988
0.3414036 0.3306108 0.2332634
0.3621099 0.3284937 0.2357835
0.3868475 0.3279420 0.2354145
0.4146285 0.3283097 0.2327082
0.4443602 0.3293710 0.2304265
0.4743298 0.3300378 0.2286088
0.5031298 0.3290515 0.2242649
0.5313706 0.3272990 0.2160719
0.5587529 0.3255888 0.2050172
0.5831193 0.3236388 0.1944309
0.6035407 0.3214014 0.1869779
0.6273102 0.3239068 0.1836170
0.6651421 0.3401624 0.1860579
0.7168232 0.3716107 0.1987900
0.7549498 0.3932313 0.2125201
0.7709959 0.3904560 0.2163707
0.7811020 0.3782438 0.2146333
0.7917507 0.3652524 0.2119241
0.1441829 0.2865325 0.2773103
0.1582020 0.2980548 0.2770353
0.1721098 0.3093286 0.2765332
0.1857039 0.3199149 0.2754202
0.1986559 0.3291514 0.2731842
0.2105970 0.3363861 0.2693234
0.2212800 0.3412552 0.2635493
0.2310179 0.3442281 0.2562613
0.2410362 0.3469881 0.2490083
0.2528721 0.3514892 0.2438166
0.2663782 0.3569071 0.2409021
0.2796858 0.3599314 0.2388432
0.2917491 0.3582695 0.2370254
0.3036744 0.3531028 0.2358832
0.3180116 0.3478537 0.2357953
0.3363754 0.3447367 0.2362750
0.3591794 0.3443216 0.2363320
0.3857767 0.3458755 0.2352932
0.4152634 0.3485013 0.2333520
0.4466747 0.3516864 0.2314105
0.4783755 0.3543520 0.2298716
0.5090318 0.3557199 0.2279565
0.5371292 0.3551694 0.2239548
0.5618786 0.3527359 0.2169768
0.5818136 0.3482573 0.2087882
0.5977139 0.3427454 0.2024762
0.6136496 0.3389635 0.1997750
0.6377832 0.3427831 0.1994656
0.6841921 0.3680302 0.2049810
0.7358635 0.4012573 0.2185401
0.7592929 0.4035097 0.2218004
0.7702885 0.3886003 0.2174943
0.7815541 0.3720395 0.2125095
0.1426610 0.2996603 0.2871013
0.1559293 0.3101614 0.2859409
0.1690696 0.3204131 0.2845960
0.1818741 0.3299900 0.2827864
0.1940205 0.3383054 0.2801340
0.2051391 0.3447499 0.2762295
0.2149667 0.3489336 0.2708202
0.2236075 0.3510085 0.2640569
0.2318467 0.3520561 0.2568536
0.2411035 0.3538323 0.2508513
0.2525225 0.3573908 0.2473113
0.2659384 0.3617555 0.2457709
0.2802730 0.3643578 0.2448324
0.2949541 0.3636546 0.2434858
0.3110793 0.3609540 0.2414656
0.3306912 0.3590760 0.2389680
0.3542775 0.3593562 0.2360307
0.3817103 0.3619503 0.2329942
0.4123074 0.3662336 0.2302929
0.4450500 0.3714072 0.2280601
0.4784756 0.3763299 0.2259578
0.5113320 0.3802369 0.2245141
0.5415566 0.3821562 0.2235446
0.5674879 0.3815533 0.2224770
0.5872346 0.3775715 0.2193315
0.6012461 0.3708326 0.2148929
0.6131167 0.3641466 0.2121394
0.6285912 0.3614596 0.2117202
0.6567619 0.3696878 0.2121203
0.7019457 0.3932181 0.2169863
0.7365755 0.4044706 0.2214373
0.7569294 0.3965314 0.2194317
0.7742678 0.3823704 0.2149069
0.1396791 0.3116842 0.2961643
0.1521374 0.3210863 0.2942191
0.1644734 0.3302681 0.2921462
0.1764832 0.3388370 0.2897423
0.1879173 0.3463401 0.2867698
0.1985180 0.3523341 0.2829893
0.2081021 0.3565327 0.2782484
0.2167289 0.3590096 0.2726010
0.2247793 0.3602447 0.2664271
0.2331598 0.3612667 0.2605268
0.2430248 0.3633904 0.2560421
0.2553811 0.3672931 0.2535909
0.2699948 0.3714421 0.2520177
0.2862888 0.3740604 0.2498837
0.3040366 0.3744607 0.2464199
0.3243554 0.3740511 0.2415838
0.3478656 0.3744321 0.2360583
0.3749319 0.3767058 0.2305176
0.4055930 0.3814262 0.2258231
0.4388847 0.3879886 0.2222543
0.4736120 0.3953188 0.2196667
0.5084044 0.4021352 0.2183301
0.5412073 0.4070138 0.2187888
0.5701271 0.4091089 0.2216553
0.5931827 0.4075711 0.2237234
0.6095394 0.4024946 0.2228740
0.6214474 0.3958749 0.2203708
0.6339456 0.3911308 0.2185004
0.6525260 0.3915258 0.2181856
0.6820506 0.3994730 0.2194091
0.7169809 0.4093447 0.2228359
0.7456858 0.4090649 0.2240798
0.7709024 0.4007537 0.2216026
0.1351877 0.3225384 0.3046937
0.1468873 0.3309173 0.3020721
0.1584816 0.3391112 0.2993741
0.1698149 0.3468207 0.2964823
0.1807305 0.3537337 0.2932809
0.1910852 0.3595686 0.2896665
0.2008142 0.3641755 0.2855946
0.2100294 0.3676466 0.2811256
0.2189294 0.3701804 0.2763269
0.2280484 0.3723842 0.2714445
0.2380515 0.3750818 0.2668952
0.2498776 0.3790970 0.2633926
0.2637064 0.3834141 0.2601827
0.2795353 0.3869533 0.2562099
0.2974964 0.3891322 0.2509010
0.3179508 0.3900358 0.2442864
0.3411021 0.3905245 0.2368211
0.3670865 0.3918266 0.2289934
0.3965401 0.3956098 0.2221210
0.4290462 0.4021891 0.2166897
0.4640096 0.4111936 0.2133671
0.5000373 0.4209067 0.2124694
0.5351220 0.4291812 0.2141833
0.5672156 0.4344028 0.2185024
0.5944169 0.4356846 0.2230752
0.6156591 0.4334810 0.2256407
0.6311159 0.4287988 0.2247536
0.6439418 0.4238141 0.2219212
0.6589612 0.4213803 0.2209612
0.6802461 0.4233945 0.2240221
0.7092493 0.4292632 0.2296316
0.7398642 0.4310958 0.2324364
0.7696601 0.4260454 0.2306642
0.1293219 0.3323813 0.3130079
0.1403881 0.3398962 0.3097915
0.1513833 0.3472803 0.3065438
0.1622161 0.3543404 0.3032291
0.1728093 0.3608825 0.2998232
0.1831271 0.3667655 0.2963215
0.1932085 0.3719456 0.2927438
0.2032016 0.3765127 0.2891348
0.2133516 0.3806904 0.2855247
0.2241046 0.3849403 0.2820294
0.2360263 0.3899120 0.2788021
0.2490085 0.3955019 0.2753929
0.2622054 0.4002518 0.2704379
0.2760948 0.4034329 0.2635596
0.2923856 0.4055776 0.2556120
0.3119751 0.4070540 0.2472007
0.3343667 0.4076700 0.2381488
0.3590423 0.4081124 0.2285670
0.3865136 0.4103158 0.2196635
0.4171544 0.4157529 0.2125840
0.4509406 0.4248118 0.2082999
0.4870563 0.4363600 0.2074968
0.5234608 0.4476357 0.2101420
0.5582314 0.4563775 0.2154300
0.5893342 0.4610006 0.2207882
0.6153714 0.4616198 0.2247020
0.6358870 0.4593657 0.2254135
0.6520309 0.4556696 0.2233813
0.6669088 0.4524666 0.2215972
0.6847373 0.4518232 0.2235847
0.7083672 0.4544876 0.2306021
0.7376412 0.4572340 0.2366625
0.7688913 0.4543972 0.2357044
0.1222956 0.3414629 0.3214298
0.1328985 0.3483279 0.3176598
0.1434697 0.3551186 0.3138952
0.1539796 0.3617345 0.3101612
0.1644224 0.3680827 0.3064971
0.1748411 0.3741194 0.3029528
0.1853453 0.3798766 0.2995799
0.1961296 0.3854837 0.2964324
0.2074899 0.3911901 0.2935608
0.2198463 0.3973901 0.2910548
0.2336795 0.4045283 0.2889714
0.2488533 0.4124314 0.2867116
0.2633172 0.4190806 0.2817431
0.2756403 0.4222159 0.2722191
0.2890767 0.4231462 0.2607810
0.3064413 0.4240223 0.2499185
0.3272299 0.4244746 0.2393725
0.3504286 0.4245945 0.2286823
0.3758909 0.4256924 0.2184617
0.4044229 0.4297670 0.2100980
0.4362888 0.4377287 0.2048145
0.4713121 0.4493818 0.2036980
0.5081299 0.4625749 0.2066408
0.5446942 0.4745498 0.2125096
0.5786959 0.4828474 0.2186203
0.6086450 0.4867035 0.2229083
0.6338234 0.4870113 0.2245220
0.6545257 0.4851502 0.2233726
0.6720527 0.4824234 0.2215342
0.6897468 0.4803234 0.2206121
0.7112042 0.4800692 0.2218173
0.7379949 0.4810236 0.2249396
0.7687298 0.4805695 0.2256869
0.1143634 0.3500730 0.3302431
0.1246723 0.3564960 0.3258978
0.1349888 0.3628964 0.3215897
0.1453348 0.3692455 0.3173804
0.1557615 0.3755290 0.3133426
0.1663648 0.3817711 0.3095506
0.1772952 0.3880515 0.3060700
0.1887641 0.3945138 0.3029493
0.2010401 0.4013673 0.3002090
0.2144095 0.4088431 0.2978125
0.2290683 0.4170743 0.2955562
0.2448220 0.4258390 0.2928058
0.2603073 0.4337763 0.2877848
0.2734981 0.4383545 0.2781467
0.2859997 0.4395657 0.2652415
0.3009763 0.4396694 0.2521010
0.3196223 0.4398993 0.2400225
0.3411343 0.4401474 0.2286143
0.3651176 0.4411486 0.2179387
0.3918970 0.4444402 0.2089763
0.4218787 0.4512512 0.2030289
0.4553372 0.4620457 0.2012457
0.4915010 0.4756144 0.2036392
0.5286680 0.4895746 0.2092525
0.5646087 0.5012462 0.2160501
0.5973516 0.5087022 0.2213180
0.6260849 0.5118615 0.2234224
0.6509817 0.5120380 0.2230403
0.6725656 0.5104388 0.2213698
0.6928401 0.5082029 0.2179721
0.7150981 0.5064081 0.2118857
0.7413996 0.5053416 0.2046908
0.7714505 0.5046249 0.1979342
0.1057771 0.3584873 0.3396439
0.1159360 0.3646371 0.3346470
0.1261408 0.3708111 0.3297155
0.1364487 0.3770297 0.3249240
0.1469482 0.3833304 0.3203545
0.1577639 0.3897770 0.3160827
0.1690557 0.3964648 0.3121640
0.1810102 0.4035132 0.3086129
0.1938083 0.4110368 0.3053701
0.2075587 0.4190840 0.3022433
0.2221860 0.4275203 0.2988013
0.2373099 0.4359167 0.2942989
0.2522791 0.4434498 0.2877649
0.2663342 0.4488883 0.2782450
0.2796964 0.4515625 0.2659000
0.2939681 0.4523270 0.2522263
0.3111583 0.4529922 0.2393621
0.3314494 0.4540580 0.2278467
0.3544040 0.4558199 0.2174612
0.3799734 0.4592428 0.2087132
0.4084030 0.4653484 0.2025104
0.4401864 0.4750739 0.2000336
0.4751544 0.4881561 0.2015473
0.5120318 0.5028740 0.2062724
0.5489787 0.5169096 0.2127946
0.5838399 0.5277766 0.2188324
0.6154301 0.5343124 0.2223430
0.6436632 0.5369708 0.2233101
0.6690590 0.5369898 0.2218436
0.6932052 0.5356032 0.2159081
0.7185432 0.5338567 0.2042780
0.7465961 0.5321212 0.1874312
0.7771490 0.5305411 0.1674214
0.0967453 0.3669188 0.3497182
0.1068751 0.3729282 0.3439695
0.1170729 0.3789903 0.3382953
0.1274231 0.3851617 0.3327753
0.1380341 0.3915086 0.3274853
0.1490359 0.3981075 0.3224842
0.1605701 0.4050395 0.3177947
0.1727685 0.4123716 0.3133772
0.1857126 0.4201165 0.3090887
0.1993759 0.4281789 0.3046362
0.2135754 0.4362964 0.2995454
0.2279942 0.4440373 0.2932225
0.2423448 0.4508999 0.2851570
0.2563986 0.4562919 0.2749968
0.2703313 0.4598362 0.2629142
0.2851348 0.4620582 0.2499458
0.3019494 0.4638336 0.2373783
0.3214077 0.4659257 0.2260746
0.3436747 0.4688895 0.2163540
0.3685041 0.4731493 0.2084048
0.3959613 0.4794613 0.2026708
0.4264496 0.4886413 0.1999967
0.4601019 0.5009569 0.2008148
0.4961811 0.5155295 0.2045792
0.5332380 0.5306250 0.2102371
0.5695805 0.5441016 0.2162683
0.6037019 0.5540907 0.2209920
0.6350166 0.5600605 0.2232879
0.6640486 0.5627820 0.2219702
0.6921490 0.5631508 0.2141256
0.7210938 0.5621445 0.1983321
0.7522668 0.5606274 0.1748340
0.7853114 0.5589492 0.1456789
0.0874765 0.3755564 0.3605160
0.0976339 0.3814891 0.3538663
0.1078785 0.3874970 0.3472971
0.1183044 0.3936510 0.3408773
0.1290204 0.4000240 0.3346634
0.1401428 0.4066839 0.3286842
0.1517781 0.4136800 0.3229205
0.1639997 0.4210212 0.3172807
0.1768171 0.4286446 0.3115750
0.1901527 0.4363889 0.3055043
0.2038495 0.4439904 0.2986881
0.2177311 0.4511230 0.2907522
0.2317017 0.4574805 0.2814558
0.2457964 0.4628318 0.2707755
0.2602280 0.4670753 0.2589469
0.2755625 0.4704658 0.2466456
0.2924408 0.4734432 0.2347132
0.3114989 0.4766358 0.2238926
0.3332082 0.4806862 0.2147954
0.3575799 0.4860557 0.2077452
0.3845566 0.4931550 0.2029031
0.4142756 0.5024395 0.2006324
0.4468909 0.5142803 0.2012619
0.4820116 0.5283446 0.2044307
0.5186786 0.5435542 0.2094163
0.5557145 0.5583751 0.2151208
0.5918623 0.5711381 0.2201862
0.6263025 0.5807829 0.2229197
0.6589347 0.5869459 0.2209365
0.6906405 0.5898737 0.2114883
0.7229787 0.5904098 0.1933427
0.7574792 0.5899067 0.1666194
0.7940294 0.5889872 0.1336641
0.0781023 0.3844968 0.3719955
0.0883099 0.3903783 0.3642874
0.0986108 0.3963414 0.3566543
0.1091028 0.4024616 0.3491528
0.1198835 0.4088041 0.3418135
