styles/series/movie/series-movie-desert-signal/look.cube
# series-movie-desert-signal tuned
LUT_3D_SIZE 33
DOMAIN_MIN 0 0 0
DOMAIN_MAX 1 1 1
0.0503849 0.0500142 0.0396457
0.2450790 0.2027140 0.1482543
0.0031279 0.0865412 0.1010156
0.0118464 0.1038064 0.1034840
0.0630487 0.1102735 0.0836933
0.0648690 0.1042494 0.0611204
0.1001456 0.1048879 0.0522410
0.1351659 0.0880972 0.0289784
0.1304439 0.0788782 0.0383399
0.1130156 0.0689929 0.0422554
0.0951533 0.0712274 0.0455250
0.0868056 0.0754057 0.0405142
0.1511068 0.0786299 0.0243413
0.1772364 0.0841928 0.0154195
0.1795789 0.0892867 0.0017138
0.2128078 0.0814445 0.0000000
0.2626279 0.0662955 0.0000000
0.3139923 0.0599079 0.0000000
0.3825989 0.0663019 0.0000000
0.4659848 0.0725811 0.0000000
0.5516577 0.0909062 0.0000000
0.5994757 0.1161545 0.0184130
0.6407396 0.1360271 0.0403254
0.6948695 0.1516941 0.0503158
0.7250426 0.1518802 0.0487598
0.7732120 0.1501715 0.0437274
0.8095362 0.1463877 0.0410551
0.8311241 0.1465977 0.0446891
0.8480898 0.1443391 0.0494183
0.8665730 0.1520083 0.0570624
0.8852497 0.1623030 0.0654937
0.9023902 0.1651826 0.0712614
0.9273160 0.1625416 0.0799107
0.2485779 0.2490504 0.1407002
0.1798504 0.2265991 0.1263618
0.1847557 0.1514172 0.0776845
0.1155011 0.1027640 0.0288187
0.0044586 0.0080318 0.1160105
0.0224629 0.0900756 0.1421689
0.0638360 0.1584471 0.1267378
0.0205979 0.1270221 0.1146840
0.0084110 0.1318979 0.1159412
0.0123556 0.1361435 0.1039231
0.0407363 0.1309138 0.0968734
0.0399283 0.1156650 0.0830721
0.0596686 0.1095756 0.0688115
0.0848423 0.1161296 0.0584618
0.1349398 0.1266637 0.0407336
0.1824307 0.1272141 0.0187490
0.2179033 0.1112227 0.0039614
0.2586100 0.1030754 0.0007601
0.3201438 0.1006161 0.0009167
0.4014124 0.1042973 0.0084945
0.4748385 0.1120382 0.0197881
0.5407967 0.1298167 0.0354433
0.5970639 0.1475830 0.0468323
0.6445320 0.1582116 0.0511129
0.6828298 0.1615161 0.0521095
0.7246519 0.1639550 0.0519497
0.7609901 0.1671777 0.0502613
0.7886165 0.1666417 0.0482508
0.8108729 0.1661413 0.0492946
0.8315002 0.1708522 0.0535391
0.8527251 0.1776175 0.0596162
0.8729433 0.1778398 0.0644264
0.9043583 0.1732903 0.0713981
0.1156150 0.1098372 0.1144038
0.1004656 0.1386065 0.0728202
0.0878631 0.1014036 0.0428849
0.2911219 0.1616363 0.0022397
0.2573139 0.1634329 0.0000000
0.0221985 0.0778245 0.1288718
0.0730363 0.0750346 0.1486144
0.1559562 0.1927668 0.1336799
0.0439235 0.1515720 0.1240178
0.0223179 0.1279803 0.1171914
0.0267350 0.1321043 0.1101820
0.0535880 0.1380012 0.1010236
0.0577023 0.1325320 0.0880921
0.0810616 0.1351685 0.0756992
0.1310861 0.1453963 0.0592435
0.1760177 0.1499302 0.0428232
0.2163079 0.1387765 0.0321285
0.2653298 0.1306823 0.0280723
0.3197964 0.1211725 0.0269950
0.3789385 0.1134763 0.0270683
0.4311953 0.1075890 0.0278366
0.4933979 0.1228474 0.0390089
0.5500733 0.1454789 0.0509608
0.5930300 0.1529969 0.0517051
0.6347368 0.1577628 0.0524373
0.6717868 0.1619017 0.0536172
0.7075878 0.1685982 0.0535567
0.7403709 0.1720912 0.0519379
0.7728384 0.1754191 0.0523117
0.8022965 0.1804558 0.0554454
0.8296049 0.1854132 0.0600342
0.8545365 0.1822715 0.0629218
0.8885442 0.1718416 0.0672392
0.1317737 0.1235562 0.1102009
0.1556155 0.1750599 0.1304550
0.0472440 0.0716058 0.0595469
0.0283141 0.0529835 0.0516787
0.3090321 0.1696530 0.0000000
0.2824846 0.1681323 0.0000000
0.0531765 0.0974925 0.1467393
0.1043241 0.1081764 0.1713984
0.2063403 0.1852158 0.0944618
0.1489035 0.1236047 0.0395769
0.0902166 0.1095909 0.0766913
0.0676487 0.1072424 0.0775597
0.0725929 0.1327185 0.0901725
0.0963181 0.1433287 0.0851327
0.1349015 0.1501435 0.0663379
0.1849970 0.1695689 0.0495036
0.2260766 0.1637761 0.0433681
0.2748124 0.1569671 0.0431146
0.3263243 0.1451557 0.0483433
0.3808547 0.1241885 0.0435540
0.4304341 0.1168658 0.0388130
0.4757657 0.1226084 0.0401026
0.5291576 0.1444363 0.0523434
0.5641403 0.1506504 0.0543357
0.5984257 0.1501252 0.0525352
0.6305520 0.1532886 0.0528047
0.6579455 0.1583626 0.0536074
0.6960975 0.1655319 0.0516184
0.7383811 0.1730090 0.0528822
0.7781827 0.1804333 0.0560415
0.8114821 0.1834468 0.0582879
0.8413344 0.1799828 0.0606490
0.8836863 0.1658235 0.0634948
0.1214186 0.1199513 0.1147338
0.1405496 0.1695421 0.0804559
0.1825306 0.2228102 0.0483540
0.0390954 0.0837453 0.0625744
0.0450893 0.0430182 0.0881521
0.2864998 0.1492339 0.0000000
0.2636178 0.1478359 0.0000000
0.0642483 0.0832940 0.1497626
0.1164472 0.1282934 0.1340582
0.1918663 0.1331620 0.0188910
0.1245174 0.0998610 0.0221514
0.1482174 0.1180763 0.0403600
0.0888415 0.1110952 0.0936772
0.0968827 0.1203225 0.1018389
0.1321148 0.1438236 0.0925508
0.1761347 0.1648885 0.0720349
0.2242016 0.1741128 0.0604451
0.2830407 0.1831571 0.0622933
0.3299023 0.1736224 0.0682583
0.3872338 0.1590499 0.0668520
0.4401239 0.1572392 0.0655744
0.4833012 0.1574552 0.0609854
0.5307392 0.1621186 0.0604137
0.5664236 0.1661107 0.0582906
0.5938175 0.1619161 0.0562430
0.6237177 0.1613395 0.0561500
0.6501263 0.1601632 0.0538266
0.6831656 0.1624701 0.0503666
0.7203037 0.1666870 0.0499307
0.7631432 0.1779936 0.0519611
0.8019158 0.1833197 0.0546601
0.8407539 0.1835357 0.0593465
0.8913521 0.1756687 0.0676437
0.1001705 0.1070847 0.1251595
0.0707700 0.0969411 0.0576207
0.0685756 0.0872812 0.0119051
0.1533098 0.1783363 0.0045111
0.0808641 0.1264186 0.0717999
0.0567648 0.0609440 0.1129523
0.1894858 0.1202741 0.0000000
0.1699492 0.1423406 0.0000000
0.0711695 0.0964884 0.1243448
0.1406641 0.1181281 0.0673984
0.1556087 0.1128340 0.0000000
0.1615103 0.1168875 0.0014757
0.1330858 0.1283106 0.0697605
0.1359372 0.1225526 0.0900097
0.1316191 0.1099783 0.0937485
0.1717840 0.1308708 0.0911521
0.2100067 0.1456306 0.0860542
0.2622193 0.1659641 0.0859168
0.3064436 0.1718304 0.0828894
0.3742794 0.1799252 0.0827959
0.4451326 0.1892367 0.0809780
0.4968632 0.1920036 0.0787966
0.5384787 0.1869870 0.0703381
0.5743614 0.1884043 0.0621404
0.6038413 0.1816793 0.0567848
0.6330028 0.1828232 0.0564625
0.6589572 0.1794503 0.0552968
0.6828505 0.1744238 0.0532317
0.7112837 0.1691853 0.0510957
0.7519225 0.1789504 0.0512650
0.7923060 0.1829346 0.0530186
0.8356149 0.1860448 0.0583246
0.8888618 0.1832878 0.0708713
0.0738540 0.0957973 0.1131840
0.0654130 0.0964140 0.0883370
0.0443268 0.0622021 0.0623485
0.0597797 0.0589231 0.0331876
0.1099700 0.1123372 0.0086733
0.1115292 0.1297601 0.0383199
0.0528508 0.0718515 0.0962915
0.1151146 0.1152259 0.0523685
0.1386131 0.1356685 0.0819748
0.1380716 0.0936045 0.0512055
0.1808138 0.1054363 0.0041290
0.1423423 0.1072333 0.0138815
0.0989177 0.1145579 0.0681471
0.1508076 0.1330504 0.0543126
0.1900739 0.1481376 0.0602414
0.1967210 0.1359651 0.0727672
0.2116165 0.1320776 0.0950191
0.2497821 0.1386039 0.1008962
0.2936503 0.1525315 0.0963891
0.3569822 0.1687951 0.0908118
0.4415530 0.1930972 0.0843193
0.5086542 0.2058633 0.0822214
0.5649398 0.2199261 0.0799582
0.6013376 0.2236809 0.0706714
0.6297067 0.2137022 0.0609833
0.6595661 0.2163936 0.0581874
0.6836200 0.2183932 0.0585823
0.6983482 0.2077551 0.0574470
0.7180186 0.1939344 0.0551641
0.7501788 0.1898758 0.0538661
0.7821613 0.1884953 0.0541366
0.8242054 0.1915343 0.0574137
0.8805782 0.1907993 0.0673543
0.0380735 0.0893916 0.0843896
0.0498341 0.1073069 0.0888857
0.0460427 0.0856781 0.0878987
0.0612943 0.0696828 0.1105477
0.0813550 0.0662305 0.0640465
0.1037429 0.0951653 0.0138450
0.1280347 0.1299222 0.0128230
0.0916535 0.1024079 0.0501472
0.0950788 0.1009249 0.0739242
0.1510588 0.1108226 0.0408047
0.1812059 0.0978158 0.0041641
0.1957142 0.1052818 0.0137243
0.2376010 0.1481669 0.0189956
0.2289500 0.1653676 0.0866598
0.1767047 0.1393456 0.0862261
0.1768571 0.1345535 0.0631898
0.2112967 0.1543965 0.0742387
0.2529735 0.1568774 0.0992444
0.3133874 0.1514032 0.1018215
0.3940976 0.1591598 0.0925290
0.4584701 0.1777485 0.0825829
0.5322025 0.1971303 0.0786651
0.6028090 0.2276451 0.0804374
0.6426858 0.2470694 0.0758333
0.6784764 0.2543361 0.0682387
0.6964062 0.2620852 0.0647895
0.7100565 0.2657688 0.0620679
0.7250114 0.2628960 0.0612165
0.7396580 0.2445491 0.0571404
0.7589999 0.2259677 0.0527146
0.7825606 0.2144102 0.0501812
0.8230364 0.2143312 0.0550635
0.8874083 0.2105988 0.0685175
0.0082022 0.1031915 0.0359504
0.0312437 0.1339163 0.0625190
0.0263587 0.1124455 0.0584839
0.0522282 0.0824354 0.1100558
0.0805141 0.0683152 0.1346074
0.0909840 0.0825753 0.0837362
0.1040600 0.1120727 0.0147631
0.1306412 0.1452122 0.0079769
0.1362688 0.1437567 0.0229861
0.1666724 0.1438746 0.0222729
0.2337684 0.1579949 0.0001112
0.2970242 0.1682791 0.0030324
0.3564163 0.1793655 0.0031067
0.3708003 0.2059666 0.0152586
0.2827489 0.1982473 0.1138093
0.1908187 0.1421072 0.1098800
0.1824647 0.1353576 0.0997024
0.2405297 0.1735974 0.1040872
0.3241874 0.1841595 0.0979237
0.4041476 0.1834738 0.0975803
0.4868639 0.2016594 0.0885149
0.5402367 0.2212001 0.0861721
0.5947673 0.2452367 0.0897288
0.6388113 0.2567576 0.0837366
0.6684196 0.2666639 0.0763449
0.6961679 0.2721019 0.0674615
0.7280499 0.2763445 0.0619919
0.7580738 0.3095413 0.0667703
0.7693092 0.3082763 0.0635202
0.7770713 0.2937433 0.0573717
0.7994007 0.2785351 0.0544876
0.8337748 0.2652216 0.0563208
0.8903521 0.2380966 0.0597414
0.0007990 0.1181071 0.0045474
0.0179384 0.1609649 0.0386019
0.0169964 0.1558067 0.0330862
0.0464735 0.1245948 0.0721962
0.0742359 0.0848892 0.1158063
0.0926895 0.0855898 0.1306749
0.0913593 0.0983343 0.0861011
0.1205472 0.1365211 0.0144966
0.1534958 0.1707599 0.0066236
0.1696722 0.1609107 0.0152447
0.2285190 0.1724166 0.0097972
0.3743435 0.2352084 0.0053080
0.4880880 0.2620402 0.0000000
0.5063798 0.2639664 0.0113287
0.4633242 0.2630469 0.0568969
0.4285889 0.2786821 0.1480270
0.3184131 0.2187692 0.1714701
0.2667415 0.1663764 0.1386991
0.3362205 0.1970415 0.1077666
0.4177040 0.2182912 0.0999875
0.5258085 0.2327970 0.1025111
0.6037857 0.2286739 0.0841689
0.6496269 0.2648536 0.0872110
0.6651132 0.2690207 0.0896450
0.6848191 0.2661800 0.0849825
0.7026452 0.2665162 0.0750250
0.7176883 0.2643043 0.0653665
0.7616301 0.3041120 0.0662748
0.8041136 0.3333274 0.0664614
0.7958357 0.3456869 0.0660246
0.8097017 0.3400704 0.0655459
0.8352089 0.3162316 0.0639066
0.8878187 0.2675804 0.0521948
0.0000000 0.1467150 0.0002725
0.0130841 0.1983958 0.0321107
0.0090151 0.2060830 0.0180893
0.0358986 0.1810535 0.0408259
0.0627472 0.1408471 0.0845507
0.0872141 0.1080608 0.1132236
0.0925934 0.1015507 0.1154480
0.0993246 0.1110343 0.0631926
0.1161744 0.1439467 0.0237403
0.1568396 0.1708607 0.0253200
0.1981604 0.1729278 0.0193122
0.3159041 0.2262651 0.0332659
0.4878426 0.3196305 0.0655798
0.5535510 0.3263592 0.0346021
0.5821791 0.3323514 0.0265006
0.5723968 0.3493989 0.0845379
0.4833537 0.3252645 0.1848063
0.3751692 0.2249324 0.1824529
0.3613434 0.1949516 0.1576289
0.4208134 0.2058530 0.1152105
0.5143895 0.2413228 0.0946041
0.6130536 0.2656032 0.0877848
0.6611064 0.2573759 0.0739817
0.7050016 0.2836002 0.0787634
0.7309879 0.2986898 0.0876985
0.7408961 0.2912215 0.0822887
0.7506090 0.2836191 0.0721876
0.7735508 0.3049086 0.0689952
0.7995431 0.3240455 0.0646183
0.8183144 0.3388503 0.0596580
0.8258918 0.3571469 0.0621159
0.8329453 0.3697139 0.0688273
0.8688207 0.3346087 0.0590054
0.0000000 0.1844547 0.0148944
0.0153726 0.2403722 0.0384235
0.0107177 0.2570024 0.0162365
0.0423820 0.2471248 0.0321043
0.0709044 0.2182315 0.0742592
0.1077898 0.1786274 0.1069854
0.1280765 0.1583077 0.1134281
0.1291802 0.1557664 0.0969497
0.1125332 0.1438489 0.0634536
0.1267751 0.1510078 0.0375031
0.1594299 0.1665602 0.0358387
0.2189806 0.1849315 0.0326678
0.3547262 0.2638802 0.0626741
0.5371585 0.3751115 0.0783504
0.6209132 0.4054792 0.0412276
0.6182340 0.3968512 0.0453735
0.5875820 0.3835775 0.1105917
0.4730687 0.3190113 0.1891739
0.4210481 0.2421331 0.1943237
0.4578976 0.2265459 0.1697417
0.5223147 0.2288816 0.1204754
0.5931740 0.2577921 0.0846882
0.6305719 0.2721034 0.0786890
0.6901196 0.2948031 0.0713545
0.7570663 0.3102137 0.0697076
0.7850150 0.3343403 0.0756073
0.7978704 0.3242744 0.0821437
0.8075773 0.3246695 0.0796098
0.8164532 0.3295638 0.0722287
0.8235065 0.3373429 0.0604659
0.8349868 0.3567451 0.0562609
0.8466171 0.3851796 0.0670069
0.8546308 0.4101489 0.0874896
0.0000000 0.2387482 0.0451263
0.0247694 0.2923165 0.0561429
0.0214166 0.3105714 0.0261917
0.0489310 0.3063143 0.0332921
0.0816915 0.2854191 0.0639361
0.1249400 0.2540326 0.1001426
0.1687795 0.2403380 0.1279299
0.2072332 0.2525182 0.1321784
0.2142434 0.2549361 0.1076443
0.1754919 0.2184453 0.0694575
0.1570439 0.1961640 0.0519221
0.1755023 0.1863344 0.0507832
0.2312310 0.2013911 0.0378579
0.3468140 0.2679957 0.0592086
0.5173080 0.3839093 0.0979399
0.6472744 0.4531390 0.0754554
0.6629976 0.4593185 0.0747152
0.6101236 0.4327807 0.1605095
0.4750391 0.2872445 0.1874227
0.4838150 0.2512330 0.1785179
0.5493499 0.2734231 0.1647118
0.5958223 0.2732541 0.1267704
0.6190322 0.2575313 0.0848288
0.6524382 0.2898887 0.0780529
0.7238177 0.3269991 0.0734283
0.7997190 0.3670925 0.0702784
0.8374518 0.4015701 0.0795734
0.8450491 0.3805285 0.0883328
0.8459444 0.3436142 0.0732547
0.8475652 0.3579984 0.0679570
0.8523022 0.3790907 0.0608750
0.8528512 0.3991755 0.0618998
0.8610094 0.4467322 0.0912497
0.0151036 0.3021836 0.0861675
0.0387691 0.3488475 0.0822399
0.0333124 0.3650630 0.0442583
0.0520481 0.3601571 0.0394489
0.0834136 0.3406166 0.0567047
0.1260695 0.3105815 0.0915876
0.1851377 0.2994786 0.1296363
0.2517933 0.3164269 0.1545620
0.3065979 0.3515069 0.1497901
0.3152924 0.3653581 0.1274633
0.2691736 0.3158490 0.0820636
0.2219514 0.2553334 0.0658658
0.2147695 0.2218491 0.0560859
0.2679180 0.2378448 0.0580663
0.3761620 0.3054622 0.0832709
0.5210120 0.3930818 0.1248986
0.6130926 0.4432312 0.1445922
0.5948135 0.4439747 0.1954976
0.5672265 0.3966788 0.2404571
0.5260023 0.3022944 0.1989311
0.5533554 0.2856060 0.1457335
0.6118626 0.3093791 0.1409433
0.6461050 0.3083700 0.1195263
0.6657997 0.2935161 0.0925607
0.7014914 0.3107001 0.0784615
0.7637868 0.3597586 0.0746788
0.8170112 0.4051912 0.0690222
0.8552234 0.4489920 0.0803802
0.8718042 0.4210658 0.0726225
0.8692970 0.3893498 0.0617601
0.8735668 0.4137974 0.0642298
0.8740071 0.4283358 0.0626202
0.8774335 0.4427567 0.0656697
0.0383496 0.3657206 0.1254382
0.0543322 0.4050719 0.1109935
0.0456936 0.4184243 0.0665790
0.0580311 0.4144534 0.0507971
0.0893908 0.3972246 0.0588724
0.1269485 0.3676454 0.0932810
0.1834190 0.3395976 0.1291936
0.2357944 0.3230287 0.1567936
0.2944581 0.3472051 0.1683741
0.3627415 0.4144349 0.1680283
0.3930030 0.4438644 0.1362368
0.3697456 0.4110670 0.1085084
0.3195573 0.3406915 0.0857968
0.2911554 0.2901235 0.0798537
0.3177440 0.2908706 0.0738489
0.3758520 0.3074125 0.0950486
0.4480036 0.3407591 0.1376879
0.5163514 0.3926531 0.2114719
0.5685748 0.4244339 0.2605435
0.5619600 0.3534596 0.2270806
0.5770011 0.3129300 0.1474309
0.6039692 0.3164509 0.1023740
0.6590312 0.3484940 0.1162040
0.7184292 0.3733340 0.1289020
0.7496912 0.3701863 0.1018509
0.7701071 0.3744866 0.0692566
0.8102243 0.4076411 0.0635653
0.8470181 0.4650137 0.0740140
0.8706932 0.4906722 0.0941517
0.8822082 0.4848504 0.0857976
0.8866849 0.4836129 0.0784375
0.8873809 0.4603297 0.0626119
0.8971643 0.4731981 0.0609393
0.0612477 0.4283139 0.1596446
0.0699766 0.4597598 0.1361019
0.0587966 0.4706427 0.0875007
0.0631073 0.4662213 0.0596747
0.0936752 0.4492996 0.0644553
0.1253028 0.4214031 0.0943270
0.1748290 0.3815481 0.1277504
0.2198045 0.3455157 0.1603547
0.2572243 0.3332691 0.1800229
0.3082193 0.3728763 0.1873057
0.3790371 0.4335980 0.1662808
0.4386607 0.4776201 0.1386394
0.4560689 0.4817366 0.1175310
0.4242887 0.4385015 0.1034844
0.3799997 0.3826096 0.1037203
0.3848110 0.3536691 0.1000465
0.4148767 0.3500108 0.1210021
0.4813622 0.3580912 0.1634799
0.4980655 0.3679457 0.1943127
0.5374569 0.3612181 0.2004083
0.6129039 0.3712151 0.1826012
0.6604406 0.3869044 0.1405173
0.6701285 0.3747915 0.0901540
0.7389545 0.4195836 0.1105075
0.8023559 0.4597308 0.1399629
0.8191912 0.4536508 0.1148859
0.8294907 0.4486659 0.0805292
0.8469031 0.4756919 0.0621734
0.8638512 0.5119147 0.0899089
0.8779874 0.5409634 0.1167179
0.8868704 0.5359482 0.1368926
0.8883605 0.5085949 0.1061553
0.9052300 0.5160432 0.0812195
0.0843162 0.4904515 0.1907295
0.0869563 0.5144443 0.1579029
0.0738726 0.5234753 0.1054029
0.0693372 0.5177195 0.0648191
0.0979564 0.5006486 0.0678205
0.1273971 0.4740836 0.0889357
0.1735070 0.4354020 0.1231575
0.2140365 0.3908547 0.1570240
0.2391648 0.3592242 0.1862983
0.2556391 0.3532760 0.1988546
0.3126154 0.4050694 0.1970746
0.3790651 0.4489246 0.1654083
0.4462376 0.4956736 0.1278704
0.4890869 0.5189573 0.1124048
0.4814933 0.5052982 0.1138329
0.4439758 0.4483277 0.1225306
0.4292217 0.4077360 0.1341130
0.4666368 0.3969612 0.1520302
0.5275740 0.4029587 0.1611985
0.5550219 0.4130657 0.1670949
0.6270518 0.4280630 0.1641371
0.6941633 0.4487267 0.1498806
0.7322353 0.4478207 0.1078221
0.7601689 0.4560775 0.0824942
0.8193250 0.5062725 0.1211771
0.8575689 0.5247291 0.1398652
0.8723026 0.5231466 0.1199534
0.8724176 0.5188694 0.0837260
0.8679278 0.5283942 0.0889693
0.8657726 0.5459319 0.1213196
0.8737432 0.5640686 0.1683569
0.8813528 0.5717993 0.1563525
0.9028880 0.5749327 0.1275725
0.1040269 0.5362972 0.2105369
0.1001504 0.5525193 0.1690847
0.0841204 0.5583740 0.1129640
0.0743746 0.5522575 0.0642175
0.1017100 0.5363864 0.0628922
0.1307027 0.5120376 0.0774900
0.1770159 0.4788994 0.1097020
0.2169639 0.4357093 0.1432091
0.2379548 0.3970034 0.1778281
0.2449917 0.3756652 0.2033429
0.2589990 0.3848335 0.2140468
0.3009986 0.4136098 0.2007715
0.3720583 0.4624536 0.1689724
0.4298494 0.4962014 0.1303992
0.4655636 0.5162133 0.1211050
0.4762036 0.5058935 0.1287705
0.4637299 0.4748342 0.1473918
0.4867573 0.4575205 0.1503180
0.5417910 0.4459211 0.1426172
0.5890893 0.4572893 0.1409105
0.6327367 0.4713066 0.1311952
0.6953203 0.4890138 0.1318700
0.7587193 0.5021609 0.1188239
0.8111209 0.5198105 0.1043623
0.8438266 0.5433230 0.1133946
0.8735515 0.5692307 0.1364669
0.8948771 0.5831834 0.1384758
0.8986861 0.5769130 0.1199284
0.8872088 0.5646179 0.0952832
0.8808766 0.5775874 0.1122159
0.8816542 0.6001553 0.1496435
0.8783089 0.6186568 0.1755792
0.8998835 0.6303713 0.1693750
0.1223365 0.5788008 0.2269314
0.1122578 0.5876433 0.1784628
0.0930459 0.5904175 0.1180227
0.0791454 0.5838522 0.0608327
0.1062815 0.5710359 0.0554369
0.1347408 0.5504041 0.0624049
0.1792101 0.5207612 0.0894136
0.2235169 0.4847518 0.1208735
0.2460214 0.4492731 0.1547534
0.2490700 0.4209166 0.1866631
0.2536861 0.4074407 0.2118640
0.2704345 0.4214824 0.2139901
0.3022820 0.4464067 0.1992199
0.3481796 0.4753509 0.1683495
0.4010825 0.5007826 0.1436540
0.4399260 0.5087384 0.1304415
0.4671235 0.5124164 0.1357181
0.4930919 0.5030018 0.1422907
0.5397620 0.4950215 0.1372059
0.6146543 0.4949440 0.1274708
0.6417632 0.5043983 0.1114653
0.6941517 0.5359406 0.1097991
0.7566095 0.5558124 0.1139365
0.8152475 0.5705764 0.1129860
0.8557281 0.5852952 0.1123972
0.8797960 0.6043887 0.1204639
0.8947777 0.6254964 0.1342119
0.9133106 0.6381046 0.1433437
0.9046735 0.6222332 0.1160469
0.8985995 0.6139933 0.0958324
0.8924259 0.6319078 0.1341358
0.8833617 0.6526761 0.1850298
0.9007760 0.6748954 0.2029501
0.1361403 0.6138366 0.2386510
0.1226320 0.6184774 0.1860159
0.1012305 0.6188998 0.1223745
0.0842808 0.6132929 0.0590420
0.1106945 0.6020441 0.0486523
0.1392077 0.5853309 0.0484592
0.1833125 0.5608706 0.0696951
0.2322174 0.5320634 0.0953182
0.2575263 0.5004871 0.1236236
0.2586724 0.4674654 0.1531412
0.2580602 0.4440889 0.1819782
0.2680096 0.4488765 0.1999578
0.2801910 0.4602309 0.1940814
0.3130453 0.4865624 0.1799457
0.3554385 0.5065710 0.1597582
0.4128973 0.5250747 0.1399568
0.4600593 0.5403558 0.1300450
0.5021831 0.5471092 0.1311517
0.5394766 0.5397554 0.1323551
0.5861939 0.5324152 0.1215796
0.6600236 0.5297636 0.1035214
0.6863515 0.5556150 0.0976656
0.7347685 0.5815333 0.0985916
0.7938112 0.6037915 0.1051591
0.8454039 0.6274162 0.1126455
0.8800830 0.6443935 0.1179417
0.8980976 0.6629605 0.1394800
0.9103551 0.6803164 0.1544858
0.9194883 0.6815152 0.1445563
0.9075434 0.6600474 0.1209342
0.8976427 0.6497858 0.0997507
0.9044050 0.6765265 0.1399161
0.9132441 0.7178777 0.2308712
0.1464814 0.6431697 0.2482208
0.1313982 0.6451946 0.1928288
0.1089124 0.6444604 0.1267617
0.0891129 0.6398862 0.0585657
0.1151096 0.6300155 0.0433775
0.1427898 0.6148522 0.0357419
0.1855904 0.5943637 0.0509057
0.2371614 0.5697417 0.0703952
0.2665072 0.5431266 0.0921461
0.2764868 0.5195679 0.1180076
0.2758666 0.4946604 0.1427849
0.2770982 0.4825995 0.1664212
0.2826353 0.4878602 0.1722426
0.3120228 0.5167554 0.1676452
0.3464878 0.5317913 0.1543106
0.4063519 0.5529977 0.1427792
0.4539123 0.5640168 0.1299612
0.4971556 0.5689646 0.1225621
0.5395593 0.5713913 0.1209250
0.5725325 0.5638511 0.1184287
0.6272350 0.5613562 0.1064647
0.7082592 0.5722364 0.1007956
0.7261560 0.5984270 0.1013317
0.7739390 0.6329146 0.1117814
0.8244714 0.6610965 0.1197214
0.8657484 0.6818074 0.1298589
0.8910117 0.6978528 0.1469827
0.9021975 0.7079517 0.1588637
0.9151119 0.7197925 0.1668090
0.9165775 0.7106396 0.1563247
0.9075951 0.6884408 0.1229300
0.9097822 0.6906819 0.1135330
0.9279101 0.7244638 0.1621363
0.1541213 0.6664461 0.2555620
0.1384875 0.6677074 0.1989840
0.1154120 0.6666077 0.1314028
0.0923711 0.6623129 0.0584001
0.1180194 0.6533174 0.0390726
0.1465496 0.6409991 0.0258256
0.1887065 0.6245078 0.0369926
0.2437327 0.6050261 0.0512172
0.2784882 0.5846880 0.0674285
0.2944964 0.5658907 0.0874240
0.2981461 0.5417671 0.1054497
0.2957702 0.5192498 0.1239282
0.2952192 0.5098233 0.1366600
0.3183313 0.5332390 0.1445014
0.3530689 0.5545564 0.1374940
0.4009308 0.5675991 0.1289594
0.4447596 0.5782890 0.1202901
0.4959348 0.5901568 0.1181122
0.5482723 0.6034277 0.1189616
0.5811588 0.5994264 0.1137335
0.6127254 0.5886886 0.1098299
0.6683768 0.5938862 0.1051646
0.7456340 0.6095440 0.1005599
0.7699836 0.6438594 0.1137769
0.8055805 0.6845282 0.1347071
0.8432721 0.7123741 0.1507581
0.8712635 0.7276990 0.1651178
0.8885988 0.7383204 0.1845308
0.9022326 0.7489635 0.1999335
0.9123388 0.7495716 0.1931013
0.9174599 0.7429910 0.1708776
0.9165466 0.7297111 0.1446712
0.9313585 0.7330195 0.1304936
0.1600702 0.6857667 0.2620097
0.1441356 0.6867625 0.2046166
0.1208755 0.6856776 0.1360558
0.0952166 0.6821210 0.0589817
0.1209529 0.6742536 0.0364028
0.1498843 0.6638029 0.0193875
0.1910779 0.6503117 0.0263241
0.2489765 0.6343248 0.0365306
0.2883598 0.6187784 0.0485986
0.3088389 0.6038958 0.0628112
0.3222253 0.5868795 0.0775400
0.3287593 0.5688389 0.0920330
0.3327424 0.5568756 0.1071099
0.3502957 0.5685776 0.1258333
0.3822929 0.5912300 0.1273249
0.4243012 0.6012629 0.1164137
0.4514103 0.5956719 0.1101455
0.4990583 0.6060268 0.1138470
0.5523159 0.6224093 0.1179601
0.5798148 0.6175683 0.1114118
0.6041047 0.6079713 0.1056527
0.6403888 0.6074748 0.1039502
0.7002937 0.6239773 0.1034663
0.7742200 0.6556324 0.1171284
0.8216819 0.6978823 0.1421543
0.8408622 0.7351079 0.1695912
0.8580524 0.7556302 0.1941204
0.8754152 0.7670377 0.2129714
0.8898453 0.7753438 0.2301737
0.9032251 0.7767221 0.2254110
0.9135119 0.7769300 0.2063868
0.9177770 0.7681667 0.1773167
0.9342820 0.7659965 0.1537076
0.1648312 0.7024771 0.2677795
0.1487415 0.7033763 0.2099172
0.1254956 0.7024342 0.1407818
0.0972167 0.6994805 0.0601359
0.1231576 0.6925645 0.0347789
0.1525154 0.6835684 0.0163090
0.1922634 0.6722528 0.0182901
0.2526647 0.6588354 0.0254718
0.2956553 0.6465348 0.0342103
0.3207183 0.6353868 0.0444933
0.3413195 0.6237427 0.0558973
0.3576454 0.6119721 0.0678373
0.3697666 0.6013664 0.0803145
0.3846598 0.5990116 0.0938056
0.4054624 0.6057619 0.1016216
0.4410996 0.6123514 0.1007401
0.4656346 0.6111054 0.0950051
0.5010357 0.6155429 0.0957649
0.5473122 0.6310250 0.1013091
0.5820842 0.6352054 0.1035772
0.6068855 0.6304350 0.1002581
0.6349093 0.6298103 0.0974709
0.6750647 0.6393994 0.1003520
0.7315401 0.6665877 0.1136298
0.7975492 0.7073890 0.1406895
0.8622496 0.7485219 0.1722668
0.8717447 0.7770280 0.2076455
0.8790981 0.7878798 0.2225447
0.8873158 0.7967749 0.2365884
0.8967378 0.8044659 0.2526938
0.9063570 0.8036198 0.2398695
0.9177526 0.7968980 0.1981330
0.9432327 0.7840646 0.1479947
0.1687495 0.7168669 0.2731971
0.1525157 0.7176282 0.2148520
0.1293416 0.7168316 0.1453581
0.0997794 0.7143294 0.0627990
0.1247942 0.7082010 0.0338902
