styles/series/movie/series-movie-desert-signal/look.cube
# series-movie-desert-signal tuned
LUT_3D_SIZE 9
DOMAIN_MIN 0 0 0
DOMAIN_MAX 1 1 1
0.0503849 0.0500142 0.0396457
0.0630487 0.1102735 0.0836933
0.1304439 0.0788782 0.0383399
0.1511068 0.0786299 0.0243413
0.2626279 0.0662955 0.0000000
0.5516577 0.0909062 0.0000000
0.7250426 0.1518802 0.0487598
0.8480898 0.1443391 0.0494183
0.9273160 0.1625416 0.0799107
0.1214186 0.1199513 0.1147338
0.0450893 0.0430182 0.0881521
0.1164472 0.1282934 0.1340582
0.0888415 0.1110952 0.0936772
0.2242016 0.1741128 0.0604451
0.4401239 0.1572392 0.0655744
0.5938175 0.1619161 0.0562430
0.7203037 0.1666870 0.0499307
0.8913521 0.1756687 0.0676437
0.0082022 0.1031915 0.0359504
0.0805141 0.0683152 0.1346074
0.1362688 0.1437567 0.0229861
0.3564163 0.1793655 0.0031067
0.1824647 0.1353576 0.0997024
0.4868639 0.2016594 0.0885149
0.6684196 0.2666639 0.0763449
0.7693092 0.3082763 0.0635202
0.8903521 0.2380966 0.0597414
0.0000000 0.2387482 0.0451263
0.0816915 0.2854191 0.0639361
0.2142434 0.2549361 0.1076443
0.2312310 0.2013911 0.0378579
0.6629976 0.4593185 0.0747152
0.5493499 0.2734231 0.1647118
0.7238177 0.3269991 0.0734283
0.8459444 0.3436142 0.0732547
0.8610094 0.4467322 0.0912497
0.0843162 0.4904515 0.1907295
0.0979564 0.5006486 0.0678205
0.2391648 0.3592242 0.1862983
0.4462376 0.4956736 0.1278704
0.4292217 0.4077360 0.1341130
0.6270518 0.4280630 0.1641371
0.8193250 0.5062725 0.1211771
0.8679278 0.5283942 0.0889693
0.9028880 0.5749327 0.1275725
0.1464814 0.6431697 0.2482208
0.1151096 0.6300155 0.0433775
0.2665072 0.5431266 0.0921461
0.2826353 0.4878602 0.1722426
0.4539123 0.5640168 0.1299612
0.6272350 0.5613562 0.1064647
0.8244714 0.6610965 0.1197214
0.9151119 0.7197925 0.1668090
0.9279101 0.7244638 0.1621363
0.1687495 0.7168669 0.2731971
0.1247942 0.7082010 0.0338902
0.3009748 0.6689881 0.0235543
0.3988423 0.6362691 0.0580468
0.4815959 0.6222143 0.0738271
0.6075750 0.6496434 0.0855383
0.7523196 0.7063846 0.1255863
0.8969729 0.8107649 0.2501558
0.9471734 0.7980523 0.1458057
0.1759724 0.7433865 0.2827699
0.1278654 0.7380232 0.0327421
0.3113363 0.7104178 0.0039380
0.4465319 0.6945529 0.0106728
0.5531293 0.6849195 0.0166376
0.6114551 0.6846235 0.0210620
0.6817886 0.7006478 0.0486401
0.8378349 0.7759516 0.1626895
0.9544319 0.8769688 0.2288848
0.1802620 0.7653952 0.2918568
0.1278835 0.7610796 0.0364718
0.3088469 0.7359323 0.0005649
0.4521562 0.7219953 0.0016233
0.5635429 0.7127738 0.0027828
0.6153579 0.7096049 0.0051045
0.6730092 0.7171456 0.0231228
0.8088648 0.7713352 0.1084905
0.9688986 0.9352641 0.3165245
0.0649592 0.0309776 0.1788033
0.0815620 0.0384164 0.0265477
0.2070664 0.0961801 0.1034905
0.2044941 0.0606960 0.0232327
0.4033932 0.0810419 0.0243106
0.6442243 0.1438635 0.0659482
0.8198202 0.1735975 0.0688965
0.8894452 0.1401263 0.0394125
0.9058803 0.1710056 0.0505069
0.0663586 0.0728035 0.0241531
0.0142855 0.0000000 0.0000000
0.1640250 0.1254320 0.1052550
0.1515773 0.1180216 0.0960453
0.3108478 0.1419469 0.0838439
0.5410889 0.2056574 0.0926335
0.6941736 0.2677134 0.1022649
0.7898764 0.2654044 0.0844676
0.8663961 0.2455737 0.0877532
0.0542656 0.1361630 0.0723759
0.0757840 0.0898029 0.0791986
0.1378898 0.1433970 0.1086801
0.1815701 0.1485247 0.1521754
0.2399128 0.1702946 0.1225652
0.3852132 0.1862749 0.1167115
0.6655785 0.2591032 0.0995493
0.8040186 0.3323990 0.0861512
0.8870386 0.3356483 0.1033367
0.0458052 0.2583065 0.1475483
0.2004027 0.3130568 0.2156201
0.2407858 0.2777458 0.1422321
0.3202017 0.3102264 0.1649606
0.7025192 0.4853051 0.0747657
0.4736500 0.2522373 0.1347460
0.6417747 0.3229038 0.1494899
0.7897543 0.3915490 0.1395937
0.8889182 0.4561750 0.1476585
0.1068390 0.4987050 0.3016473
0.2503312 0.5109038 0.2815485
0.2899511 0.4742100 0.1729721
0.4365942 0.4960408 0.1332829
0.4838168 0.4711501 0.1314286
0.6388588 0.5088145 0.2088484
0.7563228 0.5038831 0.1873773
0.8240120 0.5227112 0.2011095
0.8866275 0.6332881 0.2608712
0.1539701 0.6329104 0.3786359
0.2864881 0.6294078 0.3171622
0.2977828 0.5954396 0.1636324
0.3788580 0.5728670 0.1786938
0.5032681 0.5914551 0.1656477
0.6420615 0.5824200 0.1575849
0.7665564 0.6427297 0.2418084
0.8761650 0.7300887 0.3264153
0.8968572 0.7711374 0.3857491
0.1760078 0.7049193 0.4137774
0.3107452 0.7042742 0.3408668
0.3162837 0.6846081 0.1532311
0.4048934 0.6632379 0.1093296
0.5166336 0.6608496 0.1176913
0.6166220 0.6667774 0.1131887
0.7365843 0.6984942 0.1626314
0.8923508 0.8082429 0.3373837
0.9290980 0.8673056 0.4474639
0.1838232 0.7314878 0.4258711
0.3197634 0.7331496 0.3517181
0.3261695 0.7201054 0.1498514
0.4261926 0.7021700 0.0746499
0.5395348 0.6899291 0.0460135
0.6042690 0.6874679 0.0438607
0.6770367 0.7011485 0.0710534
0.8032636 0.7695567 0.1852679
0.9612095 0.9145477 0.3939069
0.1888608 0.7534738 0.4357533
0.3260014 0.7561565 0.3629309
0.3284438 0.7450887 0.1554098
0.4287921 0.7285593 0.0720874
0.5431408 0.7163587 0.0317870
0.6030011 0.7118627 0.0268511
0.6652735 0.7178181 0.0407578
0.7818061 0.7695779 0.1230021
0.9762330 0.9478925 0.3094346
0.0844307 0.1421009 0.2894634
0.0994174 0.0416053 0.1576418
0.1795244 0.0933466 0.2299227
0.1236733 0.0746624 0.0835033
0.2322495 0.0555665 0.0801482
0.4530739 0.0878881 0.1434242
0.6866574 0.1586554 0.2127388
0.8362509 0.2129924 0.2511320
0.8805042 0.2585081 0.1898818
0.0307617 0.1068029 0.0881566
0.0822718 0.1223035 0.1566023
0.1599982 0.1073682 0.1997396
0.1984678 0.0927064 0.1453461
0.3889764 0.1476678 0.1724691
0.5283152 0.1727448 0.1636762
0.6952447 0.2068601 0.1650274
0.7627678 0.2683105 0.2087230
0.8342932 0.2865736 0.2141987
0.0753655 0.1498185 0.0970269
0.1001878 0.1024031 0.0850989
0.1197593 0.0727640 0.0733538
0.2158081 0.2037746 0.1923462
0.2082447 0.1385202 0.1428032
0.4858829 0.2234939 0.1774162
0.6773503 0.2773562 0.1865195
0.7712558 0.3688177 0.2266809
0.8709254 0.4404618 0.2420710
0.0546355 0.1763756 0.1276611
0.1861674 0.2274206 0.1933855
0.3098505 0.3270547 0.2650189
0.2816442 0.2678130 0.1744850
0.2789036 0.2131532 0.1760334
0.4311348 0.2323658 0.1403149
0.6460902 0.3407106 0.1928310
0.7975241 0.4195149 0.2332521
0.8493665 0.4732929 0.2694022
0.0583973 0.4132037 0.2985500
0.2276345 0.4269087 0.3202507
0.3090791 0.4089166 0.2303861
0.4023793 0.4694342 0.2051502
0.4657476 0.4432959 0.1675227
0.5818848 0.4357761 0.2096762
0.7042954 0.4690595 0.2238189
0.7770705 0.5356841 0.2422640
0.8441040 0.6384671 0.3895267
0.1061813 0.5938843 0.4402816
0.2900219 0.5918941 0.4375485
0.4028338 0.5851928 0.3330761
0.4059787 0.5584629 0.2211886
0.5027952 0.5813667 0.2308374
0.6636881 0.6154083 0.2413539
0.7525983 0.6384394 0.2919307
0.8593461 0.7426165 0.4230667
0.8819129 0.7852963 0.5004444
0.1338142 0.6840288 0.5030064
0.3254292 0.6828077 0.4966574
0.4535205 0.6826291 0.3809147
0.4660747 0.6644911 0.2532186
0.5432500 0.6454194 0.2421830
0.6412089 0.6778081 0.2713874
0.7354622 0.7104763 0.3308153
0.8450231 0.8155736 0.5120626
0.9030594 0.8674380 0.6464609
0.1420773 0.7114757 0.5172296
0.3372748 0.7141017 0.5152340
0.4684127 0.7175128 0.4079926
0.4930170 0.7060307 0.2592447
0.5862163 0.6934082 0.2290859
0.6363869 0.6891355 0.2284194
0.6989989 0.7050866 0.2619832
0.8121027 0.7810171 0.3882516
0.9440479 0.9130826 0.6285796
0.1468366 0.7329776 0.5270103
0.3448756 0.7373860 0.5283758
0.4754423 0.7420733 0.4308924
0.4953254 0.7330863 0.2783185
0.5942381 0.7218676 0.2304771
0.6441612 0.7166902 0.2231178
0.6945743 0.7215944 0.2379171
0.7928367 0.7751386 0.3243739
0.9656746 0.9563415 0.5452565
0.0655664 0.1923964 0.3106266
0.1284613 0.0840094 0.2905240
0.1693010 0.1056202 0.2208894
0.1112483 0.0848052 0.0827070
0.1913020 0.0730207 0.1225359
0.3691437 0.0859309 0.2072844
0.5467542 0.1417755 0.2981035
0.6096020 0.1689102 0.3276251
0.6405961 0.1893909 0.3328199
0.0281861 0.2601548 0.2485807
0.0941980 0.1461441 0.2443125
0.1847791 0.1449093 0.2877862
0.2365846 0.1433509 0.2444370
0.3077852 0.1505884 0.2186565
0.4523228 0.1829259 0.2500247
0.5921576 0.2168674 0.2823263
0.6259571 0.2560462 0.3183637
0.6720947 0.2836524 0.3379518
0.0291871 0.1788803 0.1382201
0.1254252 0.2094109 0.1927843
0.1063180 0.0931892 0.1412273
0.3551126 0.2577213 0.3618549
0.3632640 0.2066993 0.2509581
0.5193959 0.2337508 0.2467281
0.7623594 0.2512070 0.2307825
0.7194103 0.3585250 0.3238706
0.7971174 0.4471162 0.3904732
0.0856238 0.2139081 0.1787020
0.2433192 0.3207805 0.3055582
0.3121117 0.4042016 0.3768541
0.2682803 0.2318774 0.2057488
0.3929186 0.2990979 0.2444310
0.5302373 0.2940521 0.2351691
0.7297138 0.3943013 0.3138132
0.7883304 0.4800637 0.3870832
0.8316624 0.5300370 0.4241257
0.0807638 0.3255044 0.2836112
0.1776926 0.3444110 0.2907452
0.2569356 0.3056432 0.2523474
0.3976373 0.4494231 0.3368503
0.4391373 0.4159634 0.2470999
0.6055095 0.4698326 0.3272255
0.7435704 0.4685789 0.2084307
0.8044566 0.6279802 0.4310589
0.8595129 0.6901587 0.5191796
0.0816081 0.5554066 0.4642147
0.2389562 0.5483240 0.4567171
0.4172259 0.5410617 0.4571303
0.4603496 0.5652550 0.4141236
0.4903126 0.5484550 0.3128302
0.6359973 0.6074615 0.3514339
0.7543017 0.6822745 0.4398458
0.8355982 0.7674058 0.5454963
0.8695196 0.7964776 0.6221133
0.1012338 0.6706568 0.5489231
0.2798469 0.6615859 0.5438470
0.4989224 0.6725239 0.5620038
0.5421490 0.6840509 0.4952795
0.5445391 0.6345480 0.3626067
0.5895325 0.6278825 0.3371585
0.7397807 0.7364270 0.4756611
0.8027709 0.8040778 0.6108365
0.8844784 0.8623351 0.7127213
0.1087376 0.7033087 0.5694461
0.2929447 0.6967037 0.5679107
0.5187387 0.7109099 0.5891778
0.5668923 0.7217813 0.5225097
0.5921332 0.6868806 0.3832880
0.6340106 0.6771464 0.3614720
0.7080987 0.7096265 0.4057925
0.8092131 0.7961058 0.5493002
0.9258910 0.9166648 0.7713097
0.1130465 0.7236875 0.5786801
0.3017298 0.7199205 0.5817193
0.5237659 0.7345389 0.6008777
0.5724160 0.7422056 0.5308182
0.6005357 0.7135843 0.3921258
0.6489167 0.7111792 0.3714162
0.7045843 0.7234935 0.3918326
0.7912090 0.7815191 0.4885577
0.9486958 0.9499786 0.7260046
0.0469827 0.1690361 0.3694331
0.0828717 0.0681747 0.3445215
0.1344783 0.0935552 0.2126144
0.1072199 0.0905855 0.1080068
0.1780322 0.0892747 0.1600006
0.3577243 0.1046332 0.2851302
0.5077489 0.1547475 0.3806456
0.5393817 0.1705351 0.3967207
0.5471664 0.1739650 0.3978879
0.0000000 0.2676246 0.3200507
0.1115770 0.1950415 0.3846663
0.1860795 0.1677652 0.2986679
0.1934338 0.1561385 0.2327025
0.2884209 0.1624545 0.2564318
0.4230948 0.1967088 0.3310028
0.5124659 0.2404344 0.3757388
0.5344914 0.2620506 0.3915642
0.5414030 0.2685318 0.3958292
0.0000000 0.2753153 0.2451510
0.0448005 0.2226012 0.3065803
0.1962752 0.2538192 0.3678511
0.2783261 0.2629537 0.3791971
0.3381224 0.2012368 0.3105381
0.4531546 0.2108474 0.3231268
0.5725957 0.3026582 0.3752412
0.5791247 0.3608052 0.4101065
0.5688179 0.3783665 0.4192556
0.1515350 0.3427533 0.3195541
0.2010574 0.3721139 0.4035619
0.2263481 0.3459049 0.3619449
0.3291568 0.3471056 0.3846805
0.3947827 0.2637104 0.3390834
0.5346758 0.2510571 0.3386389
0.6897838 0.3768110 0.4108782
0.6976329 0.4866429 0.4930169
0.7008161 0.5269597 0.5248025
0.0841998 0.3588106 0.3505997
0.1940090 0.4140633 0.4078971
0.2742333 0.4274620 0.4115241
0.4547950 0.5227883 0.4778399
0.4905470 0.4500725 0.3969186
0.5953860 0.4950693 0.4336480
0.7680947 0.6056690 0.5113598
0.8137469 0.6583190 0.5793515
0.9140375 0.7840806 0.7195579
0.0942091 0.5355768 0.5078431
0.2170822 0.5560855 0.5276739
0.3474494 0.5327828 0.4942575
0.4605106 0.5676632 0.5111122
0.5253876 0.5865874 0.4780661
0.6689174 0.6913334 0.5745396
0.7281092 0.7296855 0.6260307
0.8183634 0.7688422 0.6435651
0.8708636 0.8128279 0.7188793
0.0863127 0.6732929 0.6064053
0.2418430 0.6567154 0.6031352
0.4255060 0.6492385 0.5920161
0.5807961 0.7054885 0.6408514
0.6276542 0.7315594 0.6216928
0.6426749 0.7067676 0.5556825
0.7541613 0.7795151 0.6220200
0.8073535 0.8110497 0.6907556
0.8941400 0.8735099 0.7911455
0.0857651 0.7055267 0.6252015
0.2492516 0.6881705 0.6228457
0.4456947 0.6847132 0.6183199
0.6141846 0.7335620 0.6623398
0.6582975 0.7512859 0.6353020
0.6667383 0.7221082 0.5743171
0.7157764 0.7337502 0.5715570
0.8129394 0.8194701 0.6991266
0.9214289 0.9174478 0.8708180
0.0875540 0.7234339 0.6320822
0.2569417 0.7096523 0.6342276
0.4581298 0.7091954 0.6348918
0.6249750 0.7512378 0.6746717
0.6646469 0.7653691 0.6418153
0.6772367 0.7441133 0.5876471
0.7140536 0.7397339 0.5676434
0.7912507 0.7966262 0.6506808
0.9584350 0.9729117 0.8857897
0.0236770 0.1682889 0.5355921
0.0946320 0.0990312 0.5282946
0.1450967 0.1019531 0.3515618
0.1419942 0.0807420 0.1940469
0.2154011 0.0898344 0.2214753
0.3929633 0.1352697 0.3573518
0.5027988 0.1725543 0.4252742
0.5171298 0.1742996 0.4277860
0.5265594 0.1754196 0.4311326
0.0000000 0.3048752 0.4348982
0.1210479 0.2317262 0.5025344
0.2014914 0.1884812 0.4078358
0.2370018 0.1802835 0.3244346
0.3160648 0.1900807 0.3208870
0.4268778 0.2205840 0.3860152
0.4987003 0.2556071 0.4254536
0.5114052 0.2671524 0.4283759
0.5144291 0.2684435 0.4273037
0.0000000 0.2526395 0.2952149
0.0612419 0.3221086 0.4824020
0.2053004 0.2850222 0.4555021
0.2638896 0.2672153 0.4242141
0.3412931 0.2269666 0.3770561
0.4532532 0.2421031 0.4082147
0.5202988 0.3215346 0.4357580
0.5119614 0.3523077 0.4302727
0.5057087 0.3566463 0.4266906
0.0478699 0.3461352 0.4104853
0.1237624 0.3889892 0.4874647
0.1875656 0.3639946 0.4624525
0.2788341 0.3553840 0.5091299
0.3856552 0.2717930 0.4553884
0.5298317 0.2602966 0.4571481
0.6096511 0.3858303 0.4918563
0.5667965 0.4259085 0.4701453
0.5537384 0.4356547 0.4668633
0.1732380 0.4927322 0.5251191
0.1832542 0.4888744 0.5294860
0.2889183 0.5084436 0.5357613
0.2509206 0.4248578 0.5008911
0.4359381 0.4527361 0.5175345
0.6043282 0.4205483 0.5091910
0.7271111 0.5735791 0.6043585
0.6854804 0.5761416 0.5687032
0.7085286 0.6082799 0.5967740
0.1497865 0.6040902 0.6003918
0.2447876 0.6111461 0.6201952
0.3837224 0.6467471 0.6391743
0.4572711 0.6645617 0.6441501
0.7000181 0.8005974 0.7641716
0.6679858 0.7266289 0.6549706
0.7439237 0.7589030 0.7184130
0.8178124 0.7773489 0.7284147
0.8852062 0.8237376 0.7948672
0.0991737 0.6789451 0.6454195
0.2330586 0.6803932 0.6734091
0.4057176 0.6713588 0.6440792
0.5306270 0.7058061 0.6694319
0.6631332 0.7877303 0.7404483
0.7043292 0.7804503 0.7156688
0.8795994 0.9105662 0.8636486
0.8440037 0.8560466 0.7935863
0.8895737 0.8895040 0.8505051
0.0847432 0.7097811 0.6628457
0.2269637 0.6932965 0.6727366
0.4099017 0.6815959 0.6455295
0.5597157 0.7097585 0.6664141
0.7172174 0.8044961 0.7595043
0.7434926 0.8161855 0.7492856
0.7891399 0.8301381 0.7434588
0.8518033 0.8779567 0.8129457
0.8936366 0.8991731 0.8637603
0.0798001 0.7281708 0.6696523
0.2324069 0.7099717 0.6765036
0.4187976 0.7002327 0.6574835
0.5771239 0.7256205 0.6729840
0.7202441 0.8032052 0.7517048
0.7281030 0.8002007 0.7223530
0.7642772 0.8100519 0.7133082
0.8279927 0.8549741 0.7724374
0.9694514 0.9894384 0.9406575
0.0387540 0.2517597 0.7137684
0.1206445 0.1479179 0.6255086
0.2188662 0.1477016 0.4762883
0.2547597 0.1224379 0.3566890
0.3441845 0.1424451 0.3738104
0.4371490 0.1742868 0.4218979
0.4804532 0.1862963 0.4305131
0.4974327 0.1837463 0.4350302
0.5091911 0.1803114 0.4414876
0.0469309 0.3307316 0.5950785
0.1654610 0.2893977 0.6321955
0.2627053 0.2395552 0.5322088
0.3207747 0.2325772 0.4370157
0.3838404 0.2403839 0.4138333
0.4393893 0.2564082 0.4256979
0.4748543 0.2707817 0.4331492
0.4924609 0.2748081 0.4388967
0.5005342 0.2726892 0.4415958
0.1334535 0.4521906 0.5649004
0.1328510 0.4196951 0.6338299
0.2812725 0.3657143 0.5838017
0.3286977 0.3170753 0.5096436
0.3961393 0.3016886 0.4581477
0.4506446 0.3113918 0.4477297
0.4878501 0.3460590 0.4488829
0.4971208 0.3577446 0.4484606
0.4940361 0.3558460 0.4425744
0.1999401 0.5795559 0.6943362
0.1587454 0.5008691 0.6469360
0.2595944 0.4691175 0.6164591
0.3410155 0.4446166 0.6136697
0.4044458 0.3490732 0.5253359
0.4962315 0.3565819 0.5005159
0.5491252 0.4127825 0.5033664
0.5197154 0.4127373 0.4673462
0.5016354 0.4039747 0.4484809
0.2014923 0.6277249 0.7151866
0.2264546 0.6204483 0.7021366
0.3449121 0.6403386 0.6955809
0.4469695 0.6870960 0.7369579
0.4993307 0.5697250 0.6688675
0.5846983 0.5111709 0.6077812
0.6664322 0.5637723 0.6287092
0.5884509 0.5103185 0.5337015
0.5471975 0.4782664 0.4881167
0.3719412 0.7749874 0.7772348
0.3289537 0.7124468 0.7474573
0.4390620 0.7446080 0.7554589
0.4864025 0.7417028 0.7471745
0.6544751 0.8347844 0.8239764
0.7291356 0.7991512 0.7947846
0.7849561 0.7694158 0.7834967
0.7121135 0.6689980 0.6762332
0.6537677 0.6027062 0.5991699
0.1548725 0.7031456 0.6906860
0.2624990 0.6930550 0.7088194
0.4299179 0.7057256 0.6963578
0.5200403 0.7360128 0.7223130
0.6690142 0.8022953 0.7722080
0.7770291 0.8442233 0.8118750
0.7879934 0.8392579 0.8088733
0.8709369 0.8843920 0.8498565
0.8750199 0.8618197 0.8409715
0.0896009 0.6930799 0.6708139
0.2178624 0.6885191 0.7002463
0.4031891 0.6945398 0.6795064
0.5232770 0.7081723 0.6879290
0.6969539 0.8020234 0.7700673
0.8118118 0.8825219 0.8623190
0.8447203 0.8861132 0.8548808
0.8788654 0.9046454 0.8710975
0.9450701 0.9425619 0.9102707
0.0743160 0.7112168 0.6774793
0.2169160 0.7106723 0.7086322
0.4012465 0.7032242 0.6802551
0.5342924 0.7096221 0.6782767
0.6984790 0.7942048 0.7573924
0.7909995 0.8578453 0.8277868
0.8195381 0.8704810 0.8246295
0.8709943 0.9000645 0.8539460
0.9816206 0.9896467 0.9590439
0.1686008 0.3685286 0.7392024
0.1721471 0.1810933 0.6590353
0.3072468 0.1807009 0.5446270
0.3638505 0.1741291 0.4691771
0.4171331 0.1819384 0.4462527
0.4439431 0.1863781 0.4371989
0.4606709 0.1878503 0.4273056
0.4803990 0.1873086 0.4363424
0.4901107 0.1858429 0.4408282
0.1432687 0.4258262 0.7380839
0.2177401 0.3351561 0.6908309
0.3153865 0.2636137 0.5710736
0.3811895 0.2696390 0.4981096
0.4247505 0.2739085 0.4579093
0.4460622 0.2764637 0.4450465
0.4592375 0.2775412 0.4342100
0.4767206 0.2779900 0.4411647
0.4864407 0.2774580 0.4453698
0.1766164 0.5500856 0.7515852
0.1872400 0.4905717 0.7272112
0.3508492 0.4275040 0.6549776
0.3997432 0.3742704 0.5614233
0.4394568 0.3620472 0.4886655
0.4545382 0.3571027 0.4600644
0.4636308 0.3568849 0.4431236
0.4769151 0.3584045 0.4459373
0.4826152 0.3579227 0.4474267
0.2338046 0.7138673 0.8315528
0.2134054 0.5856214 0.7451699
0.3495785 0.5528270 0.7117082
0.4401050 0.5049610 0.6539105
0.4644856 0.4354209 0.5404224
0.4797191 0.4146939 0.4938583
0.4891434 0.4113149 0.4679202
0.4897252 0.4066956 0.4571941
0.4883874 0.4012154 0.4527114
0.1703717 0.5678263 0.6878018
0.2508478 0.6695230 0.7639979
0.3828571 0.6790554 0.7476307
0.4682531 0.6778161 0.7489377
0.5837417 0.6638801 0.7293494
0.5516294 0.5504490 0.5994597
0.5435599 0.4975974 0.5295759
0.5224986 0.4678998 0.4912766
0.5002967 0.4459964 0.4628633
0.1757448 0.6437942 0.7306628
0.3466530 0.8062691 0.8351461
0.4526685 0.8084785 0.8303456
0.4804322 0.7741953 0.7983358
0.6117096 0.8175550 0.8334155
0.6879405 0.7619641 0.7809203
0.6508901 0.6436370 0.6597212
0.6123094 0.5775973 0.5916068
0.5504878 0.5135844 0.5189045
0.2556149 0.7490507 0.7554079
0.3306279 0.7420400 0.7679114
0.4762817 0.7700073 0.7692877
0.5580152 0.8130401 0.8059573
0.6547787 0.8485014 0.8392016
0.7792476 0.8837722 0.8742214
0.7751123 0.8269526 0.8261870
0.8256670 0.8240478 0.8310050
0.7056646 0.6931753 0.6853055
0.1090952 0.6929707 0.6876078
0.2333362 0.6886126 0.7167825
0.4150791 0.6994192 0.6975233
0.5260976 0.7296706 0.7235599
0.6864606 0.8045288 0.7836322
0.7809771 0.8614065 0.8412171
0.8677603 0.9181247 0.9065556
0.9070586 0.9292500 0.9153479
0.9082598 0.9139917 0.8964011
0.0728065 0.6974132 0.6814906
0.2103977 0.6961612 0.7157427
0.3974636 0.7045985 0.6963025
0.5152294 0.7169278 0.7011705
0.6750340 0.7812224 0.7538374
0.7708489 0.8468558 0.8237263
0.8764732 0.9214135 0.9107068
0.9163463 0.9480175 0.9308477
0.9844011 0.9782269 0.9481694
0.3633599 0.5706605 0.8291784
0.2081455 0.2041709 0.6648968
0.3249225 0.1744428 0.5485621
0.3812850 0.1786980 0.4909062
0.4242492 0.1861442 0.4607716
0.4439781 0.1881485 0.4492514
0.4593960 0.1883562 0.4408283
0.4687954 0.1872848 0.4367369
0.4791538 0.1874522 0.4419212
0.3797195 0.6133374 0.7991672
0.2522484 0.3652047 0.7139390
0.3293448 0.2679340 0.5865710
0.3958506 0.2766790 0.5193143
0.4341702 0.2823500 0.4759706
0.4489931 0.2823249 0.4594337
0.4607770 0.2813286 0.4485321
0.4677682 0.2796486 0.4431526
0.4775686 0.2797253 0.4479625
0.2424937 0.6420516 0.8076145
0.2091830 0.5168655 0.7559482
0.3692075 0.4425552 0.6763165
0.4172958 0.3888585 0.5828795
0.4553883 0.3823330 0.5105224
0.4597396 0.3706233 0.4761866
0.4646548 0.3645047 0.4566498
0.4670947 0.3604820 0.4467525
0.4746998 0.3601120 0.4499354
0.2491785 0.7000549 0.8080567
0.2244888 0.5980193 0.7623841
0.3675487 0.5648441 0.7343383
0.4627342 0.5212876 0.6733275
0.4811813 0.4596070 0.5601638
0.4814088 0.4319176 0.5055386
0.4794542 0.4142118 0.4723211
0.4748617 0.4041704 0.4533307
0.4782189 0.4015125 0.4526242
0.2420084 0.7542529 0.8165489
0.2405434 0.6595649 0.7663226
0.3828259 0.6657295 0.7509805
0.4815435 0.6720816 0.7520553
0.5934989 0.6681104 0.7351154
0.5475744 0.5580367 0.6058242
0.5161851 0.4882640 0.5198959
0.4902010 0.4505683 0.4699848
0.4854643 0.4397347 0.4591219
0.2257113 0.7545901 0.8175383
0.3108963 0.7304507 0.8040164
0.4365619 0.7504548 0.7923997
0.4997414 0.7774300 0.8107829
0.6598413 0.8138522 0.8422552
0.6621864 0.7297738 0.7585638
0.5816361 0.5845598 0.6046659
0.5355181 0.5143886 0.5234174
0.5150528 0.4845979 0.4925536
0.3513759 0.8258205 0.8494218
0.4811685 0.8511040 0.8637440
0.5373894 0.8479710 0.8498405
0.6377725 0.8848909 0.8868062
0.6966556 0.8719860 0.8684296
0.7930416 0.8880608 0.8888253
0.7706516 0.8150591 0.8141563
0.6347807 0.6405653 0.6398083
0.5940109 0.5868772 0.5840837
0.1512521 0.7105617 0.7153547
0.2655649 0.7091667 0.7453545
0.4413839 0.7300496 0.7364311
0.5631726 0.7741091 0.7784536
0.7401430 0.8640607 0.8609919
0.8399101 0.9229933 0.9249615
0.8697111 0.9201780 0.9125963
0.8575898 0.8831817 0.8812012
0.7425680 0.7563387 0.7508198
0.0750484 0.6897870 0.6857003
0.2101942 0.6883140 0.7209173
0.3983719 0.6994838 0.7011310
0.5124189 0.7180706 0.7139367
0.6735921 0.7874317 0.7696636
0.7593970 0.8455749 0.8295894
0.8433698 0.9008665 0.8889453
0.9240023 0.9539894 0.9516874
0.9520647 0.9684943 0.9587024
