styles/series/movie/series-movie-desert-signal/look.cube
# series-movie-desert-signal tuned
LUT_3D_SIZE 5
DOMAIN_MIN 0 0 0
DOMAIN_MAX 1 1 1
0.0503849 0.0500142 0.0396457
0.1304439 0.0788782 0.0383399
0.2626279 0.0662955 0.0000000
0.7250426 0.1518802 0.0487598
0.9273160 0.1625416 0.0799107
0.0082022 0.1031915 0.0359504
0.1362688 0.1437567 0.0229861
0.1824647 0.1353576 0.0997024
0.6684196 0.2666639 0.0763449
0.8903521 0.2380966 0.0597414
0.0843162 0.4904515 0.1907295
0.2391648 0.3592242 0.1862983
0.4292217 0.4077360 0.1341130
0.8193250 0.5062725 0.1211771
0.9028880 0.5749327 0.1275725
0.1687495 0.7168669 0.2731971
0.3009748 0.6689881 0.0235543
0.4815959 0.6222143 0.0738271
0.7523196 0.7063846 0.1255863
0.9471734 0.7980523 0.1458057
0.1802620 0.7653952 0.2918568
0.3088469 0.7359323 0.0005649
0.5635429 0.7127738 0.0027828
0.6730092 0.7171456 0.0231228
0.9688986 0.9352641 0.3165245
0.0844307 0.1421009 0.2894634
0.1795244 0.0933466 0.2299227
0.2322495 0.0555665 0.0801482
0.6866574 0.1586554 0.2127388
0.8805042 0.2585081 0.1898818
0.0753655 0.1498185 0.0970269
0.1197593 0.0727640 0.0733538
0.2082447 0.1385202 0.1428032
0.6773503 0.2773562 0.1865195
0.8709254 0.4404618 0.2420710
0.0583973 0.4132037 0.2985500
0.3090791 0.4089166 0.2303861
0.4657476 0.4432959 0.1675227
0.7042954 0.4690595 0.2238189
0.8441040 0.6384671 0.3895267
0.1338142 0.6840288 0.5030064
0.4535205 0.6826291 0.3809147
0.5432500 0.6454194 0.2421830
0.7354622 0.7104763 0.3308153
0.9030594 0.8674380 0.6464609
0.1468366 0.7329776 0.5270103
0.4754423 0.7420733 0.4308924
0.5942381 0.7218676 0.2304771
0.6945743 0.7215944 0.2379171
0.9656746 0.9563415 0.5452565
0.0469827 0.1690361 0.3694331
0.1344783 0.0935552 0.2126144
0.1780322 0.0892747 0.1600006
0.5077489 0.1547475 0.3806456
0.5471664 0.1739650 0.3978879
0.0000000 0.2753153 0.2451510
0.1962752 0.2538192 0.3678511
0.3381224 0.2012368 0.3105381
0.5725957 0.3026582 0.3752412
0.5688179 0.3783665 0.4192556
0.0841998 0.3588106 0.3505997
0.2742333 0.4274620 0.4115241
0.4905470 0.4500725 0.3969186
0.7680947 0.6056690 0.5113598
0.9140375 0.7840806 0.7195579
0.0863127 0.6732929 0.6064053
0.4255060 0.6492385 0.5920161
0.6276542 0.7315594 0.6216928
0.7541613 0.7795151 0.6220200
0.8941400 0.8735099 0.7911455
0.0875540 0.7234339 0.6320822
0.4581298 0.7091954 0.6348918
0.6646469 0.7653691 0.6418153
0.7140536 0.7397339 0.5676434
0.9584350 0.9729117 0.8857897
0.0387540 0.2517597 0.7137684
0.2188662 0.1477016 0.4762883
0.3441845 0.1424451 0.3738104
0.4804532 0.1862963 0.4305131
0.5091911 0.1803114 0.4414876
0.1334535 0.4521906 0.5649004
0.2812725 0.3657143 0.5838017
0.3961393 0.3016886 0.4581477
0.4878501 0.3460590 0.4488829
0.4940361 0.3558460 0.4425744
0.2014923 0.6277249 0.7151866
0.3449121 0.6403386 0.6955809
0.4993307 0.5697250 0.6688675
0.6664322 0.5637723 0.6287092
0.5471975 0.4782664 0.4881167
0.1548725 0.7031456 0.6906860
0.4299179 0.7057256 0.6963578
0.6690142 0.8022953 0.7722080
0.7879934 0.8392579 0.8088733
0.8750199 0.8618197 0.8409715
0.0743160 0.7112168 0.6774793
0.4012465 0.7032242 0.6802551
0.6984790 0.7942048 0.7573924
0.8195381 0.8704810 0.8246295
0.9816206 0.9896467 0.9590439
0.3633599 0.5706605 0.8291784
0.3249225 0.1744428 0.5485621
0.4242492 0.1861442 0.4607716
0.4593960 0.1883562 0.4408283
0.4791538 0.1874522 0.4419212
0.2424937 0.6420516 0.8076145
0.3692075 0.4425552 0.6763165
0.4553883 0.3823330 0.5105224
0.4646548 0.3645047 0.4566498
0.4746998 0.3601120 0.4499354
0.2420084 0.7542529 0.8165489
0.3828259 0.6657295 0.7509805
0.5934989 0.6681104 0.7351154
0.5161851 0.4882640 0.5198959
0.4854643 0.4397347 0.4591219
0.3513759 0.8258205 0.8494218
0.5373894 0.8479710 0.8498405
0.6966556 0.8719860 0.8684296
0.7706516 0.8150591 0.8141563
0.5940109 0.5868772 0.5840837
0.0750484 0.6897870 0.6857003
0.3983719 0.6994838 0.7011310
0.6735921 0.7874317 0.7696636
0.8433698 0.9008665 0.8889453
0.9520647 0.9684943 0.9587024
