presets/experimental/experimental-ansel-adams/look.cube
# experimental-ansel-adams tuned
LUT_3D_SIZE 9
DOMAIN_MIN 0 0 0
DOMAIN_MAX 1 1 1
0.2735611 0.2753117 0.2759621
0.2207916 0.2197201 0.2139659
0.1915647 0.1930733 0.1847830
0.2139862 0.2161745 0.2058053
0.2498640 0.2419996 0.2257611
0.2622714 0.2381236 0.2198776
0.3251525 0.2550970 0.2317628
0.3533029 0.2738714 0.2404682
0.2640650 0.2337985 0.2236022
0.2109497 0.2113715 0.2056069
0.2138622 0.2128699 0.2062284
0.2186999 0.2172966 0.2084886
0.2198058 0.2179415 0.2069586
0.2420673 0.2389609 0.2193870
0.2226651 0.2230173 0.2062020
0.2448667 0.2314643 0.2175988
0.2981617 0.2577096 0.2377878
0.3012975 0.2771814 0.2681328
0.2145038 0.2149099 0.2085129
0.2231234 0.2224439 0.2128904
0.2297710 0.2274372 0.2155868
0.2196574 0.2216632 0.2099482
0.2287866 0.2280529 0.2104004
0.2540408 0.2383829 0.2169182
0.2977256 0.2737000 0.2461725
0.3794879 0.3200749 0.2903227
0.3836591 0.3568002 0.3452350
0.2614833 0.2624769 0.2569485
0.2524862 0.2539393 0.2442117
0.2260796 0.2289384 0.2122050
0.2234186 0.2263963 0.2091666
0.2233717 0.2275593 0.2105214
0.2353873 0.2316699 0.2133669
0.3209299 0.2623978 0.2279129
0.4355174 0.3935928 0.3661277
0.4692171 0.4496037 0.4357481
0.3480741 0.3495829 0.3467184
0.3544646 0.3554857 0.3509665
0.3158974 0.3190789 0.3030742
0.2668620 0.2705457 0.2387137
0.2945364 0.2921402 0.2491873
0.3301059 0.3042888 0.2316031
0.4885906 0.3997384 0.2714183
0.4937039 0.4560585 0.4099808
0.5331001 0.5200207 0.5035312
0.4377083 0.4390549 0.4375021
0.4587175 0.4591619 0.4578443
0.4681898 0.4689293 0.4649696
0.4734063 0.4740875 0.4646511
0.5009935 0.4991615 0.4746114
0.5646585 0.5586345 0.4500928
0.5632905 0.5360170 0.4344627
0.4975992 0.4306073 0.3218890
0.6091118 0.5968451 0.5718797
0.5315038 0.5318314 0.5312257
0.5540616 0.5541846 0.5539226
0.5768143 0.5769319 0.5763225
0.5987917 0.5988884 0.5970126
0.6254881 0.6252482 0.6177099
0.6559048 0.6543873 0.6272735
0.6525684 0.6439342 0.5965848
0.6649775 0.6537109 0.6096932
0.7083643 0.7028853 0.6840983
0.6240969 0.6241411 0.6240593
0.6458340 0.6458546 0.6458138
0.6711411 0.6711534 0.6710964
0.6959701 0.6959840 0.6957481
0.7214304 0.7214183 0.7201543
0.7461168 0.7457662 0.7406708
0.7646178 0.7630712 0.7502402
0.7885554 0.7866317 0.7726942
0.8138532 0.8126966 0.8054653
0.7032067 0.7032122 0.7031995
0.7248895 0.7248924 0.7248857
0.7506169 0.7506180 0.7506131
0.7759154 0.7759170 0.7758908
0.8013148 0.8013141 0.8011134
0.8266556 0.8265981 0.8255363
0.8512761 0.8510494 0.8480106
0.8776193 0.8773403 0.8738598
0.8982967 0.8981108 0.8959781
0.2145426 0.2183807 0.2141256
0.2045080 0.2030391 0.1996184
0.2022911 0.2005253 0.1935410
0.2061676 0.2057627 0.1939443
0.2691740 0.2363731 0.2181391
0.3410346 0.2624333 0.2398141
0.3778278 0.2761773 0.2532421
0.3084492 0.2518140 0.2382601
0.2597878 0.2373048 0.2310762
0.2168339 0.2263078 0.2086888
0.2185067 0.2195524 0.2107105
0.2111345 0.2124431 0.2048638
0.2135641 0.2191032 0.2041409
0.2312075 0.2262194 0.2077769
0.2621957 0.2357204 0.2153100
0.2877357 0.2591044 0.2451344
0.3196601 0.2970813 0.2888240
0.3347629 0.3207386 0.3160591
0.2162160 0.2194140 0.2090277
0.2147937 0.2146516 0.2041204
0.2279344 0.2256240 0.2177200
0.2114423 0.2188252 0.2004917
0.2073971 0.2109412 0.1923720
0.2326241 0.2216039 0.2041293
0.2868643 0.2628366 0.2453288
0.3675165 0.3423677 0.3310493
0.4059320 0.3914935 0.3857299
0.2584770 0.2594323 0.2520677
0.2561930 0.2573127 0.2476047
0.1981982 0.2008417 0.1786658
0.2170453 0.2169823 0.1936840
0.2627747 0.2601734 0.2339833
0.2295475 0.2308919 0.2159647
0.3515188 0.3026003 0.2651305
0.4287164 0.3972488 0.3776414
0.4837931 0.4690452 0.4601328
0.3496815 0.3511727 0.3477410
0.3635226 0.3646711 0.3597534
0.3398132 0.3424096 0.3290984
0.3142401 0.3168196 0.2909425
0.3164690 0.3129468 0.2729297
0.3700034 0.3409398 0.2648674
0.4790303 0.4057301 0.2971243
0.4795559 0.4484214 0.4117646
0.5530308 0.5412682 0.5278547
0.4462381 0.4469387 0.4458785
0.4748140 0.4754537 0.4738822
0.4829342 0.4840846 0.4797106
0.4894915 0.4906333 0.4805427
0.5085728 0.5068205 0.4838635
0.5593619 0.5499791 0.4904908
0.5038360 0.4712058 0.3691705
0.5300526 0.4984389 0.4227091
0.6291002 0.6189021 0.5948927
0.5388985 0.5391429 0.5387523
0.5735423 0.5737251 0.5733976
0.5939367 0.5941957 0.5933960
0.6138675 0.6141373 0.6119960
0.6376119 0.6374029 0.6307320
0.6624568 0.6601505 0.6377653
0.6355950 0.6234957 0.5509586
0.6399095 0.6241688 0.5276880
0.7232422 0.7178481 0.6926556
0.6306979 0.6307414 0.6306694
0.6665824 0.6666117 0.6665636
0.6900274 0.6900579 0.6899766
0.7131806 0.7132173 0.7129558
0.7368191 0.7368100 0.7356082
0.7587928 0.7583563 0.7525459
0.7698585 0.7679903 0.7467061
0.7895087 0.7872643 0.7598750
0.8262383 0.8250108 0.8139641
0.7097796 0.7097864 0.7097740
0.7460974 0.7461017 0.7460942
0.7701998 0.7702028 0.7701961
0.7940361 0.7940395 0.7940109
0.8179250 0.8179241 0.8176986
0.8414089 0.8413433 0.8398940
0.8633996 0.8631527 0.8583169
0.8877199 0.8874238 0.8816262
0.9079910 0.9077986 0.9044369
0.2004300 0.2030164 0.1897675
0.2005156 0.2009704 0.1933825
0.2128657 0.2100595 0.2070238
0.1878353 0.1832957 0.1772833
0.1924576 0.1768901 0.1672171
0.2341485 0.1966950 0.1872859
0.3004022 0.2452261 0.2345778
0.2512990 0.2258549 0.2203602
0.2511724 0.2380704 0.2349260
0.2059606 0.2067693 0.1925712
0.2295051 0.2331557 0.2177872
0.2163917 0.2163773 0.2050247
0.2231296 0.2189809 0.2041290
0.2498916 0.2356853 0.2226702
0.2787778 0.2531063 0.2424544
0.3076991 0.2772814 0.2679033
0.3313678 0.3113330 0.3057075
0.3390418 0.3308175 0.3285806
0.2082289 0.2192729 0.2001494
0.2250977 0.2228513 0.2052467
0.2202237 0.2191831 0.2034300
0.2435930 0.2409482 0.2222647
0.2260508 0.2221973 0.2046214
0.2723722 0.2559693 0.2397103
0.3057541 0.2704047 0.2539481
0.4021594 0.3796315 0.3717186
0.4430990 0.4331545 0.4300345
0.2332126 0.2358505 0.2195050
0.2248609 0.2271385 0.2119966
0.2238074 0.2236421 0.2051830
0.3800361 0.3734066 0.3207432
0.2405272 0.2409218 0.2261644
0.2797932 0.2613219 0.2315043
0.3550219 0.3024244 0.2632888
0.4566174 0.4206691 0.4025137
0.5127631 0.4975907 0.4911480
0.3364835 0.3397754 0.3333647
0.3412349 0.3459379 0.3363623
0.3154572 0.3237620 0.3025801
0.3816818 0.3913658 0.3542112
0.4352358 0.4328381 0.3822240
0.3910861 0.3547327 0.2792723
0.5011424 0.4252160 0.3293679
0.4931312 0.4512765 0.4146724
0.5809645 0.5660860 0.5533111
0.4484754 0.4502608 0.4481162
0.4759331 0.4784925 0.4748021
0.4887051 0.4936582 0.4843076
0.4968221 0.5024752 0.4837838
0.5118259 0.5129698 0.4814243
0.5815294 0.5761811 0.5222378
0.5865719 0.5594754 0.4768365
0.5607661 0.5266732 0.4544410
0.6565866 0.6451174 0.6204267
0.5462964 0.5469914 0.5462453
0.5828999 0.5835238 0.5827356
0.6128032 0.6139328 0.6119860
0.6307693 0.6321229 0.6280649
0.6515607 0.6521941 0.6441532
0.6769750 0.6753661 0.6540211
0.6583109 0.6476407 0.5734425
0.6669364 0.6527227 0.5514384
0.7453981 0.7398830 0.7103702
0.6398015 0.6398919 0.6397866
0.6775628 0.6776463 0.6775466
0.7120068 0.7121389 0.7119249
0.7337279 0.7339057 0.7334128
0.7554202 0.7555407 0.7540889
0.7750463 0.7747001 0.7678411
0.7826023 0.7809697 0.7530472
0.8001459 0.7982565 0.7611082
0.8425779 0.8414166 0.8266026
0.7190894 0.7191027 0.7190871
0.7572939 0.7573040 0.7572922
0.7928816 0.7928936 0.7928752
0.8154801 0.8154984 0.8154459
0.8378280 0.8378449 0.8375465
0.8592902 0.8592502 0.8572679
0.8787100 0.8785382 0.8715813
0.9009470 0.9007470 0.8922725
0.9204708 0.9203281 0.9154558
0.2008434 0.2028275 0.1854648
0.2281573 0.2288901 0.2198626
0.2091800 0.2081585 0.2062141
0.1938371 0.1910471 0.1883793
0.1660351 0.1600784 0.1567094
0.1776055 0.1675213 0.1655431
0.2095686 0.1965508 0.1941503
0.2273963 0.2186959 0.2169358
0.2319088 0.2284383 0.2276807
0.2282908 0.2326444 0.2252256
0.2257725 0.2309510 0.2184964
0.2193545 0.2213070 0.2106419
0.2226226 0.2206753 0.2110094
0.2309038 0.2247618 0.2181578
0.2627901 0.2519120 0.2479192
0.2952546 0.2835865 0.2805846
0.3239248 0.3164015 0.3145670
0.3415051 0.3378102 0.3369023
0.2208817 0.2204148 0.1980142
0.2405142 0.2497122 0.2357234
0.2494902 0.2515675 0.2344886
0.2391863 0.2339857 0.2186665
0.2529756 0.2427022 0.2309146
0.3144626 0.2972051 0.2868489
0.3850556 0.3560149 0.3467171
0.4279470 0.4137730 0.4094220
0.4612837 0.4541530 0.4521032
0.2427727 0.2572858 0.2388625
0.3703846 0.3918655 0.3766261
0.3338241 0.3456936 0.3264590
0.2650049 0.2651439 0.2480123
0.2742075 0.2628056 0.2440694
0.3030520 0.2791859 0.2552080
0.3812924 0.3265002 0.2982327
0.5042769 0.4725555 0.4594581
0.5565543 0.5430338 0.5380451
0.3250080 0.3385740 0.3266218
0.3181763 0.3362732 0.3169938
0.2554954 0.2856143 0.2439702
0.3714542 0.3892772 0.3504082
0.3761357 0.3746824 0.3253710
0.3924132 0.3506546 0.2900866
0.5515089 0.5219687 0.4538427
0.5690080 0.5202938 0.4855511
0.6227737 0.6051088 0.5929859
0.4527898 0.4583329 0.4540005
0.4741930 0.4822837 0.4741691
0.4783327 0.4954423 0.4736657
0.4965609 0.5157853 0.4790306
0.4964353 0.5055922 0.4597644
0.6000736 0.5997567 0.5543751
0.6217156 0.5934812 0.5119095
0.6173288 0.5758107 0.4972820
0.6899842 0.6769622 0.6522188
0.5558941 0.5571638 0.5562059
0.5912325 0.5929005 0.5912672
0.6234127 0.6266414 0.6225479
0.6484423 0.6527756 0.6449685
0.6613016 0.6648600 0.6522802
0.6829260 0.6830051 0.6587424
0.6735559 0.6633366 0.5834240
0.6961948 0.6823441 0.5753676
0.7690406 0.7633293 0.7324762
0.6495565 0.6497551 0.6496077
0.6875290 0.6877388 0.6875418
0.7248370 0.7252117 0.7247464
0.7544592 0.7550628 0.7540301
0.7729494 0.7736114 0.7712439
0.7891990 0.7892496 0.7808936
0.7950853 0.7940129 0.7618072
0.8126456 0.8115947 0.7685994
0.8589455 0.8579701 0.8414872
0.7288134 0.7288454 0.7288204
0.7673642 0.7673901 0.7673670
0.8058157 0.8058530 0.8058080
0.8368262 0.8368971 0.8367752
0.8572472 0.8573480 0.8568838
0.8764073 0.8764639 0.8740165
0.8934757 0.8934799 0.8852609
0.9138828 0.9138926 0.9039643
0.9324355 0.9323994 0.9267386
0.2218931 0.2220798 0.2041984
0.2339880 0.2332887 0.2322029
0.1747790 0.1742981 0.1727427
0.1677186 0.1664636 0.1647796
0.1617528 0.1583906 0.1576406
0.1754748 0.1706014 0.1709622
0.1960348 0.1916750 0.1920578
0.2168055 0.2151837 0.2150307
0.2342430 0.2335341 0.2334129
0.2574989 0.2622752 0.2568189
0.2420046 0.2447038 0.2408238
0.2347551 0.2353767 0.2314849
0.2345090 0.2327087 0.2296060
0.2432673 0.2379020 0.2364125
0.2664353 0.2622949 0.2613549
0.2977401 0.2943931 0.2938245
0.3273592 0.3254940 0.3251466
0.3477583 0.3467950 0.3465863
0.2150034 0.2186640 0.1969949
0.3126018 0.3269419 0.3308144
0.2918540 0.2950106 0.2891757
0.2986003 0.2942691 0.2894186
0.2992405 0.2885261 0.2832562
0.3499673 0.3406577 0.3365519
0.4006187 0.3918597 0.3889400
0.4426701 0.4376951 0.4363085
0.4693737 0.4668293 0.4661502
0.3429244 0.3897410 0.3822157
0.3782958 0.3956041 0.3869544
0.2842315 0.2948129 0.2858624
0.3857007 0.3770609 0.3669471
0.3847069 0.3585678 0.3436591
0.4264328 0.4033110 0.3890355
0.4748764 0.4488381 0.4374477
0.5393872 0.5248143 0.5195405
0.5784117 0.5720072 0.5698075
0.3761896 0.4010462 0.3909096
0.3640009 0.3840724 0.3711837
0.3255745 0.3480648 0.3226937
0.3287924 0.3441772 0.3169076
0.4482271 0.4446476 0.4094896
0.4751867 0.4420592 0.4086588
0.5382795 0.4884525 0.4555377
0.6180832 0.5925176 0.5784682
0.6641914 0.6537560 0.6475543
0.4631402 0.4735527 0.4685688
0.4883530 0.5001936 0.4922194
0.4984987 0.5218596 0.5005825
0.5345537 0.5683172 0.5305686
0.4752844 0.5087217 0.4445284
0.6352889 0.6431892 0.6037706
0.5923612 0.5554084 0.4942502
0.6785041 0.6706963 0.6452259
0.7225797 0.7142050 0.6988677
0.5650540 0.5677226 0.5663587
0.6022324 0.6048831 0.6030661
0.6356454 0.6403403 0.6359386
0.6621085 0.6703237 0.6606951
0.6630839 0.6749033 0.6553619
0.6702662 0.6769734 0.6471303
0.6590033 0.6531365 0.5799917
0.6972205 0.6883267 0.6031259
0.7845952 0.7805166 0.7556442
0.6592435 0.6597077 0.6594151
0.6978498 0.6982212 0.6979628
0.7350277 0.7356426 0.7350660
0.7665984 0.7679050 0.7663590
0.7859472 0.7880828 0.7843549
0.7971851 0.7987475 0.7893025
0.7987513 0.7992060 0.7695355
0.8148752 0.8153628 0.7770236
0.8697941 0.8692825 0.8546366
0.7386947 0.7387773 0.7387211
0.7775639 0.7776210 0.7775797
0.8157144 0.8157866 0.8157177
0.8494600 0.8496386 0.8494218
0.8740545 0.8743943 0.8736929
0.8905143 0.8908727 0.8882330
0.9046545 0.9050137 0.8971444
0.9230430 0.9233701 0.9140655
0.9413309 0.9414408 0.9361240
0.2938316 0.2874461 0.2903259
0.2203772 0.2174649 0.2304780
0.1436959 0.1431190 0.1438345
0.1479247 0.1469101 0.1469497
0.1601168 0.1577610 0.1584005
0.1814662 0.1777951 0.1789303
0.2019489 0.2003347 0.2007584
0.2238417 0.2233721 0.2234476
0.2425285 0.2423963 0.2423986
0.2332186 0.2349815 0.2277663
0.2503494 0.2512270 0.2517584
0.2461045 0.2460300 0.2459222
0.2526929 0.2514042 0.2514432
0.2625225 0.2596872 0.2602390
0.2816716 0.2795539 0.2797527
0.3094275 0.3081925 0.3082756
0.3375313 0.3370786 0.3370741
0.3579269 0.3577461 0.3577263
0.2723032 0.2869728 0.2920068
0.2856791 0.2901451 0.2884311
0.3450626 0.3461608 0.3456730
0.3784236 0.3750886 0.3769705
0.3655730 0.3594237 0.3600795
0.3824814 0.3776264 0.3771849
0.4203453 0.4173224 0.4169067
0.4558507 0.4545850 0.4543455
0.4796433 0.4790819 0.4789689
0.2638773 0.2658642 0.2624899
0.2324433 0.2360485 0.2227572
0.4938727 0.4975541 0.4995667
0.5107676 0.5049291 0.5071025
0.4718485 0.4576503 0.4582231
0.4729770 0.4606051 0.4582743
0.5156899 0.5065113 0.5040758
0.5601263 0.5559947 0.5547635
0.5898068 0.5880739 0.5875961
0.3503508 0.3912753 0.3920058
0.2929575 0.3248426 0.3208292
0.2913552 0.3301650 0.3171735
0.4915503 0.5112238 0.4989755
0.5649070 0.5530568 0.5498106
0.5748211 0.5563486 0.5526771
0.5925922 0.5733200 0.5660600
0.6452049 0.6365225 0.6326780
0.6850376 0.6815844 0.6799017
0.4751324 0.4924892 0.4892424
0.5036818 0.5204944 0.5157041
0.5433215 0.5606402 0.5526316
0.6125389 0.6297785 0.6211135
0.5969270 0.6226587 0.6007660
0.6894687 0.6878304 0.6941898
0.6179885 0.5934275 0.5725403
0.6995664 0.6922569 0.6850682
0.7505287 0.7464902 0.7407467
0.5764081 0.5809669 0.5797670
0.6149590 0.6186166 0.6174029
0.6516850 0.6562903 0.6540656
0.6759592 0.6850127 0.6793400
0.6640114 0.6845041 0.6666559
0.6552968 0.6762176 0.6474948
0.7215783 0.7281394 0.7083620
0.6986493 0.6948201 0.6625314
0.7910057 0.7886345 0.7738796
0.6687193 0.6697036 0.6691983
0.7080983 0.7086371 0.7084113
0.7447017 0.7454304 0.7450349
0.7742955 0.7760372 0.7747936
0.7928295 0.7964264 0.7928637
0.8035992 0.8075098 0.8001128
0.8001571 0.8029737 0.7850379
0.8070410 0.8090857 0.7853487
0.8705590 0.8704283 0.8605746
0.7485029 0.7486557 0.7485657
0.7874604 0.7875509 0.7875006
0.8250371 0.8251339 0.8250738
0.8575961 0.8578636 0.8576502
0.8841416 0.8847358 0.8840432
0.9018639 0.9026462 0.9005983
0.9117617 0.9125903 0.9072163
0.9258897 0.9265198 0.9201503
0.9435022 0.9437191 0.9398853
0.3616585 0.3582252 0.3846434
0.1504433 0.1497144 0.1544251
0.1302157 0.1298266 0.1308578
0.1437123 0.1429187 0.1436731
0.1678670 0.1658752 0.1673273
0.1906451 0.1876096 0.1893618
0.2083941 0.2076986 0.2080067
0.2328586 0.2327184 0.2327662
0.2520409 0.2520108 0.2520182
0.2364422 0.2397438 0.2466471
0.2495472 0.2502861 0.2524142
0.2504064 0.2503005 0.2509109
0.2636375 0.2630436 0.2635988
0.2790036 0.2780368 0.2785710
0.2972404 0.2962912 0.2966836
0.3213148 0.3208426 0.3209888
0.3486523 0.3485228 0.3485515
0.3688972 0.3688624 0.3688664
0.2878012 0.3011005 0.3130085
0.3042379 0.3073660 0.3091047
0.3630703 0.3635109 0.3642099
0.3869002 0.3859398 0.3871874
0.3962475 0.3944886 0.3954590
0.4089887 0.4073739 0.4078476
0.4356573 0.4347256 0.4348572
0.4675691 0.4672582 0.4672736
0.4903190 0.4902174 0.4902154
0.2530657 0.2880949 0.3285926
0.3283540 0.3370046 0.3398077
0.4547024 0.4582213 0.4615169
0.5236386 0.5230927 0.5263374
0.5181213 0.5147598 0.5170968
0.5121399 0.5081892 0.5092289
0.5370556 0.5342015 0.5344429
0.5739353 0.5728749 0.5728409
0.6003885 0.6000188 0.5999901
0.2741115 0.3237772 0.3464178
0.3789512 0.4156643 0.4198075
0.5003584 0.5275542 0.5344394
0.6124543 0.6183133 0.6239557
0.6481880 0.6448425 0.6511533
0.6148655 0.6081044 0.6119585
0.6231048 0.6160632 0.6172893
0.6637876 0.6611411 0.6610282
0.6961658 0.6952186 0.6950012
0.5091524 0.5315759 0.5311646
0.5415131 0.5618601 0.5614282
0.5922669 0.6065411 0.6074195
0.5954788 0.6247372 0.6288340
0.4528843 0.4752937 0.4780679
0.7037927 0.7017540 0.7095959
0.7000848 0.6919954 0.6988989
0.7273525 0.7241115 0.7245199
0.7683828 0.7667577 0.7651983
0.5899605 0.5945632 0.5941987
0.6279758 0.6317416 0.6314353
0.6639877 0.6677361 0.6674384
0.6851089 0.6927851 0.6918588
0.6881100 0.7009152 0.6980747
0.7176418 0.7291601 0.7295370
0.6880851 0.6986814 0.7002245
0.6938106 0.6887857 0.6797470
0.7944388 0.7923515 0.7860872
0.6792987 0.6800582 0.6798432
0.7178824 0.7183786 0.7182864
0.7537595 0.7543471 0.7542461
0.7824546 0.7838899 0.7834929
0.8021466 0.8048651 0.8036435
0.8141324 0.8176226 0.8155360
0.8007846 0.8043265 0.8002538
0.7821874 0.7842854 0.7769733
0.8484722 0.8483551 0.8431326
0.7582078 0.7583295 0.7582732
0.7968673 0.7969418 0.7969131
0.8336454 0.8337256 0.8337027
0.8653736 0.8656004 0.8655093
0.8912310 0.8917354 0.8914314
0.9104331 0.9112017 0.9104281
0.9155046 0.9164297 0.9145624
0.9173285 0.9180105 0.9155766
0.9317546 0.9320160 0.9302061
0.1312174 0.1312521 0.1355579
0.1169443 0.1169301 0.1185390
0.1260488 0.1258227 0.1265458
0.1460547 0.1454792 0.1461200
0.1720284 0.1709796 0.1719681
0.1931234 0.1920813 0.1928407
0.2160161 0.2157458 0.2159184
0.2420448 0.2420013 0.2420247
0.2614733 0.2614660 0.2614691
0.1925375 0.1943187 0.1988183
0.2434033 0.2439578 0.2454119
0.2553823 0.2553546 0.2558153
0.2743656 0.2740123 0.2745968
0.2915895 0.2912182 0.2915578
0.3111834 0.3108315 0.3110729
0.3328881 0.3327309 0.3328197
0.3590772 0.3590417 0.3590578
0.3793007 0.3792936 0.3792961
0.2626628 0.2679915 0.2732850
0.3166321 0.3185548 0.3202265
0.3745772 0.3748955 0.3754355
0.3946109 0.3943522 0.3949379
0.4114745 0.4111406 0.4114747
0.4290480 0.4287170 0.4289345
0.4492076 0.4490087 0.4491011
0.4775895 0.4775252 0.4775475
0.5000836 0.5000658 0.5000709
0.3252867 0.3401879 0.3478735
0.3871319 0.3927524 0.3952107
0.4577621 0.4595121 0.4607442
0.5149273 0.5149758 0.5160110
0.5259700 0.5254821 0.5263131
0.5354943 0.5347407 0.5354329
0.5522855 0.5517093 0.5520234
0.5836265 0.5834086 0.5834990
0.6094931 0.6094243 0.6094497
0.4048104 0.4270822 0.4336621
0.4706685 0.4823038 0.4850739
0.5442116 0.5494780 0.5515922
0.6067904 0.6079007 0.6097606
0.6334886 0.6335561 0.6356189
0.6328161 0.6317732 0.6336659
0.6405580 0.6393072 0.6404524
0.6750834 0.6745261 0.6749289
0.7057333 0.7055233 0.7056248
0.5130832 0.5241035 0.5258235
0.5614843 0.5694296 0.5706053
0.6122274 0.6169579 0.6178949
0.6688583 0.6725540 0.6732828
0.7024709 0.7046704 0.7058622
0.7123652 0.7129166 0.7161882
0.7085896 0.7078258 0.7108140
0.7436123 0.7428784 0.7442720
0.7814979 0.7810242 0.7811874
0.6000872 0.6023855 0.6025553
0.6406319 0.6424817 0.6426136
0.6785604 0.6801329 0.6802633
0.7099888 0.7126184 0.7127911
0.7312598 0.7347554 0.7353227
0.7493776 0.7520065 0.7534895
0.7180348 0.7194056 0.7234125
0.7627169 0.7613033 0.7656372
0.8189726 0.8181919 0.8181719
0.6890751 0.6893696 0.6893593
0.7267016 0.7269377 0.7269360
0.7616118 0.7618775 0.7618799
0.7908738 0.7914678 0.7914491
0.8133475 0.8143607 0.8143362
0.8254842 0.8267583 0.8270365
0.8078759 0.8094678 0.8111926
0.7425356 0.7446344 0.7514963
0.8383835 0.8385384 0.8392065
0.7675500 0.7675912 0.7675802
0.8056858 0.8057157 0.8057098
0.8416092 0.8416451 0.8416426
0.8728408 0.8729399 0.8729278
0.8988171 0.8990316 0.8990044
0.9170740 0.9174377 0.9174699
0.9176928 0.9181995 0.9185170
0.8990961 0.8995816 0.9003493
0.9157647 0.9160490 0.9166493
0.0909556 0.0910907 0.0919104
0.1090011 0.1090420 0.1095316
0.1289687 0.1289072 0.1291674
0.1491403 0.1489634 0.1492052
0.1750923 0.1747885 0.1752019
0.1997523 0.1993538 0.1997508
0.2245940 0.2244733 0.2245750
0.2510426 0.2510238 0.2510378
0.2705345 0.2705319 0.2705335
0.1759896 0.1764697 0.1774694
0.2437044 0.2439194 0.2444261
0.2620978 0.2620907 0.2622900
0.2822234 0.2821200 0.2823091
0.3020426 0.3018959 0.3020633
0.3229959 0.3228400 0.3229843
0.3453600 0.3452902 0.3453464
0.3691920 0.3691783 0.3691881
0.3887415 0.3887394 0.3887407
0.2591598 0.2607007 0.2619879
0.3247896 0.3255435 0.3261751
0.3857086 0.3858459 0.3860565
0.4058836 0.4058271 0.4059841
0.4250607 0.4249731 0.4250821
0.4446888 0.4445814 0.4446872
0.4658322 0.4657702 0.4658229
0.4880907 0.4880739 0.4880859
0.5088580 0.5088541 0.5088566
0.3441524 0.3480034 0.3497944
0.4056130 0.4076235 0.4085170
0.4668795 0.4674453 0.4678041
0.5220264 0.5220427 0.5222948
0.5390075 0.5389038 0.5391387
0.5552480 0.5550738 0.5553346
0.5741822 0.5740541 0.5742028
0.5947106 0.5946625 0.5947120
0.6175154 0.6175005 0.6175162
0.4318729 0.4371084 0.4387514
0.4890828 0.4922995 0.4932167
0.5475565 0.5487865 0.5492695
0.6010332 0.6013059 0.6016730
0.6418020 0.6418443 0.6423067
0.6534714 0.6532994 0.6539324
0.6687933 0.6685650 0.6690649
0.6876524 0.6875410 0.6877685
0.7135664 0.7135171 0.7136083
0.5189343 0.5222811 0.5229796
0.5722139 0.5744874 0.5749449
0.6236534 0.6247821 0.6250536
0.6712987 0.6719486 0.6721660
0.7088485 0.7093323 0.7097815
0.7356945 0.7359235 0.7368636
0.7441530 0.7440380 0.7452701
0.7611678 0.7610051 0.7618327
0.7922170 0.7920790 0.7924751
0.6080425 0.6089291 0.6090664
0.6542257 0.6548744 0.6549709
0.6976765 0.6981188 0.6981828
0.7364039 0.7369515 0.7370305
0.7679655 0.7686221 0.7688805
0.7884395 0.7890368 0.7898161
0.7910253 0.7912424 0.7933453
0.8003714 0.8001619 0.8024971
0.8411111 0.8408875 0.8421638
0.6978627 0.6979750 0.6979856
0.7373034 0.7373899 0.7373981
0.7740154 0.7740976 0.7741048
0.8059042 0.8060650 0.8060786
0.8319824 0.8322505 0.8323222
0.8477971 0.8481682 0.8485580
0.8390024 0.8394122 0.8409566
0.7883789 0.7884277 0.7914752
0.8669933 0.8670305 0.8691775
0.7764058 0.7764184 0.7764172
0.8140009 0.8140102 0.8140099
0.8491869 0.8491981 0.8491985
0.8799077 0.8799377 0.8799391
0.9057486 0.9058169 0.9058378
0.9237495 0.9238857 0.9240562
0.9219546 0.9221638 0.9228817
0.8988620 0.8990540 0.9005382
0.9185035 0.9186570 0.9201379
