presets/experimental/experimental-ansel-adams/look.cube
# experimental-ansel-adams tuned
LUT_3D_SIZE 5
DOMAIN_MIN 0 0 0
DOMAIN_MAX 1 1 1
0.2735611 0.2753117 0.2759621
0.1915647 0.1930733 0.1847830
0.2498640 0.2419996 0.2257611
0.3251525 0.2550970 0.2317628
0.2640650 0.2337985 0.2236022
0.2145038 0.2149099 0.2085129
0.2297710 0.2274372 0.2155868
0.2287866 0.2280529 0.2104004
0.2977256 0.2737000 0.2461725
0.3836591 0.3568002 0.3452350
0.3480741 0.3495829 0.3467184
0.3158974 0.3190789 0.3030742
0.2945364 0.2921402 0.2491873
0.4885906 0.3997384 0.2714183
0.5331001 0.5200207 0.5035312
0.5315038 0.5318314 0.5312257
0.5768143 0.5769319 0.5763225
0.6254881 0.6252482 0.6177099
0.6525684 0.6439342 0.5965848
0.7083643 0.7028853 0.6840983
0.7032067 0.7032122 0.7031995
0.7506169 0.7506180 0.7506131
0.8013148 0.8013141 0.8011134
0.8512761 0.8510494 0.8480106
0.8982967 0.8981108 0.8959781
0.2004300 0.2030164 0.1897675
0.2128657 0.2100595 0.2070238
0.1924576 0.1768901 0.1672171
0.3004022 0.2452261 0.2345778
0.2511724 0.2380704 0.2349260
0.2082289 0.2192729 0.2001494
0.2202237 0.2191831 0.2034300
0.2260508 0.2221973 0.2046214
0.3057541 0.2704047 0.2539481
0.4430990 0.4331545 0.4300345
0.3364835 0.3397754 0.3333647
0.3154572 0.3237620 0.3025801
0.4352358 0.4328381 0.3822240
0.5011424 0.4252160 0.3293679
0.5809645 0.5660860 0.5533111
0.5462964 0.5469914 0.5462453
0.6128032 0.6139328 0.6119860
0.6515607 0.6521941 0.6441532
0.6583109 0.6476407 0.5734425
0.7453981 0.7398830 0.7103702
0.7190894 0.7191027 0.7190871
0.7928816 0.7928936 0.7928752
0.8378280 0.8378449 0.8375465
0.8787100 0.8785382 0.8715813
0.9204708 0.9203281 0.9154558
0.2218931 0.2220798 0.2041984
0.1747790 0.1742981 0.1727427
0.1617528 0.1583906 0.1576406
0.1960348 0.1916750 0.1920578
0.2342430 0.2335341 0.2334129
0.2150034 0.2186640 0.1969949
0.2918540 0.2950106 0.2891757
0.2992405 0.2885261 0.2832562
0.4006187 0.3918597 0.3889400
0.4693737 0.4668293 0.4661502
0.3761896 0.4010462 0.3909096
0.3255745 0.3480648 0.3226937
0.4482271 0.4446476 0.4094896
0.5382795 0.4884525 0.4555377
0.6641914 0.6537560 0.6475543
0.5650540 0.5677226 0.5663587
0.6356454 0.6403403 0.6359386
0.6630839 0.6749033 0.6553619
0.6590033 0.6531365 0.5799917
0.7845952 0.7805166 0.7556442
0.7386947 0.7387773 0.7387211
0.8157144 0.8157866 0.8157177
0.8740545 0.8743943 0.8736929
0.9046545 0.9050137 0.8971444
0.9413309 0.9414408 0.9361240
0.3616585 0.3582252 0.3846434
0.1302157 0.1298266 0.1308578
0.1678670 0.1658752 0.1673273
0.2083941 0.2076986 0.2080067
0.2520409 0.2520108 0.2520182
0.2878012 0.3011005 0.3130085
0.3630703 0.3635109 0.3642099
0.3962475 0.3944886 0.3954590
0.4356573 0.4347256 0.4348572
0.4903190 0.4902174 0.4902154
0.2741115 0.3237772 0.3464178
0.5003584 0.5275542 0.5344394
0.6481880 0.6448425 0.6511533
0.6231048 0.6160632 0.6172893
0.6961658 0.6952186 0.6950012
0.5899605 0.5945632 0.5941987
0.6639877 0.6677361 0.6674384
0.6881100 0.7009152 0.6980747
0.6880851 0.6986814 0.7002245
0.7944388 0.7923515 0.7860872
0.7582078 0.7583295 0.7582732
0.8336454 0.8337256 0.8337027
0.8912310 0.8917354 0.8914314
0.9155046 0.9164297 0.9145624
0.9317546 0.9320160 0.9302061
0.0909556 0.0910907 0.0919104
0.1289687 0.1289072 0.1291674
0.1750923 0.1747885 0.1752019
0.2245940 0.2244733 0.2245750
0.2705345 0.2705319 0.2705335
0.2591598 0.2607007 0.2619879
0.3857086 0.3858459 0.3860565
0.4250607 0.4249731 0.4250821
0.4658322 0.4657702 0.4658229
0.5088580 0.5088541 0.5088566
0.4318729 0.4371084 0.4387514
0.5475565 0.5487865 0.5492695
0.6418020 0.6418443 0.6423067
0.6687933 0.6685650 0.6690649
0.7135664 0.7135171 0.7136083
0.6080425 0.6089291 0.6090664
0.6976765 0.6981188 0.6981828
0.7679655 0.7686221 0.7688805
0.7910253 0.7912424 0.7933453
0.8411111 0.8408875 0.8421638
0.7764058 0.7764184 0.7764172
0.8491869 0.8491981 0.8491985
0.9057486 0.9058169 0.9058378
0.9219546 0.9221638 0.9228817
0.9185035 0.9186570 0.9201379
