presets/experimental/experimental-ansel-adams/look.cube
# experimental-ansel-adams tuned
LUT_3D_SIZE 33
DOMAIN_MIN 0 0 0
DOMAIN_MAX 1 1 1
0.2735611 0.2753117 0.2759621
0.2773106 0.2774204 0.2744699
0.2674287 0.2670894 0.2621846
0.2378495 0.2369580 0.2314247
0.2207916 0.2197201 0.2139659
0.2084516 0.2077684 0.2012382
0.1981385 0.1982442 0.1909286
0.1929520 0.1938529 0.1859537
0.1915647 0.1930733 0.1847830
0.1946375 0.1966583 0.1881888
0.1989458 0.2014456 0.1926408
0.2052530 0.2080744 0.1985035
0.2139862 0.2161745 0.2058053
0.2237188 0.2243715 0.2135884
0.2347973 0.2322226 0.2207773
0.2424109 0.2372307 0.2238774
0.2498640 0.2419996 0.2257611
0.2570821 0.2444839 0.2268648
0.2616422 0.2437741 0.2262419
0.2643286 0.2443940 0.2260768
0.2622714 0.2381236 0.2198776
0.2817641 0.2435561 0.2225317
0.2953125 0.2493806 0.2263772
0.3050135 0.2496127 0.2270760
0.3251525 0.2550970 0.2317628
0.3135258 0.2501671 0.2290941
0.3081462 0.2501931 0.2271657
0.3287984 0.2609314 0.2311649
0.3533029 0.2738714 0.2404682
0.3445645 0.2708124 0.2432018
0.3097435 0.2561889 0.2377484
0.2808911 0.2431087 0.2304151
0.2640650 0.2337985 0.2236022
0.2614936 0.2610472 0.2580884
0.2708850 0.2699252 0.2653621
0.2740824 0.2732351 0.2671324
0.2442047 0.2428319 0.2366980
0.2336080 0.2320304 0.2259232
0.2239884 0.2228896 0.2160162
0.2142025 0.2139985 0.2062934
0.2080800 0.2085583 0.2003875
0.2064449 0.2072759 0.1989894
0.2088455 0.2100736 0.2017389
0.2124015 0.2138904 0.2051092
0.2159371 0.2173921 0.2080248
0.2197062 0.2204695 0.2108101
0.2217208 0.2219582 0.2129381
0.2225499 0.2216564 0.2138303
0.2227534 0.2215373 0.2128795
0.2236813 0.2235226 0.2101364
0.2247750 0.2244230 0.2078336
0.2261805 0.2244131 0.2071296
0.2304582 0.2247361 0.2074467
0.2315075 0.2219972 0.2053483
0.2409211 0.2230137 0.2061324
0.2551748 0.2288121 0.2110078
0.2658531 0.2316718 0.2143640
0.2774659 0.2355315 0.2183394
0.2804331 0.2374705 0.2202496
0.2855762 0.2414299 0.2224310
0.2979367 0.2481398 0.2260259
0.3090354 0.2545841 0.2313185
0.3056086 0.2544303 0.2343383
0.2920967 0.2502948 0.2350336
0.2787825 0.2458467 0.2343104
0.2682095 0.2402712 0.2306162
0.2373601 0.2370970 0.2329179
0.2425601 0.2418489 0.2367607
0.2493960 0.2481760 0.2416601
0.2365051 0.2348443 0.2287401
0.2333500 0.2314361 0.2250300
0.2279035 0.2260298 0.2187923
0.2196283 0.2182668 0.2103501
0.2145951 0.2136583 0.2056976
0.2147813 0.2140657 0.2061182
0.2184805 0.2180994 0.2099797
0.2233637 0.2228627 0.2139128
0.2240503 0.2232412 0.2138027
0.2257840 0.2244208 0.2145445
0.2239766 0.2227115 0.2140974
0.2228172 0.2205134 0.2128193
0.2226322 0.2196335 0.2102607
0.2187233 0.2184414 0.2051325
0.2145226 0.2181888 0.2017464
0.2150832 0.2199767 0.2025517
0.2180593 0.2189244 0.2018542
0.2161357 0.2155880 0.1999050
0.2236925 0.2160081 0.2006931
0.2348477 0.2197060 0.2043003
0.2431018 0.2216459 0.2069172
0.2518518 0.2253284 0.2109304
0.2586118 0.2295533 0.2147178
0.2677263 0.2350583 0.2183541
0.2798806 0.2410975 0.2220814
0.2907383 0.2468647 0.2269684
0.2916898 0.2495631 0.2321210
0.2859827 0.2498292 0.2360428
0.2786661 0.2490551 0.2383015
0.2712739 0.2456068 0.2364540
0.2206421 0.2207105 0.2157354
0.2240568 0.2237801 0.2184492
0.2300519 0.2292698 0.2235607
0.2241595 0.2229704 0.2169786
0.2201541 0.2187191 0.2118059
0.2153052 0.2134877 0.2059609
0.2117421 0.2098806 0.2022208
0.2126253 0.2110471 0.2033153
0.2164018 0.2149275 0.2073167
0.2199757 0.2186550 0.2111988
0.2245425 0.2226200 0.2143179
0.2243232 0.2218951 0.2129260
0.2295960 0.2265665 0.2152333
0.2317948 0.2279955 0.2170275
0.2358179 0.2303356 0.2182116
0.2363751 0.2308280 0.2170449
0.2305510 0.2280650 0.2121326
0.2225750 0.2244679 0.2074258
0.2202416 0.2242251 0.2067141
0.2191328 0.2214548 0.2045504
0.2167995 0.2181024 0.2024719
0.2229404 0.2191205 0.2039467
0.2317660 0.2221565 0.2072077
0.2380938 0.2239726 0.2099443
0.2457525 0.2278970 0.2143903
0.2534419 0.2322630 0.2183125
0.2651715 0.2385102 0.2224442
0.2792147 0.2453742 0.2268667
0.2922016 0.2522690 0.2330540
0.2966935 0.2575830 0.2402912
0.2952355 0.2612133 0.2476856
0.2909758 0.2630701 0.2525971
0.2854569 0.2611780 0.2522551
0.2109497 0.2113715 0.2056069
0.2133156 0.2135200 0.2073676
0.2166728 0.2165174 0.2100140
0.2147885 0.2142474 0.2078336
0.2138622 0.2128699 0.2062284
0.2141310 0.2126016 0.2052794
0.2176901 0.2164110 0.2071288
0.2198317 0.2190607 0.2077432
0.2186999 0.2172966 0.2084886
0.2169624 0.2155802 0.2091675
0.2190994 0.2176330 0.2114586
0.2175512 0.2162372 0.2085281
0.2198058 0.2179415 0.2069586
0.2257980 0.2220958 0.2117049
0.2389594 0.2334641 0.2200080
0.2461367 0.2410174 0.2238250
0.2420673 0.2389609 0.2193870
0.2374010 0.2362122 0.2159129
0.2327408 0.2333325 0.2134602
0.2265850 0.2272694 0.2089379
0.2226651 0.2230173 0.2062020
0.2272155 0.2243956 0.2081879
0.2328477 0.2265363 0.2108177
0.2388356 0.2287256 0.2139974
0.2448667 0.2314643 0.2175988
0.2534392 0.2359625 0.2214223
0.2669564 0.2421451 0.2252418
0.2830738 0.2492701 0.2301406
0.2981617 0.2577096 0.2377878
0.3054005 0.2656453 0.2475869
0.3080071 0.2731572 0.2591102
0.3057979 0.2775501 0.2667824
0.3012975 0.2771814 0.2681328
0.2079688 0.2084994 0.2023208
0.2113001 0.2116619 0.2049773
0.2162190 0.2162262 0.2090716
0.2209110 0.2205648 0.2130932
0.2243394 0.2234622 0.2161079
0.2226287 0.2209444 0.2142755
0.2227472 0.2214735 0.2118043
0.2266427 0.2254564 0.2140495
0.2270258 0.2253270 0.2143984
0.2173765 0.2149668 0.2077102
0.2131936 0.2122453 0.2047748
0.2121535 0.2142305 0.2017390
0.2160639 0.2190572 0.2028971
0.2126772 0.2133309 0.2028308
0.2183594 0.2171571 0.2071063
0.2333684 0.2310358 0.2157026
0.2391494 0.2382106 0.2188161
0.2379725 0.2380971 0.2169742
0.2367769 0.2372516 0.2164364
0.2373901 0.2364146 0.2160139
0.2345623 0.2325542 0.2136358
0.2388575 0.2347057 0.2158763
0.2441948 0.2373171 0.2183655
0.2495816 0.2393671 0.2214178
0.2528064 0.2395102 0.2230238
0.2599092 0.2417058 0.2249056
0.2735920 0.2468282 0.2278585
0.2915032 0.2543994 0.2339116
0.3089627 0.2648579 0.2439500
0.3193391 0.2755124 0.2563387
0.3235532 0.2856100 0.2705183
0.3232192 0.2930230 0.2815593
0.3191063 0.2941646 0.2846985
0.2080732 0.2085470 0.2021676
0.2115351 0.2118931 0.2048559
0.2163962 0.2164867 0.2084526
0.2216742 0.2214634 0.2116398
0.2259803 0.2253510 0.2143501
0.2265857 0.2251846 0.2154828
0.2233578 0.2212877 0.2129712
0.2235605 0.2213769 0.2116709
0.2267934 0.2251025 0.2135235
0.2281419 0.2267868 0.2157387
0.2219781 0.2206175 0.2100797
0.2177749 0.2185473 0.2103068
0.2202892 0.2210597 0.2133415
0.2207278 0.2212930 0.2123103
0.2202735 0.2189915 0.2090818
0.2229089 0.2203012 0.2069933
0.2240518 0.2240917 0.2073438
0.2210289 0.2239662 0.2070896
0.2278241 0.2297808 0.2120755
0.2330805 0.2324161 0.2138685
0.2378632 0.2346008 0.2162948
0.2535326 0.2465539 0.2248592
0.2654525 0.2545098 0.2300588
0.2730485 0.2588621 0.2343637
0.2707867 0.2543835 0.2327962
0.2744054 0.2526382 0.2317252
0.2879502 0.2567270 0.2343487
0.3047925 0.2631386 0.2403002
0.3240275 0.2744893 0.2516470
0.3366985 0.2872668 0.2666946
0.3410365 0.2991278 0.2829373
0.3420123 0.3101260 0.2979711
0.3387127 0.3126809 0.3026393
0.2108569 0.2112796 0.2048921
0.2146565 0.2149434 0.2080148
0.2187926 0.2188211 0.2109399
0.2221200 0.2218509 0.2121316
0.2259168 0.2254213 0.2124478
0.2268432 0.2266640 0.2103046
0.2268424 0.2267503 0.2098480
0.2235886 0.2223201 0.2086890
0.2246368 0.2224553 0.2116118
0.2376549 0.2354402 0.2216204
0.2328944 0.2290577 0.2199726
0.2175233 0.2181471 0.2098383
0.2178398 0.2184373 0.2116630
0.2198839 0.2201606 0.2111309
0.2246443 0.2240941 0.2103082
0.2281407 0.2260372 0.2087987
0.2285427 0.2245473 0.2069469
0.2215241 0.2221806 0.2058009
0.2295647 0.2321391 0.2163840
0.2344032 0.2320514 0.2154333
0.2347953 0.2297758 0.2129825
0.2497404 0.2419876 0.2211500
0.2711710 0.2571857 0.2308970
0.2875697 0.2692714 0.2404549
0.2965479 0.2749209 0.2467601
0.3021269 0.2746826 0.2474577
0.3170351 0.2793093 0.2514303
0.3320578 0.2836598 0.2564932
0.3471491 0.2921098 0.2665006
0.3576325 0.3031595 0.2807840
0.3626669 0.3168899 0.2994535
0.3635691 0.3300527 0.3170527
0.3603172 0.3334652 0.3227285
0.2145038 0.2149099 0.2085129
0.2181332 0.2183595 0.2117726
0.2209390 0.2208873 0.2138416
0.2218654 0.2214281 0.2137055
0.2231234 0.2224439 0.2128904
0.2262610 0.2264089 0.2110912
0.2323102 0.2332671 0.2134965
0.2320970 0.2318686 0.2144110
0.2297710 0.2274372 0.2155868
0.2307158 0.2274704 0.2187273
0.2326583 0.2295268 0.2223114
0.2256364 0.2253631 0.2157767
0.2196574 0.2216632 0.2099482
0.2189649 0.2218913 0.2065686
0.2220335 0.2255744 0.2062214
0.2257410 0.2282682 0.2089063
0.2287866 0.2280529 0.2104004
0.2171824 0.2166695 0.2001652
0.2218196 0.2224301 0.2050276
0.2564873 0.2470195 0.2258340
0.2540408 0.2383829 0.2169182
0.2459498 0.2335092 0.2135270
0.2569455 0.2393293 0.2177606
0.2689712 0.2496183 0.2267418
0.2977256 0.2737000 0.2461725
0.3222135 0.2897219 0.2586167
0.3524118 0.3087762 0.2749083
0.3698246 0.3151997 0.2819442
0.3794879 0.3200749 0.2903227
0.3858758 0.3285466 0.3036628
0.3889866 0.3421753 0.3231409
0.3886174 0.3549689 0.3409752
0.3836591 0.3568002 0.3452350
0.2215845 0.2218771 0.2156434
0.2248133 0.2251325 0.2184083
0.2261692 0.2263925 0.2192020
0.2247726 0.2247435 0.2170596
0.2227123 0.2223551 0.2143151
0.2224586 0.2218273 0.2130877
0.2262279 0.2258536 0.2142832
0.2315220 0.2307681 0.2184167
0.2272509 0.2248368 0.2158579
0.2224168 0.2193208 0.2121747
0.2280337 0.2257761 0.2149419
0.2289958 0.2285000 0.2157535
0.2222960 0.2227955 0.2087175
0.2192764 0.2217434 0.2048339
0.2223390 0.2266638 0.2066377
0.2243099 0.2299956 0.2100804
0.2245319 0.2302763 0.2100921
0.2263904 0.2297021 0.2107705
0.2061490 0.2066278 0.1887551
0.2161412 0.2102709 0.1951368
0.2588538 0.2404642 0.2188791
0.2876190 0.2528843 0.2226814
0.2895094 0.2500380 0.2202227
0.2443920 0.2297309 0.2136432
0.2774009 0.2566014 0.2354468
0.3170290 0.2838239 0.2563867
0.3603538 0.3150696 0.2822709
0.3912249 0.3357544 0.3003323
0.4124049 0.3524224 0.3182287
0.4196208 0.3621735 0.3331059
0.4192007 0.3750042 0.3536545
0.4136682 0.3817655 0.3664339
0.4073273 0.3815115 0.3689796
0.2295586 0.2298095 0.2235521
0.2330301 0.2334357 0.2266195
0.2338300 0.2342926 0.2268108
0.2308357 0.2313286 0.2228401
0.2263414 0.2269584 0.2170828
0.2232598 0.2236892 0.2138231
0.2226312 0.2226782 0.2129867
0.2221424 0.2217416 0.2117900
0.2204199 0.2198344 0.2092440
0.2177962 0.2171015 0.2067600
0.2174398 0.2170175 0.2050480
0.2225596 0.2226837 0.2089628
0.2233948 0.2239937 0.2090091
0.2281036 0.2293495 0.2122830
0.2259980 0.2285377 0.2101651
0.2219167 0.2280320 0.2105374
0.2192329 0.2270233 0.2098735
0.2201048 0.2259757 0.2084478
0.2263610 0.2255530 0.2096149
0.2036983 0.1997293 0.1848114
0.2074334 0.2036442 0.1863867
0.2956193 0.2618478 0.2286243
0.3212873 0.2721221 0.2308612
0.2474193 0.2398681 0.2230585
0.2675401 0.2493384 0.2311109
0.3068306 0.2707402 0.2457931
0.3571781 0.3111982 0.2819194
0.3930790 0.3421936 0.3107869
0.4247694 0.3707906 0.3376906
0.4462161 0.3945628 0.3634302
0.4476195 0.4080856 0.3841485
0.4379116 0.4086884 0.3917479
0.4302398 0.4062075 0.3926884
0.2434259 0.2439248 0.2379178
0.2466036 0.2471442 0.2408446
0.2470664 0.2477085 0.2406117
0.2431152 0.2439112 0.2355465
0.2358735 0.2370142 0.2266007
0.2281642 0.2297171 0.2171388
0.2239249 0.2255685 0.2123702
0.2248589 0.2260587 0.2130797
0.2242656 0.2255603 0.2116252
0.2221717 0.2237970 0.2090470
0.2198717 0.2217109 0.2066636
0.2177322 0.2198545 0.2052683
0.2198146 0.2218024 0.2069226
0.2232099 0.2252115 0.2082858
0.2261339 0.2280126 0.2090216
0.2216529 0.2263759 0.2088748
0.2227531 0.2297614 0.2136881
0.2225879 0.2277540 0.2118975
0.2255765 0.2231530 0.2085356
0.2306365 0.2253544 0.2070093
0.2077974 0.2060243 0.1864917
0.2229221 0.2197270 0.2017950
0.2664213 0.2524287 0.2310779
0.2684700 0.2519059 0.2323030
0.2810416 0.2501620 0.2278974
0.2974620 0.2474403 0.2195045
0.3625078 0.3106000 0.2800603
0.4005118 0.3519314 0.3221320
0.4261467 0.3797081 0.3510806
0.4433282 0.4014352 0.3753932
0.4526190 0.4195663 0.3981006
0.4534108 0.4276757 0.4110835
0.4508560 0.4289132 0.4148448
0.2614833 0.2624769 0.2569485
0.2642529 0.2650214 0.2594524
0.2644992 0.2652885 0.2590432
0.2604102 0.2613964 0.2538313
0.2524862 0.2539393 0.2442117
0.2385934 0.2407291 0.2279310
0.2253127 0.2280594 0.2126288
0.2242289 0.2270951 0.2106085
0.2260796 0.2289384 0.2122050
0.2260723 0.2289230 0.2113146
0.2256945 0.2287728 0.2106542
0.2246616 0.2278531 0.2101758
0.2234186 0.2263963 0.2091666
0.2233502 0.2265278 0.2087763
0.2244700 0.2278182 0.2098637
0.2222164 0.2262951 0.2085919
0.2233717 0.2275593 0.2105214
0.2317655 0.2327885 0.2177576
0.2329820 0.2299408 0.2145851
0.2392117 0.2340143 0.2161470
0.2353873 0.2316699 0.2133669
0.2219079 0.2172348 0.2002872
0.2522474 0.2369178 0.2162558
0.3071220 0.2686262 0.2377990
0.3209299 0.2623978 0.2279129
0.3583961 0.2781823 0.2374292
0.3943209 0.3302607 0.2929654
0.4183503 0.3684185 0.3363452
0.4355174 0.3935928 0.3661277
0.4486057 0.4137300 0.3907060
0.4589846 0.4310921 0.4121874
0.4661869 0.4436284 0.4282346
0.4692171 0.4496037 0.4357481
0.2820622 0.2833022 0.2785240
0.2850384 0.2859706 0.2812071
0.2854647 0.2863574 0.2810505
0.2820572 0.2831195 0.2766384
0.2748360 0.2762954 0.2677858
0.2610946 0.2632017 0.2517899
0.2419688 0.2448756 0.2301781
0.2252959 0.2291871 0.2112144
0.2226660 0.2270087 0.2080913
0.2251986 0.2294983 0.2092372
0.2281484 0.2322103 0.2110405
0.2308575 0.2347969 0.2132298
0.2299632 0.2337704 0.2122839
0.2310046 0.2349357 0.2137571
0.2304406 0.2346266 0.2147317
0.2320825 0.2351085 0.2162008
0.2286877 0.2284139 0.2108516
0.2330641 0.2288399 0.2126768
0.2370802 0.2332696 0.2167407
0.2465398 0.2428309 0.2246739
0.2597025 0.2535361 0.2320400
0.2379188 0.2305727 0.2113880
0.2519450 0.2354746 0.2115171
0.3319345 0.2783834 0.2365627
0.3716948 0.2843560 0.2320678
0.4136426 0.3105104 0.2523035
0.4274553 0.3543265 0.3068006
0.4385664 0.3861418 0.3487617
0.4500925 0.4099124 0.3803702
0.4613935 0.4301030 0.4068696
0.4719319 0.4476656 0.4294052
0.4802296 0.4607177 0.4459331
0.4817146 0.4647142 0.4516506
0.3029301 0.3041578 0.3002881
0.3063546 0.3073293 0.3034313
0.3073478 0.3082873 0.3039107
0.3050877 0.3061924 0.3008263
0.3002209 0.3015774 0.2945186
0.2897362 0.2915873 0.2820748
0.2738193 0.2764293 0.2636182
0.2515324 0.2552614 0.2380291
0.2342392 0.2387908 0.2177295
0.2278024 0.2328620 0.2087145
0.2293583 0.2342877 0.2086837
0.2287710 0.2333329 0.2071942
0.2313746 0.2358588 0.2081747
0.2342097 0.2388043 0.2097811
0.2383819 0.2426000 0.2139341
0.2410101 0.2432974 0.2158327
0.2436914 0.2408940 0.2151542
0.2427508 0.2359343 0.2147788
0.2444498 0.2396447 0.2197421
0.2534712 0.2495745 0.2251799
0.2821725 0.2710307 0.2381148
0.2842694 0.2686985 0.2349490
0.2618788 0.2408413 0.2111146
0.3605896 0.2968255 0.2414495
0.4227898 0.3209846 0.2458201
0.4538542 0.3509461 0.2747729
0.4539072 0.3809962 0.3226831
0.4580072 0.4052846 0.3608642
0.4666882 0.4272210 0.3932156
0.4769816 0.4470395 0.4211658
0.4877797 0.4653378 0.4457399
0.4962904 0.4788246 0.4634761
0.4976303 0.4825669 0.4692674
0.3256229 0.3269526 0.3237062
0.3292084 0.3302224 0.3270449
0.3308708 0.3317860 0.3282500
0.3302020 0.3311849 0.3268394
0.3272911 0.3284826 0.3227612
0.3203030 0.3218847 0.3141078
0.3087521 0.3109609 0.3002155
0.2913296 0.2944862 0.2795108
0.2713816 0.2755230 0.2553437
0.2530638 0.2578325 0.2324562
0.2418095 0.2464928 0.2180244
0.2368345 0.2412097 0.2104161
0.2378621 0.2421969 0.2089787
0.2397297 0.2439217 0.2088274
0.2455242 0.2489033 0.2126406
0.2543222 0.2553151 0.2174672
0.2601147 0.2569950 0.2179317
0.2604735 0.2553122 0.2183247
0.2608324 0.2570050 0.2223576
0.2708924 0.2637002 0.2240582
0.2983367 0.2799535 0.2312225
0.3428471 0.3101495 0.2534678
0.2992001 0.2684755 0.2284562
0.3937619 0.3242895 0.2478808
0.4730822 0.3707584 0.2664552
0.4749255 0.3852442 0.2950623
0.4681122 0.4002126 0.3316796
0.4728321 0.4215897 0.3693544
0.4825616 0.4441772 0.4045768
0.4937865 0.4651019 0.4352969
0.5053457 0.4841599 0.4619970
0.5140261 0.4978054 0.4807944
0.5150541 0.5012352 0.4867383
0.3480741 0.3495829 0.3467184
0.3521364 0.3531854 0.3505751
0.3545273 0.3554068 0.3525835
0.3555198 0.3564013 0.3529578
0.3544646 0.3554857 0.3509665
0.3503582 0.3516647 0.3455188
0.3429881 0.3447452 0.3362612
0.3318736 0.3342632 0.3225764
0.3158974 0.3190789 0.3030742
0.2970625 0.3008963 0.2799450
0.2797891 0.2839144 0.2582986
0.2696986 0.2737131 0.2445438
0.2668620 0.2705457 0.2387137
0.2688764 0.2721593 0.2374985
0.2779259 0.2802475 0.2435672
0.2891532 0.2895125 0.2503615
0.2945364 0.2921402 0.2491873
0.2915979 0.2871838 0.2404544
0.2811857 0.2753335 0.2224228
0.2985310 0.2843221 0.2214140
0.3301059 0.3042888 0.2316031
0.3564735 0.3161529 0.2369062
0.3805758 0.3330326 0.2491520
0.4477662 0.3735658 0.2589995
0.4885906 0.3997384 0.2714183
0.4618144 0.3860803 0.2843944
0.4644991 0.4014985 0.3232223
0.4781988 0.4289442 0.3688264
0.4937039 0.4560585 0.4099808
0.5100413 0.4817936 0.4468494
0.5243711 0.5037693 0.4777368
0.5326893 0.5171827 0.4975526
0.5331001 0.5200207 0.5035312
0.3707824 0.3722578 0.3698422
0.3753549 0.3763763 0.3742587
0.3784633 0.3792848 0.3770659
0.3808331 0.3816109 0.3789493
0.3815238 0.3823816 0.3789135
0.3798327 0.3808895 0.3761869
0.3756448 0.3770286 0.3705618
0.3693815 0.3711611 0.3623875
0.3594380 0.3617253 0.3498673
0.3466405 0.3494352 0.3337573
0.3335598 0.3366406 0.3171031
0.3243326 0.3275059 0.3042597
0.3183761 0.3212594 0.2950770
0.3184197 0.3207545 0.2917096
0.3263662 0.3276825 0.2958849
0.3378716 0.3375760 0.3029554
0.3478917 0.3453849 0.3056766
0.3535841 0.3484065 0.3008110
0.3541789 0.3453525 0.2844617
0.3661212 0.3494576 0.2669382
0.3865896 0.3574096 0.2506826
0.3843958 0.3426993 0.2236198
0.4253399 0.3737868 0.2450088
0.5390741 0.4720270 0.3131666
0.5114910 0.4444749 0.3091746
0.4386351 0.3761465 0.2715260
0.4336093 0.3722160 0.2873490
0.4694354 0.4201226 0.3514838
0.4984241 0.4600638 0.4059987
0.5241816 0.4956562 0.4542894
0.5458469 0.5256245 0.4943727
0.5531720 0.5380987 0.5149768
0.5531898 0.5404794 0.5214117
0.3933123 0.3947526 0.3926806
0.3983195 0.3992858 0.3975728
0.4020783 0.4028265 0.4011061
0.4056478 0.4063201 0.4043105
0.4078785 0.4085820 0.4059995
0.4083227 0.4091494 0.4056776
0.4071771 0.4082075 0.4034861
0.4044735 0.4057603 0.3994071
0.3997892 0.4013677 0.3929445
0.3933207 0.3951924 0.3842539
0.3856921 0.3877549 0.3741085
0.3795318 0.3816403 0.3651876
0.3758395 0.3777553 0.3585361
0.3768355 0.3782708 0.3562289
0.3830551 0.3836311 0.3583442
0.3935807 0.3928210 0.3639216
0.4058042 0.4031592 0.3685234
0.4152858 0.4101657 0.3661773
0.4247073 0.4161255 0.3573353
0.4374169 0.4232476 0.3413069
0.4466920 0.4241837 0.3077673
0.4412324 0.4089838 0.2449857
0.5001584 0.4597983 0.2763537
0.5864340 0.5401728 0.3751902
0.5274499 0.4775050 0.3516388
0.4553657 0.4020399 0.3016617
0.4124943 0.3561486 0.2689110
0.4472021 0.3946319 0.3144559
0.4961190 0.4531908 0.3871708
0.5329053 0.5021316 0.4525685
0.5617362 0.5411492 0.5043662
0.5731270 0.5583258 0.5314574
0.5723854 0.5598049 0.5380619
0.4152358 0.4164846 0.4148034
0.4211754 0.4220551 0.4206826
0.4255989 0.4262654 0.4249449
0.4301697 0.4307414 0.4292532
0.4336183 0.4341891 0.4323142
0.4356977 0.4363412 0.4338491
0.4369824 0.4377305 0.4343987
0.4369421 0.4378460 0.4333985
0.4357641 0.4368467 0.4310024
0.4336198 0.4348737 0.4273665
0.4310650 0.4324122 0.4230696
0.4291751 0.4305001 0.4191741
0.4292277 0.4303680 0.4168765
0.4315179 0.4322878 0.4162017
0.4372942 0.4373885 0.4181798
0.4465836 0.4456659 0.4222885
0.4571428 0.4547799 0.4252303
0.4673991 0.4631468 0.4239153
0.4799021 0.4731483 0.4188544
0.4953539 0.4853197 0.4076772
0.5136187 0.4995609 0.3846672
0.5329613 0.5143916 0.3348300
0.5911039 0.5683910 0.3762963
0.5935171 0.5640265 0.4200463
0.5455366 0.5090328 0.3950227
0.4958929 0.4539540 0.3554488
0.4413115 0.3929691 0.2964793
0.4494109 0.3912054 0.2942230
0.4892122 0.4314968 0.3420825
0.5346401 0.4979693 0.4373191
0.5671533 0.5442641 0.5033487
0.5857547 0.5701219 0.5408029
0.5898739 0.5771968 0.5533846
0.4377083 0.4390549 0.4375021
0.4439800 0.4448205 0.4436823
0.4488426 0.4494354 0.4484204
0.4542129 0.4546890 0.4536065
0.4587175 0.4591619 0.4578443
0.4621926 0.4626638 0.4609473
0.4650369 0.4655675 0.4632919
0.4669733 0.4675983 0.4645769
0.4681898 0.4689293 0.4649696
0.4686938 0.4695654 0.4644587
0.4695393 0.4704406 0.4640835
0.4709816 0.4718176 0.4640629
0.4734063 0.4740875 0.4646511
0.4773091 0.4776980 0.4661273
0.4831981 0.4830993 0.4686724
0.4912753 0.4904552 0.4719650
0.5009935 0.4991615 0.4746114
0.5116890 0.5086377 0.4749914
0.5248910 0.5204039 0.4725592
0.5417960 0.5359739 0.4655673
0.5646585 0.5586345 0.4500928
0.6019399 0.5998739 0.4202199
0.6339504 0.6254183 0.4661735
0.5969837 0.5771386 0.4561260
0.5632905 0.5360170 0.4344627
0.5328325 0.4994826 0.4072181
0.5044616 0.4641460 0.3738324
0.4953747 0.4444827 0.3499781
0.4975992 0.4306073 0.3218890
0.5446474 0.5033919 0.4320873
0.5818737 0.5584437 0.5144528
0.6028854 0.5873944 0.5566373
0.6091118 0.5968451 0.5718797
0.4603309 0.4616277 0.4602523
0.4669269 0.4676832 0.4667501
0.4720546 0.4725611 0.4717860
0.4779863 0.4783716 0.4775951
0.4832568 0.4835941 0.4826908
0.4877405 0.4880772 0.4869312
0.4917196 0.4920871 0.4905819
0.4950879 0.4955090 0.4935214
0.4980319 0.4985179 0.4959197
0.5006564 0.5012041 0.4978629
0.5034298 0.5039928 0.4997913
0.5065964 0.5071177 0.5018914
0.5104546 0.5108648 0.5043463
0.5153246 0.5155287 0.5072853
0.5214899 0.5213637 0.5106986
0.5290935 0.5284910 0.5142868
0.5381445 0.5369101 0.5174160
0.5486610 0.5466896 0.5192380
0.5611616 0.5584708 0.5188704
0.5769188 0.5739360 0.5151062
0.5983255 0.5968149 0.5047017
0.6358590 0.6409048 0.4899760
0.6312994 0.6261780 0.5078731
0.6044339 0.5901251 0.4923146
0.5797646 0.5588920 0.4705025
0.5580415 0.5316841 0.4469342
0.5431598 0.5119811 0.4289629
0.5427327 0.5076573 0.4271969
0.5545034 0.5174975 0.4417730
0.5811013 0.5530704 0.4953504
0.6070851 0.5880402 0.5472807
0.6254175 0.6118910 0.5819306
0.6312865 0.6203101 0.5955185
0.4841872 0.4851494 0.4840984
0.4901066 0.4906941 0.4899746
0.4951635 0.4955620 0.4949835
0.5014233 0.5017208 0.5011719
0.5072050 0.5074545 0.5068475
0.5123870 0.5126236 0.5118776
0.5172056 0.5174536 0.5164889
0.5215954 0.5218712 0.5206054
0.5257285 0.5260392 0.5243861
0.5296893 0.5300303 0.5278979
0.5337216 0.5340703 0.5313538
0.5380163 0.5383386 0.5348903
0.5427849 0.5430351 0.5386202
0.5482416 0.5483588 0.5426010
0.5545779 0.5544869 0.5467875
0.5619207 0.5615359 0.5509672
0.5703784 0.5696143 0.5547830
0.5800088 0.5788085 0.5576887
0.5909847 0.5893597 0.5590695
0.6035932 0.6016936 0.5582210
0.6175118 0.6157483 0.5542295
0.6310449 0.6294735 0.5481583
0.6292762 0.6234002 0.5440666
0.6160554 0.6048938 0.5293792
0.5997210 0.5836440 0.5091514
0.5851465 0.5647992 0.4894155
0.5778340 0.5543672 0.4793510
0.5815623 0.5567702 0.4860627
0.5950878 0.5713022 0.5093836
0.6150997 0.5957261 0.5467950
0.6352385 0.6207359 0.5840990
0.6508552 0.6398921 0.6119645
0.6557635 0.6465885 0.6230630
0.5080478 0.5085747 0.5078917
0.5133485 0.5137407 0.5132170
0.5182505 0.5185372 0.5181156
0.5246853 0.5249027 0.5245197
0.5307901 0.5309681 0.5305668
0.5364390 0.5366011 0.5361270
0.5418344 0.5419978 0.5413976
0.5469194 0.5470954 0.5463144
0.5518430 0.5520369 0.5510172
0.5566544 0.5568636 0.5555395
0.5615097 0.5617232 0.5600119
0.5665370 0.5667346 0.5645151
0.5718834 0.5720381 0.5691199
0.5776947 0.5777709 0.5738510
0.5841054 0.5840590 0.5786646
0.5912102 0.5909915 0.5834105
0.5990872 0.5986457 0.5878498
0.6077172 0.6070086 0.5915855
0.6170447 0.6160350 0.5941644
0.6267215 0.6253771 0.5949643
0.6358528 0.6340640 0.5933782
0.6422614 0.6395090 0.5890464
0.6416353 0.6363704 0.5817313
0.6346302 0.6260485 0.5688036
0.6248205 0.6128077 0.5523818
0.6161196 0.6010667 0.5373146
0.6129180 0.5958192 0.5309747
0.6180626 0.6004837 0.5393011
0.6307811 0.6144485 0.5616603
0.6474747 0.6338142 0.5916478
0.6642764 0.6535434 0.6212229
0.6777530 0.6692912 0.6441400
0.6816923 0.6744325 0.6529843
0.5315038 0.5318314 0.5312257
0.5364307 0.5366905 0.5362832
0.5412107 0.5414087 0.5410992
0.5477503 0.5479027 0.5476370
0.5540616 0.5541846 0.5539226
