catalog/styles/experimental/experimental-flower-plain/look.cube
# experimental-flower-plain iteration 4
LUT_3D_SIZE 5
DOMAIN_MIN 0 0 0
DOMAIN_MAX 1 1 1
0.0612705 0.0634055 0.0565337
0.4483373 0.0223981 0.0167691
0.7868403 0.0000000 0.0000000
0.9140994 0.0000000 0.0000000
1.0000000 0.0000000 0.0061342
0.0587980 0.3098924 0.0610049
0.3196472 0.3240580 0.0391137
0.6253112 0.3155646 0.0095724
0.8248807 0.2875593 0.0147796
1.0000000 0.1933379 0.0287976
0.0000000 0.4654767 0.0182639
0.1786114 0.4297164 0.0000000
0.4731031 0.4850173 0.0000000
0.7694585 0.5186165 0.0000000
1.0000000 0.5055542 0.0276175
0.0000000 0.5424818 0.0000000
0.1076996 0.5690328 0.0000000
0.3871701 0.6300810 0.0000000
0.6984907 0.7006551 0.0000000
0.9974005 0.7451683 0.0000000
0.0000000 0.6213975 0.0000000
0.0403923 0.6988776 0.0000000
0.3124820 0.7721932 0.0000000
0.6394071 0.8712164 0.0000000
1.0000000 1.0000000 0.0000000
0.0481945 0.0479722 0.5727177
0.3410510 0.0603170 0.2897817
0.7572734 0.1403944 0.3075648
0.9654435 0.2233071 0.3053278
1.0000000 0.3272800 0.3403960
0.0430055 0.3340172 0.3404950
0.2879665 0.2891828 0.2890691
0.5554143 0.2797525 0.2513967
0.8279850 0.3371790 0.2833168
1.0000000 0.3597936 0.2893197
0.0000000 0.5023891 0.2584491
0.2043095 0.4641535 0.2122752
0.4690384 0.4684498 0.2112849
0.7435188 0.4963468 0.2496696
1.0000000 0.4979633 0.2418123
0.0000000 0.5798406 0.1551843
0.1152310 0.5937037 0.1211208
0.3763918 0.6202723 0.1091692
0.6923877 0.6930070 0.1671473
1.0000000 0.7412680 0.2043985
0.0000000 0.6433914 0.0446744
0.0317433 0.7134511 0.0272324
0.3227369 0.7910027 0.0328412
0.6460541 0.8811070 0.0759681
1.0000000 1.0000000 0.1781340
0.2378265 0.2326954 0.8132939
0.4410281 0.1796365 0.6448451
0.7012850 0.2260360 0.5890215
0.9361808 0.3249231 0.6061378
1.0000000 0.4297882 0.6065267
0.0326785 0.3141684 0.6436704
0.4131181 0.4090381 0.6742332
0.6576712 0.3987038 0.6030886
0.8714026 0.4217190 0.5633199
1.0000000 0.4550778 0.5522287
0.0216961 0.5218657 0.5060684
0.2256767 0.4980384 0.5186145
0.5693536 0.5618605 0.5656908
0.8115730 0.5541526 0.4968883
1.0000000 0.5258534 0.5069856
0.0000000 0.6077027 0.3859618
0.1201850 0.6122159 0.3731204
0.4201297 0.6716547 0.4191532
0.7073389 0.7104125 0.4655005
0.9872575 0.7298015 0.4783115
0.0000000 0.6613475 0.2527028
0.0198207 0.7299393 0.2779312
0.3195267 0.7983169 0.3141325
0.6499668 0.8934119 0.3898226
0.9969765 0.9973002 0.4848617
0.5009401 0.4643095 0.9604683
0.6548019 0.4029048 0.9996042
0.7732257 0.3692956 0.9227529
0.9155082 0.3811535 0.8740069
1.0000000 0.4187324 0.8369634
0.3629956 0.5041205 0.9686884
0.5053496 0.4935697 0.9276658
0.7110097 0.5088667 0.9096920
0.9031003 0.5144691 0.8645086
1.0000000 0.5262748 0.8250880
0.1719327 0.5748436 0.7976746
0.3144986 0.5553072 0.8051170
0.6427951 0.6522471 0.8787279
0.8755172 0.6563147 0.8434538
1.0000000 0.6412412 0.7914130
0.0000000 0.6161429 0.6325891
0.1486470 0.6445691 0.6543571
0.4704028 0.7159912 0.7208764
0.7902262 0.7904853 0.7920509
1.0000000 0.7916352 0.7637699
0.0000000 0.6624527 0.4791505
0.0086045 0.7489449 0.5434010
0.3261387 0.8187470 0.5984419
0.6368386 0.8844247 0.6614005
0.9864670 0.9879060 0.7442655
0.8666653 0.6807649 1.0000000
0.8692669 0.6187141 1.0000000
0.8784357 0.5396139 1.0000000
0.9133207 0.4527738 1.0000000
0.9921497 0.3755802 1.0000000
0.6266109 0.6721312 1.0000000
0.6427762 0.6094609 1.0000000
0.7386310 0.5867830 1.0000000
0.9195758 0.5994786 1.0000000
1.0000000 0.6076499 1.0000000
0.3004333 0.6459528 1.0000000
0.4193457 0.6297760 1.0000000
0.5898543 0.6312881 1.0000000
0.8947532 0.7300243 1.0000000
1.0000000 0.8172026 1.0000000
0.0000000 0.6271720 0.8971651
0.2058375 0.6921900 0.9545431
0.5004389 0.7520901 0.9964690
0.8060534 0.8217701 1.0000000
1.0000000 0.9881299 1.0000000
0.0000000 0.6432964 0.6918745
0.0000000 0.7683245 0.8285378
0.3721927 0.8560275 0.9138102
0.6965188 0.9108303 0.9445495
0.9982262 0.9977754 0.9994034
