catalog/styles/experimental/experimental-flower-plain/look.cube
# experimental-flower-plain iteration 4
LUT_3D_SIZE 9
DOMAIN_MIN 0 0 0
DOMAIN_MAX 1 1 1
0.0612705 0.0634055 0.0565337
0.1703857 0.0170568 0.0152012
0.4483373 0.0223981 0.0167691
0.6526029 0.0042878 0.0000000
0.7868403 0.0000000 0.0000000
0.8741094 0.0000000 0.0000000
0.9140994 0.0000000 0.0000000
0.9636545 0.0000000 0.0000000
1.0000000 0.0000000 0.0061342
0.0000000 0.1195189 0.0143539
0.1865838 0.1734439 0.0116084
0.3920230 0.2240464 0.0329488
0.5043566 0.1718275 0.0113762
0.6203366 0.1512129 0.0000000
0.7242469 0.1270033 0.0000000
0.8378729 0.1127950 0.0000000
0.9393316 0.0966113 0.0000000
1.0000000 0.0669658 0.0149852
0.0587980 0.3098924 0.0610049
0.1838334 0.3143043 0.0499236
0.3196472 0.3240580 0.0391137
0.4392921 0.3000842 0.0233363
0.6253112 0.3155646 0.0095724
0.7213244 0.3022728 0.0050816
0.8248807 0.2875593 0.0147796
0.9265973 0.2518649 0.0235758
1.0000000 0.1933379 0.0287976
0.0385862 0.4122775 0.0492170
0.1337507 0.3875889 0.0379208
0.2401230 0.3754799 0.0309053
0.3759143 0.3872035 0.0136409
0.5319749 0.4010875 0.0000000
0.7069678 0.4306381 0.0052637
0.8319602 0.4352241 0.0242621
0.9159888 0.3998789 0.0264180
1.0000000 0.3620248 0.0394158
0.0000000 0.4654767 0.0182639
0.0727155 0.4410355 0.0000000
0.1786114 0.4297164 0.0000000
0.3137723 0.4483057 0.0000000
0.4731031 0.4850173 0.0000000
0.6301783 0.5107169 0.0000000
0.7694585 0.5186165 0.0000000
0.8926700 0.5147743 0.0000000
1.0000000 0.5055542 0.0276175
0.0000000 0.5046871 0.0000000
0.0257856 0.4974952 0.0000000
0.1407091 0.4993004 0.0000000
0.2740809 0.5209823 0.0000000
0.4273560 0.5591773 0.0000000
0.5821632 0.5925141 0.0000000
0.7277102 0.6097962 0.0000000
0.8669662 0.6189995 0.0000000
1.0000000 0.6249302 0.0113714
0.0000000 0.5424818 0.0000000
0.0000000 0.5535367 0.0000000
0.1076996 0.5690328 0.0000000
0.2401151 0.5945518 0.0000000
0.3871701 0.6300810 0.0000000
0.5427045 0.6681498 0.0000000
0.6984907 0.7006551 0.0000000
0.8501847 0.7257301 0.0000000
0.9974005 0.7451683 0.0000000
0.0000000 0.5814284 0.0000000
0.0000000 0.6077040 0.0000000
0.0738781 0.6348637 0.0000000
0.2051171 0.6651581 0.0000000
0.3494374 0.7007945 0.0000000
0.5054816 0.7421997 0.0000000
0.6693449 0.7868075 0.0000000
0.8373870 0.8313656 0.0000000
1.0000000 0.8746459 0.0000000
0.0000000 0.6213975 0.0000000
0.0000000 0.6608220 0.0000000
0.0403923 0.6988776 0.0000000
0.1704617 0.7349533 0.0000000
0.3124820 0.7721932 0.0000000
0.4687855 0.8162641 0.0000000
0.6394071 0.8712164 0.0000000
0.8241866 0.9356031 0.0000000
1.0000000 1.0000000 0.0000000
0.0231491 0.0277842 0.2717462
0.1274154 0.0266747 0.1321009
0.3646030 0.0373186 0.1510707
0.6259951 0.0656288 0.1590436
0.8093368 0.0821593 0.1421174
0.9142206 0.0871291 0.1169486
0.9611230 0.1012614 0.1073489
0.9878166 0.1408947 0.1334100
1.0000000 0.1822281 0.1813639
0.0301110 0.1860154 0.1753838
0.1343197 0.1355212 0.1396260
0.2637041 0.1264161 0.1339325
0.4584109 0.1491683 0.1421674
0.6274041 0.1742201 0.1372175
0.7595489 0.1911432 0.1314931
0.8688905 0.2051650 0.1349316
0.9572123 0.2127857 0.1482086
1.0000000 0.2188559 0.1668165
0.0247567 0.3024238 0.1737383
0.1706792 0.3094829 0.1553248
0.3371183 0.3353253 0.1511088
0.4034431 0.2774102 0.1445165
0.5134904 0.2580365 0.1314310
0.6710483 0.2812957 0.1318004
0.8172449 0.3051122 0.1466146
0.9337926 0.3051472 0.1559415
1.0000000 0.2862236 0.1572611
0.0194572 0.4144568 0.1711086
0.1292996 0.3930321 0.1396631
0.2373430 0.3715755 0.1202558
0.3649649 0.3702207 0.1283074
0.5088381 0.3871049 0.1396233
0.6333791 0.3842047 0.1309008
0.7932516 0.4143981 0.1499400
0.9143896 0.4100014 0.1511918
1.0000000 0.3875722 0.1473891
0.0000000 0.4834856 0.1374996
0.0824169 0.4606961 0.1106619
0.1922900 0.4461932 0.0881480
0.3173523 0.4468308 0.0737629
0.4654471 0.4700852 0.0851179
0.6245189 0.5040695 0.1127364
0.7484372 0.5018509 0.1093907
0.8794908 0.5039536 0.1186860
1.0000000 0.5005388 0.1267091
0.0000000 0.5269177 0.0936365
0.0367614 0.5193007 0.0679730
0.1508725 0.5160086 0.0425808
0.2745297 0.5213491 0.0235200
0.4181061 0.5452496 0.0268163
0.5804994 0.5857563 0.0541739
0.7303367 0.6097809 0.0741594
0.8622390 0.6127202 0.0825141
1.0000000 0.6177824 0.0961405
0.0000000 0.5625104 0.0456551
0.0000000 0.5711566 0.0191519
0.1113929 0.5811508 0.0000000
0.2384166 0.5965974 0.0000000
0.3801616 0.6230535 0.0000000
0.5360670 0.6601641 0.0000000
0.6968165 0.6975679 0.0219821
0.8513587 0.7246887 0.0440903
1.0000000 0.7442330 0.0590098
0.0000000 0.5969927 0.0000000
0.0000000 0.6203160 0.0000000
0.0736998 0.6443321 0.0000000
0.2054850 0.6708469 0.0000000
0.3478767 0.7022491 0.0000000
0.5022018 0.7404705 0.0000000
0.6670361 0.7847478 0.0000000
0.8364129 0.8306338 0.0007434
1.0000000 0.8744636 0.0300857
0.0000000 0.6321492 0.0000000
0.0000000 0.6691399 0.0000000
0.0366170 0.7062826 0.0000000
0.1731267 0.7436767 0.0000000
0.3178590 0.7820967 0.0000000
0.4732469 0.8243731 0.0000000
0.6412591 0.8749934 0.0000000
0.8216777 0.9358471 0.0000000
1.0000000 1.0000000 0.0000000
0.0481945 0.0479722 0.5727177
0.1637752 0.0498257 0.3538755
0.3410510 0.0603170 0.2897817
0.5619710 0.0927457 0.2980635
0.7572734 0.1403944 0.3075648
0.8879925 0.1828732 0.3055571
0.9654435 0.2233071 0.3053278
1.0000000 0.2699495 0.3165002
1.0000000 0.3272800 0.3403960
0.0560816 0.2076616 0.4215093
0.1785183 0.1883071 0.3551941
0.2796935 0.1347831 0.2619640
0.4853428 0.1722312 0.2777325
0.6533598 0.2122789 0.2906478
0.7843538 0.2457209 0.2915407
0.8915620 0.2797288 0.2961565
0.9750021 0.3086276 0.3044067
1.0000000 0.3329208 0.3124259
0.0430055 0.3340172 0.3404950
0.1771055 0.3236632 0.3364092
0.2879665 0.2891828 0.2890691
0.4083365 0.2666229 0.2535041
0.5554143 0.2797525 0.2513967
0.6967095 0.3073303 0.2692673
0.8279850 0.3371790 0.2833168
0.9373305 0.3530963 0.2888370
1.0000000 0.3597936 0.2893197
0.0290843 0.4324758 0.2955711
0.1340789 0.4086329 0.2761697
0.2467602 0.3842671 0.2478272
0.3766082 0.3762209 0.2437691
0.5151228 0.3840031 0.2482041
0.6410262 0.3834913 0.2487917
0.7743918 0.4019580 0.2646871
0.9003653 0.4118171 0.2679120
1.0000000 0.4133059 0.2668758
0.0000000 0.5023891 0.2584491
0.0921411 0.4799156 0.2337927
0.2043095 0.4641535 0.2122752
0.3344077 0.4607900 0.2023222
0.4690384 0.4684498 0.2112849
0.6229295 0.4982991 0.2479534
0.7435188 0.4963468 0.2496696
0.8700582 0.4957712 0.2444819
1.0000000 0.4979633 0.2418123
0.0000000 0.5459874 0.2098502
0.0454027 0.5377448 0.1891567
0.1600260 0.5320729 0.1689061
0.2801996 0.5282316 0.1501959
0.4124199 0.5361585 0.1490468
0.5729185 0.5748801 0.1869232
0.7294933 0.6063673 0.2228520
0.8603136 0.6083344 0.2224533
0.9986596 0.6109274 0.2186009
0.0000000 0.5798406 0.1551843
0.0000000 0.5863499 0.1375007
0.1152310 0.5937037 0.1211208
0.2405069 0.6032008 0.1090441
0.3763918 0.6202723 0.1091692
0.5288712 0.6525963 0.1314698
0.6923877 0.6930070 0.1671473
0.8500589 0.7215819 0.1908467
1.0000000 0.7412680 0.2043985
0.0000000 0.6116561 0.0996162
0.0000000 0.6321915 0.0852222
0.0726457 0.6536752 0.0734948
0.2068386 0.6778707 0.0680730
0.3491662 0.7065217 0.0720780
0.5013367 0.7414079 0.0881999
0.6648047 0.7837075 0.1176476
0.8347896 0.8291102 0.1546595
1.0000000 0.8724926 0.1935180
0.0000000 0.6433914 0.0446744
0.0000000 0.6779414 0.0345676
0.0317433 0.7134511 0.0272324
0.1743740 0.7510681 0.0261798
0.3227369 0.7910027 0.0328412
0.4793587 0.8334728 0.0481989
0.6460541 0.8811070 0.0759681
0.8209973 0.9375426 0.1206585
1.0000000 1.0000000 0.1781340
0.1337828 0.1283957 0.7329209
0.2347202 0.1031385 0.5650548
0.3703400 0.1007028 0.4569181
0.5398800 0.1293943 0.4338164
0.7100849 0.1779896 0.4465043
0.8506550 0.2346159 0.4606917
0.9534200 0.2901816 0.4688862
1.0000000 0.3442222 0.4735358
1.0000000 0.3986562 0.4778593
0.0809239 0.2326546 0.6441670
0.2171402 0.2225732 0.5411118
0.3417274 0.2012392 0.4601724
0.5015168 0.2162216 0.4330916
0.6659147 0.2575656 0.4397506
0.7954019 0.2949260 0.4438811
0.9001255 0.3324241 0.4462395
0.9881299 0.3693457 0.4484402
1.0000000 0.4044472 0.4498331
0.0116438 0.2728371 0.3899902
0.2120193 0.3600743 0.5293305
0.3324169 0.3304669 0.4871217
0.4649041 0.3168417 0.4395770
0.6153500 0.3351451 0.4211525
0.7397655 0.3544956 0.4161246
0.8473529 0.3761189 0.4192902
0.9467764 0.3963705 0.4212952
1.0000000 0.4157131 0.4226431
0.0587238 0.4445466 0.4150916
0.1544052 0.4333960 0.4395174
0.2519579 0.4003245 0.4225142
0.4182065 0.4177543 0.4203771
0.5389328 0.4012483 0.3885615
0.6940652 0.4243950 0.3742962
0.8006432 0.4286302 0.3854067
0.9060119 0.4329940 0.3908849
1.0000000 0.4425746 0.3968255
0.0132101 0.5204084 0.3852305
0.1016719 0.4943250 0.3687024
0.2121069 0.4814421 0.3590671
0.3489253 0.4788905 0.3483921
0.5090732 0.5023439 0.3724716
0.6294593 0.4983919 0.3580649
0.7659682 0.5113430 0.3701892
0.8778027 0.5038197 0.3699220
0.9974602 0.5026447 0.3717639
0.0000000 0.5610766 0.3282165
0.0492222 0.5487557 0.3105992
0.1662596 0.5458815 0.3007155
0.2975795 0.5509610 0.2973083
0.4331372 0.5581067 0.3014157
0.5736045 0.5747609 0.3233181
0.7286444 0.6037730 0.3531778
0.8620941 0.6091575 0.3583390
0.9942532 0.6057106 0.3544106
0.0000000 0.5943017 0.2676844
0.0000000 0.5973315 0.2545721
0.1180169 0.6044479 0.2465294
0.2494478 0.6179112 0.2468164
0.3883629 0.6355610 0.2558360
0.5337465 0.6588339 0.2769605
0.6888720 0.6910759 0.3093610
0.8455644 0.7183585 0.3344829
0.9998764 0.7371241 0.3520183
0.0000000 0.6245862 0.2068926
0.0000000 0.6428033 0.2004148
0.0711751 0.6625001 0.1974791
0.2089714 0.6866969 0.2021771
0.3555235 0.7169669 0.2172352
0.5087214 0.7512840 0.2406429
0.6671396 0.7884438 0.2705034
0.8317268 0.8280124 0.3061577
1.0000000 0.8671532 0.3448752
0.0000000 0.6538494 0.1450807
0.0000000 0.6873072 0.1483907
0.0256338 0.7210700 0.1520608
0.1720020 0.7566560 0.1605469
0.3239501 0.7962969 0.1773522
0.4841613 0.8409122 0.2025192
0.6514250 0.8894391 0.2365734
0.8231970 0.9419378 0.2827459
0.9978993 0.9981695 0.3404660
0.2378265 0.2326954 0.8132939
0.3343617 0.1979585 0.7322356
0.4410281 0.1796365 0.6448451
0.5667064 0.1915267 0.5965407
0.7012850 0.2260360 0.5890215
0.8279366 0.2728932 0.5982816
0.9361808 0.3249231 0.6061378
1.0000000 0.3776791 0.6082436
1.0000000 0.4297882 0.6065267
0.1568417 0.2786251 0.7689525
0.2923626 0.2881496 0.7046873
0.4262606 0.2916376 0.6569041
0.5511431 0.2925538 0.6146651
0.6806014 0.3113296 0.5953709
0.8010469 0.3407196 0.5905168
0.9041029 0.3728991 0.5871444
0.9957728 0.4067747 0.5829017
1.0000000 0.4412631 0.5791428
0.0326785 0.3141684 0.6436704
0.2436986 0.3736456 0.6559462
0.4131181 0.4090381 0.6742332
0.5380211 0.4017967 0.6398096
0.6576712 0.3987038 0.6030886
0.7722513 0.4083384 0.5777185
0.8714026 0.4217190 0.5633199
0.9640104 0.4379142 0.5564388
1.0000000 0.4550778 0.5522287
0.0178501 0.3888342 0.4993699
0.1812020 0.4475362 0.5888993
0.3328204 0.4652142 0.6178196
0.5220665 0.5192008 0.6634519
0.6235458 0.4844162 0.6016002
0.7325564 0.4740106 0.5527909
0.8394544 0.4776761 0.5306078
0.9332044 0.4779290 0.5272974
1.0000000 0.4790029 0.5283473
0.0216961 0.5218657 0.5060684
0.1089438 0.4983301 0.5014411
0.2256767 0.4980384 0.5186145
0.4102699 0.5481051 0.5660610
0.5693536 0.5618605 0.5656908
0.6491459 0.5206664 0.5088531
0.8115730 0.5541526 0.4968883
0.9061739 0.5387048 0.5030970
1.0000000 0.5258534 0.5069856
0.0000000 0.5762108 0.4521014
0.0533781 0.5545313 0.4340517
0.1683264 0.5513344 0.4337047
0.3239045 0.5832827 0.4594437
0.4888651 0.6192662 0.4891119
0.6305648 0.6321458 0.5078393
0.7359606 0.6115676 0.4805795
0.8792356 0.6276735 0.4938305
0.9929620 0.6130624 0.4891677
0.0000000 0.6077027 0.3859618
0.0000000 0.6063372 0.3758854
0.1201850 0.6122159 0.3731204
0.2604467 0.6334242 0.3863704
0.4201297 0.6716547 0.4191532
0.5791575 0.7059106 0.4552988
0.7073389 0.7104125 0.4655005
0.8454867 0.7209219 0.4726534
0.9872575 0.7298015 0.4783115
0.0000000 0.6343313 0.3190169
0.0000000 0.6521800 0.3199497
0.0706504 0.6718042 0.3239437
0.2128207 0.6971981 0.3364415
0.3667891 0.7327068 0.3635423
0.5289858 0.7745318 0.4014817
0.6839041 0.8080784 0.4338167
0.8305008 0.8305621 0.4533909
0.9864315 0.8581511 0.4748788
0.0000000 0.6613475 0.2527028
0.0000000 0.6961888 0.2655974
0.0198207 0.7299393 0.2779312
0.1680804 0.7628616 0.2926204
0.3195267 0.7983169 0.3141325
0.4793735 0.8414947 0.3465683
0.6499668 0.8934119 0.3898226
0.8245243 0.9468173 0.4375672
0.9969765 0.9973002 0.4848617
0.3556692 0.3496738 0.8739080
0.4536030 0.3127405 0.8700255
0.5434563 0.2884322 0.8311342
0.6324746 0.2803456 0.7810192
0.7272768 0.2911126 0.7496769
0.8257953 0.3165557 0.7393385
0.9224222 0.3512234 0.7368407
1.0000000 0.3907993 0.7322442
1.0000000 0.4325578 0.7247511
0.2819736 0.3703082 0.8785445
0.3938774 0.3732203 0.8499129
0.5062083 0.3739688 0.8209508
0.6087518 0.3713735 0.7869713
0.7082916 0.3738295 0.7565808
0.8098377 0.3882325 0.7387457
0.9070633 0.4097160 0.7267469
0.9986259 0.4343295 0.7160219
1.0000000 0.4602884 0.7063540
0.1883144 0.4156296 0.8484237
0.3203986 0.4254995 0.8059845
0.4559104 0.4487340 0.8008528
0.5794297 0.4593741 0.7912274
0.6901448 0.4595319 0.7659255
0.7941976 0.4621602 0.7374691
0.8909332 0.4692624 0.7140657
0.9816893 0.4789029 0.6977558
1.0000000 0.4896057 0.6850949
0.0807230 0.4421453 0.7233756
0.2247088 0.4662551 0.7253273
0.3606625 0.4871818 0.7463009
0.5346537 0.5390967 0.7814842
0.6771693 0.5569004 0.7811526
0.7734134 0.5375124 0.7313827
0.8688935 0.5305801 0.6943580
0.9614480 0.5278637 0.6743334
1.0000000 0.5251852 0.6621454
0.0534750 0.5287693 0.6402397
0.1240828 0.5020831 0.6245200
0.2580675 0.5132469 0.6582082
0.4133568 0.5436184 0.6818744
0.6823709 0.6808722 0.8043378
0.7375892 0.6109773 0.7145998
0.8271604 0.5869475 0.6613411
0.9355089 0.5856590 0.6465021
1.0000000 0.5761572 0.6430229
0.0000000 0.5897669 0.5818878
0.0698788 0.5667521 0.5660008
0.1838141 0.5619344 0.5687227
0.3321164 0.5862985 0.5989464
0.5761283 0.7053064 0.7046279
0.7090419 0.7083558 0.7071662
0.7538242 0.6293094 0.6136051
0.9057077 0.6599801 0.6247837
1.0000000 0.6497887 0.6280660
0.0000000 0.6153304 0.5081875
0.0013663 0.6164433 0.5052624
0.1284669 0.6238476 0.5081188
0.2764610 0.6500073 0.5298395
0.4510263 0.7026887 0.5784437
0.6519786 0.7778442 0.6530996
0.7724463 0.7726623 0.6541291
0.8535702 0.7323398 0.6079365
0.9903062 0.7403935 0.6109376
0.0000000 0.6392812 0.4364523
0.0000000 0.6603401 0.4453258
0.0731564 0.6832141 0.4567828
0.2207146 0.7109426 0.4759757
0.3793150 0.7488952 0.5089890
0.5530044 0.8005007 0.5596012
0.7188742 0.8444389 0.6059442
0.8401022 0.8437893 0.6033132
0.9712101 0.8458735 0.5945636
0.0000000 0.6645042 0.3663618
0.0000000 0.7030507 0.3877973
0.0150796 0.7395443 0.4082590
0.1667474 0.7727097 0.4286505
0.3170760 0.8041924 0.4517351
0.4707541 0.8395012 0.4827860
0.6377554 0.8864644 0.5266910
0.8179299 0.9430885 0.5777407
0.9948815 0.9961507 0.6184472
0.5009401 0.4643095 0.9604683
0.5850734 0.4301020 1.0000000
0.6548019 0.4029048 0.9996042
0.7138842 0.3811473 0.9633181
0.7732257 0.3692956 0.9227529
0.8404053 0.3699961 0.8938506
0.9155082 0.3811535 0.8740069
0.9954597 0.3986584 0.8554863
1.0000000 0.4187324 0.8369634
0.4310951 0.4762284 0.9907789
0.5088072 0.4635462 0.9816501
0.5862627 0.4526851 0.9671623
0.6631671 0.4439407 0.9436937
0.7416191 0.4383282 0.9157326
0.8241470 0.4394091 0.8904259
0.9100128 0.4472762 0.8696068
0.9964644 0.4591232 0.8511498
1.0000000 0.4724703 0.8335257
0.3629956 0.5041205 0.9686884
0.4229586 0.4932221 0.9427545
0.5053496 0.4935697 0.9276658
0.6083959 0.5034897 0.9226069
0.7110097 0.5088667 0.9096920
0.8081293 0.5107072 0.8873567
0.9031003 0.5144691 0.8645086
0.9955491 0.5201335 0.8441661
1.0000000 0.5262748 0.8250880
0.3030962 0.5435794 0.8949908
0.3154727 0.5172813 0.8710497
0.4087488 0.5229064 0.8747616
0.5436799 0.5526904 0.8930818
0.6826905 0.5840262 0.9039005
0.7940009 0.5877896 0.8845415
0.8924744 0.5838502 0.8562389
0.9888862 0.5823915 0.8319506
1.0000000 0.5813471 0.8102024
0.1719327 0.5748436 0.7976746
0.1902312 0.5426700 0.7824307
0.3144986 0.5553072 0.8051170
0.4663220 0.5871819 0.8479493
0.6427951 0.6522471 0.8787279
0.7915421 0.6835062 0.8890508
0.8755172 0.6563147 0.8434538
0.9703141 0.6442821 0.8113725
1.0000000 0.6412412 0.7914130
0.0033681 0.5934798 0.7107852
0.0934613 0.5852104 0.7092044
0.2226609 0.5954019 0.7215475
0.3778340 0.6235428 0.7584616
0.5678312 0.6846787 0.8072673
0.7810604 0.7812175 0.8854412
0.8463548 0.7296500 0.8255353
0.9321969 0.7016397 0.7786548
1.0000000 0.7128026 0.7755882
0.0000000 0.6161429 0.6325891
0.0116960 0.6284962 0.6414282
0.1486470 0.6445691 0.6543571
0.2994984 0.6720964 0.6790058
0.4704028 0.7159912 0.7208764
0.6847591 0.8028772 0.8054349
0.7902262 0.7904853 0.7920509
0.8876010 0.7681831 0.7471394
1.0000000 0.7916352 0.7637699
0.0000000 0.6395246 0.5560981
0.0000000 0.6676894 0.5755168
0.0795283 0.6970760 0.5969340
0.2357150 0.7299253 0.6237375
0.3969345 0.7675608 0.6580910
0.5635631 0.8112491 0.7006439
0.7329138 0.8574376 0.7464215
0.8489805 0.8532977 0.7388149
0.9918018 0.8683876 0.7429585
0.0000000 0.6624527 0.4791505
0.0000000 0.7067197 0.5119381
0.0086045 0.7489449 0.5434010
0.1705531 0.7863481 0.5718055
0.3261387 0.8187470 0.5984419
0.4792516 0.8491875 0.6264061
0.6368386 0.8844247 0.6614005
0.8077621 0.9316328 0.7048398
0.9864670 0.9879060 0.7442655
0.6753900 0.5714614 1.0000000
0.7240775 0.5424087 1.0000000
0.7637153 0.5125819 1.0000000
0.7947131 0.4820664 1.0000000
0.8257254 0.4536216 1.0000000
0.8638601 0.4311571 1.0000000
0.9138022 0.4157693 1.0000000
0.9734356 0.4057982 0.9812393
1.0000000 0.3980411 0.9469715
0.5900513 0.5779108 1.0000000
0.6290297 0.5537754 1.0000000
0.6700826 0.5321312 1.0000000
0.7183584 0.5149944 1.0000000
0.7757582 0.5017673 1.0000000
0.8413127 0.4921179 1.0000000
0.9135917 0.4864676 1.0000000
0.9909746 0.4839129 0.9875929
1.0000000 0.4826271 0.9606395
0.5037002 0.5895044 1.0000000
0.5298825 0.5659223 1.0000000
0.5715429 0.5497072 1.0000000
0.6400588 0.5463587 1.0000000
0.7261129 0.5499320 1.0000000
0.8176424 0.5535308 1.0000000
0.9117585 0.5573383 1.0000000
1.0000000 0.5618305 0.9916501
1.0000000 0.5663106 0.9710302
0.4097274 0.6083749 1.0000000
0.4164768 0.5794116 1.0000000
0.4668043 0.5673796 1.0000000
0.5585111 0.5744217 1.0000000
0.6733152 0.5955311 1.0000000
0.7927417 0.6163494 1.0000000
0.9066579 0.6297914 1.0000000
1.0000000 0.6393548 0.9914243
1.0000000 0.6465492 0.9740093
0.2530051 0.6141135 0.9439450
0.2801417 0.5933452 0.9366297
0.3627272 0.5929935 0.9389809
0.4739473 0.6018117 0.9432836
0.6030573 0.6261199 0.9554006
0.7613737 0.6773455 0.9872005
0.8996371 0.7069049 0.9977974
1.0000000 0.7144088 0.9835535
1.0000000 0.7218309 0.9663849
0.0490737 0.6086382 0.8507291
0.1466176 0.6140319 0.8585408
0.2664572 0.6287978 0.8724966
0.3973803 0.6441478 0.8844273
0.5168700 0.6477146 0.8824896
0.7164226 0.7314243 0.9471985
0.8819414 0.7824493 0.9816114
0.9903163 0.7802879 0.9609065
1.0000000 0.7977579 0.9527144
0.0000000 0.6188493 0.7616974
0.0308938 0.6430557 0.7826207
0.1767953 0.6692103 0.8055623
0.3292717 0.6999869 0.8322713
0.4844099 0.7313071 0.8586743
0.6239972 0.7490519 0.8710773
0.8054371 0.8104637 0.9165249
0.9431677 0.8355738 0.9244584
1.0000000 0.8758144 0.9366203
0.0000000 0.6362985 0.6746232
0.0000000 0.6746473 0.7089000
0.0882971 0.7130577 0.7432851
0.2560161 0.7524908 0.7781591
0.4214245 0.7902824 0.8110497
0.5731794 0.8166572 0.8334087
0.7190639 0.8398418 0.8497067
0.8737329 0.8762837 0.8746091
1.0000000 0.9343654 0.9062727
0.0000000 0.6546722 0.5874958
0.0000000 0.7075791 0.6365506
0.0000000 0.7583687 0.6835613
0.1788736 0.8023827 0.7235110
0.3468234 0.8372442 0.7537331
0.5066837 0.8674580 0.7793245
0.6631111 0.8980798 0.8049802
0.8196194 0.9334930 0.8332982
0.9820683 0.9795543 0.8665739
0.8666653 0.6807649 1.0000000
0.8666415 0.6511192 1.0000000
0.8692669 0.6187141 1.0000000
0.8729001 0.5815318 1.0000000
0.8784357 0.5396139 1.0000000
0.8901193 0.4954148 1.0000000
0.9133207 0.4527738 1.0000000
0.9497420 0.4131587 1.0000000
0.9921497 0.3755802 1.0000000
0.7508387 0.6775861 1.0000000
0.7510074 0.6439085 1.0000000
0.7561533 0.6124881 1.0000000
0.7747894 0.5860065 1.0000000
0.8099021 0.5644561 1.0000000
0.8589096 0.5450953 1.0000000
0.9180233 0.5264824 1.0000000
0.9845923 0.5090834 1.0000000
1.0000000 0.4925181 1.0000000
0.6266109 0.6721312 1.0000000
0.6318181 0.6388500 1.0000000
0.6427762 0.6094609 1.0000000
0.6751412 0.5907221 1.0000000
0.7386310 0.5867830 1.0000000
0.8247358 0.5925796 1.0000000
0.9195758 0.5994786 1.0000000
1.0000000 0.6042182 1.0000000
1.0000000 0.6076499 1.0000000
0.4749801 0.6603710 1.0000000
0.5038552 0.6378471 1.0000000
0.5300601 0.6141297 1.0000000
0.5762352 0.5992091 1.0000000
0.6615091 0.6050543 1.0000000
0.7810438 0.6336090 1.0000000
0.9142915 0.6692553 1.0000000
1.0000000 0.6965319 1.0000000
1.0000000 0.7169548 1.0000000
0.3004333 0.6459528 1.0000000
0.3647647 0.6411597 1.0000000
0.4193457 0.6297760 1.0000000
0.4879543 0.6216350 1.0000000
0.5898543 0.6312881 1.0000000
0.7289551 0.6693598 1.0000000
0.8947532 0.7300243 1.0000000
1.0000000 0.7814659 1.0000000
1.0000000 0.8172026 1.0000000
0.1098764 0.6337157 0.9989084
0.2127026 0.6476706 1.0000000
0.3116922 0.6568542 1.0000000
0.4180991 0.6659793 1.0000000
0.5427890 0.6855380 1.0000000
0.6778983 0.7112294 1.0000000
0.8539676 0.7761737 1.0000000
1.0000000 0.8529788 1.0000000
1.0000000 0.9076477 1.0000000
0.0000000 0.6271720 0.8971651
0.0582889 0.6603442 0.9266980
0.2058375 0.6921900 0.9545431
0.3531532 0.7224688 0.9775646
0.5004389 0.7520901 0.9964690
0.6420693 0.7742710 1.0000000
0.8060534 0.8217701 1.0000000
0.9971431 0.9073151 1.0000000
1.0000000 0.9881299 1.0000000
0.0000000 0.6320859 0.7939988
0.0000000 0.6815575 0.8438468
0.0981531 0.7301947 0.8926658
0.2763906 0.7747694 0.9339960
0.4418971 0.8081634 0.9591174
0.5929288 0.8292418 0.9695546
0.7510988 0.8646705 0.9898681
0.9394087 0.9469166 1.0000000
1.0000000 1.0000000 1.0000000
0.0000000 0.6432964 0.6918745
0.0000000 0.7070821 0.7617590
0.0000000 0.7683245 0.8285378
0.1899708 0.8199432 0.8822050
0.3721927 0.8560275 0.9138102
0.5361558 0.8808760 0.9299867
0.6965188 0.9108303 0.9445495
0.8669231 0.9604625 0.9696020
0.9982262 0.9977754 0.9994034
