catalog/styles/experimental/experimental-flower-plain/look.cube
# experimental-flower-plain iteration 4
LUT_3D_SIZE 33
DOMAIN_MIN 0 0 0
DOMAIN_MAX 1 1 1
0.0612705 0.0634055 0.0565337
0.0704733 0.0358838 0.0173006
0.0905525 0.0236142 0.0046725
0.1254474 0.0206578 0.0082184
0.1703857 0.0170568 0.0152012
0.2289367 0.0154239 0.0208461
0.2999533 0.0175347 0.0232387
0.3757227 0.0207717 0.0216368
0.4483373 0.0223981 0.0167691
0.5125984 0.0211704 0.0097527
0.5670267 0.0171629 0.0015781
0.6128345 0.0112448 0.0000000
0.6526029 0.0042878 0.0000000
0.6888328 0.0000000 0.0000000
0.7231003 0.0000000 0.0000000
0.7559038 0.0000000 0.0000000
0.7868403 0.0000000 0.0000000
0.8149284 0.0000000 0.0000000
0.8390852 0.0000000 0.0000000
0.8586310 0.0000000 0.0000000
0.8741094 0.0000000 0.0000000
0.8863582 0.0000000 0.0000000
0.8962660 0.0000000 0.0000000
0.9051350 0.0000000 0.0000000
0.9140994 0.0000000 0.0000000
0.9241472 0.0000000 0.0000000
0.9357618 0.0000000 0.0000000
0.9490077 0.0000000 0.0000000
0.9636545 0.0000000 0.0000000
0.9793334 0.0000000 0.0000000
0.9954618 0.0000000 0.0000000
1.0000000 0.0000000 0.0000000
1.0000000 0.0000000 0.0061342
0.0174351 0.0392537 0.0144865
0.0420416 0.0332044 0.0044454
0.0757991 0.0396240 0.0062298
0.1216474 0.0524675 0.0110512
0.1806599 0.0667484 0.0157492
0.2469434 0.0783399 0.0208668
0.3116105 0.0828956 0.0239520
0.3705534 0.0804957 0.0236187
0.4239506 0.0741305 0.0200864
0.4726642 0.0665173 0.0142471
0.5174316 0.0591279 0.0071492
0.5586874 0.0522414 0.0000000
0.5965488 0.0456122 0.0000000
0.6319858 0.0392178 0.0000000
0.6660136 0.0331237 0.0000000
0.6986384 0.0273193 0.0000000
0.7295542 0.0218092 0.0000000
0.7583446 0.0166750 0.0000000
0.7845161 0.0120824 0.0000000
0.8078220 0.0081832 0.0000000
0.8283845 0.0050606 0.0000000
0.8465458 0.0027295 0.0000000
0.8628480 0.0011446 0.0000000
0.8780396 0.0002174 0.0000000
0.8928764 0.0000000 0.0000000
0.9079305 0.0000000 0.0000000
0.9235770 0.0003293 0.0000000
0.9399549 0.0009666 0.0000000
0.9569898 0.0017745 0.0000000
0.9745211 0.0026861 0.0000000
0.9922617 0.0036563 0.0000000
1.0000000 0.0046338 0.0000000
1.0000000 0.0055793 0.0080686
0.0000000 0.0425352 0.0000000
0.0128118 0.0367862 0.0028864
0.0496090 0.0475272 0.0076418
0.1140410 0.0786371 0.0110209
0.2001398 0.1209900 0.0169506
0.2759393 0.1477543 0.0230694
0.3297997 0.1508153 0.0265020
0.3706140 0.1404149 0.0266912
0.4064451 0.1257543 0.0238794
0.4418414 0.1123022 0.0189224
0.4782302 0.1018369 0.0127237
0.5150277 0.0938914 0.0057202
0.5509659 0.0874495 0.0000000
0.5853270 0.0816488 0.0000000
0.6180247 0.0758698 0.0000000
0.6490293 0.0698833 0.0000000
0.6786654 0.0638433 0.0000000
0.7071859 0.0580191 0.0000000
0.7345916 0.0526873 0.0000000
0.7607886 0.0480606 0.0000000
0.7856097 0.0442018 0.0000000
0.8089202 0.0411036 0.0000000
0.8308801 0.0387228 0.0000000
0.8518181 0.0369892 0.0000000
0.8720833 0.0357708 0.0000000
0.8919309 0.0348713 0.0000000
0.9115542 0.0340777 0.0000000
0.9310827 0.0331958 0.0000000
0.9505497 0.0320746 0.0000000
0.9699667 0.0306051 0.0000000
0.9893069 0.0288198 0.0000000
1.0000000 0.0268257 0.0013199
1.0000000 0.0247478 0.0101812
0.0000000 0.0728726 0.0011781
0.0037543 0.0635914 0.0055496
0.0332949 0.0652145 0.0076904
0.1007827 0.0975807 0.0093513
0.2206791 0.1709533 0.0195477
0.3139262 0.2185006 0.0279949
0.3537752 0.2175524 0.0312189
0.3761574 0.1983625 0.0310958
0.3970783 0.1763568 0.0283825
0.4225001 0.1583833 0.0240770
0.4528105 0.1453532 0.0184498
0.4864484 0.1364042 0.0119833
0.5210118 0.1299664 0.0050472
0.5545415 0.1247461 0.0000000
0.5855554 0.1193813 0.0000000
0.6139412 0.1133739 0.0000000
0.6409630 0.1069304 0.0000000
0.6677989 0.1005297 0.0000000
0.6949115 0.0945652 0.0000000
0.7224359 0.0893074 0.0000000
0.7498797 0.0847877 0.0000000
0.7767730 0.0809849 0.0000000
0.8029833 0.0778745 0.0000000
0.8284738 0.0753633 0.0000000
0.8532260 0.0732693 0.0000000
0.8772045 0.0713127 0.0000000
0.9003880 0.0691988 0.0000000
0.9228348 0.0666540 0.0000000
0.9445875 0.0634614 0.0000000
0.9657914 0.0595194 0.0000000
0.9865947 0.0549637 0.0000000
1.0000000 0.0500081 0.0049313
1.0000000 0.0448810 0.0124450
0.0000000 0.1195189 0.0143539
0.0163638 0.1117553 0.0144548
0.0430256 0.1085097 0.0123712
0.0907353 0.1212475 0.0081831
0.1865838 0.1734439 0.0116084
0.2986509 0.2403384 0.0251599
0.3563100 0.2605263 0.0327487
0.3772118 0.2464632 0.0342231
0.3920230 0.2240464 0.0329488
0.4112948 0.2035948 0.0295038
0.4375991 0.1882016 0.0241231
0.4695983 0.1780889 0.0178519
0.5043566 0.1718275 0.0113762
0.5384202 0.1674392 0.0048977
0.5691022 0.1630259 0.0000000
0.5958914 0.1576102 0.0000000
0.6203366 0.1512129 0.0000000
0.6444343 0.1444847 0.0000000
0.6695468 0.1379943 0.0000000
0.6963134 0.1321440 0.0000000
0.7242469 0.1270033 0.0000000
0.7527230 0.1225783 0.0000000
0.7813834 0.1188618 0.0000000
0.8099192 0.1156998 0.0000000
0.8378729 0.1127950 0.0000000
0.8649387 0.1097750 0.0000000
0.8909149 0.1062641 0.0000000
0.9157014 0.1019552 0.0000000
0.9393316 0.0966113 0.0000000
0.9620223 0.0901634 0.0000000
0.9840348 0.0828686 0.0028670
1.0000000 0.0750563 0.0088895
1.0000000 0.0669658 0.0149852
0.0146353 0.1722145 0.0306359
0.0399293 0.1685900 0.0276224
0.0691878 0.1673733 0.0237895
0.1084767 0.1728930 0.0185129
0.1658016 0.1920171 0.0134249
0.2492975 0.2347039 0.0175872
0.3215441 0.2695084 0.0269081
0.3588050 0.2732642 0.0322834
0.3800736 0.2605465 0.0345245
0.3993509 0.2429991 0.0333645
0.4239086 0.2272005 0.0288995
0.4563853 0.2165600 0.0227944
0.4938796 0.2109883 0.0166739
0.5313232 0.2081402 0.0108596
0.5641689 0.2053678 0.0052319
0.5914106 0.2012626 0.0000000
0.6147871 0.1957084 0.0000000
0.6367546 0.1893198 0.0000000
0.6592608 0.1826534 0.0000000
0.6835846 0.1763057 0.0000000
0.7100070 0.1706656 0.0000000
0.7381213 0.1657646 0.0000000
0.7674663 0.1616404 0.0000000
0.7974119 0.1580415 0.0000000
0.8271564 0.1544966 0.0000000
0.8560870 0.1504837 0.0000000
0.8837974 0.1455964 0.0000000
0.9100950 0.1395471 0.0000000
0.9349660 0.1321063 0.0000000
0.9586704 0.1232599 0.0041313
0.9815309 0.1133934 0.0086169
1.0000000 0.1029728 0.0132361
1.0000000 0.0922410 0.0179292
0.0341024 0.2237047 0.0452201
0.0635570 0.2236963 0.0411226
0.0950689 0.2248202 0.0370349
0.1313661 0.2290378 0.0327120
0.1747451 0.2382284 0.0278701
0.2281252 0.2555159 0.0245556
0.2865538 0.2779813 0.0265741
0.3317748 0.2896316 0.0310450
0.3596600 0.2850010 0.0338087
0.3808753 0.2718417 0.0338369
0.4055259 0.2583138 0.0309514
0.4385165 0.2490133 0.0261112
0.4795162 0.2450516 0.0205863
0.5234533 0.2447999 0.0153899
0.5627920 0.2448687 0.0106394
0.5941797 0.2430956 0.0059287
0.6192784 0.2392294 0.0011195
0.6406150 0.2336773 0.0000000
0.6608693 0.2272075 0.0000000
0.6823096 0.2206996 0.0000000
0.7062982 0.2149406 0.0000000
0.7328764 0.2099903 0.0000000
0.7615629 0.2058109 0.0000000
0.7915180 0.2020895 0.0000000
0.8216599 0.1981434 0.0000000
0.8511119 0.1932841 0.0000000
0.8793468 0.1871519 0.0011726
0.9061357 0.1795065 0.0048491
0.9315018 0.1701393 0.0082400
0.9556922 0.1591900 0.0114446
0.9790414 0.1471152 0.0146179
1.0000000 0.1345022 0.0178932
1.0000000 0.1216802 0.0212706
0.0496043 0.2700977 0.0555885
0.0809735 0.2717610 0.0517510
0.1129638 0.2736309 0.0481607
0.1467840 0.2765937 0.0449110
0.1831885 0.2811644 0.0413024
0.2235336 0.2886153 0.0373972
0.2675507 0.2990496 0.0349919
0.3085165 0.3070268 0.0351129
0.3387713 0.3053170 0.0352989
0.3613278 0.2951135 0.0338329
0.3858264 0.2837623 0.0309383
0.4182941 0.2762956 0.0271006
0.4591517 0.2737183 0.0227202
0.5049897 0.2747083 0.0181851
0.5515942 0.2776884 0.0139444
0.5936891 0.2804315 0.0101918
0.6269856 0.2805250 0.0066627
0.6509068 0.2767833 0.0033367
0.6700314 0.2706815 0.0001698
0.6891442 0.2642994 0.0000000
0.7108511 0.2587825 0.0000000
0.7356908 0.2543210 0.0000000
0.7631030 0.2506629 0.0000000
0.7919850 0.2471122 0.0010999
0.8212207 0.2429646 0.0045023
0.8498536 0.2374412 0.0079317
0.8773829 0.2302725 0.0111570
0.9036659 0.2212715 0.0139837
0.9288194 0.2104136 0.0164228
0.9529975 0.1978728 0.0185805
0.9765142 0.1841540 0.0206249
0.9996176 0.1699014 0.0227303
1.0000000 0.1555015 0.0249418
0.0587980 0.3098924 0.0610049
0.0899126 0.3112240 0.0578384
0.1209050 0.3122741 0.0549309
0.1521056 0.3132393 0.0524676
0.1838334 0.3143043 0.0499236
0.2171717 0.3165414 0.0468660
0.2530056 0.3207607 0.0438005
0.2887915 0.3247454 0.0414134
0.3196472 0.3240580 0.0391137
0.3451344 0.3175554 0.0358372
0.3708217 0.3092309 0.0318793
0.4017705 0.3029925 0.0277063
0.4392921 0.3000842 0.0233363
0.4827164 0.3005580 0.0190289
0.5302401 0.3040003 0.0150779
0.5794041 0.3097603 0.0118583
0.6253112 0.3155646 0.0095724
0.6596607 0.3168492 0.0080942
0.6816286 0.3125690 0.0064197
0.7002824 0.3068474 0.0050946
0.7213244 0.3022728 0.0050816
0.7451042 0.2987044 0.0064316
0.7709951 0.2955757 0.0088463
0.7978741 0.2920892 0.0117897
0.8248807 0.2875593 0.0147796
0.8514602 0.2814772 0.0175288
0.8771851 0.2734807 0.0198810
0.9022122 0.2635972 0.0218839
0.9265973 0.2518649 0.0235758
0.9504244 0.2384461 0.0249636
0.9739340 0.2238351 0.0261846
0.9972173 0.2086708 0.0274475
1.0000000 0.1933379 0.0287976
0.0613050 0.3430975 0.0619766
0.0908150 0.3427823 0.0593439
0.1199973 0.3420784 0.0569324
0.1486987 0.3407937 0.0548747
0.1770798 0.3390459 0.0529836
0.2058641 0.3375566 0.0507777
0.2364980 0.3377614 0.0482520
0.2689056 0.3394872 0.0455176
0.3006117 0.3402233 0.0424424
0.3299503 0.3380324 0.0385132
0.3585185 0.3338164 0.0337180
0.3890019 0.3293947 0.0285176
0.4229680 0.3259103 0.0232332
0.4618090 0.3247114 0.0182724
0.5065829 0.3271991 0.0142026
0.5557506 0.3330592 0.0112396
0.6056610 0.3406438 0.0094644
0.6503748 0.3469367 0.0089330
0.6846453 0.3489100 0.0093400
0.7100303 0.3470576 0.0103412
0.7341066 0.3449814 0.0125892
0.7586789 0.3430237 0.0158141
0.7831475 0.3402699 0.0189529
0.8071733 0.3361707 0.0214925
0.8309888 0.3306246 0.0234502
0.8545615 0.3235428 0.0249640
0.8777988 0.3147381 0.0261713
0.9010528 0.3044516 0.0274236
0.9244146 0.2927075 0.0287021
0.9478483 0.2794784 0.0298434
0.9713248 0.2649525 0.0307744
0.9947730 0.2497401 0.0316931
1.0000000 0.2343742 0.0327153
0.0579305 0.3705495 0.0596180
0.0854442 0.3681475 0.0572363
0.1125737 0.3653506 0.0549485
0.1391108 0.3619790 0.0529575
0.1651091 0.3580963 0.0512352
0.1910876 0.3542014 0.0494845
0.2184546 0.3516955 0.0475856
0.2484898 0.3517360 0.0454786
0.2804928 0.3533199 0.0427528
0.3126745 0.3544759 0.0390381
0.3441497 0.3540492 0.0340712
0.3756333 0.3522542 0.0282295
0.4084187 0.3498920 0.0221229
0.4442451 0.3483699 0.0164644
0.4850180 0.3495497 0.0118584
0.5308431 0.3541239 0.0086249
0.5789718 0.3608969 0.0067522
0.6255568 0.3680076 0.0062733
0.6679814 0.3741635 0.0075516
0.7060913 0.3792574 0.0110360
0.7407035 0.3833482 0.0167404
0.7705696 0.3850205 0.0229760
0.7947172 0.3828093 0.0268875
0.8162713 0.3779414 0.0288116
0.8369916 0.3711057 0.0294196
0.8572440 0.3624481 0.0291603
0.8778904 0.3526592 0.0290411
0.8994543 0.3421632 0.0295850
0.9219700 0.3310546 0.0307823
0.9452404 0.3190749 0.0322829
0.9687799 0.3058663 0.0337122
0.9924041 0.2917503 0.0350110
1.0000000 0.2773322 0.0363002
0.0499683 0.3932929 0.0550944
0.0755639 0.3888834 0.0525296
0.1008522 0.3842057 0.0500451
0.1256941 0.3791308 0.0478025
0.1501009 0.3737336 0.0458589
0.1745881 0.3685303 0.0441552
0.2003186 0.3646214 0.0426110
0.2286310 0.3632374 0.0410297
0.2599049 0.3645033 0.0388691
0.2929841 0.3671056 0.0356148
0.3262463 0.3692252 0.0309755
0.3592985 0.3701637 0.0252901
0.3928691 0.3702235 0.0191587
0.4282202 0.3703336 0.0133082
0.4666305 0.3716436 0.0083719
0.5087349 0.3751004 0.0046365
0.5534421 0.3805084 0.0022552
0.5989306 0.3872029 0.0015025
0.6437354 0.3945979 0.0028240
0.6871384 0.4023852 0.0067992
0.7285195 0.4101201 0.0135459
0.7657344 0.4160689 0.0216296
0.7952889 0.4172644 0.0276687
0.8191420 0.4141523 0.0307392
0.8391663 0.4071834 0.0308815
0.8570635 0.3971875 0.0289879
0.8761277 0.3868437 0.0279318
0.8969907 0.3767495 0.0283360
0.9193223 0.3666834 0.0298760
0.9425911 0.3562062 0.0320115
0.9663142 0.3450239 0.0343895
0.9902309 0.3330201 0.0366970
1.0000000 0.3204404 0.0387837
0.0385862 0.4122775 0.0492170
0.0626780 0.4063088 0.0461314
0.0866010 0.4002023 0.0431356
0.1102534 0.3939107 0.0403669
0.1337507 0.3875889 0.0379208
0.1575852 0.3817625 0.0358909
0.1826903 0.3773245 0.0342795
0.2100339 0.3751193 0.0328056
0.2401230 0.3754799 0.0309053
0.2726371 0.3779772 0.0280431
0.3064703 0.3813202 0.0240185
0.3408979 0.3844975 0.0190555
0.3759143 0.3872035 0.0136409
0.4120598 0.3897325 0.0082988
0.4499318 0.3925658 0.0035239
0.4899571 0.3962594 0.0000000
0.5319749 0.4010875 0.0000000
0.5754568 0.4071461 0.0000000
0.6198126 0.4144119 0.0000000
0.6641455 0.4225583 0.0000000
0.7069678 0.4306381 0.0052637
0.7463901 0.4372598 0.0121567
0.7803932 0.4406961 0.0184497
0.8087442 0.4401404 0.0227484
0.8319602 0.4352241 0.0242621
0.8516776 0.4266920 0.0234252
0.8716494 0.4174597 0.0230649
0.8931482 0.4085619 0.0241397
0.9159888 0.3998789 0.0264180
0.9396879 0.3910476 0.0293950
0.9638391 0.3818087 0.0326986
0.9882399 0.3720954 0.0360917
1.0000000 0.3620248 0.0394158
0.0247874 0.4283299 0.0424326
0.0480050 0.4214118 0.0386334
0.0711368 0.4144547 0.0349295
0.0941856 0.4075114 0.0314475
0.1173153 0.4008012 0.0283141
0.1409887 0.3948089 0.0256569
0.1658978 0.3901842 0.0234989
0.1927022 0.3875143 0.0216162
0.2218621 0.3871481 0.0195889
0.2534358 0.3890603 0.0169911
0.2871376 0.3927820 0.0137005
0.3223188 0.3973994 0.0097171
0.3586021 0.4023083 0.0054007
0.3958739 0.4072261 0.0010903
0.4341834 0.4121290 0.0000000
0.4736546 0.4171446 0.0000000
0.5143338 0.4224900 0.0000000
0.5562082 0.4284466 0.0000000
0.5990654 0.4352001 0.0000000
0.6422106 0.4425775 0.0000000
0.6842574 0.4497618 0.0000000
0.7237171 0.4556966 0.0000000
0.7593911 0.4594029 0.0047816
0.7906203 0.4600670 0.0091213
0.8175221 0.4573303 0.0119477
0.8413840 0.4518160 0.0135607
0.8643008 0.4450324 0.0151680
0.8876021 0.4380014 0.0176057
0.9116523 0.4309775 0.0209341
0.9362664 0.4238670 0.0248908
0.9612231 0.4165334 0.0291739
0.9863653 0.4089490 0.0336047
1.0000000 0.4012180 0.0380686
0.0094734 0.4421686 0.0349579
0.0324186 0.4349136 0.0303727
0.0553386 0.4276926 0.0258643
0.0782841 0.4206268 0.0215731
0.1014863 0.4139685 0.0176309
0.1253147 0.4081140 0.0141449
0.1502583 0.4035391 0.0111465
0.1768294 0.4006959 0.0085199
0.2054519 0.3999523 0.0060572
0.2363896 0.4014949 0.0035428
0.2696678 0.4051904 0.0008226
0.3050355 0.4105561 0.0000000
0.3420528 0.4169613 0.0000000
0.3802457 0.4238064 0.0000000
0.4192589 0.4306931 0.0000000
0.4589607 0.4374274 0.0000000
0.4992974 0.4439709 0.0000000
0.5402347 0.4504234 0.0000000
0.5816352 0.4569127 0.0000000
0.6230288 0.4633403 0.0000000
0.6635682 0.4693165 0.0000000
0.7022144 0.4742216 0.0000000
0.7380690 0.4773750 0.0000000
0.7708488 0.4784744 0.0000000
0.8007125 0.4774532 0.0000000
0.8283710 0.4745978 0.0017042
0.8546464 0.4703965 0.0053517
0.8804124 0.4654915 0.0093756
0.9061991 0.4602883 0.0139354
0.9321504 0.4549210 0.0189636
0.9582414 0.4494020 0.0242983
0.9844347 0.4437567 0.0297845
1.0000000 0.4380513 0.0353204
0.0000000 0.4543899 0.0268886
0.0165720 0.4473340 0.0215106
0.0397351 0.4403569 0.0161914
0.0629918 0.4336158 0.0110671
0.0865868 0.4273574 0.0062676
0.1107977 0.4219078 0.0018911
0.1360006 0.4176384 0.0000000
0.1626264 0.4149329 0.0000000
0.1910766 0.4141554 0.0000000
0.2216733 0.4155722 0.0000000
0.2545824 0.4192057 0.0000000
0.2898217 0.4249069 0.0000000
0.3270140 0.4321388 0.0000000
0.3656690 0.4402738 0.0000000
0.4052362 0.4487163 0.0000000
0.4453601 0.4570301 0.0000000
0.4857723 0.4649140 0.0000000
0.5262465 0.4721935 0.0000000
0.5665962 0.4788035 0.0000000
0.6065262 0.4846773 0.0000000
0.6456256 0.4897191 0.0000000
0.6832737 0.4936985 0.0000000
0.7189487 0.4963438 0.0000000
0.7525230 0.4976044 0.0000000
0.7842485 0.4975981 0.0000000
0.8145689 0.4965287 0.0000000
0.8437021 0.4944166 0.0000000
0.8719688 0.4914958 0.0001231
0.8997506 0.4880925 0.0059361
0.9273183 0.4844241 0.0121085
0.9548101 0.4805991 0.0185361
0.9822901 0.4766846 0.0250940
1.0000000 0.4727352 0.0316893
0.0000000 0.4654767 0.0182639
0.0009153 0.4590359 0.0121285
0.0246508 0.4526924 0.0060532
0.0485213 0.4466147 0.0001393
0.0727155 0.4410355 0.0000000
0.0974841 0.4362338 0.0000000
0.1231475 0.4325246 0.0000000
0.1500660 0.4302410 0.0000000
0.1786114 0.4297164 0.0000000
0.2091124 0.4312249 0.0000000
0.2417927 0.4348970 0.0000000
0.2767605 0.4407095 0.0000000
0.3137723 0.4483057 0.0000000
0.3524513 0.4571431 0.0000000
0.3922410 0.4665863 0.0000000
0.4326000 0.4760381 0.0000000
0.4731031 0.4850173 0.0000000
0.5133306 0.4931348 0.0000000
0.5530600 0.5001820 0.0000000
0.5920817 0.5060518 0.0000000
0.6301783 0.5107169 0.0000000
0.6670670 0.5141983 0.0000000
0.7025257 0.5165685 0.0000000
0.7365803 0.5179855 0.0000000
0.7694585 0.5186165 0.0000000
0.8014027 0.5185823 0.0000000
0.8325657 0.5179010 0.0000000
0.8629490 0.5165724 0.0000000
0.8926700 0.5147743 0.0000000
0.9219447 0.5126648 0.0047710
0.9509564 0.5103682 0.0122943
0.9798354 0.5079773 0.0199373
1.0000000 0.5055542 0.0276175
0.0000000 0.4758083 0.0092452
0.0000000 0.4702725 0.0024123
0.0102436 0.4648342 0.0000000
0.0348910 0.4596615 0.0000000
0.0598331 0.4549692 0.0000000
0.0852773 0.4510099 0.0000000
0.1115341 0.4480584 0.0000000
0.1389155 0.4464101 0.0000000
0.1677348 0.4463560 0.0000000
0.1983076 0.4481556 0.0000000
0.2308877 0.4519795 0.0000000
0.2655713 0.4578491 0.0000000
0.3022494 0.4655490 0.0000000
0.3406524 0.4746463 0.0000000
0.3802872 0.4845487 0.0000000
0.4205712 0.4946202 0.0000000
0.4609768 0.5042931 0.0000000
0.5010380 0.5130976 0.0000000
0.5404419 0.5207106 0.0000000
0.5790230 0.5269563 0.0000000
0.6166298 0.5317948 0.0000000
0.6531660 0.5353348 0.0000000
0.6885796 0.5377930 0.0000000
0.7230062 0.5394766 0.0000000
0.7566710 0.5406016 0.0000000
0.7896896 0.5412583 0.0000000
0.8221339 0.5414684 0.0000000
0.8540884 0.5413098 0.0000000
0.8854913 0.5408057 0.0000000
0.9163379 0.5400145 0.0000000
0.9468073 0.5390298 0.0059226
0.9770653 0.5379469 0.0146622
1.0000000 0.5368253 0.0234544
0.0000000 0.4856621 0.0000000
0.0000000 0.4812143 0.0000000
0.0000000 0.4768569 0.0000000
0.0220560 0.4727466 0.0000000
0.0478015 0.4690832 0.0000000
0.0739874 0.4660943 0.0000000
0.1009080 0.4640304 0.0000000
0.1288396 0.4631516 0.0000000
0.1580404 0.4637150 0.0000000
0.1887999 0.4659507 0.0000000
0.2213530 0.4700217 0.0000000
0.2557953 0.4759667 0.0000000
0.2920788 0.4836416 0.0000000
0.3300311 0.4927131 0.0000000
0.3692552 0.5026718 0.0000000
0.4092030 0.5129397 0.0000000
0.4493392 0.5229502 0.0000000
0.4891884 0.5322158 0.0000000
0.5284197 0.5403643 0.0000000
0.5668605 0.5471682 0.0000000
0.6043763 0.5525486 0.0000000
0.6409263 0.5565813 0.0000000
0.6765469 0.5595150 0.0000000
0.7113907 0.5616717 0.0000000
0.7456795 0.5633170 0.0000000
0.7794997 0.5645701 0.0000000
0.8129109 0.5654971 0.0000000
0.8459906 0.5661907 0.0000000
0.8786870 0.5666583 0.0000000
0.9108469 0.5668959 0.0000000
0.9425745 0.5669648 0.0000000
0.9740695 0.5669444 0.0095204
1.0000000 0.5668835 0.0194190
0.0000000 0.4952394 0.0000000
0.0000000 0.4919806 0.0000000
0.0000000 0.4888014 0.0000000
0.0099517 0.4858423 0.0000000
0.0364965 0.4832859 0.0000000
0.0634179 0.4813401 0.0000000
0.0910152 0.4802313 0.0000000
0.1195250 0.4801931 0.0000000
0.1491410 0.4814526 0.0000000
0.1801286 0.4842057 0.0000000
0.2126921 0.4885852 0.0000000
0.2469252 0.4946279 0.0000000
0.2828238 0.5022313 0.0000000
0.3202608 0.5111271 0.0000000
0.3589386 0.5209143 0.0000000
0.3984060 0.5311060 0.0000000
0.4381492 0.5411950 0.0000000
0.4777337 0.5507173 0.0000000
0.5168397 0.5593041 0.0000000
0.5553043 0.5667027 0.0000000
0.5929753 0.5727943 0.0000000
0.6298127 0.5775980 0.0000000
0.6658658 0.5813052 0.0000000
0.7012434 0.5841777 0.0000000
0.7361462 0.5864785 0.0000000
0.7706782 0.5883931 0.0000000
0.8049006 0.5900319 0.0000000
0.8388691 0.5914686 0.0000000
0.8725161 0.5926833 0.0000000
0.9056816 0.5936831 0.0000000
0.9384541 0.5945466 0.0000000
0.9709841 0.5953428 0.0045601
1.0000000 0.5961069 0.0155031
0.0000000 0.5046871 0.0000000
0.0000000 0.5026537 0.0000000
0.0000000 0.5006879 0.0000000
0.0000000 0.4989134 0.0000000
0.0257856 0.4974952 0.0000000
0.0534104 0.4966220 0.0000000
0.0816375 0.4964953 0.0000000
0.1106833 0.4973218 0.0000000
0.1407091 0.4993004 0.0000000
0.1719245 0.5025935 0.0000000
0.2045059 0.5073057 0.0000000
0.2385518 0.5134617 0.0000000
0.2740809 0.5209823 0.0000000
0.3110143 0.5296615 0.0000000
0.3491274 0.5391833 0.0000000
0.3880573 0.5491634 0.0000000
0.4273560 0.5591773 0.0000000
0.4666644 0.5688162 0.0000000
0.5056773 0.5777371 0.0000000
0.5442234 0.5856840 0.0000000
0.5821632 0.5925141 0.0000000
0.6194376 0.5982054 0.0000000
0.6560630 0.6028587 0.0000000
0.6921105 0.6066487 0.0000000
0.7277102 0.6097962 0.0000000
0.7629560 0.6125027 0.0000000
0.7978946 0.6149077 0.0000000
0.8325868 0.6170788 0.0000000
0.8669662 0.6189995 0.0000000
0.9009677 0.6206761 0.0000000
0.9345800 0.6221300 0.0000000
0.9679789 0.6235241 0.0000000
1.0000000 0.6249302 0.0113714
0.0000000 0.5140967 0.0000000
0.0000000 0.5132833 0.0000000
0.0000000 0.5125269 0.0000000
0.0000000 0.5119342 0.0000000
0.0155389 0.5116521 0.0000000
0.0437828 0.5118483 0.0000000
0.0725739 0.5127000 0.0000000
0.1020885 0.5143851 0.0000000
0.1324789 0.5170713 0.0000000
0.1638945 0.5208952 0.0000000
0.1964984 0.5259395 0.0000000
0.2303822 0.5322210 0.0000000
0.2655783 0.5396732 0.0000000
0.3020492 0.5481440 0.0000000
0.3396458 0.5573943 0.0000000
0.3780514 0.5671259 0.0000000
0.4169223 0.5769985 0.0000000
0.4559596 0.5866712 0.0000000
0.4949102 0.5958401 0.0000000
0.5335841 0.6042670 0.0000000
0.5718188 0.6117999 0.0000000
0.6095658 0.6183790 0.0000000
0.6468259 0.6240287 0.0000000
0.6836201 0.6288500 0.0000000
0.7199880 0.6329985 0.0000000
0.7559828 0.6366412 0.0000000
0.7916300 0.6399078 0.0000000
0.8269871 0.6428735 0.0000000
0.8620359 0.6455558 0.0000000
0.8967611 0.6479513 0.0000000
0.9311555 0.6500474 0.0000000
0.9652617 0.6518879 0.0000000
0.9992567 0.6538246 0.0062038
0.0000000 0.5235152 0.0000000
0.0000000 0.5238968 0.0000000
0.0000000 0.5243267 0.0000000
0.0000000 0.5248939 0.0000000
0.0056701 0.5257237 0.0000000
0.0344206 0.5269619 0.0000000
0.0636744 0.5287638 0.0000000
0.0935938 0.5312803 0.0000000
0.1242848 0.5346518 0.0000000
0.1558697 0.5389887 0.0000000
0.1884849 0.5443597 0.0000000
0.2222227 0.5507764 0.0000000
0.2571495 0.5581910 0.0000000
0.2932265 0.5664920 0.0000000
0.3303477 0.5755060 0.0000000
0.3682916 0.5850071 0.0000000
0.4067873 0.5947330 0.0000000
0.4455843 0.6044053 0.0000000
0.4844959 0.6137657 0.0000000
0.5233096 0.6226040 0.0000000
0.5618616 0.6307707 0.0000000
0.6000894 0.6381793 0.0000000
0.6379760 0.6448039 0.0000000
0.6755166 0.6506850 0.0000000
0.7126820 0.6559143 0.0000000
0.7494523 0.6606045 0.0000000
0.7858532 0.6648515 0.0000000
0.8219249 0.6687266 0.0000000
0.8576669 0.6722632 0.0000000
0.8930861 0.6754600 0.0000000
0.9282111 0.6782934 0.0000000
0.9630468 0.6808020 0.0000000
0.9977442 0.6833183 0.0000000
0.0000000 0.5329692 0.0000000
0.0000000 0.5345127 0.0000000
0.0000000 0.5360947 0.0000000
0.0000000 0.5377864 0.0000000
0.0000000 0.5396898 0.0000000
0.0252559 0.5419313 0.0000000
0.0548776 0.5446433 0.0000000
0.0851110 0.5479543 0.0000000
0.1160378 0.5519799 0.0000000
0.1477524 0.5568130 0.0000000
0.1803690 0.5625064 0.0000000
0.2139913 0.5690750 0.0000000
0.2486830 0.5764874 0.0000000
0.2844260 0.5846708 0.0000000
0.3211480 0.5935022 0.0000000
0.3587013 0.6028193 0.0000000
0.3968879 0.6124213 0.0000000
0.4354979 0.6220892 0.0000000
0.4743746 0.6316109 0.0000000
0.5133215 0.6408038 0.0000000
0.5521912 0.6495286 0.0000000
0.5908814 0.6576887 0.0000000
0.6293773 0.6652291 0.0000000
0.6676308 0.6721429 0.0000000
0.7055605 0.6784688 0.0000000
0.7431393 0.6842661 0.0000000
0.7803704 0.6895935 0.0000000
0.8172347 0.6944983 0.0000000
0.8537496 0.6990197 0.0000000
0.8899566 0.7031720 0.0000000
0.9258863 0.7069619 0.0000000
0.9615387 0.7104365 0.0000000
0.9970545 0.7137695 0.0000000
0.0000000 0.5424818 0.0000000
0.0000000 0.5451411 0.0000000
0.0000000 0.5478294 0.0000000
0.0000000 0.5506009 0.0000000
0.0000000 0.5535367 0.0000000
