catalog/styles/film/film-warm/look.cube
# film-warm iteration 5
LUT_3D_SIZE 9
DOMAIN_MIN 0 0 0
DOMAIN_MAX 1 1 1
0.0539474 0.0582520 0.0536736
0.1180532 0.0263201 0.0207776
0.4487285 0.0256083 0.0278629
0.6863205 0.0162996 0.0000000
0.7757626 0.0031270 0.0000000
0.8152632 0.0000000 0.0000000
0.8318003 0.0000000 0.0000000
0.8522147 0.0000000 0.0000000
0.8782424 0.0146663 0.0326059
0.0180481 0.1459228 0.0069303
0.2521814 0.1019388 0.0011667
0.4918169 0.1408435 0.0136324
0.5726418 0.1206460 0.0180833
0.6813961 0.1169426 0.0000000
0.7500518 0.1075749 0.0000000
0.7983409 0.1115061 0.0000000
0.8323534 0.1122171 0.0030919
0.8618631 0.0946086 0.0285039
0.1442271 0.3843875 0.0064110
0.3366212 0.3584611 0.0193274
0.4837626 0.2834902 0.0209157
0.5832274 0.2066385 0.0286001
0.7171337 0.2352338 0.0187500
0.7629260 0.2509415 0.0097767
0.7954106 0.2693601 0.0141932
0.8261309 0.2565549 0.0231502
0.8549576 0.2135760 0.0317846
0.2159644 0.5580269 0.0000000
0.3558130 0.5108135 0.0018497
0.4693549 0.4346893 0.0327142
0.5926428 0.3424145 0.0244907
0.7073637 0.2977284 0.0072304
0.7884587 0.3494423 0.0105267
0.8219095 0.3953868 0.0209447
0.8381980 0.3833079 0.0194063
0.8586615 0.3696791 0.0328360
0.2535048 0.6965617 0.0000000
0.3656287 0.6311461 0.0000000
0.4726290 0.5565059 0.0000000
0.5871580 0.4796232 0.0000000
0.7052970 0.4274976 0.0000000
0.7885443 0.4154975 0.0000000
0.8302900 0.4374162 0.0000000
0.8518113 0.4673941 0.0000000
0.8655578 0.4928694 0.0216281
0.2946672 0.8182022 0.0000000
0.3936732 0.7514852 0.0000000
0.4931155 0.6844600 0.0000000
0.5939563 0.6211378 0.0000000
0.6930764 0.5693315 0.0000000
0.7740038 0.5338587 0.0000000
0.8254690 0.5231112 0.0000000
0.8529698 0.5437681 0.0000000
0.8657101 0.5788572 0.0208953
0.3454220 0.9331901 0.0000000
0.4258583 0.8701371 0.0000000
0.5073906 0.8086005 0.0000000
0.5898893 0.7510881 0.0000000
0.6702862 0.7001788 0.0000000
0.7428504 0.6593291 0.0000000
0.8011880 0.6340934 0.0000000
0.8411727 0.6290959 0.0000000
0.8652438 0.6400791 0.0000000
0.3987469 1.0000000 0.0000000
0.4554510 0.9853076 0.0000000
0.5137938 0.9267450 0.0000000
0.5746935 0.8717256 0.0000000
0.6380475 0.8219155 0.0000000
0.7021125 0.7791558 0.0000000
0.7642009 0.7451406 0.0000000
0.8208602 0.7193651 0.0000000
0.8727521 0.6977319 0.0000000
0.4507002 1.0000000 0.0000000
0.4828808 1.0000000 0.0000000
0.5174585 1.0000000 0.0000000
0.5565165 0.9897055 0.0000000
0.6024828 0.9405476 0.0000000
0.6578060 0.8953384 0.0000000
0.7233777 0.8523963 0.0000000
0.7983197 0.8097186 0.0000000
0.8783121 0.7667841 0.0000000
0.0438306 0.0479236 0.1479810
0.0878468 0.0218822 0.0814363
0.3423818 0.0169276 0.1048061
0.6320370 0.0425425 0.1119899
0.7784416 0.0733213 0.1125965
0.8307956 0.0962561 0.1088224
0.8444419 0.1218677 0.1096380
0.8478339 0.1729754 0.1410567
0.8583493 0.2290875 0.1952228
0.0325700 0.1585229 0.0971198
0.1157117 0.0992355 0.0899186
0.2401696 0.0749326 0.0910490
0.5123893 0.0972534 0.0932101
0.6721683 0.1442500 0.1028519
0.7582060 0.1851498 0.1136553
0.8080695 0.2199001 0.1287619
0.8392164 0.2433469 0.1490007
0.8642745 0.2631957 0.1724313
0.0421781 0.3109279 0.0964479
0.2418809 0.3076812 0.0703425
0.4346806 0.3082209 0.0628615
0.4907808 0.2121622 0.0950549
0.6140980 0.2040549 0.0874229
0.7226402 0.2587624 0.1015537
0.7872397 0.3150411 0.1299422
0.8294639 0.3362183 0.1484798
0.8615169 0.3291970 0.1570675
0.1198617 0.5020945 0.1056267
0.2751788 0.4712913 0.0775861
0.4179417 0.4306723 0.0686007
0.5273406 0.3499165 0.0794625
0.6553744 0.3212942 0.0858475
0.7339781 0.3392309 0.0761440
0.7885529 0.4167338 0.1084166
0.8276426 0.4360117 0.1318269
0.8558382 0.4269447 0.1463358
0.1833998 0.6562209 0.1029845
0.3084357 0.6106026 0.0723299
0.4438354 0.5707611 0.0384756
0.5642199 0.5172131 0.0073618
0.6614977 0.4499603 0.0130894
0.7598939 0.4509622 0.0348610
0.8023004 0.4692076 0.0432687
0.8301670 0.5031401 0.0830353
0.8577951 0.5245063 0.1268123
0.2308325 0.7824517 0.0951946
0.3413616 0.7324502 0.0503606
0.4529863 0.6829973 0.0034419
0.5568493 0.6288375 0.0000000
0.6505641 0.5776310 0.0000000
0.7404057 0.5561205 0.0000000
0.8045385 0.5602530 0.0000000
0.8362988 0.5737280 0.0390567
0.8640738 0.5984695 0.0927539
0.2759641 0.8949340 0.0790538
0.3676846 0.8416984 0.0251443
0.4569463 0.7871802 0.0000000
0.5431106 0.7338595 0.0000000
0.6273580 0.6891514 0.0000000
0.7075511 0.6599203 0.0000000
0.7773551 0.6494401 0.0000000
0.8300878 0.6517288 0.0000000
0.8704293 0.6589185 0.0447637
0.3208436 0.9993578 0.0582068
0.3912935 0.9449780 0.0009680
0.4610134 0.8912801 0.0000000
0.5308532 0.8410465 0.0000000
0.6018820 0.7976317 0.0000000
0.6738882 0.7638559 0.0000000
0.7448730 0.7419410 0.0000000
0.8118492 0.7305030 0.0000000
0.8729340 0.7241213 0.0000000
0.3651072 1.0000000 0.0363219
0.4147792 1.0000000 0.0000000
0.4652911 0.9955371 0.0000000
0.5188349 0.9485648 0.0000000
0.5770513 0.9064505 0.0000000
0.6414876 0.8689802 0.0000000
0.7130368 0.8364574 0.0000000
0.7914033 0.8103153 0.0000000
0.8745012 0.7900854 0.0000000
0.0836208 0.1050555 0.3971184
0.1362966 0.0414098 0.2419466
0.3033106 0.0259453 0.2009724
0.5321531 0.0543959 0.2193714
0.7143817 0.1160264 0.2488962
0.8091454 0.1817045 0.2688237
0.8469380 0.2444507 0.2848183
0.8614045 0.3126830 0.3090009
0.8686402 0.3920296 0.3459335
0.0677598 0.2062562 0.3100578
0.1598668 0.1636942 0.2614952
0.2525170 0.0827093 0.1769118
0.5125486 0.1233778 0.2049639
0.6769750 0.1895524 0.2345910
0.7623765 0.2516489 0.2547245
0.8144331 0.3093230 0.2764113
0.8465676 0.3558417 0.2970887
0.8728469 0.3955962 0.3152248
0.0553976 0.3298579 0.2585025
0.1818801 0.3156253 0.2603418
0.3075616 0.2532698 0.2171741
0.4807833 0.2182256 0.1784814
0.6333985 0.2584666 0.1853937
0.7222598 0.3199185 0.2253459
0.7863720 0.3739984 0.2595877
0.8301626 0.4058779 0.2796406
0.8666019 0.4245349 0.2913722
0.0932246 0.4817974 0.2470377
0.2095968 0.4557144 0.2167695
0.3370885 0.4074261 0.1670478
0.4858615 0.3588954 0.1430711
0.6242392 0.3613646 0.1652685
0.7044163 0.3924436 0.1845639
0.7650706 0.4406673 0.2227528
0.8129267 0.4681783 0.2510855
0.8549221 0.4819657 0.2717080
0.1360803 0.6299306 0.2511088
0.2528786 0.5927932 0.2029005
0.3886106 0.5629901 0.1521858
0.5310029 0.5325807 0.1077273
0.6252291 0.4751693 0.1001095
0.7255745 0.4840349 0.1453098
0.7722811 0.5139663 0.1726545
0.8084465 0.5396166 0.2090857
0.8492974 0.5579913 0.2498140
0.1684714 0.7520585 0.2332026
0.2857961 0.7111423 0.1848835
0.4047442 0.6725818 0.1367644
0.5135076 0.6279508 0.0909801
0.6068873 0.5805608 0.0629665
0.7024270 0.5678730 0.0787283
0.7781791 0.5911289 0.1200512
0.8182465 0.6095582 0.1690421
0.8572561 0.6302036 0.2196378
0.2036943 0.8570403 0.1985561
0.3071825 0.8116641 0.1558250
0.4066303 0.7652143 0.1153796
0.4990009 0.7182449 0.0802803
0.5865639 0.6778720 0.0572247
0.6724742 0.6569059 0.0584858
0.7529018 0.6601373 0.0866390
0.8160311 0.6742915 0.1278214
0.8689096 0.6913724 0.1695578
0.2421120 0.9526312 0.1570066
0.3265118 0.9044561 0.1224508
0.4092738 0.8567574 0.0909438
0.4901829 0.8126308 0.0665163
0.5699109 0.7761750 0.0527196
0.6490726 0.7506096 0.0525771
0.7273166 0.7391136 0.0666846
0.8021972 0.7407738 0.0863982
0.8721625 0.7487629 0.0984909
0.2801925 1.0000000 0.1142142
0.3470226 0.9957462 0.0890320
0.4142486 0.9494622 0.0667903
0.4829885 0.9086675 0.0515308
0.5541857 0.8742608 0.0452724
0.6282433 0.8457255 0.0459213
0.7056094 0.8236552 0.0472181
0.7870260 0.8107363 0.0419315
0.8706252 0.8058843 0.0282309
0.1651194 0.2037987 0.5827322
0.2278350 0.1110549 0.4216351
0.3390545 0.0714429 0.3328184
0.4966333 0.0963382 0.3327360
0.6547830 0.1606017 0.3697946
0.7708836 0.2421388 0.4071145
0.8377087 0.3238818 0.4343905
0.8753103 0.4026489 0.4565768
0.9029325 0.4808361 0.4776209
0.1307862 0.2904078 0.5350670
0.2321456 0.2328601 0.4396202
0.3397145 0.1779227 0.3654957
0.5058531 0.1927112 0.3558636
0.6646503 0.2551562 0.3809605
0.7592285 0.3171343 0.4007995
0.8160083 0.3775100 0.4197969
0.8552903 0.4338887 0.4372707
0.8885826 0.4864689 0.4525632
0.0504057 0.2671085 0.3148230
0.2561932 0.3932650 0.4816201
0.3728428 0.3367661 0.4384244
0.5187668 0.3119973 0.3954734
0.6637478 0.3466999 0.3787772
0.7451719 0.3903576 0.3831093
0.7947358 0.4315612 0.4011019
0.8348737 0.4666884 0.4164639
0.8719099 0.4992691 0.4296534
0.1228053 0.4848091 0.3938630
0.2116950 0.4830321 0.4103350
0.3006127 0.4333400 0.3886504
0.4992668 0.4304258 0.3943571
0.6279013 0.4194925 0.3573597
0.7349827 0.4703933 0.3515457
0.7780231 0.4898818 0.3769475
0.8156377 0.5067383 0.3931956
0.8545955 0.5294230 0.4104388
0.1161915 0.6282395 0.4045001
0.2115616 0.5864135 0.3592383
0.3297630 0.5521632 0.3249319
0.4729473 0.5219994 0.3045772
0.6166953 0.5284585 0.3382823
0.6942472 0.5226963 0.3270060
0.7704600 0.5633735 0.3648946
0.8057459 0.5718074 0.3802835
0.8430277 0.5863242 0.3980324
0.1116960 0.7321600 0.3683756
0.2272894 0.6891931 0.3224188
0.3500818 0.6541476 0.2862675
0.4731521 0.6247673 0.2657805
0.5795373 0.5949430 0.2580387
0.6703627 0.5816008 0.2668565
0.7554349 0.6120340 0.3142128
0.8061709 0.6411222 0.3612716
0.8465039 0.6578946 0.3915179
0.1321707 0.8217063 0.3149933
0.2446675 0.7802703 0.2827267
0.3561456 0.7413420 0.2558554
0.4628827 0.7063414 0.2384420
0.5614330 0.6768986 0.2312648
0.6509759 0.6610896 0.2376327
0.7325858 0.6688275 0.2652636
0.8014757 0.6933148 0.3102967
0.8606335 0.7213606 0.3595337
0.1622572 0.9045211 0.2565516
0.2622987 0.8638357 0.2403831
0.3606740 0.8238704 0.2265768
0.4561375 0.7882587 0.2188657
0.5484676 0.7613490 0.2196987
0.6357430 0.7450226 0.2286457
0.7168665 0.7409110 0.2437688
0.7926796 0.7502781 0.2603041
0.8653045 0.7679999 0.2689501
0.1936359 0.9849976 0.1976622
0.2801723 0.9450767 0.1978545
0.3663831 0.9064665 0.1982017
0.4511950 0.8719901 0.2008302
0.5350632 0.8447070 0.2085203
0.6187684 0.8258656 0.2191719
0.7024610 0.8150276 0.2235074
0.7849974 0.8120098 0.2100266
0.8664239 0.8154879 0.1763507
0.2759400 0.3217943 0.6826012
0.3526922 0.2373007 0.5860282
0.4308276 0.1840980 0.5069613
0.5304597 0.1888330 0.4838794
0.6426756 0.2367872 0.5047651
0.7446440 0.3058657 0.5396578
0.8219372 0.3815757 0.5684198
0.8789143 0.4569083 0.5885655
0.9276589 0.5308293 0.6051588
0.2254072 0.3691977 0.6520209
0.3410057 0.3381708 0.6015092
0.4547785 0.3164306 0.5667815
0.5586287 0.3105226 0.5404704
0.6658261 0.3394932 0.5381379
0.7541485 0.3858981 0.5484202
0.8155227 0.4365158 0.5602698
0.8619050 0.4880996 0.5714252
0.9037344 0.5395614 0.5822527
0.0993707 0.4002996 0.5807889
0.3132712 0.4335874 0.5988105
0.4846304 0.4616600 0.6322162
0.5955101 0.4449878 0.6089079
0.6862631 0.4427384 0.5764417
0.7593321 0.4641376 0.5567868
0.8074076 0.4914305 0.5517137
0.8451982 0.5208283 0.5559170
0.8811388 0.5507991 0.5627065
0.0683972 0.4688529 0.5132875
0.2499470 0.5229836 0.5758636
0.4266924 0.5372654 0.6108603
0.6306525 0.5892115 0.6719520
0.6903634 0.5393857 0.6123141
0.7503986 0.5369414 0.5636747
0.7987415 0.5508539 0.5443989
0.8311197 0.5604246 0.5465539
0.8611467 0.5719122 0.5518682
0.0927971 0.6341379 0.5467749
0.1844125 0.5939847 0.5166133
0.3233202 0.5725242 0.5148500
0.5249370 0.6034118 0.5701078
0.6565090 0.6137295 0.6038872
0.7106578 0.5788949 0.5432262
0.7926551 0.6224800 0.5449298
0.8212364 0.6139769 0.5496907
0.8461844 0.6117864 0.5533276
0.0726160 0.7217527 0.4962425
0.1776476 0.6745903 0.4598940
0.3054205 0.6412567 0.4412855
0.4600671 0.6367353 0.4588527
0.5983792 0.6457704 0.4999133
0.6939309 0.6492564 0.5293020
0.7512671 0.6470258 0.5243841
0.8126933 0.6781696 0.5583645
0.8412278 0.6760147 0.5637682
0.0691971 0.7899401 0.4279776
0.1896230 0.7523755 0.4071784
0.3130823 0.7199899 0.3946231
0.4398860 0.6988743 0.3991480
0.5649252 0.6948200 0.4265409
0.6683303 0.6986272 0.4609702
0.7342084 0.6949225 0.4773293
0.7953217 0.7145420 0.5166502
0.8455691 0.7379809 0.5536643
0.0815540 0.8550064 0.3590807
0.2015883 0.8242482 0.3566774
0.3190126 0.7946311 0.3568573
0.4321739 0.7696779 0.3640556
0.5410739 0.7547988 0.3821473
0.6408417 0.7518033 0.4089306
0.7221152 0.7546773 0.4337549
0.7876439 0.7616513 0.4533378
0.8530780 0.7798249 0.4781156
0.1011587 0.9205475 0.2915264
0.2135860 0.8937083 0.3073721
0.3221671 0.8665030 0.3211710
0.4238792 0.8402522 0.3337536
0.5199759 0.8189716 0.3486724
0.6126601 0.8076459 0.3676374
0.7022225 0.8079402 0.3857533
0.7854715 0.8146654 0.3908646
0.8629967 0.8226377 0.3782847
0.4217931 0.4503477 0.7414843
0.4998549 0.3872568 0.7245972
0.5593000 0.3430915 0.6947637
0.6130208 0.3279433 0.6713645
0.6745866 0.3457578 0.6708996
0.7434045 0.3863791 0.6869005
0.8108895 0.4385027 0.7058647
0.8726761 0.4952105 0.7200898
0.9311756 0.5535040 0.7310013
0.3715862 0.4821829 0.7479521
0.4666569 0.4602063 0.7354762
0.5544488 0.4437030 0.7253372
0.6251818 0.4343385 0.7121373
0.6912504 0.4391684 0.7016116
0.7572690 0.4623142 0.7005916
0.8149576 0.4952495 0.7037639
0.8643345 0.5320636 0.7075387
0.9109562 0.5703604 0.7119176
0.2810870 0.5426516 0.7461719
0.4079397 0.5228192 0.7294068
0.5324408 0.5313152 0.7406706
0.6331620 0.5356263 0.7453999
0.7101382 0.5335365 0.7335336
0.7695408 0.5382381 0.7159821
0.8163042 0.5515155 0.7026114
0.8554800 0.5694973 0.6971092
0.8923682 0.5891807 0.6957148
0.1468436 0.5737510 0.6893287
0.2973352 0.5722794 0.6985002
0.4540799 0.5792963 0.7134997
0.6304749 0.6207582 0.7504967
0.7303493 0.6302173 0.7615420
0.7721274 0.6087262 0.7267905
0.8110021 0.6058201 0.7012330
0.8453588 0.6099398 0.6911807
0.8764420 0.6145010 0.6882508
0.1169517 0.6484812 0.6600899
0.1669045 0.6143646 0.6434855
0.3522738 0.6094772 0.6573282
0.5305859 0.6141551 0.6656779
0.7465342 0.7289032 0.7793247
0.7561477 0.6660861 0.7219540
0.7934150 0.6517132 0.6921592
0.8334122 0.6563226 0.6899867
0.8631388 0.6525910 0.6930623
0.0622370 0.7141406 0.6085241
0.1583794 0.6763797 0.5886612
0.3006761 0.6518295 0.5854478
0.4747607 0.6541016 0.6144744
0.6723109 0.7271539 0.7042471
0.7383322 0.7221033 0.7165822
0.7597368 0.6804494 0.6637459
0.8223618 0.7103692 0.6904998
0.8527130 0.7042763 0.7039665
0.0149161 0.7593211 0.5374205
0.1525379 0.7330821 0.5292123
0.2945645 0.7122237 0.5300307
0.4444034 0.7065913 0.5519150
0.5893174 0.7196890 0.5973988
0.7154384 0.7541109 0.6653779
0.7695764 0.7498208 0.6774032
0.8014121 0.7432132 0.6712371
0.8465397 0.7553869 0.7015439
0.0023761 0.8045896 0.4665428
0.1478369 0.7874910 0.4734076
0.2888365 0.7719227 0.4835695
0.4221182 0.7601175 0.5017340
0.5474489 0.7570890 0.5325605
0.6604868 0.7673930 0.5754808
0.7455119 0.7812483 0.6139137
0.7942064 0.7804012 0.6289616
0.8424448 0.7863033 0.6554969
0.0004977 0.8516263 0.3972026
0.1430233 0.8409994 0.4199164
0.2786422 0.8287281 0.4403788
0.4020797 0.8144764 0.4585307
0.5129759 0.8014847 0.4777952
0.6133674 0.7958290 0.5010976
0.7057878 0.8026061 0.5312161
0.7878905 0.8171867 0.5639118
0.8582370 0.8297137 0.5897795
0.5983328 0.5758953 0.8000950
0.6575631 0.5411960 0.8488260
0.6931636 0.5091496 0.8650456
0.7109849 0.4845289 0.8618022
0.7299629 0.4752004 0.8556043
0.7632577 0.4833037 0.8547354
0.8096198 0.5040032 0.8580671
0.8617071 0.5311903 0.8606476
0.9150816 0.5606667 0.8609299
0.5511844 0.6056074 0.8338987
0.6022077 0.5820836 0.8473068
0.6471902 0.5624471 0.8571850
0.6862758 0.5488269 0.8604148
0.7259149 0.5422312 0.8580752
0.7698903 0.5452261 0.8543979
0.8163692 0.5568028 0.8513008
0.8629184 0.5732262 0.8486540
0.9090255 0.5914767 0.8461337
0.4938814 0.6389713 0.8308535
0.5294758 0.6167126 0.8339265
0.5851789 0.6059585 0.8401407
0.6577370 0.6074353 0.8514048
0.7241238 0.6078452 0.8561741
0.7765725 0.6065804 0.8517762
0.8213144 0.6089402 0.8440809
0.8626474 0.6152340 0.8376590
0.9027082 0.6231329 0.8323527
0.4399381 0.6671612 0.7924004
0.4123916 0.6411633 0.8007247
0.5024476 0.6378590 0.8105061
0.6266683 0.6527771 0.8257973
0.7254323 0.6696502 0.8431764
0.7819152 0.6661542 0.8428669
0.8214397 0.6587220 0.8337278
0.8585272 0.6569345 0.8268516
0.8949642 0.6573813 0.8224782
0.2751775 0.6888609 0.7495279
0.2588121 0.6616188 0.7524693
0.4185646 0.6651471 0.7681513
0.6030824 0.6855866 0.7886421
0.7150943 0.7154596 0.8093684
0.7874085 0.7276120 0.8294610
0.8145914 0.7044700 0.8172342
0.8482690 0.6970807 0.8132000
0.8853113 0.6964309 0.8170507
0.0750308 0.7074049 0.7038819
0.1737313 0.6913230 0.7010919
0.3462642 0.6879260 0.7091872
0.5390789 0.7045111 0.7366160
0.6849939 0.7374758 0.7674652
0.7848793 0.7771589 0.8125447
0.8008615 0.7447994 0.7961483
0.8309212 0.7330003 0.7921333
0.8753441 0.7404617 0.8120156
0.0000000 0.7299501 0.6434403
0.1414762 0.7230007 0.6457755
0.3063551 0.7200457 0.6548983
0.4728560 0.7280253 0.6793296
0.6207753 0.7472724 0.7181976
0.7431041 0.7832905 0.7715982
0.7799315 0.7718767 0.7714232
0.8139737 0.7669420 0.7680496
0.8657854 0.7817407 0.7987827
0.0000000 0.7540929 0.5772512
0.1036611 0.7548425 0.5903111
0.2716856 0.7567411 0.6064967
0.4281735 0.7614838 0.6296321
0.5673116 0.7701147 0.6616334
0.6811636 0.7829921 0.6999710
0.7643332 0.7996492 0.7364559
0.8028011 0.7971693 0.7441994
0.8532118 0.8059839 0.7705234
0.0000000 0.7790778 0.5097518
0.0648155 0.7872679 0.5360572
0.2342222 0.7934471 0.5608439
0.3861958 0.7957018 0.5833647
0.5178829 0.7957696 0.6052498
0.6293924 0.7985317 0.6301391
0.7208454 0.8080457 0.6610745
0.7937204 0.8227347 0.6991564
0.8536357 0.8369892 0.7404647
0.8071529 0.7116197 0.9026472
0.8201650 0.6919332 0.9700279
0.8182528 0.6668281 1.0000000
0.8040193 0.6383679 1.0000000
0.7918580 0.6113385 1.0000000
0.7945902 0.5904072 1.0000000
0.8154510 0.5767250 1.0000000
0.8488978 0.5682097 1.0000000
0.8871897 0.5616680 0.9947090
0.7455829 0.7243742 0.9172674
0.7438795 0.7011395 0.9502140
0.7425589 0.6790146 0.9782311
0.7469214 0.6595691 0.9972452
0.7613708 0.6430838 1.0000000
0.7861889 0.6297592 1.0000000
0.8197884 0.6204635 1.0000000
0.8591766 0.6144045 0.9923577
0.9007043 0.6097020 0.9841408
0.6762830 0.7319408 0.9101994
0.6597883 0.7087486 0.9247520
0.6613429 0.6897827 0.9389437
0.6901414 0.6791736 0.9534226
0.7338590 0.6736789 0.9661461
0.7793482 0.6682848 0.9732045
0.8239079 0.6633847 0.9752679
0.8678010 0.6598204 0.9743860
0.9110686 0.6568639 0.9723760
0.5843137 0.7359377 0.8818350
0.5492645 0.7133185 0.8904984
0.5727775 0.6996778 0.8972634
0.6389006 0.6959726 0.9048840
0.7116398 0.7001540 0.9180359
0.7749901 0.7048392 0.9341465
0.8266326 0.7048524 0.9458158
0.8722132 0.7032171 0.9530580
0.9155704 0.7013474 0.9582397
0.3955637 0.7283969 0.8430389
0.4003082 0.7140688 0.8489167
0.4857599 0.7109763 0.8531999
0.5965550 0.7109560 0.8530080
0.6871383 0.7160036 0.8586558
0.7690167 0.7367128 0.8870449
0.8277009 0.7453159 0.9125062
0.8702576 0.7426000 0.9261367
0.9126745 0.7413565 0.9387021
0.1485858 0.7131674 0.8000480
0.2607594 0.7150544 0.8036757
0.4086896 0.7228901 0.8089698
0.5589908 0.7312118 0.8091123
0.6578975 0.7293695 0.8037557
0.7571343 0.7637843 0.8394935
0.8231980 0.7812152 0.8757794
0.8589442 0.7742218 0.8912605
0.9038561 0.7781781 0.9127961
0.0000000 0.7061607 0.7480145
0.1587401 0.7193560 0.7563528
0.3369185 0.7343681 0.7657684
0.5090560 0.7532725 0.7764962
0.6481424 0.7715823 0.7892881
0.7243499 0.7776847 0.7996602
0.7969495 0.7961455 0.8284105
0.8395062 0.7974087 0.8506468
0.8903467 0.8117800 0.8811964
0.0000000 0.7040394 0.6878410
0.0674152 0.7257228 0.7064373
0.2642679 0.7474830 0.7253576
0.4446703 0.7695552 0.7451678
0.5952130 0.7890541 0.7650804
0.7007867 0.7998809 0.7810535
0.7685839 0.8057999 0.7928358
0.8212390 0.8164263 0.8176612
0.8691263 0.8327687 0.8410051
0.0000000 0.7032219 0.6243742
0.0000000 0.7333200 0.6562577
0.1897160 0.7615070 0.6867842
0.3777950 0.7843530 0.7134791
0.5348271 0.8005281 0.7342333
0.6585022 0.8127879 0.7510060
0.7457510 0.8241020 0.7675931
0.8027274 0.8346285 0.7845551
0.8522571 0.8453309 0.8075833
1.0000000 0.8583770 1.0000000
0.9857714 0.8404883 1.0000000
0.9374349 0.8187057 1.0000000
0.8920429 0.7882335 1.0000000
0.8538505 0.7477940 1.0000000
0.8294607 0.7007751 1.0000000
0.8241836 0.6525596 1.0000000
0.8357699 0.6061514 1.0000000
0.8554106 0.5614079 1.0000000
0.9454431 0.8430146 1.0000000
0.8886096 0.8197372 1.0000000
0.8406570 0.7953501 1.0000000
0.8089343 0.7695173 1.0000000
0.7966558 0.7425488 1.0000000
0.8029655 0.7141692 1.0000000
0.8239480 0.6848361 1.0000000
0.8547386 0.6559006 1.0000000
0.8895226 0.6275131 1.0000000
0.8360533 0.8252183 0.9889205
0.7866697 0.8001858 1.0000000
0.7464840 0.7752372 1.0000000
0.7297751 0.7528802 1.0000000
0.7432445 0.7369773 1.0000000
0.7795329 0.7264496 1.0000000
0.8253422 0.7162806 1.0000000
0.8722985 0.7042206 1.0000000
0.9186268 0.6910281 1.0000000
0.6772981 0.7995367 0.9713000
0.6706007 0.7819165 0.9761646
0.6563480 0.7611779 0.9793634
0.6599254 0.7419980 0.9836024
0.6984282 0.7328731 0.9956044
0.7609674 0.7368319 1.0000000
0.8273081 0.7453217 1.0000000
0.8855561 0.7484799 1.0000000
0.9381062 0.7470994 1.0000000
0.4780404 0.7656680 0.9434683
0.5338462 0.7629934 0.9404143
0.5673606 0.7537433 0.9317362
0.6073252 0.7425364 0.9217955
0.6724422 0.7390470 0.9244518
0.7492844 0.7488629 0.9476769
0.8262581 0.7701041 0.9894934
0.8915250 0.7856297 1.0000000
0.9468141 0.7917498 1.0000000
0.2521184 0.7266366 0.9033932
0.3697124 0.7413368 0.9037412
0.4739402 0.7509377 0.8953082
0.5732676 0.7561263 0.8787879
0.6699170 0.7626342 0.8716184
0.7450885 0.7684357 0.8846972
0.8180281 0.7898131 0.9269660
0.8866680 0.8135575 0.9790775
0.9423948 0.8248847 1.0000000
0.0142008 0.6876638 0.8540314
0.1951262 0.7187369 0.8643828
0.3716875 0.7477864 0.8676067
0.5327066 0.7719521 0.8585025
0.6612160 0.7886480 0.8457884
0.7424126 0.7956354 0.8478825
0.8046888 0.8084975 0.8760113
0.8694485 0.8322334 0.9245584
0.9244647 0.8513559 0.9714305
0.0000000 0.6545903 0.7984107
0.0354085 0.6983052 0.8225875
0.2606777 0.7408854 0.8423666
0.4628544 0.7784575 0.8524093
0.6200993 0.8042806 0.8507133
0.7212429 0.8160834 0.8448537
0.7863330 0.8243285 0.8494434
0.8445579 0.8446715 0.8768471
0.8970495 0.8678340 0.9187639
0.0000000 0.6252224 0.7399676
0.0000000 0.6794042 0.7790168
0.1452378 0.7318414 0.8172683
0.3756705 0.7775804 0.8486104
0.5602459 0.8110266 0.8641802
0.6898963 0.8303822 0.8609637
0.7685289 0.8408139 0.8481091
0.8188854 0.8521570 0.8447283
0.8575999 0.8580947 0.8585984
