catalog/styles/film/film-warm/look.cube
# film-warm iteration 5
LUT_3D_SIZE 33
DOMAIN_MIN 0 0 0
DOMAIN_MAX 1 1 1
0.0539474 0.0582520 0.0536736
0.0625429 0.0305383 0.0195686
0.0711916 0.0232437 0.0095470
0.0878224 0.0252880 0.0128092
0.1180532 0.0263201 0.0207776
0.1739306 0.0261552 0.0291188
0.2568012 0.0261113 0.0340727
0.3535480 0.0260343 0.0335008
0.4487285 0.0256083 0.0278629
0.5315491 0.0244623 0.0188495
0.5977462 0.0223572 0.0083689
0.6482371 0.0195823 0.0000000
0.6863205 0.0162996 0.0000000
0.7157800 0.0128016 0.0000000
0.7394911 0.0093741 0.0000000
0.7592004 0.0061711 0.0000000
0.7757626 0.0031270 0.0000000
0.7894896 0.0002057 0.0000000
0.8004404 0.0000000 0.0000000
0.8088183 0.0000000 0.0000000
0.8152632 0.0000000 0.0000000
0.8203522 0.0000000 0.0000000
0.8244826 0.0000000 0.0000000
0.8281374 0.0000000 0.0000000
0.8318003 0.0000000 0.0000000
0.8359240 0.0000000 0.0000000
0.8406961 0.0000000 0.0000000
0.8461568 0.0000000 0.0000000
0.8522147 0.0000000 0.0000000
0.8586626 0.0000000 0.0000000
0.8651924 0.0044986 0.0085809
0.8716749 0.0095885 0.0204711
0.8782424 0.0146663 0.0326059
0.0235355 0.0391655 0.0188333
0.0403299 0.0273889 0.0096674
0.0618880 0.0304454 0.0113687
0.0969336 0.0383977 0.0141371
0.1558047 0.0452646 0.0170940
0.2309816 0.0507097 0.0216589
0.3086875 0.0535281 0.0255204
0.3806830 0.0536304 0.0266852
0.4452829 0.0519417 0.0245092
0.5027532 0.0495251 0.0193800
0.5536686 0.0471259 0.0124309
0.5982037 0.0448897 0.0047513
0.6362786 0.0425033 0.0000000
0.6687863 0.0398355 0.0000000
0.6968419 0.0368671 0.0000000
0.7209250 0.0336687 0.0000000
0.7414289 0.0303387 0.0000000
0.7587193 0.0270438 0.0000000
0.7731325 0.0239976 0.0000000
0.7850674 0.0213686 0.0000000
0.7949884 0.0192725 0.0000000
0.8032995 0.0177906 0.0000000
0.8103839 0.0169497 0.0000000
0.8166425 0.0167497 0.0000000
0.8224708 0.0171644 0.0000000
0.8282046 0.0181422 0.0000000
0.8340735 0.0196024 0.0000000
0.8401889 0.0214704 0.0000000
0.8465698 0.0236574 0.0000000
0.8531641 0.0260726 0.0000000
0.8598817 0.0286349 0.0097677
0.8666387 0.0312418 0.0203278
0.8734352 0.0338054 0.0310591
0.0026097 0.0492141 0.0037624
0.0158505 0.0367206 0.0090763
0.0427181 0.0363862 0.0130881
0.1069079 0.0478507 0.0131426
0.2113264 0.0656792 0.0128175
0.3084317 0.0789196 0.0141731
0.3729430 0.0839629 0.0171929
0.4166464 0.0832804 0.0201102
0.4519978 0.0796445 0.0211734
0.4865471 0.0756415 0.0197152
0.5229652 0.0726285 0.0161190
0.5605864 0.0705550 0.0109228
0.5972857 0.0688817 0.0048901
0.6313019 0.0670643 0.0000000
0.6617722 0.0646440 0.0000000
0.6883309 0.0615331 0.0000000
0.7112929 0.0580008 0.0000000
0.7311305 0.0544541 0.0000000
0.7482914 0.0512773 0.0000000
0.7631859 0.0487234 0.0000000
0.7760994 0.0468762 0.0000000
0.7872525 0.0457582 0.0000000
0.7969671 0.0453718 0.0000000
0.8055731 0.0456863 0.0000000
0.8133879 0.0465840 0.0000000
0.8206656 0.0478685 0.0000000
0.8276267 0.0493224 0.0000000
0.8344471 0.0507288 0.0000000
0.8412404 0.0518873 0.0000000
0.8480866 0.0526518 0.0023750
0.8550204 0.0530398 0.0112821
0.8620058 0.0531574 0.0204901
0.8690277 0.0531484 0.0298168
0.0010764 0.0883950 0.0021600
0.0130397 0.0688145 0.0091360
0.0376503 0.0552893 0.0127297
0.1140729 0.0591850 0.0112120
0.2737394 0.0886080 0.0093105
0.4039051 0.1128707 0.0069080
0.4474190 0.1192970 0.0091861
0.4604243 0.1160511 0.0137463
0.4702094 0.1093338 0.0176750
0.4867516 0.1032433 0.0196083
0.5113854 0.0989620 0.0191130
0.5423721 0.0965504 0.0163923
0.5762851 0.0952936 0.0119907
0.6097904 0.0944341 0.0067034
0.6403664 0.0928451 0.0010511
0.6670108 0.0901596 0.0000000
0.6902353 0.0867142 0.0000000
0.7107944 0.0831620 0.0000000
0.7291687 0.0800289 0.0000000
0.7457400 0.0776706 0.0000000
0.7605610 0.0761502 0.0000000
0.7736823 0.0754686 0.0000000
0.7853211 0.0756066 0.0000000
0.7957277 0.0764662 0.0000000
0.8051273 0.0778212 0.0000000
0.8137187 0.0793191 0.0000000
0.8216803 0.0805888 0.0000000
0.8291945 0.0813008 0.0000000
0.8364485 0.0811898 0.0000000
0.8436025 0.0801195 0.0055949
0.8507620 0.0782366 0.0132421
0.8579475 0.0758042 0.0210438
0.8651426 0.0731275 0.0289146
0.0180481 0.1459228 0.0069303
0.0377976 0.1255397 0.0107475
0.0649019 0.1049665 0.0115598
0.1214151 0.0903475 0.0072953
0.2521814 0.1019388 0.0011667
0.4121811 0.1355604 0.0000000
0.4834130 0.1517252 0.0008000
0.4927185 0.1491397 0.0068387
0.4918169 0.1408435 0.0136324
0.4979746 0.1321425 0.0188299
0.5151935 0.1253094 0.0211887
0.5413642 0.1215913 0.0207719
0.5726418 0.1206460 0.0180833
0.6047229 0.1210506 0.0138519
0.6341517 0.1210405 0.0087986
0.6595294 0.1196386 0.0033711
0.6813961 0.1169426 0.0000000
0.7007623 0.1137717 0.0000000
0.7184170 0.1108628 0.0000000
0.7348649 0.1087463 0.0000000
0.7500518 0.1075749 0.0000000
0.7638908 0.1073841 0.0000000
0.7764613 0.1081551 0.0000000
0.7879150 0.1096672 0.0000000
0.7983409 0.1115061 0.0000000
0.8078533 0.1131354 0.0000000
0.8165810 0.1140373 0.0000000
0.8246908 0.1138231 0.0000000
0.8323534 0.1122171 0.0030919
0.8397811 0.1091479 0.0092768
0.8471475 0.1049176 0.0156188
0.8545059 0.0999495 0.0220438
0.8618631 0.0946086 0.0285039
0.0471643 0.2100105 0.0125074
0.0799322 0.1939517 0.0134776
0.1171291 0.1769386 0.0126128
0.1668791 0.1599191 0.0078231
0.2421879 0.1482937 0.0000000
0.3575096 0.1588800 0.0000000
0.4527435 0.1757343 0.0000000
0.4895953 0.1774912 0.0000000
0.5000018 0.1706944 0.0093253
0.5070319 0.1604949 0.0175488
0.5217388 0.1507141 0.0223606
0.5471623 0.1448090 0.0237822
0.5789658 0.1438184 0.0226238
0.6114054 0.1459150 0.0196012
0.6400800 0.1482846 0.0154169
0.6639184 0.1491351 0.0105351
0.6838893 0.1481777 0.0053195
0.7012346 0.1461473 0.0001739
0.7168922 0.1438351 0.0000000
0.7315524 0.1420353 0.0000000
0.7455268 0.1412789 0.0000000
0.7587370 0.1416703 0.0000000
0.7711689 0.1432237 0.0000000
0.7828052 0.1455465 0.0000000
0.7935952 0.1479391 0.0000000
0.8035460 0.1496294 0.0000000
0.8127127 0.1500138 0.0000000
0.8211920 0.1487128 0.0034124
0.8291324 0.1454846 0.0083123
0.8367376 0.1403652 0.0133082
0.8442261 0.1338427 0.0183768
0.8517075 0.1265103 0.0235181
0.8591853 0.1187407 0.0286888
0.0812224 0.2729646 0.0150521
0.1252888 0.2625660 0.0152270
0.1710611 0.2513136 0.0144984
0.2209642 0.2390438 0.0113914
0.2773699 0.2260292 0.0048798
0.3451662 0.2162280 0.0000000
0.4188076 0.2144740 0.0000000
0.4704363 0.2116652 0.0000000
0.4940246 0.2011136 0.0073986
0.5065651 0.1866724 0.0166136
0.5227796 0.1736208 0.0229766
0.5486777 0.1656780 0.0257707
0.5830551 0.1642409 0.0256184
0.6196432 0.1681151 0.0235641
0.6511244 0.1736977 0.0203865
0.6754657 0.1778699 0.0163377
0.6945301 0.1796654 0.0116912
0.7099599 0.1793643 0.0069453
0.7231012 0.1779939 0.0025013
0.7350972 0.1767818 0.0000000
0.7468757 0.1767453 0.0000000
0.7584797 0.1780869 0.0000000
0.7698548 0.1806959 0.0000000
0.7808785 0.1840175 0.0000000
0.7913714 0.1870100 0.0000000
0.8012125 0.1886700 0.0021247
0.8103745 0.1884225 0.0059013
0.8189176 0.1859461 0.0098162
0.8269318 0.1810766 0.0137034
0.8345841 0.1740643 0.0175394
0.8420867 0.1655203 0.0213976
0.8495973 0.1561861 0.0253647
0.8570960 0.1464985 0.0294119
0.1146765 0.3313241 0.0129228
0.1650226 0.3253524 0.0142005
0.2149648 0.3184446 0.0151971
0.2644036 0.3100761 0.0152242
0.3127155 0.2988841 0.0129733
0.3615435 0.2850884 0.0084329
0.4126094 0.2712584 0.0047463
0.4580572 0.2574302 0.0058407
0.4871742 0.2392516 0.0114704
0.5043230 0.2175963 0.0185092
0.5223924 0.1987568 0.0240748
0.5485128 0.1871122 0.0269870
0.5823995 0.1835184 0.0274591
0.6195654 0.1863980 0.0260835
0.6554666 0.1939893 0.0234711
0.6858562 0.2032651 0.0201473
0.7084074 0.2103216 0.0163474
0.7236046 0.2129179 0.0124037
0.7345128 0.2126077 0.0085833
0.7438317 0.2121681 0.0053581
0.7531181 0.2132050 0.0031375
0.7627108 0.2160162 0.0021749
0.7725397 0.2201495 0.0026366
0.7823480 0.2245311 0.0042515
0.7919634 0.2279965 0.0067698
0.8011348 0.2294461 0.0097070
0.8098048 0.2284381 0.0128283
0.8180443 0.2247708 0.0158981
0.8259085 0.2185224 0.0188427
0.8334513 0.2100388 0.0216693
0.8408395 0.2000090 0.0244902
0.8482322 0.1892383 0.0274348
0.8556622 0.1782014 0.0305145
0.1442271 0.3843875 0.0064110
0.1957346 0.3804467 0.0097187
0.2458353 0.3754982 0.0131863
0.2932015 0.3686598 0.0167225
0.3366212 0.3584611 0.0193274
0.3768742 0.3443126 0.0198531
0.4162175 0.3269675 0.0187827
0.4535905 0.3069748 0.0186679
0.4837626 0.2834902 0.0209157
0.5060453 0.2573769 0.0244133
0.5270403 0.2335549 0.0274148
0.5524555 0.2162478 0.0288272
0.5832274 0.2066385 0.0286001
0.6176727 0.2047941 0.0272051
0.6533177 0.2101324 0.0248748
0.6876963 0.2214628 0.0218928
0.7171337 0.2352338 0.0187500
0.7369842 0.2446399 0.0158900
0.7479105 0.2470827 0.0131817
0.7554603 0.2479523 0.0109814
0.7629260 0.2509415 0.0097767
0.7707586 0.2557108 0.0096565
0.7789512 0.2612161 0.0105172
0.7872281 0.2661176 0.0121277
0.7954106 0.2693601 0.0141932
0.8033906 0.2702300 0.0164340
0.8110758 0.2682962 0.0186846
0.8186768 0.2636692 0.0209428
0.8261309 0.2565549 0.0231502
0.8333748 0.2473239 0.0252423
0.8405331 0.2366297 0.0272978
0.8477220 0.2252251 0.0294724
0.8549576 0.2135760 0.0317846
0.1685918 0.4326788 0.0000000
0.2177617 0.4285401 0.0024337
0.2653795 0.4234833 0.0082128
0.3096867 0.4163911 0.0145866
0.3494021 0.4059966 0.0211118
0.3847284 0.3914422 0.0264911
0.4178591 0.3731962 0.0295998
0.4505473 0.3519659 0.0309201
0.4813979 0.3277923 0.0317958
0.5086477 0.3013385 0.0325532
0.5337882 0.2755323 0.0326428
0.5595246 0.2533810 0.0316729
0.5872832 0.2366570 0.0297355
0.6177001 0.2272624 0.0272435
0.6507299 0.2271881 0.0246053
0.6845130 0.2356147 0.0217715
0.7158999 0.2497241 0.0189241
0.7410013 0.2647832 0.0165972
0.7573813 0.2756655 0.0152102
0.7669540 0.2822511 0.0147828
0.7744170 0.2893374 0.0153616
0.7814001 0.2970321 0.0166869
0.7881913 0.3034559 0.0181092
0.7948094 0.3076057 0.0193162
0.8013705 0.3093937 0.0203644
0.8078739 0.3087512 0.0213830
0.8142807 0.3056014 0.0224940
0.8208479 0.3003608 0.0239774
0.8275568 0.2932558 0.0257499
0.8343479 0.2844251 0.0275863
0.8411795 0.2741606 0.0293449
0.8480796 0.2631244 0.0311609
0.8550381 0.2518921 0.0331044
0.1880315 0.4772476 0.0000000
0.2332814 0.4715194 0.0000000
0.2771130 0.4649419 0.0011045
0.3179644 0.4565145 0.0092499
0.3546159 0.4451439 0.0180322
0.3869306 0.4299815 0.0264832
0.4167736 0.4114876 0.0333333
0.4468781 0.3907400 0.0376319
0.4777926 0.3678342 0.0392908
0.5082016 0.3430419 0.0390204
0.5370180 0.3174230 0.0371987
0.5645111 0.2928700 0.0341613
0.5917386 0.2715188 0.0304062
0.6199383 0.2559847 0.0265276
0.6500546 0.2490358 0.0229267
0.6814702 0.2515090 0.0197470
0.7116070 0.2612490 0.0169942
0.7376145 0.2750486 0.0149529
0.7579707 0.2904034 0.0142687
0.7730424 0.3065286 0.0154558
0.7841883 0.3228303 0.0183761
0.7923736 0.3363112 0.0219539
0.7984537 0.3436060 0.0241662
0.8037611 0.3465042 0.0249019
0.8088769 0.3462606 0.0246353
0.8138860 0.3432095 0.0238892
0.8189671 0.3385405 0.0235856
0.8243566 0.3329790 0.0241980
0.8301689 0.3266993 0.0257429
0.8363877 0.3194842 0.0278372
0.8427582 0.3110033 0.0300042
0.8492408 0.3016019 0.0320804
0.8558220 0.2918890 0.0341365
0.2034821 0.5188615 0.0000000
0.2444111 0.5108615 0.0000000
0.2842639 0.5021884 0.0000000
0.3217648 0.4919711 0.0016959
0.3558702 0.4792976 0.0112001
0.3864562 0.4635889 0.0208743
0.4148090 0.4450959 0.0296829
0.4432240 0.4247297 0.0363672
0.4732369 0.4029386 0.0398794
0.5044558 0.3797170 0.0401959
0.5352948 0.3551132 0.0379371
0.5649310 0.3303337 0.0340147
0.5935977 0.3073691 0.0292023
0.6220760 0.2886938 0.0242562
0.6509954 0.2766402 0.0197659
0.6802788 0.2726582 0.0159849
0.7085061 0.2763364 0.0130431
0.7340162 0.2862608 0.0111839
0.7557692 0.3009754 0.0108762
0.7735725 0.3193542 0.0126296
0.7877854 0.3399865 0.0164819
0.7986957 0.3593532 0.0214661
0.8062869 0.3717695 0.0252222
0.8118906 0.3773738 0.0266844
0.8163629 0.3768978 0.0257426
0.8202351 0.3717952 0.0232666
0.8243199 0.3663214 0.0217486
0.8288565 0.3613810 0.0218654
0.8339163 0.3566217 0.0234153
0.8393941 0.3514848 0.0258744
0.8451485 0.3456288 0.0287712
0.8510737 0.3389524 0.0316316
0.8570685 0.3317261 0.0342293
0.2159644 0.5580269 0.0000000
0.2529419 0.5476624 0.0000000
0.2891782 0.5368035 0.0000000
0.3237248 0.5247521 0.0000000
0.3558130 0.5108135 0.0018497
0.3853573 0.4945951 0.0112414
0.4131930 0.4762256 0.0202630
0.4407418 0.4561336 0.0278071
0.4693549 0.4346893 0.0327142
0.4996884 0.4122224 0.0342924
0.5309482 0.3887578 0.0328628
0.5621173 0.3650014 0.0292938
0.5926428 0.3424145 0.0244907
0.6225135 0.3228372 0.0192791
0.6517838 0.3080454 0.0143914
0.6802982 0.2994548 0.0102893
0.7073637 0.2977284 0.0072304
0.7321447 0.3028139 0.0054367
0.7541161 0.3141202 0.0052481
0.7729553 0.3303970 0.0069842
0.7884587 0.3494423 0.0105267
0.8007766 0.3682392 0.0150468
0.8100561 0.3832426 0.0190225
0.8168862 0.3925800 0.0211980
0.8219095 0.3953868 0.0209447
0.8257997 0.3926940 0.0188310
0.8295926 0.3890280 0.0173940
0.8337010 0.3859619 0.0176240
0.8381980 0.3833079 0.0194063
0.8430164 0.3805576 0.0222670
0.8480735 0.3773835 0.0257112
0.8533327 0.3737139 0.0293278
0.8586615 0.3696791 0.0328360
0.2264397 0.5951031 0.0000000
0.2601952 0.5826462 0.0000000
0.2934764 0.5698470 0.0000000
0.3256461 0.5561996 0.0000000
0.3561971 0.5411984 0.0000000
0.3850455 0.5245349 0.0000000
0.4126025 0.5061518 0.0069339
0.4396459 0.4861640 0.0139429
0.4672066 0.4648802 0.0191125
0.4962181 0.4427782 0.0216783
0.5269088 0.4203071 0.0215536
0.5585400 0.3979215 0.0191041
0.5903048 0.3766134 0.0151580
0.6215065 0.3574940 0.0105447
0.6516872 0.3418099 0.0060074
0.6804306 0.3307279 0.0021044
0.7072854 0.3252149 0.0000000
0.7318318 0.3258363 0.0000000
0.7537447 0.3325591 0.0000000
0.7727930 0.3444109 0.0000000
0.7887311 0.3593731 0.0017181
0.8016258 0.3750157 0.0052603
0.8117745 0.3890602 0.0087070
0.8195556 0.3995522 0.0110274
0.8254574 0.4054480 0.0117403
0.8301198 0.4073816 0.0113265
0.8342435 0.4075046 0.0111190
0.8382956 0.4073199 0.0120473
0.8424671 0.4071921 0.0142931
0.8467858 0.4069813 0.0176019
0.8512450 0.4065011 0.0215620
0.8558211 0.4057230 0.0258121
0.8604501 0.4047754 0.0301130
0.2357595 0.6303727 0.0000000
0.2670764 0.6162695 0.0000000
0.2981094 0.6019410 0.0000000
0.3284732 0.5870399 0.0000000
0.3578442 0.5712001 0.0000000
0.3861040 0.5541355 0.0000000
0.4134017 0.5356845 0.0000000
0.4401540 0.5158417 0.0000000
0.4671190 0.4948582 0.0011916
0.4951664 0.4732284 0.0039776
0.5248592 0.4515624 0.0047939
0.5560533 0.4304433 0.0036349
0.5880693 0.4105220 0.0010983
0.6199425 0.3924480 0.0000000
0.6508333 0.3769777 0.0000000
0.6801028 0.3649531 0.0000000
0.7072688 0.3571857 0.0000000
0.7319791 0.3542984 0.0000000
0.7539690 0.3565146 0.0000000
0.7730310 0.3632733 0.0000000
0.7890923 0.3732567 0.0000000
0.8022246 0.3847799 0.0000000
0.8126957 0.3961281 0.0000000
0.8210632 0.4060630 0.0000000
0.8277521 0.4138488 0.0007851
0.8332670 0.4194221 0.0021701
0.8379826 0.4232690 0.0035410
0.8422491 0.4262080 0.0055353
0.8463187 0.4287617 0.0084858
0.8503165 0.4310865 0.0123665
0.8543035 0.4331826 0.0169217
0.8583057 0.4350912 0.0218431
0.8623200 0.4369147 0.0268981
0.2446102 0.6640969 0.0000000
0.2741552 0.6488187 0.0000000
0.3035461 0.6333943 0.0000000
0.3325679 0.6175907 0.0000000
0.3610095 0.6011459 0.0000000
0.3887450 0.5838044 0.0000000
0.4157886 0.5653720 0.0000000
0.4423797 0.5458097 0.0000000
0.4690391 0.5253229 0.0000000
0.4964454 0.5043561 0.0000000
0.5251829 0.4835148 0.0000000
0.5554888 0.4634858 0.0000000
0.5869189 0.4447455 0.0000000
0.6186243 0.4277504 0.0000000
0.6496501 0.4129195 0.0000000
0.6792038 0.4007532 0.0000000
0.7066802 0.3917645 0.0000000
0.7316409 0.3863797 0.0000000
0.7538049 0.3848347 0.0000000
0.7729740 0.3869463 0.0000000
0.7891863 0.3920841 0.0000000
0.8025396 0.3992774 0.0000000
0.8133380 0.4074681 0.0000000
0.8220731 0.4158788 0.0000000
0.8292772 0.4240051 0.0000000
0.8354273 0.4314999 0.0000000
0.8407272 0.4379911 0.0000000
0.8453399 0.4435785 0.0000000
0.8494776 0.4485920 0.0022491
0.8533185 0.4532586 0.0069282
0.8569837 0.4576919 0.0122507
0.8605563 0.4619793 0.0179875
0.8640980 0.4662093 0.0238948
0.2535048 0.6965617 0.0000000
0.2817628 0.6805062 0.0000000
0.3099482 0.6643597 0.0000000
0.3379447 0.6479701 0.0000000
0.3656287 0.6311461 0.0000000
0.3928816 0.6136836 0.0000000
0.4196760 0.5954168 0.0000000
0.4461468 0.5763051 0.0000000
0.4726290 0.5565059 0.0000000
0.4995988 0.5363839 0.0000000
0.5275461 0.5164665 0.0000000
0.5568011 0.4973985 0.0000000
0.5871580 0.4796232 0.0000000
0.6180161 0.4635047 0.0000000
0.6485311 0.4492912 0.0000000
0.6778516 0.4372050 0.0000000
0.7052970 0.4274976 0.0000000
0.7303218 0.4203760 0.0000000
0.7526289 0.4160170 0.0000000
0.7720452 0.4144572 0.0000000
0.7885443 0.4154975 0.0000000
0.8022491 0.4187403 0.0000000
0.8134667 0.4237331 0.0000000
0.8226352 0.4300844 0.0000000
0.8302900 0.4374162 0.0000000
0.8368352 0.4452781 0.0000000
0.8425596 0.4530949 0.0000000
0.8475078 0.4604608 0.0000000
0.8518113 0.4673941 0.0000000
0.8556208 0.4739975 0.0014992
0.8590891 0.4803820 0.0078591
0.8623599 0.4866481 0.0146461
0.8655578 0.4928694 0.0216281
0.2627965 0.7280199 0.0000000
0.2900705 0.7115097 0.0000000
0.3173167 0.6949433 0.0000000
0.3444795 0.6782227 0.0000000
0.3714820 0.6612161 0.0000000
0.3982541 0.6437820 0.0000000
0.4247573 0.6258076 0.0000000
0.4510588 0.6072673 0.0000000
0.4773606 0.5882801 0.0000000
0.5039783 0.5691280 0.0000000
0.5312689 0.5502324 0.0000000
0.5594827 0.5320905 0.0000000
0.5885748 0.5151296 0.0000000
0.6181757 0.4996547 0.0000000
0.6476358 0.4858395 0.0000000
0.6761864 0.4737618 0.0000000
0.7031451 0.4635069 0.0000000
0.7279621 0.4551496 0.0000000
0.7502774 0.4487890 0.0000000
0.7699056 0.4445357 0.0000000
0.7867845 0.4424377 0.0000000
0.8009887 0.4424631 0.0000000
0.8127750 0.4445409 0.0000000
0.8225364 0.4485932 0.0000000
0.8307191 0.4543929 0.0000000
0.8376469 0.4615354 0.0000000
0.8436222 0.4694947 0.0000000
0.8488261 0.4777466 0.0000000
0.8533156 0.4859008 0.0000000
0.8571425 0.4938733 0.0000000
0.8604852 0.5017004 0.0039055
0.8635471 0.5094491 0.0120498
0.8665027 0.5171636 0.0203797
0.2727098 0.7586756 0.0000000
0.2991370 0.7419591 0.0000000
0.3255606 0.7252065 0.0000000
0.3519608 0.7083592 0.0000000
0.3782943 0.6913358 0.0000000
0.4045269 0.6740510 0.0000000
0.4306331 0.6564458 0.0000000
0.4566428 0.6385199 0.0000000
0.4826668 0.6203727 0.0000000
0.5088959 0.6022116 0.0000000
0.5355515 0.5843398 0.0000000
0.5627834 0.5671145 0.0000000
0.5905917 0.5508710 0.0000000
0.6187661 0.5358726 0.0000000
0.6468505 0.5222608 0.0000000
0.6742512 0.5100760 0.0000000
0.7003656 0.4993258 0.0000000
0.7246788 0.4900268 0.0000000
0.7468034 0.4822428 0.0000000
0.7665254 0.4761011 0.0000000
0.7837526 0.4717454 0.0000000
0.7985063 0.4693185 0.0000000
0.8109528 0.4689630 0.0000000
0.8214027 0.4707762 0.0000000
0.8301975 0.4746982 0.0000000
0.8376287 0.4804649 0.0000000
0.8439479 0.4876967 0.0000000
0.8493806 0.4959584 0.0000000
0.8540257 0.5046603 0.0000000
0.8578641 0.5134081 0.0000000
0.8611133 0.5221020 0.0003314
0.8640296 0.5307606 0.0101785
0.8668235 0.5394057 0.0201585
0.2833324 0.7886946 0.0000000
0.3089363 0.7719504 0.0000000
0.3345511 0.7551871 0.0000000
0.3601710 0.7383701 0.0000000
0.3857789 0.7214518 0.0000000
0.4113652 0.7043958 0.0000000
0.4369258 0.6871894 0.0000000
0.4624610 0.6698642 0.0000000
0.4880423 0.6525029 0.0000000
0.5137642 0.6352529 0.0000000
0.5397251 0.6183210 0.0000000
0.5659940 0.6019432 0.0000000
0.5925667 0.5863494 0.0000000
0.6193016 0.5717333 0.0000000
0.6459087 0.5582214 0.0000000
0.6719744 0.5458647 0.0000000
0.6970198 0.5346649 0.0000000
0.7205899 0.5246327 0.0000000
0.7423288 0.5158323 0.0000000
0.7619948 0.5083824 0.0000000
0.7794658 0.5024525 0.0000000
0.7947107 0.4982405 0.0000000
0.8078242 0.4959693 0.0000000
0.8189994 0.4958059 0.0000000
0.8284831 0.4978174 0.0000000
0.8365235 0.5019172 0.0000000
0.8433412 0.5078858 0.0000000
0.8491226 0.5153970 0.0000000
0.8539465 0.5239384 0.0000000
0.8578136 0.5328993 0.0000000
0.8609929 0.5419388 0.0000000
0.8638168 0.5509254 0.0086964
0.8665152 0.5598916 0.0206032
0.2946672 0.8182022 0.0000000
0.3193963 0.8015642 0.0000000
0.3441362 0.7849101 0.0000000
0.3688963 0.7682205 0.0000000
0.3936732 0.7514852 0.0000000
0.4184760 0.7347074 0.0000000
0.4433087 0.7179094 0.0000000
0.4681752 0.7011357 0.0000000
0.4931155 0.6844600 0.0000000
0.5181563 0.6679828 0.0000000
0.5433086 0.6518407 0.0000000
0.5685827 0.6361774 0.0000000
0.5939563 0.6211378 0.0000000
0.6193259 0.6068542 0.0000000
0.6444975 0.5934188 0.0000000
0.6691917 0.5808983 0.0000000
0.6930764 0.5693315 0.0000000
0.7157699 0.5587576 0.0000000
0.7369646 0.5492404 0.0000000
0.7564229 0.5408857 0.0000000
0.7740038 0.5338587 0.0000000
0.7896440 0.5283661 0.0000000
0.8033618 0.5246307 0.0000000
0.8152505 0.5228339 0.0000000
0.8254690 0.5231112 0.0000000
0.8342096 0.5254983 0.0000000
0.8416352 0.5299016 0.0000000
0.8478662 0.5361104 0.0000000
0.8529698 0.5437681 0.0000000
0.8570293 0.5523884 0.0000000
0.8602488 0.5613271 0.0000000
0.8630358 0.5701582 0.0068042
0.8657101 0.5788572 0.0208953
0.3066627 0.8473312 0.0000000
0.3304089 0.8308650 0.0000000
0.3541671 0.8143892 0.0000000
0.3779482 0.7978975 0.0000000
0.4017650 0.7814000 0.0000000
0.4256309 0.7649242 0.0000000
0.4495631 0.7485112 0.0000000
0.4735615 0.7322181 0.0000000
0.4976504 0.7161066 0.0000000
0.5218150 0.7002460 0.0000000
0.5460203 0.6847148 0.0000000
0.5702422 0.6696020 0.0000000
0.5944378 0.6549953 0.0000000
0.6185232 0.6409822 0.0000000
0.6423547 0.6276356 0.0000000
0.6657460 0.6150251 0.0000000
0.6884671 0.6032216 0.0000000
0.7102337 0.5922819 0.0000000
0.7307863 0.5822747 0.0000000
0.7499182 0.5733040 0.0000000
0.7674900 0.5655138 0.0000000
0.7834045 0.5590907 0.0000000
0.7976306 0.5542306 0.0000000
0.8101831 0.5511159 0.0000000
0.8211425 0.5498988 0.0000000
0.8306290 0.5506674 0.0000000
0.8387413 0.5534062 0.0000000
0.8455595 0.5579993 0.0000000
0.8511478 0.5642329 0.0000000
0.8556094 0.5717923 0.0000000
0.8591146 0.5801487 0.0000000
0.8619583 0.5884274 0.0030167
0.8647025 0.5963917 0.0196230
0.3192117 0.8761639 0.0000000
0.3418496 0.8599082 0.0000000
0.3644956 0.8436528 0.0000000
0.3871710 0.8274015 0.0000000
0.4098965 0.8111726 0.0000000
0.4326845 0.7950016 0.0000000
0.4555491 0.7789380 0.0000000
0.4785011 0.7630403 0.0000000
0.5015387 0.7473672 0.0000000
0.5246431 0.7319649 0.0000000
0.5477663 0.7168808 0.0000000
0.5708653 0.7021632 0.0000000
0.5938854 0.6878723 0.0000000
0.6167531 0.6740703 0.0000000
0.6393392 0.6608270 0.0000000
0.6615185 0.6482123 0.0000000
0.6831327 0.6362930 0.0000000
0.7039792 0.6251369 0.0000000
0.7238543 0.6148176 0.0000000
0.7425868 0.6054284 0.0000000
0.7600454 0.5970994 0.0000000
0.7761275 0.5899902 0.0000000
0.7907560 0.5842681 0.0000000
0.8038934 0.5800932 0.0000000
0.8155643 0.5776079 0.0000000
0.8258185 0.5769065 0.0000000
0.8346925 0.5780121 0.0000000
0.8422415 0.5808661 0.0000000
0.8485338 0.5853389 0.0000000
0.8536431 0.5912060 0.0000000
0.8577044 0.5981018 0.0000000
0.8609717 0.6054259 0.0000000
0.8639834 0.6124172 0.0147816
0.3321769 0.9047632 0.0000000
0.3535878 0.8887397 0.0000000
0.3749993 0.8727235 0.0000000
0.3964442 0.8567244 0.0000000
0.4179509 0.8407662 0.0000000
0.4395303 0.8248862 0.0000000
0.4611896 0.8091319 0.0000000
0.4829375 0.7935550 0.0000000
0.5047686 0.7782044 0.0000000
0.5266648 0.7631232 0.0000000
0.5485935 0.7483456 0.0000000
0.5704978 0.7339092 0.0000000
0.5923288 0.7198557 0.0000000
0.6140040 0.7062327 0.0000000
0.6354241 0.6931033 0.0000000
0.6564786 0.6805329 0.0000000
0.6770621 0.6685796 0.0000000
0.6970283 0.6573097 0.0000000
0.7162247 0.6467958 0.0000000
0.7345168 0.6371240 0.0000000
0.7517963 0.6284095 0.0000000
0.7679519 0.6207867 0.0000000
0.7828807 0.6143903 0.0000000
0.7965258 0.6093543 0.0000000
0.8088588 0.6057886 0.0000000
0.8198780 0.6037689 0.0000000
0.8295846 0.6033281 0.0000000
0.8380000 0.6044378 0.0000000
0.8451822 0.6070006 0.0000000
0.8512092 0.6108379 0.0000000
0.8562029 0.6156871 0.0000000
0.8603748 0.6211670 0.0000000
0.8641096 0.6267883 0.0042076
0.3454220 0.9331901 0.0000000
0.3654970 0.9173902 0.0000000
0.3855701 0.9015992 0.0000000
0.4056781 0.8858405 0.0000000
0.4258583 0.8701371 0.0000000
