catalog/styles/film/film-warm/look.cube
# film-warm iteration 5
LUT_3D_SIZE 5
DOMAIN_MIN 0 0 0
DOMAIN_MAX 1 1 1
0.0539474 0.0582520 0.0536736
0.4487285 0.0256083 0.0278629
0.7757626 0.0031270 0.0000000
0.8318003 0.0000000 0.0000000
0.8782424 0.0146663 0.0326059
0.1442271 0.3843875 0.0064110
0.4837626 0.2834902 0.0209157
0.7171337 0.2352338 0.0187500
0.7954106 0.2693601 0.0141932
0.8549576 0.2135760 0.0317846
0.2535048 0.6965617 0.0000000
0.4726290 0.5565059 0.0000000
0.7052970 0.4274976 0.0000000
0.8302900 0.4374162 0.0000000
0.8655578 0.4928694 0.0216281
0.3454220 0.9331901 0.0000000
0.5073906 0.8086005 0.0000000
0.6702862 0.7001788 0.0000000
0.8011880 0.6340934 0.0000000
0.8652438 0.6400791 0.0000000
0.4507002 1.0000000 0.0000000
0.5174585 1.0000000 0.0000000
0.6024828 0.9405476 0.0000000
0.7233777 0.8523963 0.0000000
0.8783121 0.7667841 0.0000000
0.0836208 0.1050555 0.3971184
0.3033106 0.0259453 0.2009724
0.7143817 0.1160264 0.2488962
0.8469380 0.2444507 0.2848183
0.8686402 0.3920296 0.3459335
0.0553976 0.3298579 0.2585025
0.3075616 0.2532698 0.2171741
0.6333985 0.2584666 0.1853937
0.7863720 0.3739984 0.2595877
0.8666019 0.4245349 0.2913722
0.1360803 0.6299306 0.2511088
0.3886106 0.5629901 0.1521858
0.6252291 0.4751693 0.1001095
0.7722811 0.5139663 0.1726545
0.8492974 0.5579913 0.2498140
0.2036943 0.8570403 0.1985561
0.4066303 0.7652143 0.1153796
0.5865639 0.6778720 0.0572247
0.7529018 0.6601373 0.0866390
0.8689096 0.6913724 0.1695578
0.2801925 1.0000000 0.1142142
0.4142486 0.9494622 0.0667903
0.5541857 0.8742608 0.0452724
0.7056094 0.8236552 0.0472181
0.8706252 0.8058843 0.0282309
0.2759400 0.3217943 0.6826012
0.4308276 0.1840980 0.5069613
0.6426756 0.2367872 0.5047651
0.8219372 0.3815757 0.5684198
0.9276589 0.5308293 0.6051588
0.0993707 0.4002996 0.5807889
0.4846304 0.4616600 0.6322162
0.6862631 0.4427384 0.5764417
0.8074076 0.4914305 0.5517137
0.8811388 0.5507991 0.5627065
0.0927971 0.6341379 0.5467749
0.3233202 0.5725242 0.5148500
0.6565090 0.6137295 0.6038872
0.7926551 0.6224800 0.5449298
0.8461844 0.6117864 0.5533276
0.0691971 0.7899401 0.4279776
0.3130823 0.7199899 0.3946231
0.5649252 0.6948200 0.4265409
0.7342084 0.6949225 0.4773293
0.8455691 0.7379809 0.5536643
0.1011587 0.9205475 0.2915264
0.3221671 0.8665030 0.3211710
0.5199759 0.8189716 0.3486724
0.7022225 0.8079402 0.3857533
0.8629967 0.8226377 0.3782847
0.5983328 0.5758953 0.8000950
0.6931636 0.5091496 0.8650456
0.7299629 0.4752004 0.8556043
0.8096198 0.5040032 0.8580671
0.9150816 0.5606667 0.8609299
0.4938814 0.6389713 0.8308535
0.5851789 0.6059585 0.8401407
0.7241238 0.6078452 0.8561741
0.8213144 0.6089402 0.8440809
0.9027082 0.6231329 0.8323527
0.2751775 0.6888609 0.7495279
0.4185646 0.6651471 0.7681513
0.7150943 0.7154596 0.8093684
0.8145914 0.7044700 0.8172342
0.8853113 0.6964309 0.8170507
0.0000000 0.7299501 0.6434403
0.3063551 0.7200457 0.6548983
0.6207753 0.7472724 0.7181976
0.7799315 0.7718767 0.7714232
0.8657854 0.7817407 0.7987827
0.0000000 0.7790778 0.5097518
0.2342222 0.7934471 0.5608439
0.5178829 0.7957696 0.6052498
0.7208454 0.8080457 0.6610745
0.8536357 0.8369892 0.7404647
1.0000000 0.8583770 1.0000000
0.9374349 0.8187057 1.0000000
0.8538505 0.7477940 1.0000000
0.8241836 0.6525596 1.0000000
0.8554106 0.5614079 1.0000000
0.8360533 0.8252183 0.9889205
0.7464840 0.7752372 1.0000000
0.7432445 0.7369773 1.0000000
0.8253422 0.7162806 1.0000000
0.9186268 0.6910281 1.0000000
0.4780404 0.7656680 0.9434683
0.5673606 0.7537433 0.9317362
0.6724422 0.7390470 0.9244518
0.8262581 0.7701041 0.9894934
0.9468141 0.7917498 1.0000000
0.0142008 0.6876638 0.8540314
0.3716875 0.7477864 0.8676067
0.6612160 0.7886480 0.8457884
0.8046888 0.8084975 0.8760113
0.9244647 0.8513559 0.9714305
0.0000000 0.6252224 0.7399676
0.1452378 0.7318414 0.8172683
0.5602459 0.8110266 0.8641802
0.7685289 0.8408139 0.8481091
0.8575999 0.8580947 0.8585984
