presets/experimental/experimental-lough-leane/look.cube
# Approximate v0 colour conversion; calibrate before claiming visual parity.
LUT_3D_SIZE 33
DOMAIN_MIN 0 0 0
DOMAIN_MAX 1 1 1
0.0000000 0.0013475 0.0017740
0.0261729 0.0006733 0.0008864
0.0523627 0.0000073 0.0000041
0.0907751 0.0052719 0.0029531
0.1291829 0.0105295 0.0058922
0.1659524 0.0132246 0.0052249
0.2027164 0.0159175 0.0045578
0.2381750 0.0180848 0.0039041
0.2736210 0.0202455 0.0032462
0.3068203 0.0212455 0.0018324
0.3400048 0.0222378 0.0004270
0.3710776 0.0221423 0.0002126
0.4021367 0.0220394 0.0000000
0.4315626 0.0210667 0.0000000
0.4609775 0.0200883 0.0000000
0.4892726 0.0185184 0.0000000
0.5175604 0.0169449 0.0000000
0.5451955 0.0150380 0.0000000
0.5728274 0.0131297 0.0000000
0.6002027 0.0111010 0.0000000
0.6275787 0.0090730 0.0000000
0.6550155 0.0070907 0.0000000
0.6824570 0.0051109 0.0000000
0.7102062 0.0033027 0.0000000
0.7379638 0.0015118 0.0000000
0.7662149 0.0007490 0.0000000
0.7944775 0.0000000 0.0000000
0.8233703 0.0000000 0.0000000
0.8522774 0.0000000 0.0000000
0.8819107 0.0000000 0.0000000
0.9115607 0.0000000 0.0000000
0.9419978 0.0000000 0.0000000
0.9717600 0.0000000 0.0000000
0.0005469 0.0299181 0.0024466
0.0284712 0.0301786 0.0026939
0.0564077 0.0304449 0.0029441
0.0931677 0.0348370 0.0052134
0.1299297 0.0392278 0.0074748
0.1674244 0.0431290 0.0068637
0.2049098 0.0470240 0.0062509
0.2402032 0.0494509 0.0052460
0.2754838 0.0518701 0.0042378
0.3084738 0.0528965 0.0026389
0.3414491 0.0539150 0.0010475
0.3723181 0.0537946 0.0005216
0.4031736 0.0536667 0.0000000
0.4324294 0.0526449 0.0000000
0.4616746 0.0516174 0.0000000
0.4898308 0.0499973 0.0000000
0.5179801 0.0483736 0.0000000
0.5455044 0.0464243 0.0000000
0.5730258 0.0444735 0.0000000
0.6003149 0.0424117 0.0000000
0.6276052 0.0403507 0.0000000
0.6549772 0.0383444 0.0000000
0.6823542 0.0363410 0.0000000
0.7100556 0.0345168 0.0000000
0.7377656 0.0327036 0.0000000
0.7659822 0.0315403 0.0000000
0.7942107 0.0303869 0.0000000
0.8230797 0.0297751 0.0000000
0.8519633 0.0291671 0.0000000
0.8815818 0.0287479 0.0000000
0.9112171 0.0283331 0.0000000
0.9416469 0.0281202 0.0000000
0.9714020 0.0279121 0.0000000
0.0010973 0.0585214 0.0031062
0.0307626 0.0597042 0.0044769
0.0604355 0.0608903 0.0058480
0.0955464 0.0644075 0.0074345
0.1306659 0.0679290 0.0090151
0.1688810 0.0730285 0.0084639
0.2070832 0.0781180 0.0079095
0.2422191 0.0808090 0.0065651
0.2773419 0.0834910 0.0052183
0.3101256 0.0845458 0.0034385
0.3428946 0.0855922 0.0016652
0.3735601 0.0854472 0.0008291
0.4042125 0.0852946 0.0000000
0.4332981 0.0842237 0.0000000
0.4623733 0.0831470 0.0000000
0.4903905 0.0814766 0.0000000
0.5184009 0.0798026 0.0000000
0.5458140 0.0778105 0.0000000
0.5732245 0.0758171 0.0000000
0.6004272 0.0737220 0.0000000
0.6276313 0.0716278 0.0000000
0.6549383 0.0695976 0.0000000
0.6822505 0.0675703 0.0000000
0.7099039 0.0657301 0.0000000
0.7375660 0.0638946 0.0000000
0.7657481 0.0623334 0.0000000
0.7939422 0.0607783 0.0000000
0.8227874 0.0595589 0.0000000
0.8516473 0.0583469 0.0000000
0.8812509 0.0575116 0.0000000
0.9108715 0.0566847 0.0000000
0.9412940 0.0562604 0.0000000
0.9710419 0.0558455 0.0000000
0.0021593 0.0918138 0.0019025
0.0320742 0.0921356 0.0027402
0.0619947 0.0924601 0.0035773
0.0959249 0.0947393 0.0040277
0.1298670 0.0970267 0.0044771
0.1681322 0.1022334 0.0045396
0.2063882 0.1074334 0.0046019
0.2424627 0.1110169 0.0046042
0.2785202 0.1145880 0.0045990
0.3115213 0.1159344 0.0032356
0.3445052 0.1172707 0.0018752
0.3750229 0.1171483 0.0009337
0.4055272 0.1170176 0.0000000
0.4344264 0.1158887 0.0000000
0.4633153 0.1147539 0.0000000
0.4911493 0.1130093 0.0000000
0.5189769 0.1112612 0.0000000
0.5462279 0.1092005 0.0000000
0.5734767 0.1071388 0.0000000
0.6005459 0.1049882 0.0000000
0.6276168 0.1028387 0.0000000
0.6548190 0.1007676 0.0000000
0.6820268 0.0986996 0.0000000
0.7096006 0.0968315 0.0000000
0.7371835 0.0949683 0.0000000
0.7653069 0.0933899 0.0000000
0.7934425 0.0918178 0.0000000
0.8222464 0.0905882 0.0000000
0.8510653 0.0893661 0.0000000
0.8806425 0.0885253 0.0000000
0.9102371 0.0876930 0.0000000
0.9406467 0.0872663 0.0000000
0.9703822 0.0868490 0.0000000
0.0032255 0.1251166 0.0007105
0.0333908 0.1245904 0.0010203
0.0635597 0.1240663 0.0013288
0.0963198 0.1251211 0.0006635
0.1290953 0.1261876 0.0000018
0.1673933 0.1314854 0.0006649
0.2056858 0.1367797 0.0013307
0.2426833 0.1412383 0.0026519
0.2796600 0.1456814 0.0039605
0.3128822 0.1473185 0.0030145
0.3460847 0.1489437 0.0020678
0.3764623 0.1488454 0.0010296
0.4068261 0.1487382 0.0000000
0.4355429 0.1475521 0.0000000
0.4642493 0.1463599 0.0000000
0.4919020 0.1445414 0.0000000
0.5195485 0.1427195 0.0000000
0.5466383 0.1405903 0.0000000
0.5737263 0.1384602 0.0000000
0.6006622 0.1362541 0.0000000
0.6276003 0.1340493 0.0000000
0.6546977 0.1319372 0.0000000
0.6818011 0.1298284 0.0000000
0.7092953 0.1279323 0.0000000
0.7367989 0.1260413 0.0000000
0.7648635 0.1244457 0.0000000
0.7929406 0.1228564 0.0000000
0.8217031 0.1216167 0.0000000
0.8504809 0.1203845 0.0000000
0.8800317 0.1195381 0.0000000
0.9096000 0.1187004 0.0000000
0.9399969 0.1182713 0.0000000
0.9697197 0.1178517 0.0000000
0.0045998 0.1591569 0.0003515
0.0350633 0.1587127 0.0005048
0.0655294 0.1582703 0.0006574
0.0978891 0.1590564 0.0003283
0.1302618 0.1598522 0.0000009
0.1673584 0.1640913 0.0003290
0.2044537 0.1683299 0.0006584
0.2412646 0.1724318 0.0013120
0.2780583 0.1765213 0.0019595
0.3117643 0.1783777 0.0014914
0.3454500 0.1802215 0.0010231
0.3762299 0.1802561 0.0005094
0.4069935 0.1802805 0.0000000
0.4358094 0.1790964 0.0000000
0.4646136 0.1779055 0.0000000
0.4922160 0.1760338 0.0000000
0.5198115 0.1741585 0.0000000
0.5467991 0.1719631 0.0000000
0.5737846 0.1697668 0.0000000
0.6006099 0.1675002 0.0000000
0.6274376 0.1652350 0.0000000
0.6544349 0.1630750 0.0000000
0.6814386 0.1609184 0.0000000
0.7088497 0.1589895 0.0000000
0.7362705 0.1570658 0.0000000
0.7642696 0.1554496 0.0000000
0.7922817 0.1538399 0.0000000
0.8209959 0.1525882 0.0000000
0.8497257 0.1513443 0.0000000
0.8792446 0.1504913 0.0000000
0.9087814 0.1496471 0.0000000
0.9391625 0.1492150 0.0000000
0.9688701 0.1487925 0.0000000
0.0059782 0.1932014 0.0000000
0.0367376 0.1928406 0.0000000
0.0674986 0.1924811 0.0000000
0.0994650 0.1930039 0.0000000
0.1314424 0.1935341 0.0000000
0.1673415 0.1967229 0.0000000
0.2032436 0.1999140 0.0000000
0.2398550 0.2036524 0.0000000
0.2764530 0.2073815 0.0000000
0.3106309 0.2094480 0.0000000
0.3447879 0.2115013 0.0000000
0.3759679 0.2116665 0.0000000
0.4071290 0.2118205 0.0000000
0.4360481 0.2106387 0.0000000
0.4649539 0.2094497 0.0000000
0.4925104 0.2075255 0.0000000
0.5200595 0.2055975 0.0000000
0.5469479 0.2033362 0.0000000
0.5738342 0.2010741 0.0000000
0.6005509 0.1987472 0.0000000
0.6272701 0.1964220 0.0000000
0.6541685 0.1942140 0.0000000
0.6810735 0.1920098 0.0000000
0.7084020 0.1900480 0.0000000
0.7357407 0.1880917 0.0000000
0.7636747 0.1864549 0.0000000
0.7916219 0.1848248 0.0000000
0.8202879 0.1835612 0.0000000
0.8489698 0.1823054 0.0000000
0.8784568 0.1814459 0.0000000
0.9079621 0.1805952 0.0000000
0.9383276 0.1801601 0.0000000
0.9680198 0.1797347 0.0000000
0.0075521 0.2274484 0.0000000
0.0384954 0.2272302 0.0000000
0.0694400 0.2270130 0.0000000
0.1013596 0.2275228 0.0000000
0.1332874 0.2280382 0.0000000
0.1681748 0.2305672 0.0000000
0.2030659 0.2330984 0.0000000
0.2388741 0.2361524 0.0000000
0.2746729 0.2391996 0.0000000
0.3087621 0.2410395 0.0000000
0.3428332 0.2428680 0.0000000
0.3743063 0.2430619 0.0000000
0.4057607 0.2432447 0.0000000
0.4349695 0.2420889 0.0000000
0.4641640 0.2409254 0.0000000
0.4918852 0.2389803 0.0000000
0.5195977 0.2370312 0.0000000
0.5465366 0.2347253 0.0000000
0.5734725 0.2324185 0.0000000
0.6001729 0.2300411 0.0000000
0.6268753 0.2276655 0.0000000
0.6537276 0.2254129 0.0000000
0.6805862 0.2231644 0.0000000
0.7078598 0.2211703 0.0000000
0.7351435 0.2191819 0.0000000
0.7630255 0.2175250 0.0000000
0.7909210 0.2158750 0.0000000
0.8195440 0.2145995 0.0000000
0.8481832 0.2133319 0.0000000
0.8776400 0.2124656 0.0000000
0.9071154 0.2116082 0.0000000
0.9374653 0.2111700 0.0000000
0.9671422 0.2107414 0.0000000
0.0091202 0.2616856 0.0000000
0.0402441 0.2616078 0.0000000
0.0713690 0.2615308 0.0000000
0.1032407 0.2620264 0.0000000
0.1351179 0.2625259 0.0000000
0.1690049 0.2644019 0.0000000
0.2028966 0.2662800 0.0000000
0.2379026 0.2686542 0.0000000
0.2729030 0.2710243 0.0000000
0.3068946 0.2726348 0.0000000
0.3408707 0.2742356 0.0000000
0.3726297 0.2744555 0.0000000
0.4043699 0.2746641 0.0000000
0.4338673 0.2735350 0.0000000
0.4633491 0.2723978 0.0000000
0.4912376 0.2704337 0.0000000
0.5191161 0.2684654 0.0000000
0.5461092 0.2661161 0.0000000
0.5730984 0.2637659 0.0000000
0.5997856 0.2613388 0.0000000
0.6264746 0.2589135 0.0000000
0.6532828 0.2566168 0.0000000
0.6800974 0.2543242 0.0000000
0.7073174 0.2522981 0.0000000
0.7345476 0.2502778 0.0000000
0.7623785 0.2486009 0.0000000
0.7902230 0.2469310 0.0000000
0.8188036 0.2456436 0.0000000
0.8474006 0.2443642 0.0000000
0.8768273 0.2434911 0.0000000
0.9062730 0.2426271 0.0000000
0.9366074 0.2421857 0.0000000
0.9662693 0.2417541 0.0000000
0.0104834 0.2955786 0.0000000
0.0416731 0.2955643 0.0000000
0.0728636 0.2955507 0.0000000
0.1046463 0.2959942 0.0000000
0.1364333 0.2964406 0.0000000
0.1697256 0.2978985 0.0000000
0.2030218 0.2993580 0.0000000
0.2372604 0.3012218 0.0000000
0.2714954 0.3030824 0.0000000
0.3050720 0.3043627 0.0000000
0.3386362 0.3056352 0.0000000
0.3704223 0.3057808 0.0000000
0.4021914 0.3059161 0.0000000
0.4319314 0.3048393 0.0000000
0.4616560 0.3037543 0.0000000
0.4898027 0.3018369 0.0000000
0.5179386 0.2999147 0.0000000
0.5451161 0.2975689 0.0000000
0.5722888 0.2952216 0.0000000
0.5990754 0.2927707 0.0000000
0.6258627 0.2903215 0.0000000
0.6527053 0.2879929 0.0000000
0.6795537 0.2856685 0.0000000
0.7067703 0.2836169 0.0000000
0.7339968 0.2815712 0.0000000
0.7618063 0.2798776 0.0000000
0.7896292 0.2781910 0.0000000
0.8181837 0.2768929 0.0000000
0.8467547 0.2756029 0.0000000
0.8761597 0.2747232 0.0000000
0.9055839 0.2738525 0.0000000
0.9359061 0.2734079 0.0000000
0.9655560 0.2729731 0.0000000
0.0118327 0.3294517 0.0000000
0.0430858 0.3294989 0.0000000
0.0743396 0.3295466 0.0000000
0.1060326 0.3299371 0.0000000
0.1377285 0.3303294 0.0000000
0.1704336 0.3313743 0.0000000
0.2031420 0.3324205 0.0000000
0.2366206 0.3337790 0.0000000
0.2700975 0.3351353 0.0000000
0.3032583 0.3360876 0.0000000
0.3364097 0.3370337 0.0000000
0.3682167 0.3371035 0.0000000
0.4000086 0.3371642 0.0000000
0.4299870 0.3361391 0.0000000
0.4599501 0.3351058 0.0000000
0.4883544 0.3332367 0.0000000
0.5167471 0.3313624 0.0000000
0.5441111 0.3290224 0.0000000
0.5714693 0.3266807 0.0000000
0.5983581 0.3242078 0.0000000
0.6252467 0.3217366 0.0000000
0.6521265 0.3193773 0.0000000
0.6790114 0.3170223 0.0000000
0.7062268 0.3149459 0.0000000
0.7334517 0.3128755 0.0000000
0.7612412 0.3111653 0.0000000
0.7890440 0.3094623 0.0000000
0.8175733 0.3081536 0.0000000
0.8461191 0.3068532 0.0000000
0.8755030 0.3059669 0.0000000
0.9049062 0.3050897 0.0000000
0.9352165 0.3046418 0.0000000
0.9648547 0.3042038 0.0000000
0.0127925 0.3627700 0.0000000
0.0440452 0.3628217 0.0000000
0.0752983 0.3628738 0.0000000
0.1068779 0.3631842 0.0000000
0.1384597 0.3634959 0.0000000
0.1707879 0.3642717 0.0000000
0.2031186 0.3650484 0.0000000
0.2360462 0.3660469 0.0000000
0.2689727 0.3670437 0.0000000
0.3016943 0.3677250 0.0000000
0.3344085 0.3684012 0.0000000
0.3660639 0.3683553 0.0000000
0.3977064 0.3683015 0.0000000
0.4278045 0.3673153 0.0000000
0.4578886 0.3663215 0.0000000
0.4865328 0.3645450 0.0000000
0.5151655 0.3627631 0.0000000
0.5427719 0.3604978 0.0000000
0.5703715 0.3582302 0.0000000
0.5974446 0.3557899 0.0000000
0.6245165 0.3533507 0.0000000
0.6515104 0.3509942 0.0000000
0.6785086 0.3486418 0.0000000
0.7057815 0.3465579 0.0000000
0.7330634 0.3444799 0.0000000
0.7608736 0.3427612 0.0000000
0.7886968 0.3410497 0.0000000
0.8172270 0.3397340 0.0000000
0.8457736 0.3384265 0.0000000
0.8751508 0.3375348 0.0000000
0.9045473 0.3366523 0.0000000
0.9348524 0.3362013 0.0000000
0.9644854 0.3357602 0.0000000
0.0137353 0.3960648 0.0000000
0.0449864 0.3961201 0.0000000
0.0762379 0.3961755 0.0000000
0.1077046 0.3964060 0.0000000
0.1391727 0.3966372 0.0000000
0.1711292 0.3971478 0.0000000
0.2030876 0.3976589 0.0000000
0.2354718 0.3983026 0.0000000
0.2678554 0.3989451 0.0000000
0.3001416 0.3993582 0.0000000
0.3324223 0.3997674 0.0000000
0.3639243 0.3996061 0.0000000
0.3954156 0.3994384 0.0000000
0.4256293 0.3984901 0.0000000
0.4558300 0.3975348 0.0000000
0.4847115 0.3958511 0.0000000
0.5135815 0.3941619 0.0000000
0.5414297 0.3919729 0.0000000
0.5692706 0.3897812 0.0000000
0.5965295 0.3873759 0.0000000
0.6237862 0.3849714 0.0000000
0.6508966 0.3826198 0.0000000
0.6780105 0.3802723 0.0000000
0.7053434 0.3781821 0.0000000
0.7326847 0.3760980 0.0000000
0.7605175 0.3743715 0.0000000
0.7883630 0.3726522 0.0000000
0.8168955 0.3713299 0.0000000
0.8454442 0.3700158 0.0000000
0.8748157 0.3691189 0.0000000
0.9042065 0.3682312 0.0000000
0.9345067 0.3677771 0.0000000
0.9641351 0.3673331 0.0000000
0.0142842 0.4288181 0.0000000
0.0455107 0.4288540 0.0000000
0.0767374 0.4288901 0.0000000
0.1080999 0.4290428 0.0000000
0.1394632 0.4291961 0.0000000
0.1711708 0.4295318 0.0000000
0.2028796 0.4298679 0.0000000
0.2348968 0.4302771 0.0000000
0.2669135 0.4306853 0.0000000
0.2988504 0.4308958 0.0000000
0.3307830 0.4311031 0.0000000
0.3620905 0.4308365 0.0000000
0.3933890 0.4305644 0.0000000
0.4236209 0.4296327 0.0000000
0.4538413 0.4286945 0.0000000
0.4828963 0.4271076 0.0000000
0.5119404 0.4255154 0.0000000
0.5400225 0.4234420 0.0000000
0.5680971 0.4213657 0.0000000
0.5955773 0.4190535 0.0000000
0.6230548 0.4167416 0.0000000
0.6503371 0.4144465 0.0000000
0.6776219 0.4121550 0.0000000
0.7050698 0.4100901 0.0000000
0.7325253 0.4080309 0.0000000
0.7604260 0.4063138 0.0000000
0.7883388 0.4046038 0.0000000
0.8169064 0.4032837 0.0000000
0.8454899 0.4019719 0.0000000
0.8748767 0.4010745 0.0000000
0.9042826 0.4001863 0.0000000
0.9345877 0.3997310 0.0000000
0.9642209 0.3992859 0.0000000
0.0148169 0.4615491 0.0000000
0.0460187 0.4615655 0.0000000
0.0772206 0.4615820 0.0000000
0.1084799 0.4616578 0.0000000
0.1397397 0.4617338 0.0000000
0.1712023 0.4618977 0.0000000
0.2026657 0.4620617 0.0000000
0.2343220 0.4622407 0.0000000
0.2659781 0.4624188 0.0000000
0.2975708 0.4624299 0.0000000
0.3291602 0.4624384 0.0000000
0.3602744 0.4620679 0.0000000
0.3913813 0.4616927 0.0000000
0.4216292 0.4607768 0.0000000
0.4518671 0.4598554 0.0000000
0.4810924 0.4583645 0.0000000
0.5103076 0.4568684 0.0000000
0.5386216 0.4549110 0.0000000
0.5669280 0.4529503 0.0000000
0.5946296 0.4507328 0.0000000
0.6223278 0.4485151 0.0000000
0.6497832 0.4462787 0.0000000
0.6772403 0.4440453 0.0000000
0.7048053 0.4420076 0.0000000
0.7323769 0.4399754 0.0000000
0.7603477 0.4382690 0.0000000
0.7883298 0.4365696 0.0000000
0.8169343 0.4352526 0.0000000
0.8455543 0.4339438 0.0000000
0.8749576 0.4330464 0.0000000
0.9043798 0.4321581 0.0000000
0.9346904 0.4317020 0.0000000
0.9643290 0.4312560 0.0000000
0.0150319 0.4938413 0.0000000
0.0462069 0.4938344 0.0000000
0.0773818 0.4938274 0.0000000
0.1085601 0.4938415 0.0000000
0.1397387 0.4938557 0.0000000
0.1710367 0.4939067 0.0000000
0.2023353 0.4939577 0.0000000
0.2337532 0.4939895 0.0000000
0.2651707 0.4940203 0.0000000
0.2965169 0.4938952 0.0000000
0.3278603 0.4937678 0.0000000
0.3588064 0.4933181 0.0000000
0.3897464 0.4928646 0.0000000
0.4199666 0.4919539 0.0000000
0.4501781 0.4910383 0.0000000
0.4795122 0.4896279 0.0000000
0.5088371 0.4882127 0.0000000
0.5373460 0.4863770 0.0000000
0.5658475 0.4845381 0.0000000
0.5937686 0.4824459 0.0000000
0.6216861 0.4803531 0.0000000
0.6493413 0.4782184 0.0000000
0.6769976 0.4760862 0.0000000
0.7047192 0.4741142 0.0000000
0.7324468 0.4721473 0.0000000
0.7605279 0.4704777 0.0000000
0.7886198 0.4688148 0.0000000
0.8172951 0.4675172 0.0000000
0.8459853 0.4662277 0.0000000
0.8754289 0.4653395 0.0000000
0.9048910 0.4644605 0.0000000
0.9352194 0.4640081 0.0000000
0.9648754 0.4635658 0.0000000
0.0152338 0.5261147 0.0000000
0.0463823 0.5260846 0.0000000
0.0775306 0.5260545 0.0000000
0.1086293 0.5260077 0.0000000
0.1397281 0.5259610 0.0000000
0.1708648 0.5259015 0.0000000
0.2020018 0.5258418 0.0000000
0.2331860 0.5257295 0.0000000
0.2643698 0.5256164 0.0000000
0.2954741 0.5253577 0.0000000
0.3265761 0.5250973 0.0000000
0.3573566 0.5245701 0.0000000
0.3881322 0.5240397 0.0000000
0.4183242 0.5231340 0.0000000
0.4485088 0.5222242 0.0000000
0.4779494 0.5208933 0.0000000
0.5073818 0.5195581 0.0000000
0.5360831 0.5178434 0.0000000
0.5647773 0.5161256 0.0000000
0.5929166 0.5141588 0.0000000
0.6210520 0.5121911 0.0000000
0.6489072 0.5101592 0.0000000
0.6767627 0.5081292 0.0000000
0.7046421 0.5062246 0.0000000
0.7325267 0.5043246 0.0000000
0.7607200 0.5026933 0.0000000
0.7889232 0.5010683 0.0000000
0.8176709 0.4997914 0.0000000
0.8464329 0.4985222 0.0000000
0.8759181 0.4976441 0.0000000
0.9054212 0.4967750 0.0000000
0.9357681 0.4963267 0.0000000
0.9654422 0.4958884 0.0000000
0.0152130 0.5580655 0.0000000
0.0463404 0.5580160 0.0000000
0.0774676 0.5579666 0.0000000
0.1085103 0.5578759 0.0000000
0.1395530 0.5577852 0.0000000
0.1705840 0.5576540 0.0000000
0.2016151 0.5575225 0.0000000
0.2326480 0.5573203 0.0000000
0.2636805 0.5571174 0.0000000
0.2946215 0.5567740 0.0000000
0.3255605 0.5564291 0.0000000
0.3562179 0.5558504 0.0000000
0.3868711 0.5552690 0.0000000
0.4170269 0.5543670 0.0000000
0.4471763 0.5534614 0.0000000
0.4766840 0.5521933 0.0000000
0.5061843 0.5509215 0.0000000
0.5350366 0.5493153 0.0000000
0.5638824 0.5477062 0.0000000
0.5922174 0.5458677 0.0000000
0.6205485 0.5440282 0.0000000
0.6486045 0.5421176 0.0000000
0.6766605 0.5402086 0.0000000
0.7047174 0.5383991 0.0000000
0.7327789 0.5365935 0.0000000
0.7611121 0.5350268 0.0000000
0.7894546 0.5334659 0.0000000
0.8183022 0.5322289 0.0000000
0.8471634 0.5309993 0.0000000
0.8767117 0.5301440 0.0000000
0.9062773 0.5292975 0.0000000
0.9366543 0.5288595 0.0000000
0.9663579 0.5284313 0.0000000
0.0151832 0.5900015 0.0000000
0.0462899 0.5899330 0.0000000
0.0773964 0.5898645 0.0000000
0.1083844 0.5897309 0.0000000
0.1393723 0.5895970 0.0000000
0.1703002 0.5893959 0.0000000
0.2012280 0.5891944 0.0000000
0.2321133 0.5889047 0.0000000
0.2629981 0.5886142 0.0000000
0.2937796 0.5881883 0.0000000
0.3245593 0.5877610 0.0000000
0.3550961 0.5871322 0.0000000
0.3856294 0.5865012 0.0000000
0.4157496 0.5856030 0.0000000
0.4458644 0.5847018 0.0000000
0.4754377 0.5834957 0.0000000
0.5050046 0.5822865 0.0000000
0.5340056 0.5807875 0.0000000
0.5630007 0.5792859 0.0000000
0.5915295 0.5775748 0.0000000
0.6200544 0.5758626 0.0000000
0.6483102 0.5740732 0.0000000
0.6765657 0.5722851 0.0000000
0.7048001 0.5705712 0.0000000
0.7330384 0.5688608 0.0000000
0.7615124 0.5673595 0.0000000
0.7899949 0.5658638 0.0000000
0.8189435 0.5646677 0.0000000
0.8479050 0.5634787 0.0000000
0.8775173 0.5626470 0.0000000
0.9071463 0.5618237 0.0000000
0.9375540 0.5613965 0.0000000
0.9672875 0.5609787 0.0000000
0.0150176 0.6217149 0.0000000
0.0461105 0.6216325 0.0000000
0.0772032 0.6215499 0.0000000
0.1081561 0.6213871 0.0000000
0.1391087 0.6212241 0.0000000
0.1699720 0.6209790 0.0000000
0.2008350 0.6207336 0.0000000
0.2316276 0.6203907 0.0000000
0.2624196 0.6200471 0.0000000
0.2930981 0.6195715 0.0000000
0.3237750 0.6190947 0.0000000
0.3542298 0.6184365 0.0000000
0.3846817 0.6177765 0.0000000
0.4147737 0.6168845 0.0000000
0.4448611 0.6159900 0.0000000
0.4744792 0.6148334 0.0000000
0.5040917 0.6136741 0.0000000
0.5332079 0.6122642 0.0000000
0.5623189 0.6108520 0.0000000
0.5910120 0.6092549 0.0000000
0.6197015 0.6076567 0.0000000
0.6481414 0.6059863 0.0000000
0.6765809 0.6043167 0.0000000
0.7049930 0.6027080 0.0000000
0.7334087 0.6011024 0.0000000
0.7620351 0.5996819 0.0000000
0.7906693 0.5982664 0.0000000
0.8197349 0.5971263 0.0000000
0.8488126 0.5959928 0.0000000
0.8785032 0.5951961 0.0000000
0.9082095 0.5944073 0.0000000
0.9386563 0.5939970 0.0000000
0.9684280 0.5935958 0.0000000
0.0148471 0.6534174 0.0000000
0.0459266 0.6533212 0.0000000
0.0770059 0.6532249 0.0000000
0.1079247 0.6530338 0.0000000
0.1388432 0.6528424 0.0000000
0.1696437 0.6525546 0.0000000
0.2004438 0.6522664 0.0000000
0.2311464 0.6518721 0.0000000
0.2618482 0.6514770 0.0000000
0.2924266 0.6509532 0.0000000
0.3230036 0.6504284 0.0000000
0.3533787 0.6497419 0.0000000
0.3837512 0.6490538 0.0000000
0.4138159 0.6481683 0.0000000
0.4438766 0.6472806 0.0000000
0.4735388 0.6461728 0.0000000
0.5031961 0.6450626 0.0000000
0.5324258 0.6437405 0.0000000
0.5616507 0.6424164 0.0000000
0.5905059 0.6409319 0.0000000
0.6193579 0.6394464 0.0000000
0.6479802 0.6378937 0.0000000
0.6766021 0.6363418 0.0000000
0.7051909 0.6348379 0.0000000
0.7337829 0.6333367 0.0000000
0.7625614 0.6319970 0.0000000
0.7913471 0.6306619 0.0000000
0.8205299 0.6295782 0.0000000
0.8497241 0.6285008 0.0000000
0.8794932 0.6277394 0.0000000
0.9092773 0.6269857 0.0000000
0.9397633 0.6265926 0.0000000
0.9695734 0.6262082 0.0000000
0.0146100 0.6849724 0.0000000
0.0456820 0.6848671 0.0000000
0.0767538 0.6847618 0.0000000
0.1076529 0.6845525 0.0000000
0.1385516 0.6843430 0.0000000
0.1693150 0.6840292 0.0000000
0.2000778 0.6837149 0.0000000
0.2307261 0.6832901 0.0000000
0.2613737 0.6828647 0.0000000
0.2918902 0.6823137 0.0000000
0.3224054 0.6817617 0.0000000
0.3527303 0.6810609 0.0000000
0.3830529 0.6803586 0.0000000
0.4131010 0.6794821 0.0000000
0.4431457 0.6786036 0.0000000
0.4728417 0.6775350 0.0000000
0.5025336 0.6764643 0.0000000
0.5318517 0.6752123 0.0000000
0.5611657 0.6739585 0.0000000
0.5901542 0.6725676 0.0000000
0.6191399 0.6711759 0.0000000
0.6479214 0.6697269 0.0000000
0.6767024 0.6682786 0.0000000
0.7054546 0.6668737 0.0000000
0.7342096 0.6654712 0.0000000
0.7631364 0.6642146 0.0000000
0.7920700 0.6629623 0.0000000
0.8213731 0.6619413 0.0000000
0.8506868 0.6609261 0.0000000
0.8805394 0.6602061 0.0000000
0.9104061 0.6594933 0.0000000
0.9409348 0.6591208 0.0000000
0.9707866 0.6587565 0.0000000
0.0143717 0.7165196 0.0000000
0.0454364 0.7164057 0.0000000
0.0765010 0.7162915 0.0000000
0.1073811 0.7160648 0.0000000
0.1382609 0.7158377 0.0000000
0.1689884 0.7154986 0.0000000
0.1997154 0.7151590 0.0000000
0.2303114 0.7147050 0.0000000
0.2609065 0.7142502 0.0000000
0.2913633 0.7136730 0.0000000
0.3218187 0.7130949 0.0000000
0.3520951 0.7123805 0.0000000
0.3823694 0.7116648 0.0000000
0.4124017 0.7107972 0.0000000
0.4424310 0.7099281 0.0000000
0.4721605 0.7088980 0.0000000
0.5018864 0.7078661 0.0000000
0.5312915 0.7066829 0.0000000
0.5606930 0.7054982 0.0000000
0.5898127 0.7041993 0.0000000
0.6189299 0.7028998 0.0000000
0.6478684 0.7015529 0.0000000
0.6768065 0.7002067 0.0000000
0.7057202 0.6988997 0.0000000
0.7346365 0.6975949 0.0000000
0.7637105 0.6964208 0.0000000
0.7927908 0.6952506 0.0000000
0.8222134 0.6942919 0.0000000
0.8516460 0.6933387 0.0000000
0.8815817 0.6926601 0.0000000
0.9115308 0.6919883 0.0000000
0.9421021 0.6916364 0.0000000
0.9719956 0.6912923 0.0000000
0.0141178 0.7479742 0.0000000
0.0451792 0.7478548 0.0000000
0.0762403 0.7477353 0.0000000
0.1071108 0.7474978 0.0000000
0.1379808 0.7472599 0.0000000
0.1686889 0.7469060 0.0000000
0.1993965 0.7465516 0.0000000
0.2299626 0.7460811 0.0000000
0.2605280 0.7456099 0.0000000
0.2909501 0.7450187 0.0000000
0.3213710 0.7444267 0.0000000
0.3516192 0.7437072 0.0000000
0.3818656 0.7429865 0.0000000
0.4118911 0.7421291 0.0000000
0.4419140 0.7412703 0.0000000
0.4716713 0.7402711 0.0000000
0.5014255 0.7392704 0.0000000
0.5308992 0.7381406 0.0000000
0.5603697 0.7370096 0.0000000
0.5895948 0.7357833 0.0000000
0.6188178 0.7345564 0.0000000
0.6478871 0.7332931 0.0000000
0.6769561 0.7320303 0.0000000
0.7060098 0.7308074 0.0000000
0.7350659 0.7295866 0.0000000
0.7642727 0.7284874 0.0000000
0.7934854 0.7273918 0.0000000
0.8230194 0.7264927 0.0000000
0.8525627 0.7255986 0.0000000
0.8825780 0.7249612 0.0000000
0.9126058 0.7243302 0.0000000
0.9432186 0.7239992 0.0000000
0.9731526 0.7236756 0.0000000
0.0138655 0.7794239 0.0000000
0.0449238 0.7792992 0.0000000
0.0759817 0.7791745 0.0000000
