presets/experimental/experimental-lough-leane/look.cube
# Approximate v0 colour conversion; calibrate before claiming visual parity.
LUT_3D_SIZE 5
DOMAIN_MIN 0 0 0
DOMAIN_MAX 1 1 1
0.0000000 0.0013475 0.0017740
0.2736210 0.0202455 0.0032462
0.5175604 0.0169449 0.0000000
0.7379638 0.0015118 0.0000000
0.9717600 0.0000000 0.0000000
0.0091202 0.2616856 0.0000000
0.2729030 0.2710243 0.0000000
0.5191161 0.2684654 0.0000000
0.7345476 0.2502778 0.0000000
0.9662693 0.2417541 0.0000000
0.0152338 0.5261147 0.0000000
0.2643698 0.5256164 0.0000000
0.5073818 0.5195581 0.0000000
0.7325267 0.5043246 0.0000000
0.9654422 0.4958884 0.0000000
0.0138655 0.7794239 0.0000000
0.2601569 0.7769683 0.0000000
0.5009775 0.7706741 0.0000000
0.7354921 0.7615658 0.0000000
0.9742970 0.7560413 0.0000000
0.0126370 1.0000000 0.0000000
0.2587786 1.0000000 0.0000000
0.4996808 1.0000000 0.0000000
0.7375474 1.0000000 0.0000000
0.9794310 1.0000000 0.0000000
0.0380645 0.0415740 0.2545978
0.2767658 0.0332810 0.2466512
0.5174985 0.0211022 0.2290674
0.7327477 0.0004104 0.2040851
0.9639907 0.0000000 0.1925616
0.0294130 0.2804611 0.2689375
0.2490570 0.2505660 0.2502097
0.5418954 0.2488134 0.2161800
0.7235522 0.2126576 0.1693705
0.9517191 0.1997326 0.1521247
0.0249952 0.5334236 0.2471900
0.2398854 0.5291697 0.2137291
0.5168516 0.5274264 0.1894654
0.7230746 0.4803098 0.1588574
0.9408031 0.4597917 0.1394129
0.0180532 0.7830120 0.2284563
0.2320817 0.7795726 0.1939366
0.4880970 0.7728044 0.1797012
0.7344249 0.7626784 0.1583331
0.9661389 0.7433967 0.1416795
0.0155614 1.0000000 0.2216439
0.2277207 1.0000000 0.1848078
0.4793748 1.0000000 0.1733292
0.7268533 1.0000000 0.1544615
0.9771256 1.0000000 0.1410274
0.0952261 0.0835869 0.4629944
0.3075511 0.0629090 0.4677012
0.5199340 0.0334055 0.4609921
0.7320733 0.0062782 0.4447429
0.9608194 0.0000000 0.4349576
0.0936404 0.3246158 0.4863437
0.2612002 0.2960145 0.4960201
0.5086386 0.2558993 0.4690456
0.7120691 0.2143828 0.4248017
0.9249899 0.1853896 0.3966786
0.1022795 0.5453919 0.5063988
0.1999449 0.5372294 0.5078005
0.4934599 0.4949967 0.4952507
0.7058135 0.4830911 0.4132911
0.8004746 0.3338518 0.2846766
0.0315645 0.7925329 0.4729131
0.2341489 0.7862916 0.4576733
0.4739223 0.7746928 0.4379767
0.7431585 0.7698312 0.3973593
0.9401786 0.7352970 0.3546569
0.0237305 1.0000000 0.4648543
0.2331321 1.0000000 0.4411581
0.4613644 1.0000000 0.4122248
0.7180526 1.0000000 0.3850109
0.9714971 0.9997710 0.3484260
0.1959857 0.1487336 0.6566457
0.3681634 0.1033879 0.6779149
0.5429169 0.0531587 0.6891525
0.7462715 0.0199582 0.6866517
0.9754823 0.0058275 0.6828431
0.2232025 0.4040046 0.6446663
0.3426457 0.3316683 0.6744981
0.5201514 0.2721214 0.6907310
0.7363583 0.2352545 0.6858920
0.9600785 0.2136135 0.6672198
0.1085804 0.5906028 0.6950130
0.2601462 0.5739120 0.6926592
0.4748792 0.5129574 0.6974479
0.7232415 0.4796472 0.6955447
0.9231768 0.4350485 0.6463733
0.0502178 0.8066266 0.7005573
0.2518946 0.7987596 0.6979313
0.4803825 0.7721448 0.7072458
0.7540908 0.7539662 0.7525394
0.9058449 0.7107049 0.6407353
0.0362601 1.0000000 0.7009494
0.2449451 1.0000000 0.6892609
0.4700715 1.0000000 0.6786642
0.7121977 0.9970349 0.6619511
0.9586497 0.9755966 0.6001235
0.2628453 0.1960541 0.8883702
0.4075359 0.1287848 0.9095883
0.5602973 0.0647480 0.9268661
0.7570074 0.0279513 0.9314511
0.9862490 0.0139496 0.9313629
0.3596665 0.5079914 0.8705155
0.3982895 0.3621499 0.9010800
0.5382927 0.2824744 0.9236185
0.7418900 0.2420362 0.9308484
0.9798041 0.2267559 0.9311045
0.1373440 0.6113612 0.9140021
0.3276669 0.5755402 0.9072685
0.5122528 0.5145339 0.9101072
0.7234024 0.4721156 0.9301938
0.9684171 0.4575004 0.9350441
0.0644216 0.8142111 0.9332731
0.2739802 0.7955470 0.9248417
0.5080113 0.7611354 0.9088787
0.7192057 0.7184471 0.9381697
0.9671699 0.7085629 0.9530937
0.0449068 1.0000000 0.9401290
0.2552911 1.0000000 0.9379549
0.4799462 1.0000000 0.9378329
0.7157574 0.9882453 0.9488368
0.9676621 0.9681580 0.9662352
