presets/experimental/experimental-lough-leane/look.cube
# Approximate v0 colour conversion; calibrate before claiming visual parity.
LUT_3D_SIZE 9
DOMAIN_MIN 0 0 0
DOMAIN_MAX 1 1 1
0.0000000 0.0013475 0.0017740
0.1291829 0.0105295 0.0058922
0.2736210 0.0202455 0.0032462
0.4021367 0.0220394 0.0000000
0.5175604 0.0169449 0.0000000
0.6275787 0.0090730 0.0000000
0.7379638 0.0015118 0.0000000
0.8522774 0.0000000 0.0000000
0.9717600 0.0000000 0.0000000
0.0032255 0.1251166 0.0007105
0.1290953 0.1261876 0.0000018
0.2796600 0.1456814 0.0039605
0.4068261 0.1487382 0.0000000
0.5195485 0.1427195 0.0000000
0.6276003 0.1340493 0.0000000
0.7367989 0.1260413 0.0000000
0.8504809 0.1203845 0.0000000
0.9697197 0.1178517 0.0000000
0.0091202 0.2616856 0.0000000
0.1351179 0.2625259 0.0000000
0.2729030 0.2710243 0.0000000
0.4043699 0.2746641 0.0000000
0.5191161 0.2684654 0.0000000
0.6264746 0.2589135 0.0000000
0.7345476 0.2502778 0.0000000
0.8474006 0.2443642 0.0000000
0.9662693 0.2417541 0.0000000
0.0137353 0.3960648 0.0000000
0.1391727 0.3966372 0.0000000
0.2678554 0.3989451 0.0000000
0.3954156 0.3994384 0.0000000
0.5135815 0.3941619 0.0000000
0.6237862 0.3849714 0.0000000
0.7326847 0.3760980 0.0000000
0.8454442 0.3700158 0.0000000
0.9641351 0.3673331 0.0000000
0.0152338 0.5261147 0.0000000
0.1397281 0.5259610 0.0000000
0.2643698 0.5256164 0.0000000
0.3881322 0.5240397 0.0000000
0.5073818 0.5195581 0.0000000
0.6210520 0.5121911 0.0000000
0.7325267 0.5043246 0.0000000
0.8464329 0.4985222 0.0000000
0.9654422 0.4958884 0.0000000
0.0148471 0.6534174 0.0000000
0.1388432 0.6528424 0.0000000
0.2618482 0.6514770 0.0000000
0.3837512 0.6490538 0.0000000
0.5031961 0.6450626 0.0000000
0.6193579 0.6394464 0.0000000
0.7337829 0.6333367 0.0000000
0.8497241 0.6285008 0.0000000
0.9695734 0.6262082 0.0000000
0.0138655 0.7794239 0.0000000
0.1377039 0.7786783 0.0000000
0.2601569 0.7769683 0.0000000
0.3813742 0.7743090 0.0000000
0.5009775 0.7706741 0.0000000
0.6187117 0.7662071 0.0000000
0.7354921 0.7615658 0.0000000
0.8534695 0.7578422 0.0000000
0.9742970 0.7560413 0.0000000
0.0130251 0.9049382 0.0000000
0.1368464 0.9041381 0.0000000
0.2591705 0.9023336 0.0000000
0.3802101 0.8996481 0.0000000
0.4999941 0.8962462 0.0000000
0.6186374 0.8924016 0.0000000
0.7368928 0.8886287 0.0000000
0.8562889 0.8856686 0.0000000
0.9778511 0.8842452 0.0000000
0.0126370 1.0000000 0.0000000
0.1364670 1.0000000 0.0000000
0.2587786 1.0000000 0.0000000
0.3797968 1.0000000 0.0000000
0.4996808 1.0000000 0.0000000
0.6186904 1.0000000 0.0000000
0.7375474 1.0000000 0.0000000
0.8575466 1.0000000 0.0000000
0.9794310 1.0000000 0.0000000
0.0095061 0.0130785 0.1190308
0.1165789 0.0136760 0.1089602
0.2732839 0.0243312 0.1247206
0.4046068 0.0252429 0.1206329
0.5185388 0.0184140 0.1079537
0.6269364 0.0092891 0.0942886
0.7361880 0.0009412 0.0830273
0.8498262 0.0000000 0.0753948
0.9690299 0.0000000 0.0720226
0.0086543 0.1295820 0.1225968
0.1141526 0.1142681 0.1149568
0.2973446 0.1417599 0.1245977
0.4173863 0.1393652 0.1136421
0.5224827 0.1273567 0.0929623
0.6273122 0.1160342 0.0761463
0.7351000 0.1065865 0.0664978
0.8481492 0.1000661 0.0605634
0.9671728 0.0970064 0.0579015
0.0125343 0.2655893 0.1264615
0.1183522 0.2599959 0.1071023
0.2743549 0.2736031 0.1045847
0.4227405 0.2762994 0.1100097
0.5273242 0.2586638 0.0921720
0.6267899 0.2440629 0.0739869
0.7316637 0.2330006 0.0640771
0.8432815 0.2257905 0.0578019
0.9617856 0.2223047 0.0549992
0.0167199 0.3993017 0.1233630
0.1244784 0.3984706 0.1041402
0.2589408 0.4005022 0.0951887
0.4003109 0.4035402 0.0918377
0.5196778 0.3916201 0.0819905
0.6246344 0.3747157 0.0697064
0.7290858 0.3612935 0.0607342
0.8395777 0.3532606 0.0544785
0.9574777 0.3492391 0.0523636
0.0175236 0.5283191 0.1165029
0.1239367 0.5275501 0.0968130
0.2529119 0.5267935 0.0904326
0.3833707 0.5255682 0.0823108
0.5096893 0.5214438 0.0741091
0.6219530 0.5081294 0.0657053
0.7300177 0.4947797 0.0581538
0.8411269 0.4857205 0.0525174
0.9588468 0.4810124 0.0522457
0.0164710 0.6549095 0.1093787
0.1219822 0.6540348 0.0894340
0.2487715 0.6524772 0.0846626
0.3752392 0.6500177 0.0775120
0.4997965 0.6461873 0.0706696
0.6198603 0.6401653 0.0638128
0.7326020 0.6293437 0.0569551
0.8464062 0.6208125 0.0524424
0.9650375 0.6159475 0.0522457
0.0150345 0.7805082 0.1035705
0.1200261 0.7796209 0.0834203
0.2459128 0.7778400 0.0796198
0.3707805 0.7750982 0.0739700
0.4942815 0.7714428 0.0685393
0.6155083 0.7668322 0.0624027
0.7349752 0.7617653 0.0562581
0.8518245 0.7544357 0.0524424
0.9718555 0.7498968 0.0522457
0.0139637 0.9057988 0.0997255
0.1185829 0.9049342 0.0793379
0.2440204 0.9031131 0.0760547
0.3681810 0.9003413 0.0717345
0.4911410 0.8968353 0.0669691
0.6127798 0.8928449 0.0613329
0.7336457 0.8888387 0.0555548
0.8554679 0.8856175 0.0524381
0.9766758 0.8813305 0.0522457
0.0134967 1.0000000 0.0980871
0.1177947 1.0000000 0.0774252
0.2429136 1.0000000 0.0743401
0.3666874 1.0000000 0.0706453
0.4893137 1.0000000 0.0661347
0.6109350 1.0000000 0.0607487
0.7321558 1.0000000 0.0551780
0.8543821 1.0000000 0.0522559
0.9786975 1.0000000 0.0522457
0.0380645 0.0415740 0.2545978
0.1518886 0.0365818 0.2501315
0.2767658 0.0332810 0.2466512
0.4033995 0.0298348 0.2408059
0.5174985 0.0211022 0.2290674
0.6248812 0.0101982 0.2156229
0.7327477 0.0004104 0.2040851
0.8452942 0.0000000 0.1961196
0.9639907 0.0000000 0.1925616
0.0317756 0.1577011 0.2584911
0.1339184 0.1445895 0.2626791
0.2698510 0.1436204 0.2526298
0.4130318 0.1429298 0.2416829
0.5229612 0.1296018 0.2216644
0.6246685 0.1154452 0.2023307
0.7299537 0.1042504 0.1877707
0.8415155 0.0967308 0.1781027
0.9599594 0.0932281 0.1735249
0.0294130 0.2804611 0.2689375
0.1284892 0.2783444 0.2731016
0.2490570 0.2505660 0.2502097
0.4498538 0.2867763 0.2560610
0.5418954 0.2488134 0.2161800
0.6228328 0.2260891 0.1877021
0.7235522 0.2126576 0.1693705
0.8335476 0.2041563 0.1577834
0.9517191 0.1997326 0.1521247
0.0281207 0.4078439 0.2605657
0.1283169 0.4068334 0.2504822
0.2434204 0.4002110 0.2251797
0.4034274 0.4065749 0.2126956
0.5405137 0.4000143 0.2061174
0.6253119 0.3582256 0.1801576
0.7168928 0.3380379 0.1626032
0.8229916 0.3297970 0.1500522
0.9399527 0.3245233 0.1437286
0.0249952 0.5334236 0.2471900
0.1270108 0.5320876 0.2331297
0.2398854 0.5291697 0.2137291
0.3762494 0.5270597 0.1979890
0.5168516 0.5274264 0.1894654
0.6260030 0.5071753 0.1724021
0.7230746 0.4803098 0.1588574
0.8264460 0.4674969 0.1467937
0.9408031 0.4597917 0.1394129
0.0211321 0.6583228 0.2363136
0.1243563 0.6569781 0.2207698
0.2355468 0.6545384 0.2026266
0.3659469 0.6515121 0.1940649
0.4975918 0.6485505 0.1839467
0.6223558 0.6428935 0.1723296
0.7306453 0.6259487 0.1586968
0.8382932 0.6119141 0.1476325
0.9534750 0.6032295 0.1408335
0.0180532 0.7830120 0.2284563
0.1218920 0.7817846 0.2120198
0.2320817 0.7795726 0.1939366
0.3601830 0.7764598 0.1879498
0.4880970 0.7728044 0.1797012
0.6132295 0.7682802 0.1694567
0.7344249 0.7626784 0.1583331
0.8482394 0.7512025 0.1475954
0.9661389 0.7433967 0.1416795
0.0162560 0.9077805 0.2236245
0.1202068 0.9066545 0.2064398
0.2294898 0.9045919 0.1879778
0.3565166 0.9015149 0.1829709
0.4827089 0.8977493 0.1757740
0.6074118 0.8935504 0.1664822
0.7304843 0.8892281 0.1559920
0.8538637 0.8855611 0.1468477
0.9740758 0.8782583 0.1411609
0.0155614 1.0000000 0.2216439
0.1193366 1.0000000 0.2037969
0.2277207 1.0000000 0.1848078
0.3540625 1.0000000 0.1801239
0.4793748 1.0000000 0.1733292
0.6035558 1.0000000 0.1644947
0.7268533 1.0000000 0.1544615
0.8507770 1.0000000 0.1455607
0.9771256 1.0000000 0.1410274
0.0616304 0.0612321 0.3665381
0.1745334 0.0559116 0.3653487
0.2874970 0.0463144 0.3616253
0.4040132 0.0369680 0.3556253
0.5160413 0.0257049 0.3462515
0.6232256 0.0131642 0.3349101
0.7303083 0.0017706 0.3243645
0.8418374 0.0000000 0.3166661
0.9599677 0.0000000 0.3131139
0.0600758 0.1807348 0.3753840
0.1490170 0.1613531 0.3723108
0.2711939 0.1547247 0.3702398
0.4008700 0.1456353 0.3601549
0.5160658 0.1329013 0.3436870
0.6208359 0.1176477 0.3262223
0.7249027 0.1040994 0.3113794
0.8346688 0.0945838 0.3008617
0.9522612 0.0901019 0.2955854
0.0648637 0.3013454 0.4088972
0.1433328 0.3056253 0.4170043
0.2381542 0.2834474 0.4056349
0.3839181 0.2594046 0.3652680
0.5203836 0.2520589 0.3467359
0.6140839 0.2256792 0.3160033
0.7088367 0.2060102 0.2940966
0.8154620 0.1944029 0.2797470
0.9333045 0.1888922 0.2723860
0.0597045 0.4176036 0.3981126
0.1411538 0.4251201 0.4029010
0.2267901 0.4186146 0.4120004
0.3610946 0.3630764 0.3626442
0.5410713 0.3947078 0.3573663
0.6201837 0.3499951 0.3022131
0.6840926 0.3057289 0.2687369
0.7832969 0.2934178 0.2519767
0.9050822 0.2883161 0.2431342
0.0446025 0.5400173 0.3778068
0.1349251 0.5392181 0.3719729
0.2314550 0.5336973 0.3632165
0.3583767 0.5225513 0.3362571
0.5206384 0.5256348 0.3210847
0.6392944 0.5202880 0.2915386
0.7097835 0.4620298 0.2699495
0.7930205 0.4411758 0.2490998
0.8984157 0.4231536 0.2313021
0.0311551 0.6635044 0.3625889
0.1295697 0.6617035 0.3525764
0.2334554 0.6577704 0.3404146
0.3527257 0.6527430 0.3235039
0.4964469 0.6513321 0.3110840
0.6317583 0.6504285 0.2956214
0.7324255 0.6289170 0.2743119
0.8236684 0.6046757 0.2577877
0.9298544 0.5870344 0.2426062
0.0235276 0.7869566 0.3522869
0.1255615 0.7853279 0.3401867
0.2327590 0.7822699 0.3266181
0.3488053 0.7782743 0.3109116
0.4820372 0.7743139 0.3029187
0.6130572 0.7705649 0.2907754
0.7357334 0.7654717 0.2743541
0.8432478 0.7498181 0.2567880
0.9560770 0.7375757 0.2470472
0.0201030 0.9107945 0.3464368
0.1233025 0.9094101 0.3328585
0.2311713 0.9067809 0.3180321
0.3452045 0.9031608 0.3016710
0.4746927 0.8987659 0.2948633
0.6029283 0.8942198 0.2843265
0.7281336 0.8896361 0.2696091
0.8519465 0.8854463 0.2545093
0.9700228 0.8750657 0.2450090
0.0189501 1.0000000 0.3441481
0.1222610 1.0000000 0.3294503
0.2296647 1.0000000 0.3135628
0.3420751 1.0000000 0.2963198
0.4699913 1.0000000 0.2898500
0.5968064 1.0000000 0.2800170
0.7220145 1.0000000 0.2666642
0.8469942 1.0000000 0.2528957
0.9747676 1.0000000 0.2455274
0.0952261 0.0835869 0.4629944
0.2040457 0.0760616 0.4648682
0.3075511 0.0629090 0.4677012
0.4135122 0.0483064 0.4664522
0.5199340 0.0334055 0.4609921
0.6255065 0.0189789 0.4530463
0.7320733 0.0062782 0.4447429
0.8430614 0.0000000 0.4381527
0.9608194 0.0000000 0.4349576
0.0993056 0.2049409 0.4589914
0.1837523 0.1829276 0.4616107
0.2901407 0.1713190 0.4717690
0.4031684 0.1559654 0.4705188
0.5166099 0.1402514 0.4630930
0.6219529 0.1239273 0.4491441
0.7263226 0.1090812 0.4359516
0.8348816 0.0976660 0.4255281
0.9513788 0.0919100 0.4197914
0.0936404 0.3246158 0.4863437
0.1769530 0.3157450 0.4900197
0.2612002 0.2960145 0.4960201
0.3811899 0.2720944 0.4821126
0.5086386 0.2558993 0.4690456
0.6148020 0.2356901 0.4466781
0.7120691 0.2143828 0.4248017
0.8123706 0.1960173 0.4071310
0.9249899 0.1853896 0.3966786
0.1065660 0.4368797 0.5145221
0.1616435 0.4395059 0.5150354
0.2226814 0.4577916 0.5504452
0.3378890 0.3972738 0.5130448
0.4972989 0.3783947 0.4816746
0.6120991 0.3612351 0.4521304
0.6901983 0.3251750 0.4110376
0.7587416 0.2827479 0.3755143
0.8564569 0.2524722 0.3520736
0.1022795 0.5453919 0.5063988
0.1561262 0.5445280 0.5058478
0.1999449 0.5372294 0.5078005
0.3045048 0.5261518 0.5150946
0.4934599 0.4949967 0.4952507
0.6338741 0.5108260 0.4716852
0.7058135 0.4830911 0.4132911
0.7464418 0.4219684 0.3604300
0.8004746 0.3338518 0.2846766
0.0483833 0.6711061 0.4845627
0.1394861 0.6688591 0.4804853
0.2289308 0.6628385 0.4770241
0.3346567 0.6537120 0.4725474
0.4870686 0.6482889 0.4637092
0.6491253 0.6540980 0.4519936
0.7451287 0.6463330 0.4158243
0.8039030 0.6198431 0.3901906
0.8852188 0.5645343 0.3366693
0.0315645 0.7925329 0.4729131
0.1313944 0.7904982 0.4654333
0.2341489 0.7862916 0.4576733
0.3458653 0.7803575 0.4490413
0.4739223 0.7746928 0.4379767
0.6150971 0.7708820 0.4269767
0.7431585 0.7698312 0.3973593
0.8405207 0.7545250 0.3641511
0.9401786 0.7352970 0.3546569
0.0255828 0.9146910 0.4670387
0.1279631 0.9130174 0.4571935
0.2342730 0.9097340 0.4467108
0.3465403 0.9049338 0.4351058
0.4669563 0.8994534 0.4213780
0.5995083 0.8938245 0.4112449
0.7276719 0.8888349 0.3895835
0.8510470 0.8838447 0.3562232
0.9644850 0.8710445 0.3425932
0.0237305 1.0000000 0.4648543
0.1265740 1.0000000 0.4533872
0.2331321 1.0000000 0.4411581
0.3443476 1.0000000 0.4276881
0.4613644 1.0000000 0.4122248
0.5909212 1.0000000 0.4025205
0.7180526 1.0000000 0.3850109
0.8433485 1.0000000 0.3616812
0.9714971 0.9997710 0.3484260
0.1416681 0.1132345 0.5571676
0.2445806 0.1021572 0.5631252
0.3363857 0.0827845 0.5714500
0.4308841 0.0622578 0.5755152
0.5299522 0.0432580 0.5746964
0.6323705 0.0266550 0.5707251
0.7381939 0.0130159 0.5655015
0.8492160 0.0033040 0.5608713
0.9670490 0.0000000 0.5584994
0.1569132 0.2415957 0.5450616
0.2353788 0.2153301 0.5572919
0.3225326 0.1925276 0.5716047
0.4189863 0.1700743 0.5775710
0.5225424 0.1498190 0.5762821
0.6289247 0.1322522 0.5711057
0.7336477 0.1169805 0.5611131
0.8429123 0.1054942 0.5525247
0.9595561 0.0996544 0.5473044
0.1435305 0.3558670 0.5646177
0.2257503 0.3392148 0.5689178
0.2985126 0.3105339 0.5786186
0.3973092 0.2854738 0.5844423
0.5091538 0.2632443 0.5803851
0.6214706 0.2449414 0.5728326
0.7238389 0.2258712 0.5564660
0.8279326 0.2092291 0.5413861
0.9407234 0.1988847 0.5311680
0.1193780 0.4651460 0.5936184
0.2009881 0.4592347 0.5979439
0.2613665 0.4478802 0.6086374
0.3573529 0.4094803 0.6010123
0.4884251 0.3821723 0.5884567
0.6124662 0.3661602 0.5785428
0.7119296 0.3431047 0.5547843
0.8033766 0.3156469 0.5276671
0.9032152 0.2905782 0.5041846
0.1037300 0.5699323 0.6057431
0.1780749 0.5656724 0.6081828
0.2256180 0.5633449 0.6186582
0.2910859 0.5422893 0.6290290
0.4746545 0.5148082 0.6217945
0.6202857 0.5046972 0.6055249
0.7132476 0.4815044 0.5707631
0.7842868 0.4430187 0.5242635
0.8443211 0.3696527 0.4509635
0.0604195 0.6829597 0.5954142
0.1516501 0.6809492 0.5964075
0.2338297 0.6750865 0.6013074
0.3069996 0.6623907 0.6187904
0.4477759 0.6555001 0.6400906
0.6423519 0.6428124 0.6421324
0.7439036 0.6399099 0.6144189
0.8071525 0.6285561 0.5684307
0.8401372 0.5338738 0.4417992
0.0405388 0.7996178 0.5884053
0.1396076 0.7973887 0.5849577
0.2392364 0.7922885 0.5823172
0.3448498 0.7839427 0.5819747
0.4706583 0.7746443 0.5848632
0.6145896 0.7650191 0.5862907
0.7522872 0.7620270 0.5747939
0.8496344 0.7650555 0.4873585
0.9146871 0.7350464 0.4770216
0.0324097 0.9192165 0.5848116
0.1343950 0.9172887 0.5784049
0.2395725 0.9132478 0.5719472
0.3501934 0.9069682 0.5657022
0.4694747 0.8991443 0.5592632
0.5969522 0.8912365 0.5492810
0.7290411 0.8839540 0.5280936
0.8508606 0.8721494 0.4429686
0.9551495 0.8615936 0.4247052
0.0297281 1.0000000 0.5834976
0.1323233 1.0000000 0.5750821
0.2382608 1.0000000 0.5663587
0.3486231 1.0000000 0.5572423
0.4646008 1.0000000 0.5469625
0.5860672 1.0000000 0.5329190
0.7149386 1.0000000 0.5154390
0.8394543 0.9963209 0.4799317
0.9661259 0.9919838 0.4552794
0.1959857 0.1487336 0.6566457
0.2896390 0.1311909 0.6656208
0.3681634 0.1033879 0.6779149
0.4513338 0.0762999 0.6860030
0.5429169 0.0531587 0.6891525
0.6415793 0.0343818 0.6888152
0.7462715 0.0199582 0.6866517
0.8573972 0.0102077 0.6842062
0.9754823 0.0058275 0.6828431
0.2421824 0.2981901 0.6362811
0.2918139 0.2500772 0.6546145
0.3589542 0.2150410 0.6753156
0.4402945 0.1846268 0.6859631
0.5340424 0.1598106 0.6895703
0.6357525 0.1400282 0.6890492
0.7431161 0.1248067 0.6862443
0.8533340 0.1138854 0.6800614
0.9707161 0.1085901 0.6758739
0.2232025 0.4040046 0.6446663
0.2877536 0.3728553 0.6538397
0.3426457 0.3316683 0.6744981
0.4223245 0.2989622 0.6873345
0.5201514 0.2721214 0.6907310
0.6263177 0.2513321 0.6896247
0.7363583 0.2352545 0.6858920
0.8445120 0.2214487 0.6751363
0.9600785 0.2136135 0.6672198
0.1588739 0.4944510 0.6786116
0.2498211 0.4813945 0.6797900
0.3107226 0.4537583 0.6845573
0.3905194 0.4182290 0.6893788
0.4996500 0.3893517 0.6923470
0.6135595 0.3677569 0.6902633
0.7274698 0.3523428 0.6869207
0.8319278 0.3342483 0.6707078
0.9432334 0.3211687 0.6567428
0.1085804 0.5906028 0.6950130
0.2028301 0.5833362 0.6939850
0.2601462 0.5739120 0.6926592
0.3343845 0.5546187 0.6933465
0.4748792 0.5129574 0.6974479
0.6030494 0.4894446 0.6939190
0.7232415 0.4796472 0.6955447
0.8217681 0.4579517 0.6729934
0.9231768 0.4350485 0.6463733
0.0712813 0.6948663 0.6996755
0.1666152 0.6896359 0.6986814
0.2519944 0.6819535 0.6955641
0.3312192 0.6681274 0.6935061
0.4583401 0.6420326 0.7128839
0.6242872 0.6294711 0.7290965
0.7399109 0.6236204 0.7279722
0.8254583 0.6015737 0.6970392
0.9057112 0.5637053 0.6437855
0.0502178 0.8066266 0.7005573
0.1505038 0.8043333 0.6995962
0.2518946 0.7987596 0.6979313
0.3586273 0.7884822 0.6980822
0.4803825 0.7721448 0.7072458
0.6285093 0.7688114 0.7429297
0.7540908 0.7539662 0.7525394
0.8495877 0.7514674 0.7419296
0.9058449 0.7107049 0.6407353
0.0399506 0.9235727 0.7008296
0.1422861 0.9214716 0.6971946
0.2477896 0.9167531 0.6933539
0.3582013 0.9089455 0.6903369
0.4761061 0.8978914 0.6898628
0.6022212 0.8860047 0.6928766
0.7304426 0.8746027 0.6961726
0.8527188 0.8654197 0.6886587
0.9379555 0.8425024 0.5559131
0.0362601 1.0000000 0.7009494
0.1389950 1.0000000 0.6951857
0.2449451 1.0000000 0.6892609
0.3549651 1.0000000 0.6836359
0.4700715 1.0000000 0.6786642
0.5900179 1.0000000 0.6732014
0.7121977 0.9970349 0.6619511
0.8349806 0.9841192 0.6364276
0.9586497 0.9755966 0.6001235
0.2425478 0.1810287 0.7677114
0.3277446 0.1567382 0.7770136
0.3945667 0.1203978 0.7903536
0.4686696 0.0874580 0.8004759
0.5543330 0.0609069 0.8061540
0.6498080 0.0403842 0.8083799
0.7533324 0.0253236 0.8084939
0.8643854 0.0155600 0.8077487
0.9826307 0.0113008 0.8071960
0.3152597 0.3513145 0.7484333
0.3448599 0.2862429 0.7661900
0.3901998 0.2347304 0.7862674
0.4590232 0.1964084 0.7990068
0.5450830 0.1677339 0.8055584
0.6425447 0.1460848 0.8081254
0.7484190 0.1303230 0.8083361
0.8618317 0.1200798 0.8073156
0.9797283 0.1152015 0.8038643
0.3223867 0.4753884 0.7473353
0.3621190 0.4233465 0.7575524
0.3838242 0.3551063 0.7809586
0.4451453 0.3101781 0.7968773
0.5323460 0.2792709 0.8043030
0.6325175 0.2564702 0.8074316
0.7409421 0.2401135 0.8080584
0.8564303 0.2293034 0.8068407
0.9736184 0.2228513 0.8003053
0.1990175 0.5216875 0.7785357
0.2877777 0.5006681 0.7776451
0.3524539 0.4673279 0.7845151
0.4243555 0.4272345 0.7919830
0.5160123 0.3948971 0.8008192
0.6201778 0.3709501 0.8053777
0.7316454 0.3546624 0.8077944
0.8491478 0.3437527 0.8072084
0.9649523 0.3347613 0.7972415
0.1279449 0.6045772 0.7978525
0.2294559 0.5931612 0.7933827
0.3121164 0.5745766 0.7885922
0.4024843 0.5498250 0.7791845
0.5000913 0.5140388 0.7907529
0.6079042 0.4881370 0.8004716
0.7232050 0.4740789 0.8086009
0.8427096 0.4646951 0.8107194
0.9554468 0.4521557 0.7962652
0.0841316 0.7032021 0.8083539
0.1841902 0.6949629 0.8048768
0.2825318 0.6827320 0.7927270
0.3962142 0.6638301 0.7514694
0.5145597 0.6365520 0.7609126
0.6055590 0.6098938 0.7993766
0.7248839 0.6011484 0.8181757
0.8426268 0.5939594 0.8221438
0.9467850 0.5755966 0.7991708
0.0593962 0.8117781 0.8143070
0.1613403 0.8064553 0.8122829
0.2661863 0.7976548 0.8068740
0.3791176 0.7840768 0.7971473
0.4998481 0.7636853 0.7942891
0.6118398 0.7350640 0.8043145
0.7385083 0.7316862 0.8326615
0.8523427 0.7301698 0.8432801
0.9494340 0.7095043 0.8123314
0.0466569 0.9268457 0.8177524
0.1497848 0.9246215 0.8166044
0.2567561 0.9194375 0.8145343
0.3687145 0.9106130 0.8125704
0.4856338 0.8970439 0.8134288
0.6062434 0.8784805 0.8182609
0.7337535 0.8633495 0.8335098
0.8537608 0.8523583 0.8538925
0.9520167 0.8380837 0.8218116
0.0419065 1.0000000 0.8191566
0.1450468 1.0000000 0.8157926
0.2515470 1.0000000 0.8120816
0.3618565 1.0000000 0.8087854
0.4762102 1.0000000 0.8071187
0.5941671 0.9999159 0.8077380
0.7142331 0.9898316 0.8100773
0.8320560 0.9720191 0.8099142
0.9604433 0.9667049 0.8094752
0.2628453 0.1960541 0.8883702
0.3453426 0.1689653 0.8968108
0.4075359 0.1287848 0.9095883
0.4775005 0.0929972 0.9201699
0.5602973 0.0647480 0.9268661
0.6541463 0.0433472 0.9302587
0.7570074 0.0279513 0.9314511
0.8679555 0.0181604 0.9315237
0.9862490 0.0139496 0.9313629
0.3303846 0.3667967 0.8768321
0.3617234 0.2987124 0.8894153
0.4041470 0.2435410 0.9057606
0.4682416 0.2021508 0.9181907
0.5506129 0.1716560 0.9257847
0.6457490 0.1490663 0.9297223
0.7504572 0.1329464 0.9312476
0.8635341 0.1227055 0.9314537
0.9841531 0.1182832 0.9311353
0.3596665 0.5079914 0.8705155
0.3852641 0.4412107 0.8828328
0.3982895 0.3621499 0.9010800
0.4556342 0.3149467 0.9151498
0.5382927 0.2824744 0.9236185
0.6351795 0.2587718 0.9284871
0.7418900 0.2420362 0.9308484
0.8570136 0.2314371 0.9315069
0.9798041 0.2267559 0.9311045
0.2170667 0.5368212 0.8960470
0.3050880 0.5132491 0.8961041
0.3684312 0.4724855 0.9027665
0.4364877 0.4285815 0.9105955
0.5238619 0.3966144 0.9191275
0.6233050 0.3721523 0.9258505
0.7321637 0.3551174 0.9303317
0.8492485 0.3445338 0.9322764
0.9739871 0.3396518 0.9319804
0.1373440 0.6113612 0.9140021
0.2360879 0.5969895 0.9112112
0.3276669 0.5755402 0.9072685
0.4234966 0.5504678 0.9028209
0.5122528 0.5145339 0.9101072
0.6128867 0.4887705 0.9213935
0.7234024 0.4721156 0.9301938
0.8422253 0.4624202 0.9349556
0.9684171 0.4575004 0.9350441
0.0910838 0.7070594 0.9255586
0.1929640 0.6967007 0.9219834
0.2958393 0.6821112 0.9134239
0.4079501 0.6642303 0.8993662
0.5174568 0.6398399 0.8974676
0.6075414 0.6084742 0.9164594
0.7189033 0.5933832 0.9320047
0.8389362 0.5856036 0.9412503
0.9655592 0.5806573 0.9419133
0.0644216 0.8142111 0.9332731
0.1674384 0.8066094 0.9307709
0.2739802 0.7955470 0.9248417
0.3884107 0.7806462 0.9152204
0.5080113 0.7611354 0.9088787
0.6097137 0.7368499 0.9218517
0.7192057 0.7184471 0.9381697
0.8410026 0.7132624 0.9517308
0.9671699 0.7085629 0.9530937
0.0502694 0.9284258 0.9381056
0.1535907 0.9242550 0.9369024
0.2605363 0.9163536 0.9344145
0.3718935 0.9047104 0.9315578
0.4866012 0.8890376 0.9312954
0.6012903 0.8695062 0.9360137
0.7185299 0.8502790 0.9440420
0.8443437 0.8425307 0.9597981
0.9670933 0.8360095 0.9622456
0.0449068 1.0000000 0.9401290
0.1483435 1.0000000 0.9392951
0.2552911 1.0000000 0.9379549
0.3659360 1.0000000 0.9369595
0.4799462 1.0000000 0.9378329
0.5965284 0.9996498 0.9417057
0.7157574 0.9882453 0.9488368
0.8381316 0.9743091 0.9594540
0.9676621 0.9681580 0.9662352
