catalog/styles/experimental/experimental-flower/look.cube
# experimental-flower iteration 5
LUT_3D_SIZE 33
DOMAIN_MIN 0 0 0
DOMAIN_MAX 1 1 1
0.0637151 0.0642996 0.0756317
0.0569363 0.0561434 0.0605224
0.0491913 0.0468923 0.0460137
0.0409774 0.0370098 0.0335741
0.0364850 0.0306563 0.0274297
0.0376356 0.0296361 0.0287779
0.0439925 0.0332094 0.0359019
0.0548981 0.0402288 0.0465367
0.0702617 0.0498652 0.0590088
0.0898909 0.0610971 0.0720236
0.1131942 0.0727137 0.0844276
0.1390467 0.0834730 0.0951836
0.1663854 0.0926278 0.1037407
0.1946137 0.0999220 0.1100410
0.2240518 0.1057963 0.1147170
0.2555700 0.1110348 0.1186575
0.2897567 0.1161868 0.1225240
0.3263488 0.1214671 0.1264450
0.3645224 0.1267866 0.1302625
0.4037673 0.1321190 0.1337770
0.4433625 0.1374631 0.1368406
0.4823140 0.1427956 0.1392968
0.5196833 0.1480661 0.1410688
0.5550547 0.1533659 0.1422721
0.5885464 0.1588661 0.1431449
0.6205581 0.1647076 0.1439404
0.6516350 0.1709786 0.1448816
0.6822938 0.1777110 0.1461097
0.7129316 0.1848716 0.1476747
0.7437615 0.1923733 0.1495514
0.7748455 0.2001110 0.1516675
0.8061313 0.2079833 0.1539305
0.8375116 0.2159064 0.1562537
0.0398628 0.0415304 0.0473261
0.0365494 0.0365046 0.0384893
0.0341898 0.0328300 0.0316055
0.0306068 0.0278961 0.0250048
0.0292182 0.0247596 0.0218336
0.0320000 0.0252570 0.0233499
0.0390077 0.0293485 0.0290374
0.0506160 0.0370846 0.0384928
0.0664943 0.0476318 0.0507602
0.0855528 0.0593169 0.0641153
0.1067563 0.0705317 0.0766558
0.1298644 0.0805824 0.0873405
0.1550436 0.0895199 0.0960462
0.1825782 0.0976772 0.1031916
0.2127316 0.1054351 0.1093845
0.2455851 0.1130317 0.1151080
0.2808777 0.1204949 0.1205922
0.3180236 0.1277602 0.1258520
0.3563648 0.1347470 0.1307839
0.3953891 0.1414728 0.1352938
0.4345418 0.1479918 0.1392972
0.4732027 0.1543569 0.1427310
0.5107957 0.1606101 0.1455807
0.5469873 0.1668182 0.1479117
0.5817383 0.1730746 0.1498639
0.6152279 0.1794665 0.1516033
0.6477732 0.1860595 0.1532873
0.6797350 0.1928872 0.1550374
0.7114236 0.1999435 0.1569164
0.7430493 0.2071888 0.1589408
0.7747181 0.2145674 0.1610858
0.8064520 0.2220218 0.1633097
0.8382225 0.2295044 0.1655636
0.0191272 0.0214876 0.0226452
0.0178225 0.0186152 0.0188548
0.0196533 0.0194503 0.0187059
0.0223776 0.0211767 0.0195864
0.0226191 0.0197288 0.0175556
0.0251513 0.0197593 0.0168839
0.0332052 0.0245788 0.0206774
0.0474191 0.0346819 0.0301472
0.0650882 0.0473137 0.0435200
0.0834442 0.0593878 0.0574845
0.1020728 0.0696878 0.0698032
0.1222268 0.0786509 0.0800399
0.1453447 0.0872268 0.0887423
0.1721766 0.0960918 0.0966067
0.2028312 0.1054903 0.1041504
0.2367759 0.1152105 0.1115194
0.2730520 0.1248214 0.1185937
0.3107466 0.1339927 0.1252225
0.3491907 0.1426008 0.1313164
0.3879641 0.1507087 0.1368609
0.4267434 0.1584389 0.1418577
0.4652032 0.1659046 0.1463156
0.5030135 0.1731800 0.1502467
0.5399098 0.1803082 0.1536819
0.5757471 0.1873236 0.1566794
0.6105278 0.1942655 0.1593292
0.6443772 0.2011752 0.1617318
0.6775029 0.2080900 0.1639832
0.7101266 0.2150312 0.1661593
0.7424450 0.2220053 0.1683116
0.7746021 0.2290065 0.1704670
0.8066951 0.2360244 0.1726329
0.8387713 0.2430485 0.1748038
0.0057462 0.0087281 0.0060518
0.0069423 0.0087945 0.0072242
0.0091374 0.0101382 0.0096458
0.0121827 0.0123561 0.0122928
0.0142035 0.0128826 0.0117876
0.0180254 0.0140861 0.0100254
0.0295216 0.0217540 0.0126469
0.0504577 0.0377547 0.0249473
0.0706661 0.0531633 0.0407160
0.0867407 0.0639923 0.0540803
0.1015552 0.0718839 0.0647279
0.1184196 0.0790513 0.0738011
0.1395244 0.0870207 0.0823254
0.1655124 0.0963204 0.0908177
0.1961708 0.1068788 0.0994885
0.2306029 0.1181944 0.1082588
0.2674327 0.1295258 0.1167692
0.3054456 0.1403359 0.1247153
0.3439131 0.1504486 0.1319973
0.3825047 0.1599319 0.1386430
0.4210783 0.1689349 0.1447151
0.4594928 0.1775800 0.1502591
0.4975393 0.1859241 0.1552814
0.5349799 0.1939752 0.1597743
0.5716134 0.2017262 0.1637408
0.6073251 0.2091808 0.1672140
0.6421132 0.2163669 0.1702543
0.6760638 0.2233300 0.1729391
0.7093227 0.2301192 0.1753548
0.7420667 0.2367827 0.1775851
0.7744746 0.2433657 0.1797047
0.8067038 0.2499052 0.1817687
0.8388686 0.2564289 0.1838137
0.0000000 0.0032431 0.0000000
0.0029699 0.0065749 0.0021121
0.0063561 0.0091512 0.0063923
0.0080861 0.0100290 0.0086748
0.0093448 0.0098777 0.0082124
0.0162914 0.0139443 0.0072768
0.0357363 0.0283145 0.0116289
0.0668050 0.0528217 0.0298379
0.0868382 0.0683150 0.0457064
0.0976653 0.0746134 0.0546667
0.1077094 0.0787168 0.0617829
0.1212083 0.0836724 0.0692543
0.1401169 0.0906785 0.0775461
0.1647011 0.0998452 0.0865569
0.1943766 0.1106910 0.0960376
0.2281587 0.1226366 0.1057724
0.2646504 0.1349127 0.1153519
0.3025241 0.1469166 0.1244418
0.3409732 0.1583839 0.1329118
0.3796286 0.1692894 0.1407670
0.4183116 0.1796758 0.1480412
0.4569051 0.1895905 0.1547500
0.4952276 0.1990368 0.1608675
0.5330476 0.2079870 0.1663499
0.5701368 0.2164077 0.1711696
0.6063268 0.2242891 0.1753260
0.6415429 0.2316601 0.1788600
0.6758066 0.2385839 0.1818484
0.7092257 0.2451418 0.1843935
0.7419689 0.2514246 0.1866123
0.7742419 0.2575245 0.1886175
0.8062474 0.2635231 0.1905078
0.8381517 0.2694844 0.1923581
0.0000000 0.0026487 0.0000000
0.0025790 0.0090502 0.0006212
0.0086245 0.0144904 0.0070635
0.0130008 0.0179890 0.0113171
0.0151808 0.0185562 0.0121082
0.0232131 0.0230462 0.0132938
0.0509054 0.0443903 0.0252462
0.0874450 0.0738739 0.0459146
0.1052874 0.0858320 0.0540555
0.1143850 0.0892481 0.0568632
0.1227103 0.0915747 0.0610647
0.1336581 0.0949534 0.0673687
0.1496623 0.1005531 0.0755005
0.1713184 0.1083331 0.0846696
0.1981180 0.1177957 0.0942874
0.2295712 0.1288477 0.1042445
0.2645925 0.1410469 0.1143640
0.3018482 0.1537353 0.1243544
0.3403942 0.1664640 0.1340352
0.3795133 0.1788983 0.1432541
0.4187261 0.1908102 0.1518899
0.4577656 0.2020817 0.1598564
0.4964185 0.2126409 0.1670696
0.5344551 0.2224300 0.1734587
0.5716480 0.2314116 0.1789797
0.6078226 0.2395860 0.1836295
0.6428910 0.2470024 0.1874603
0.6768687 0.2537551 0.1905691
0.7098668 0.2599661 0.1930890
0.7420733 0.2657709 0.1951679
0.7737236 0.2713056 0.1969542
0.8050506 0.2766912 0.1985805
0.8362536 0.2820225 0.2001505
0.0000000 0.0052210 0.0000000
0.0036631 0.0141542 0.0009942
0.0125807 0.0226406 0.0094839
0.0209700 0.0302756 0.0166363
0.0282269 0.0359554 0.0215272
0.0345124 0.0388285 0.0236143
0.0503115 0.0488004 0.0295429
0.0781145 0.0689754 0.0411651
0.1066899 0.0885779 0.0507473
0.1292405 0.1022582 0.0572213
0.1434385 0.1086996 0.0619082
0.1558758 0.1138449 0.0687030
0.1698598 0.1189599 0.0773913
0.1864033 0.1235493 0.0861015
0.2074145 0.1289736 0.0945867
0.2344283 0.1370728 0.1036973
0.2668977 0.1480239 0.1137258
0.3033222 0.1609565 0.1244117
0.3421673 0.1748692 0.1353369
0.3820757 0.1888721 0.1460380
0.4221374 0.2023702 0.1561589
0.4618349 0.2150269 0.1654486
0.5008554 0.2266666 0.1737419
0.5389464 0.2371995 0.1809364
0.5759009 0.2466004 0.1869874
0.6115787 0.2549038 0.1919184
0.6459341 0.2622005 0.1958240
0.6790275 0.2686309 0.1988483
0.7110178 0.2743675 0.2011664
0.7421380 0.2795943 0.2029646
0.7726532 0.2844870 0.2044212
0.8028253 0.2891984 0.2056938
0.8328665 0.2938447 0.2069017
0.0000000 0.0099779 0.0000000
0.0050185 0.0205826 0.0021547
0.0159078 0.0310430 0.0119232
0.0267267 0.0411328 0.0208630
0.0370761 0.0500791 0.0282917
0.0458051 0.0560776 0.0330866
0.0540253 0.0594185 0.0351032
0.0694192 0.0672573 0.0375228
0.0978255 0.0851993 0.0444092
0.1315085 0.1066390 0.0536885
0.1592622 0.1232662 0.0621498
0.1804042 0.1360060 0.0722521
0.1960674 0.1435735 0.0829159
0.2074451 0.1447201 0.0907112
0.2208976 0.1443127 0.0968827
0.2418637 0.1476237 0.1040821
0.2710908 0.1562052 0.1134138
0.3066009 0.1688604 0.1245589
0.3458602 0.1836972 0.1366564
0.3867190 0.1991357 0.1488502
0.4277887 0.2141449 0.1604902
0.4682495 0.2281220 0.1711176
0.5076264 0.2407561 0.1804464
0.5456158 0.2519126 0.1883298
0.5820308 0.2615834 0.1947401
0.6168000 0.2698537 0.1997548
0.6499639 0.2768761 0.2035341
0.6816743 0.2828540 0.2062890
0.7121708 0.2880184 0.2082517
0.7417420 0.2926005 0.2096533
0.7706927 0.2968115 0.2106959
0.7993011 0.3008263 0.2115505
0.8277837 0.3047725 0.2123393
0.0000000 0.0162638 0.0000000
0.0059486 0.0275202 0.0034098
0.0176360 0.0386557 0.0135521
0.0291776 0.0494020 0.0229912
0.0402732 0.0592043 0.0311121
0.0505068 0.0672138 0.0371959
0.0599071 0.0727566 0.0406184
0.0708611 0.0771110 0.0411448
0.0913919 0.0874678 0.0430376
0.1244783 0.1075629 0.0504475
0.1627778 0.1324225 0.0624618
0.1967445 0.1549684 0.0769047
0.2164793 0.1656587 0.0887219
0.2237405 0.1635609 0.0945909
0.2316106 0.1588375 0.0985996
0.2480609 0.1584936 0.1041964
0.2749522 0.1649339 0.1128563
0.3100509 0.1770823 0.1243192
0.3499848 0.1925411 0.1374561
0.3919325 0.2091616 0.1510578
0.4341076 0.2255007 0.1641699
0.4753974 0.2406718 0.1760909
0.5151171 0.2541876 0.1863822
0.5528884 0.2658527 0.1948458
0.5885561 0.2756748 0.2014833
0.6221451 0.2837994 0.2064419
0.6538208 0.2904582 0.2099678
0.6838515 0.2959270 0.2123496
0.7125684 0.3004975 0.2138830
0.7403213 0.3044445 0.2148390
0.7674487 0.3080056 0.2154431
0.7942399 0.3113683 0.2158689
0.8209092 0.3146624 0.2162348
0.0000000 0.0234972 0.0000000
0.0060609 0.0344680 0.0043000
0.0175996 0.0452773 0.0140677
0.0288884 0.0556530 0.0231941
0.0398074 0.0652975 0.0311993
0.0504695 0.0740078 0.0376805
0.0614653 0.0817975 0.0424368
0.0741657 0.0890797 0.0454096
0.0913270 0.0974053 0.0470042
0.1184019 0.1124642 0.0517106
0.1551628 0.1357250 0.0626246
0.1921042 0.1597558 0.0770374
0.2155726 0.1722927 0.0880496
0.2247809 0.1712484 0.0931832
0.2329691 0.1668436 0.0968016
0.2488056 0.1661497 0.1021585
0.2751817 0.1720338 0.1107712
0.3106516 0.1840949 0.1226359
0.3517460 0.2001376 0.1367166
0.3951285 0.2177821 0.1516190
0.4386328 0.2352913 0.1661035
0.4809150 0.2515489 0.1792385
0.5210774 0.2658825 0.1904232
0.5586438 0.2780067 0.1993997
0.5935217 0.2879435 0.2062083
0.6258774 0.2959126 0.2110801
0.6560286 0.3022328 0.2143483
0.6843661 0.3072582 0.2163808
0.7113033 0.3113343 0.2175313
0.7372325 0.3147673 0.2181018
0.7625100 0.3178065 0.2183287
0.7874364 0.3206439 0.2183865
0.8122353 0.3234115 0.2183888
0.0000000 0.0311364 0.0000000
0.0052134 0.0411913 0.0045781
0.0160367 0.0510902 0.0134824
0.0266559 0.0606424 0.0218676
0.0371245 0.0697544 0.0294058
0.0478031 0.0785286 0.0358888
0.0594659 0.0872855 0.0413229
0.0732738 0.0964859 0.0459271
0.0903834 0.1063767 0.0497530
0.1125730 0.1183787 0.0539879
0.1409676 0.1346378 0.0612900
0.1707927 0.1518755 0.0710828
0.1942445 0.1632755 0.0798073
0.2096417 0.1666906 0.0858085
0.2233789 0.1667552 0.0908228
0.2422611 0.1687430 0.0971151
0.2698294 0.1757258 0.1062243
0.3060525 0.1882433 0.1185399
0.3483698 0.2048938 0.1333704
0.3934629 0.2235082 0.1493754
0.4386575 0.2421527 0.1650926
0.4822394 0.2594831 0.1793451
0.5230815 0.2746490 0.1913666
0.5606246 0.2872724 0.2008461
0.5948816 0.2973992 0.2078659
0.6262072 0.3053305 0.2127406
0.6550867 0.3114776 0.2158842
0.6820224 0.3162673 0.2177331
0.7074721 0.3200832 0.2186774
0.7318384 0.3232384 0.2190320
0.7554799 0.3259811 0.2190339
0.7787122 0.3285034 0.2188598
0.8017921 0.3309469 0.2186254
0.0000000 0.0388225 0.0000000
0.0034792 0.0476899 0.0042296
0.0133718 0.0564527 0.0120347
0.0231944 0.0650233 0.0194789
0.0331233 0.0734376 0.0263737
0.0435711 0.0818844 0.0326229
0.0551875 0.0906626 0.0382709
0.0687185 0.1000380 0.0434793
0.0847102 0.1100229 0.0483593
0.1032400 0.1202842 0.0529186
0.1240861 0.1308263 0.0577122
0.1461310 0.1412959 0.0633635
0.1672831 0.1501444 0.0695093
0.1866242 0.1563341 0.0756089
0.2060662 0.1609743 0.0819181
0.2291815 0.1666112 0.0893668
0.2588420 0.1755810 0.0991106
0.2959007 0.1889165 0.1117473
0.3390206 0.2060767 0.1269587
0.3855106 0.2254525 0.1436380
0.4324502 0.2451396 0.1602869
0.4775346 0.2635352 0.1754996
0.5193058 0.2795851 0.1883141
0.5571199 0.2928172 0.1983346
0.5910958 0.3032967 0.2056747
0.6217912 0.3114097 0.2107258
0.6498625 0.3176565 0.2139733
0.6758955 0.3225233 0.2158979
0.7003524 0.3264054 0.2169009
0.7236092 0.3295999 0.2172870
0.7460115 0.3323397 0.2172857
0.7679046 0.3348212 0.2170729
0.7895998 0.3372052 0.2167841
0.0000000 0.0464002 0.0000000
0.0010151 0.0540657 0.0033504
0.0099911 0.0616938 0.0100149
0.0190303 0.0692689 0.0164649
0.0283431 0.0768686 0.0226020
0.0382767 0.0846447 0.0283842
0.0492398 0.0927397 0.0338158
0.0615755 0.1011783 0.0389323
0.0753697 0.1097161 0.0436845
0.0903869 0.1178187 0.0478907
0.1063683 0.1250740 0.0515322
0.1234580 0.1317246 0.0551174
0.1421908 0.1384854 0.0594932
0.1627905 0.1455456 0.0650239
0.1856527 0.1529775 0.0717326
0.2120483 0.1615266 0.0798587
0.2435968 0.1724132 0.0899860
0.2812312 0.1865604 0.1026170
0.3244846 0.2039740 0.1176839
0.3714823 0.2236573 0.1343926
0.4195466 0.2439977 0.1514137
0.4660143 0.2633043 0.1672783
0.5089265 0.2802799 0.1808188
0.5473816 0.2942810 0.1914697
0.5815195 0.3053361 0.1992920
0.6120738 0.3139006 0.2047289
0.6398578 0.3205594 0.2083316
0.6655212 0.3258374 0.2106068
0.6895152 0.3301227 0.2119437
0.7121733 0.3336846 0.2126233
0.7338269 0.3367368 0.2128584
0.7548521 0.3394811 0.2128331
0.7756219 0.3421034 0.2127075
0.0000000 0.0538545 0.0000000
0.0000000 0.0604370 0.0020871
0.0061516 0.0670253 0.0076722
0.0144634 0.0736407 0.0131458
0.0230888 0.0803362 0.0184540
0.0322497 0.0871669 0.0235555
0.0421421 0.0941260 0.0284104
0.0528529 0.1010734 0.0329524
0.0643184 0.1077081 0.0370546
0.0764507 0.1136909 0.0405781
0.0894304 0.1189427 0.0435599
0.1039620 0.1239629 0.0464444
0.1211075 0.1297064 0.0500447
0.1415865 0.1368134 0.0549871
0.1656406 0.1453863 0.0614840
0.1935845 0.1555102 0.0696242
0.2260576 0.1675974 0.0796356
0.2636395 0.1821821 0.0918050
0.3062203 0.1994374 0.1061536
0.3526008 0.2188310 0.1221747
0.4006272 0.2391638 0.1388306
0.4477385 0.2589100 0.1547910
0.4916959 0.2766752 0.1688227
0.5311948 0.2915971 0.1801597
0.5660891 0.3035226 0.1886742
0.5970716 0.3128625 0.1947448
0.6250726 0.3202464 0.1989493
0.6508282 0.3262306 0.2018086
0.6748054 0.3312018 0.2037041
0.6973269 0.3354134 0.2048945
0.7187221 0.3390676 0.2055853
0.7393920 0.3423726 0.2059720
0.7597602 0.3455335 0.2062377
0.0000000 0.0612758 0.0000000
0.0000000 0.0669066 0.0005995
0.0019894 0.0725554 0.0051908
0.0096257 0.0782422 0.0097228
0.0175173 0.0839726 0.0141545
0.0257703 0.0897106 0.0184322
0.0344459 0.0953541 0.0224809
0.0435493 0.1007224 0.0262034
0.0530904 0.1056203 0.0294994
0.0632387 0.1099780 0.0323488
0.0744919 0.1140153 0.0349033
0.0877076 0.1183096 0.0375580
0.1038833 0.1236291 0.0408953
0.1237645 0.1305694 0.0454455
0.1476643 0.1393391 0.0515101
0.1756696 0.1499161 0.0592098
0.2079310 0.1623442 0.0686390
0.2446565 0.1768154 0.0799199
0.2857672 0.1934508 0.0930740
0.3304965 0.2119843 0.1078059
0.3772543 0.2316125 0.1233903
0.4238932 0.2511299 0.1387680
0.4682495 0.2692496 0.1528120
0.5087562 0.2849973 0.1646608
0.5448339 0.2979844 0.1739621
0.5768376 0.3084185 0.1808902
0.6055903 0.3168393 0.1859224
0.6318692 0.3237915 0.1895567
0.6562099 0.3296763 0.1921722
0.6789890 0.3347622 0.1940354
0.7005683 0.3392623 0.1953596
0.7213783 0.3433926 0.1963554
0.7418692 0.3473695 0.1972199
0.0000000 0.0687596 0.0000000
0.0000000 0.0735321 0.0000000
0.0000000 0.0783136 0.0026804
0.0045717 0.0830997 0.0063065
0.0117379 0.0878502 0.0098445
0.0190916 0.0924773 0.0132296
0.0266482 0.0968513 0.0163819
0.0344457 0.1008401 0.0192236
0.0426324 0.1043914 0.0217309
0.0515669 0.1076318 0.0239805
0.0618694 0.1109186 0.0261854
0.0743499 0.1147908 0.0286806
0.0898305 0.1198290 0.0318638
0.1089459 0.1264877 0.0361078
0.1320273 0.1349803 0.0416779
0.1591501 0.1453035 0.0487095
0.1902952 0.1573899 0.0572605
0.2254390 0.1712359 0.0673715
0.2644321 0.1868576 0.0790415
0.3067392 0.2041029 0.0921045
0.3512425 0.2224733 0.1061027
0.3963061 0.2411154 0.1202893
0.4400945 0.2589947 0.1337637
0.4810337 0.2751844 0.1457077
0.5182158 0.2891351 0.1556226
0.5515346 0.3007893 0.1634376
0.5814672 0.3104628 0.1694176
0.6086775 0.3185992 0.1739547
0.6337474 0.3255905 0.1774063
0.6571464 0.3317370 0.1800574
0.6793109 0.3372833 0.1821488
0.7007069 0.3424620 0.1839064
0.7217901 0.3474904 0.1855324
0.0000000 0.0763611 0.0000000
0.0000000 0.0803302 0.0000000
0.0000000 0.0842912 0.0002004
0.0000000 0.0882106 0.0029532
0.0058474 0.0920202 0.0056081
0.0124334 0.0956203 0.0081011
0.0191184 0.0989049 0.0103682
0.0260109 0.1018159 0.0123762
0.0333652 0.1044104 0.0141651
0.0416235 0.1069081 0.0158690
0.0513983 0.1096841 0.0177074
0.0633869 0.1132002 0.0199564
0.0782496 0.1179041 0.0228953
0.0965026 0.1241385 0.0267778
0.1184520 0.1320818 0.0317910
0.1441873 0.1417476 0.0380440
0.1736484 0.1530524 0.0455734
0.2067116 0.1659095 0.0543878
0.2431650 0.1802540 0.0644698
0.2825901 0.1959654 0.0757190
0.3242098 0.2127424 0.0878701
0.3668603 0.2300375 0.1004549
0.4091283 0.2471145 0.1128382
0.4496331 0.2632125 0.1243518
0.4873422 0.2777453 0.1344691
0.5217773 0.2904473 0.1429340
0.5529972 0.3013766 0.1497796
0.5814021 0.3107954 0.1552259
0.6075147 0.3190284 0.1595605
0.6318650 0.3263835 0.1630672
0.6549652 0.3331357 0.1660083
0.6773201 0.3395354 0.1686238
0.6993818 0.3457972 0.1711137
0.0000000 0.0840992 0.0000000
0.0000000 0.0873017 0.0000000
0.0000000 0.0904784 0.0000000
0.0000000 0.0935786 0.0000000
0.0000000 0.0965268 0.0014971
0.0059555 0.0992385 0.0031396
0.0120618 0.1016504 0.0045858
0.0184212 0.1037668 0.0058425
0.0253375 0.1057020 0.0069867
0.0332555 0.1076921 0.0081652
0.0427192 0.1100723 0.0095826
0.0543077 0.1132229 0.0114621
0.0685528 0.1174977 0.0140115
0.0858759 0.1231660 0.0174024
0.1065439 0.1303775 0.0217612
0.1306518 0.1391556 0.0271584
0.1581453 0.1494288 0.0336119
0.1888693 0.1610865 0.0411122
0.2225877 0.1740193 0.0496305
0.2589471 0.1881088 0.0590953
0.2973954 0.2031636 0.0693585
0.3371367 0.2188590 0.0801544
0.3771579 0.2347266 0.0910909
0.4163627 0.2502156 0.1016918
0.4537744 0.2648094 0.1114986
0.4887238 0.2781474 0.1201791
0.5209391 0.2900908 0.1275944
0.5505179 0.3007062 0.1337893
0.5778240 0.3101993 0.1389423
0.6033536 0.3188359 0.1432940
0.6276475 0.3268906 0.1470994
0.6512284 0.3346166 0.1505977
0.6745368 0.3422183 0.1539807
0.0000000 0.0919771 0.0000000
0.0000000 0.0944459 0.0000000
0.0000000 0.0968801 0.0000000
0.0000000 0.0992231 0.0000000
0.0000000 0.1014085 0.0000000
0.0000000 0.1033781 0.0000000
0.0055443 0.1051082 0.0000000
0.0116561 0.1066415 0.0000000
0.0183980 0.1081074 0.0002261
0.0261688 0.1097192 0.0008831
0.0354277 0.1117543 0.0018209
0.0466499 0.1145159 0.0032199
0.0602671 0.1182863 0.0052410
0.0766262 0.1232879 0.0080093
0.0959574 0.1296537 0.0116114
0.1183574 0.1374201 0.0160889
0.1437892 0.1465370 0.0214481
0.1721054 0.1568989 0.0276687
0.2030730 0.1683830 0.0347091
0.2363851 0.1808684 0.0425100
0.2716347 0.1942198 0.0509830
0.3082789 0.2082500 0.0599892
0.3456213 0.2226876 0.0693123
0.3828549 0.2371794 0.0786567
0.4191634 0.2513346 0.0876844
0.4538547 0.2648027 0.0960842
0.4864814 0.2773465 0.1036377
0.5169068 0.2888880 0.1102668
0.5452975 0.2995014 0.1160360
0.5720365 0.3093675 0.1211096
0.5976139 0.3187143 0.1257005
0.6225275 0.3277687 0.1300189
0.6471912 0.3367147 0.1342350
0.0000000 0.0999971 0.0000000
0.0000000 0.1017732 0.0000000
0.0000000 0.1035147 0.0000000
0.0000000 0.1051708 0.0000000
0.0000000 0.1066916 0.0000000
0.0000000 0.1080442 0.0000000
0.0000000 0.1092323 0.0000000
0.0056015 0.1103143 0.0000000
0.0123212 0.1114115 0.0000000
0.0200455 0.1127020 0.0000000
0.0291505 0.1144048 0.0000000
0.0400229 0.1167561 0.0000000
0.0530160 0.1199820 0.0000000
0.0684160 0.1242693 0.0000000
0.0864251 0.1297426 0.0014164
0.1071394 0.1364519 0.0049317
0.1305407 0.1443720 0.0091951
0.1565032 0.1534187 0.0141807
0.1848213 0.1634791 0.0198419
0.2152305 0.1744362 0.0261228
0.2474165 0.1861820 0.0329627
0.2809974 0.1986024 0.0402872
0.3154976 0.2115501 0.0479849
0.3503512 0.2248225 0.0558977
0.3849341 0.2381634 0.0638120
0.4186408 0.2512945 0.0714936
0.4509910 0.2639733 0.0787324
0.4817204 0.2760489 0.0853964
0.5108306 0.2874919 0.0914654
0.5385561 0.2983823 0.0970191
0.5652784 0.3088687 0.1022018
0.5914172 0.3191196 0.1071699
0.6173365 0.3292822 0.1120570
0.0000000 0.1081654 0.0000000
0.0000000 0.1093008 0.0000000
0.0000000 0.1104074 0.0000000
0.0000000 0.1114470 0.0000000
0.0000000 0.1123869 0.0000000
0.0000000 0.1132141 0.0000000
0.0000000 0.1139474 0.0000000
0.0001176 0.1146458 0.0000000
0.0068907 0.1154139 0.0000000
0.0146114 0.1163937 0.0000000
0.0235846 0.1177543 0.0000000
0.0341201 0.1196776 0.0000000
0.0465065 0.1223441 0.0000000
0.0609848 0.1259120 0.0000000
0.0777363 0.1304990 0.0000000
0.0968531 0.1361656 0.0000000
0.1183314 0.1429098 0.0000000
0.1420753 0.1506765 0.0007630
0.1679145 0.1593751 0.0051345
0.1956306 0.1689040 0.0100279
0.2249706 0.1791702 0.0153929
0.2556504 0.1900950 0.0211807
0.2873383 0.2015969 0.0273339
0.3196429 0.2135722 0.0337764
0.3521139 0.2258748 0.0403979
0.3842782 0.2383199 0.0470554
0.4157147 0.2507143 0.0535971
0.4461276 0.2628977 0.0598978
0.4754162 0.2747796 0.0658944
0.5036815 0.2863531 0.0715958
0.5311697 0.2976789 0.0770684
0.5581936 0.3088507 0.0824058
0.5850380 0.3199615 0.0876903
0.0000000 0.1164962 0.0000000
0.0000000 0.1170467 0.0000000
0.0000000 0.1175778 0.0000000
0.0000000 0.1180653 0.0000000
0.0000000 0.1184902 0.0000000
0.0000000 0.1188520 0.0000000
0.0000000 0.1191757 0.0000000
0.0000000 0.1195159 0.0000000
0.0019340 0.1199575 0.0000000
0.0096610 0.1206112 0.0000000
0.0185039 0.1216057 0.0000000
0.0287114 0.1230835 0.0000000
0.0405198 0.1251893 0.0000000
0.0541385 0.1280576 0.0000000
0.0697252 0.1317968 0.0000000
0.0873675 0.1364737 0.0000000
0.1070727 0.1421052 0.0000000
0.1287756 0.1486639 0.0000000
0.1523450 0.1560867 0.0000000
0.1776032 0.1642931 0.0000000
0.2043436 0.1732051 0.0000000
0.2323449 0.1827611 0.0026826
0.2613601 0.1929111 0.0074018
0.2911135 0.2036055 0.0124196
0.3212920 0.2147743 0.0176941
0.3515543 0.2263149 0.0231618
0.3815715 0.2380999 0.0287396
0.4110789 0.2499958 0.0343405
0.4399377 0.2618928 0.0398972
0.4681508 0.2737259 0.0453723
0.4958452 0.2854798 0.0507676
0.5232159 0.2971739 0.0561104
0.5504579 0.3088404 0.0614326
0.0000000 0.1250045 0.0000000
0.0000000 0.1250262 0.0000000
0.0000000 0.1250377 0.0000000
0.0000000 0.1250262 0.0000000
0.0000000 0.1249834 0.0000000
0.0000000 0.1249153 0.0000000
0.0000000 0.1248493 0.0000000
0.0000000 0.1248318 0.0000000
0.0000000 0.1249299 0.0000000
0.0050496 0.1252287 0.0000000
0.0137531 0.1258289 0.0000000
0.0236392 0.1268443 0.0000000
0.0349072 0.1283938 0.0000000
0.0477350 0.1305909 0.0000000
0.0622602 0.1335336 0.0000000
0.0785627 0.1372908 0.0000000
0.0966631 0.1418940 0.0000000
0.1165185 0.1473363 0.0000000
0.1380355 0.1535810 0.0000000
0.1610733 0.1605705 0.0000000
0.1854605 0.1682426 0.0000000
0.2110128 0.1765463 0.0000000
0.2375386 0.1854472 0.0000000
0.2648331 0.1949207 0.0000000
0.2926783 0.2049400 0.0000000
0.3208394 0.2154593 0.0000000
0.3490764 0.2264061 0.0044251
0.3771826 0.2376854 0.0090783
0.4050233 0.2491949 0.0138746
0.4325507 0.2608418 0.0187617
0.4598005 0.2725585 0.0236960
0.4868652 0.2843027 0.0286516
0.5138546 0.2960530 0.0336159
0.0000000 0.1337010 0.0000000
0.0000000 0.1332453 0.0000000
0.0000000 0.1327855 0.0000000
0.0000000 0.1323161 0.0000000
0.0000000 0.1318377 0.0000000
0.0000000 0.1313606 0.0000000
0.0000000 0.1309097 0.0000000
0.0000000 0.1305225 0.0000000
0.0000000 0.1302524 0.0000000
0.0006806 0.1301664 0.0000000
0.0092363 0.1303455 0.0000000
0.0188114 0.1308837 0.0000000
0.0295763 0.1318818 0.0000000
0.0416796 0.1334360 0.0000000
0.0552419 0.1356339 0.0000000
0.0703389 0.1385444 0.0000000
0.0869976 0.1422057 0.0000000
0.1051965 0.1466269 0.0000000
0.1248695 0.1517923 0.0000000
0.1459045 0.1576642 0.0000000
0.1681582 0.1641961 0.0000000
0.1914741 0.1713461 0.0000000
0.2156928 0.1790871 0.0000000
0.2406556 0.1874051 0.0000000
0.2662018 0.1962912 0.0000000
0.2921642 0.2057292 0.0000000
0.3183798 0.2156818 0.0000000
0.3446992 0.2260866 0.0000000
0.3710123 0.2368583 0.0000000
0.3972546 0.2479003 0.0000000
0.4234091 0.2591175 0.0000000
0.4494947 0.2704283 0.0003542
0.4755498 0.2817712 0.0045787
0.0000000 0.1425882 0.0000000
0.0000000 0.1416958 0.0000000
0.0000000 0.1408018 0.0000000
0.0000000 0.1399069 0.0000000
0.0000000 0.1390163 0.0000000
