catalog/styles/experimental/experimental-flower/look.cube
# experimental-flower iteration 5
LUT_3D_SIZE 5
DOMAIN_MIN 0 0 0
DOMAIN_MAX 1 1 1
0.0637151 0.0642996 0.0756317
0.0702617 0.0498652 0.0590088
0.2897567 0.1161868 0.1225240
0.5885464 0.1588661 0.1431449
0.8375116 0.2159064 0.1562537
0.0000000 0.0162638 0.0000000
0.0913919 0.0874678 0.0430376
0.2749522 0.1649339 0.1128563
0.5885561 0.2756748 0.2014833
0.8209092 0.3146624 0.2162348
0.0000000 0.0763611 0.0000000
0.0333652 0.1044104 0.0141651
0.1736484 0.1530524 0.0455734
0.4873422 0.2777453 0.1344691
0.6993818 0.3457972 0.1711137
0.0000000 0.1425882 0.0000000
0.0000000 0.1358716 0.0000000
0.0779817 0.1429748 0.0000000
0.2416027 0.1886554 0.0000000
0.4358837 0.2661845 0.0000000
0.0000000 0.2180075 0.0000000
0.0000000 0.1871142 0.0000000
0.0194477 0.1592188 0.0000000
0.0749749 0.1426008 0.0000000
0.0978721 0.1157264 0.0000000
0.0439051 0.0395539 0.0642593
0.0088019 0.0058145 0.0091158
0.1705936 0.0748363 0.0929503
0.4489553 0.1766591 0.2098144
0.7152979 0.2798369 0.3013510
0.0284055 0.0475501 0.0461031
0.0621961 0.0619172 0.0612890
0.1184546 0.0832994 0.0827747
0.3286077 0.1628103 0.1573563
0.6337854 0.2434317 0.2334349
0.0458525 0.1300419 0.0929178
0.0923127 0.1389897 0.0933997
0.1710049 0.1721186 0.1206998
0.2761834 0.1995292 0.1522147
0.5353207 0.2530605 0.1956077
0.0145976 0.1992118 0.1096109
0.0727357 0.2086796 0.0844970
0.1453936 0.2268505 0.0735154
0.2677156 0.2639938 0.1029050
0.4770932 0.3106295 0.1552225
0.0000000 0.2524643 0.0982011
0.0334399 0.2660776 0.0603070
0.0998600 0.2741411 0.0238673
0.2329613 0.3014258 0.0013959
0.5282123 0.4231981 0.0300143
0.0527453 0.0508802 0.1568568
0.0108597 0.0051570 0.0329221
0.1094395 0.0395534 0.0876056
0.3450769 0.1565298 0.2500753
0.5937484 0.2765228 0.4042177
0.0545541 0.0759314 0.1226999
0.0935818 0.0976065 0.1502670
0.1813273 0.1333676 0.1813959
0.3491367 0.2016366 0.2577464
0.5671143 0.2830636 0.3433567
0.1265461 0.2252276 0.2470466
0.1294600 0.1765093 0.1844572
0.2233362 0.2223901 0.2210290
0.3206309 0.2336390 0.2316268
0.5486896 0.3016147 0.2986227
0.0944681 0.2590657 0.2365771
0.1346618 0.2634827 0.2006242
0.2552182 0.3419301 0.2433104
0.3843224 0.3965595 0.2926771
0.4613769 0.3399004 0.2813928
0.0616967 0.2954125 0.2163554
0.0983656 0.3178464 0.1698999
0.1610726 0.3549677 0.1532280
0.3468246 0.4458077 0.2157547
0.8649759 0.7731283 0.4348074
0.1636981 0.1625727 0.4185852
0.1203571 0.0890079 0.2380720
0.1737275 0.0873204 0.2117257
0.3107423 0.1479187 0.3052871
0.4590643 0.2184185 0.4189626
0.1100344 0.1507790 0.3145283
0.1761869 0.1740202 0.3045747
0.2707624 0.2132692 0.3443914
0.4219929 0.2842353 0.4140841
0.6096679 0.3859512 0.5129467
0.0714513 0.1355139 0.1869073
0.1683822 0.2119476 0.2973661
0.4039462 0.4172324 0.5417171
0.4972650 0.4065607 0.4934069
0.7071108 0.4941484 0.5325197
0.1797568 0.3056875 0.3419290
0.1791246 0.2927368 0.3295930
0.3489173 0.4550338 0.4570145
0.5723141 0.5785311 0.5754652
0.7260110 0.5666551 0.5043058
0.1696721 0.3607936 0.3967792
0.1699235 0.3562956 0.3172180
0.1959266 0.3776826 0.2679440
0.3747996 0.5207288 0.3714053
0.8673552 0.8076255 0.6419105
0.2599475 0.2665585 0.6250239
0.3018456 0.2434591 0.5469792
0.3028042 0.1855635 0.4294640
0.3003306 0.1432789 0.3707825
0.3096296 0.1254650 0.3691502
0.1993925 0.2519475 0.5474591
0.2445596 0.2324379 0.4644350
0.3753616 0.3105621 0.5216739
0.5264761 0.4064890 0.6110061
0.6912632 0.5161263 0.7080885
0.1477140 0.2145310 0.3933666
0.1873773 0.2159002 0.3721382
0.3169800 0.3077636 0.4607708
0.7430035 0.6860372 0.8590454
1.0000000 0.8981714 1.0000000
0.1728375 0.2781769 0.3813241
0.2053989 0.2806929 0.3836714
0.2311650 0.2838722 0.3843798
0.7800235 0.8182337 0.9254996
1.0000000 1.0000000 1.0000000
0.3005732 0.4545300 0.6642036
0.3111287 0.4682764 0.6648417
0.3352290 0.4841327 0.6450047
0.4177803 0.5228939 0.6389415
0.9665361 0.9688835 0.9674510
