catalog/styles/experimental/experimental-flower/look.cube
# experimental-flower iteration 5
LUT_3D_SIZE 9
DOMAIN_MIN 0 0 0
DOMAIN_MAX 1 1 1
0.0637151 0.0642996 0.0756317
0.0364850 0.0306563 0.0274297
0.0702617 0.0498652 0.0590088
0.1663854 0.0926278 0.1037407
0.2897567 0.1161868 0.1225240
0.4433625 0.1374631 0.1368406
0.5885464 0.1588661 0.1431449
0.7129316 0.1848716 0.1476747
0.8375116 0.2159064 0.1562537
0.0000000 0.0032431 0.0000000
0.0093448 0.0098777 0.0082124
0.0868382 0.0683150 0.0457064
0.1401169 0.0906785 0.0775461
0.2646504 0.1349127 0.1153519
0.4183116 0.1796758 0.1480412
0.5701368 0.2164077 0.1711696
0.7092257 0.2451418 0.1843935
0.8381517 0.2694844 0.1923581
0.0000000 0.0162638 0.0000000
0.0402732 0.0592043 0.0311121
0.0913919 0.0874678 0.0430376
0.2164793 0.1656587 0.0887219
0.2749522 0.1649339 0.1128563
0.4341076 0.2255007 0.1641699
0.5885561 0.2756748 0.2014833
0.7125684 0.3004975 0.2138830
0.8209092 0.3146624 0.2162348
0.0000000 0.0464002 0.0000000
0.0283431 0.0768686 0.0226020
0.0753697 0.1097161 0.0436845
0.1421908 0.1384854 0.0594932
0.2435968 0.1724132 0.0899860
0.4195466 0.2439977 0.1514137
0.5815195 0.3053361 0.1992920
0.6895152 0.3301227 0.2119437
0.7756219 0.3421034 0.2127075
0.0000000 0.0763611 0.0000000
0.0058474 0.0920202 0.0056081
0.0333652 0.1044104 0.0141651
0.0782496 0.1179041 0.0228953
0.1736484 0.1530524 0.0455734
0.3242098 0.2127424 0.0878701
0.4873422 0.2777453 0.1344691
0.6075147 0.3190284 0.1595605
0.6993818 0.3457972 0.1711137
0.0000000 0.1081654 0.0000000
0.0000000 0.1123869 0.0000000
0.0068907 0.1154139 0.0000000
0.0465065 0.1223441 0.0000000
0.1183314 0.1429098 0.0000000
0.2249706 0.1791702 0.0153929
0.3521139 0.2258748 0.0403979
0.4754162 0.2747796 0.0658944
0.5850380 0.3199615 0.0876903
0.0000000 0.1425882 0.0000000
0.0000000 0.1390163 0.0000000
0.0000000 0.1358716 0.0000000
0.0244768 0.1356139 0.0000000
0.0779817 0.1429748 0.0000000
0.1522297 0.1609552 0.0000000
0.2416027 0.1886554 0.0000000
0.3379802 0.2248924 0.0000000
0.4358837 0.2661845 0.0000000
0.0000000 0.1796931 0.0000000
0.0000000 0.1700647 0.0000000
0.0000000 0.1605764 0.0000000
0.0059399 0.1526628 0.0000000
0.0467471 0.1495574 0.0000000
0.0978741 0.1536927 0.0000000
0.1550692 0.1641625 0.0000000
0.2125099 0.1784521 0.0000000
0.2692553 0.1944850 0.0000000
0.0000000 0.2180075 0.0000000
0.0000000 0.2028054 0.0000000
0.0000000 0.1871142 0.0000000
0.0000000 0.1717738 0.0000000
0.0194477 0.1592188 0.0000000
0.0498995 0.1506221 0.0000000
0.0749749 0.1426008 0.0000000
0.0897580 0.1307236 0.0000000
0.0978721 0.1157264 0.0000000
0.0463509 0.0450786 0.0579376
0.0187774 0.0170826 0.0246984
0.0348635 0.0219662 0.0255528
0.1128480 0.0611363 0.0676527
0.2377511 0.1059615 0.1158074
0.3834542 0.1444385 0.1550705
0.5239158 0.1756954 0.1820124
0.6501939 0.2089427 0.2029106
0.7714455 0.2505170 0.2266100
0.0230934 0.0301045 0.0281374
0.0218333 0.0216822 0.0229938
0.0283520 0.0241299 0.0282622
0.0613095 0.0405450 0.0436405
0.1613714 0.0907114 0.0895157
0.2958727 0.1355291 0.1295646
0.4537185 0.1826780 0.1682062
0.6076769 0.2249594 0.2001513
0.7542155 0.2621980 0.2270658
0.0150330 0.0324867 0.0179046
0.0399477 0.0517353 0.0381017
0.0536160 0.0548779 0.0474027
0.0644333 0.0559731 0.0478755
0.1138080 0.0775174 0.0666284
0.2560362 0.1386049 0.1147111
0.4267237 0.2023983 0.1643687
0.5818798 0.2451858 0.1982267
0.7204357 0.2722636 0.2194127
0.0168171 0.0620004 0.0269012
0.0474873 0.0833109 0.0494077
0.0671809 0.0902454 0.0588463
0.0935898 0.0964808 0.0674310
0.1566092 0.1284118 0.0950852
0.2493310 0.1586071 0.1126531
0.4412933 0.2356039 0.1704500
0.5756496 0.2766217 0.2005572
0.6651442 0.2818293 0.2038137
0.0128551 0.1009940 0.0408138
0.0389525 0.1128764 0.0493734
0.0645824 0.1230198 0.0550357
0.0953250 0.1314687 0.0583399
0.1496955 0.1481944 0.0730084
0.2425838 0.1860396 0.1045396
0.3696500 0.2301186 0.1358519
0.5045241 0.2736335 0.1668682
0.5996281 0.2907758 0.1790427
0.0000000 0.1368735 0.0479930
0.0221760 0.1415476 0.0440073
0.0494624 0.1478064 0.0406949
0.0826613 0.1553283 0.0381162
0.1311498 0.1665948 0.0422472
0.2091215 0.1931073 0.0625689
0.3092185 0.2295379 0.0901062
0.4164299 0.2619213 0.1127094
0.5256096 0.2929189 0.1342729
0.0000000 0.1706066 0.0502856
0.0035598 0.1715717 0.0377005
0.0320354 0.1733076 0.0255325
0.0649448 0.1762005 0.0147039
0.1077719 0.1822800 0.0083881
0.1698345 0.1979983 0.0127374
0.2543671 0.2259857 0.0288123
0.3520859 0.2584354 0.0479979
0.4518916 0.2898383 0.0647285
0.0000000 0.2030544 0.0496580
0.0000000 0.2019310 0.0307519
0.0146253 0.2006202 0.0117078
0.0464967 0.1991592 0.0000000
0.0837954 0.1993026 0.0000000
0.1339897 0.2059660 0.0000000
0.2040080 0.2237311 0.0000000
0.2902408 0.2504759 0.0000000
0.3808839 0.2801742 0.0000000
0.0000000 0.2350567 0.0480141
0.0000000 0.2320562 0.0234220
0.0000000 0.2282593 0.0000000
0.0276648 0.2230474 0.0000000
0.0603028 0.2177187 0.0000000
0.1013329 0.2164352 0.0000000
0.1580756 0.2243466 0.0000000
0.2295747 0.2406775 0.0000000
0.3065935 0.2593081 0.0000000
0.0439051 0.0395539 0.0642593
0.0162568 0.0166206 0.0299137
0.0088019 0.0058145 0.0091158
0.0598566 0.0268564 0.0339332
0.1705936 0.0748363 0.0929503
0.3088159 0.1280831 0.1563176
0.4489553 0.1766591 0.2098144
0.5851156 0.2260277 0.2566523
0.7152979 0.2798369 0.3013510
0.0341821 0.0410184 0.0504011
0.0406604 0.0406390 0.0508697
0.0223890 0.0188765 0.0234362
0.0532311 0.0314123 0.0362909
0.1448957 0.0806649 0.0913822
0.2494282 0.1221838 0.1375765
0.3815969 0.1666380 0.1819901
0.5293405 0.2142093 0.2262399
0.6785909 0.2616177 0.2692895
0.0284055 0.0475501 0.0461031
0.0476157 0.0569586 0.0555901
0.0621961 0.0619172 0.0612890
0.0816189 0.0715778 0.0706635
0.1184546 0.0832994 0.0827747
0.1976816 0.1144066 0.1130549
0.3286077 0.1628103 0.1573563
0.4820214 0.2093455 0.2002537
0.6337854 0.2434317 0.2334349
0.0430215 0.0844776 0.0671021
0.0683940 0.0974398 0.0811974
0.0825934 0.0996090 0.0825457
0.1043044 0.1067147 0.0891482
0.1427187 0.1224187 0.1059815
0.1919783 0.1336046 0.1091494
0.2855634 0.1632102 0.1348658
0.4425959 0.2158579 0.1830507
0.5874056 0.2422630 0.2091858
0.0458525 0.1300419 0.0929178
0.0682109 0.1333647 0.0927584
0.0923127 0.1389897 0.0933997
0.1226512 0.1503809 0.0991122
0.1710049 0.1721186 0.1206998
0.2299776 0.1981249 0.1497174
0.2761834 0.1995292 0.1522147
0.3898041 0.2219761 0.1652486
0.5353207 0.2530605 0.1956077
0.0338262 0.1678805 0.1070233
0.0592557 0.1707243 0.0987679
0.0863067 0.1751780 0.0914727
0.1189564 0.1853935 0.0897290
0.1606127 0.2002027 0.0982538
0.2166421 0.2195124 0.1203390
0.2913059 0.2456057 0.1486340
0.3746422 0.2655438 0.1757101
0.4907401 0.2740055 0.1841132
0.0145976 0.1992118 0.1096109
0.0429998 0.2034564 0.0965487
0.0727357 0.2086796 0.0844970
0.1065550 0.2168688 0.0763723
0.1453936 0.2268505 0.0735154
0.1949285 0.2397105 0.0799384
0.2677156 0.2639938 0.1029050
0.3633353 0.2915451 0.1333302
0.4770932 0.3106295 0.1552225
0.0000000 0.2262704 0.1048404
0.0229638 0.2320875 0.0885549
0.0542181 0.2384693 0.0734175
0.0875899 0.2452047 0.0602706
0.1247012 0.2515770 0.0492356
0.1724349 0.2604300 0.0434087
0.2463500 0.2809186 0.0507533
0.3575636 0.3161844 0.0711838
0.4923700 0.3574760 0.0942846
0.0000000 0.2524643 0.0982011
0.0021377 0.2594190 0.0789074
0.0334399 0.2660776 0.0603070
0.0649841 0.2711513 0.0422172
0.0998600 0.2741411 0.0238673
0.1492310 0.2798418 0.0076020
0.2329613 0.3014258 0.0013959
0.3659173 0.3533874 0.0117805
0.5282123 0.4231981 0.0300143
0.0409611 0.0376110 0.0883255
0.0150776 0.0158691 0.0396131
0.0018774 0.0014776 0.0086763
0.0314282 0.0073537 0.0191103
0.1227961 0.0467682 0.0769354
0.2501989 0.1058346 0.1549798
0.3865429 0.1667231 0.2296824
0.5223148 0.2262562 0.2976326
0.6571578 0.2864626 0.3632246
0.0287444 0.0349557 0.0672074
0.0353724 0.0389585 0.0669578
0.0203413 0.0190233 0.0354521
0.0481302 0.0277216 0.0419563
0.1361898 0.0750944 0.1002431
0.2396921 0.1233946 0.1603637
0.3537318 0.1683932 0.2133538
0.4841033 0.2175064 0.2666219
0.6201513 0.2684604 0.3199721
0.0507717 0.0722167 0.0957413
0.0443083 0.0531846 0.0700625
0.0704635 0.0739068 0.0905129
0.0938621 0.0801029 0.0930762
0.1523002 0.1088855 0.1245762
0.2276584 0.1401668 0.1606750
0.3218808 0.1723030 0.1963325
0.4461340 0.2118231 0.2370463
0.5854317 0.2541245 0.2799909
0.0779533 0.1315645 0.1382546
0.0651750 0.0929373 0.0958694
0.0970084 0.1139644 0.1156438
0.1309759 0.1326744 0.1316835
0.1575561 0.1354774 0.1353896
0.2182068 0.1577606 0.1567594
0.3106361 0.1948774 0.1904429
0.4149640 0.2180063 0.2161135
0.5498044 0.2459152 0.2472121
0.0820556 0.1709655 0.1602495
0.0910801 0.1547792 0.1385555
0.1105044 0.1524528 0.1294302
0.1433327 0.1667315 0.1379826
0.1991295 0.1961961 0.1662249
0.2157416 0.1846399 0.1587594
0.3224242 0.2392174 0.2008296
0.4030141 0.2489733 0.2205093
0.5217604 0.2568504 0.2356347
0.0715643 0.2030314 0.1724391
0.0935576 0.2016839 0.1575834
0.1176766 0.2015461 0.1447143
0.1517056 0.2114405 0.1437597
0.2139835 0.2496786 0.1724667
0.2697731 0.2753711 0.1989857
0.2950752 0.2623586 0.2004081
0.3623676 0.2748102 0.2256263
0.5084513 0.2881145 0.2430771
0.0527990 0.2280179 0.1712025
0.0787777 0.2327044 0.1554239
0.1081265 0.2401412 0.1436816
0.1466473 0.2555070 0.1414550
0.2009861 0.2847674 0.1551646
0.2564987 0.3096137 0.1734068
0.2960117 0.3095915 0.1822630
0.3581804 0.3105088 0.2023390
0.5075075 0.3346374 0.2471651
0.0330880 0.2503248 0.1632118
0.0593646 0.2584909 0.1454435
0.0889053 0.2695027 0.1315956
0.1259557 0.2861348 0.1257757
0.1718174 0.3068336 0.1276670
0.2250929 0.3260506 0.1336401
0.2928887 0.3438914 0.1441494
0.4033216 0.3716872 0.1694273
0.5951976 0.4009123 0.2125082
0.0137850 0.2719146 0.1529893
0.0398714 0.2837387 0.1339725
0.0672292 0.2963110 0.1168012
0.0976972 0.3096349 0.1038026
0.1349678 0.3226920 0.0955485
0.1913454 0.3385783 0.0935124
0.2941873 0.3724483 0.1060121
0.4797641 0.4596437 0.1499404
0.7724976 0.6636530 0.2384578
0.0527453 0.0508802 0.1568568
0.0251941 0.0240267 0.0779626
0.0108597 0.0051570 0.0329221
0.0338460 0.0070128 0.0355721
0.1094395 0.0395534 0.0876056
0.2213226 0.0950761 0.1671935
0.3450769 0.1565298 0.2500753
0.4698539 0.2171689 0.3286408
0.5937484 0.2765228 0.4042177
0.0456582 0.0531675 0.1342165
0.0477517 0.0529082 0.1146341
0.0459072 0.0430282 0.0882802
0.0715157 0.0480550 0.0883555
0.1455249 0.0846573 0.1346697
0.2425597 0.1318205 0.1956592
0.3476502 0.1790433 0.2551844
0.4609796 0.2281585 0.3139987
0.5790959 0.2789863 0.3730493
0.0545541 0.0759314 0.1226999
0.0747898 0.0868327 0.1410445
0.0935818 0.0976065 0.1502670
0.1257343 0.1114336 0.1587154
0.1813273 0.1333676 0.1813959
0.2593810 0.1665025 0.2189662
0.3491367 0.2016366 0.2577464
0.4526074 0.2400976 0.2987959
0.5671143 0.2830636 0.3433567
0.1069203 0.1670970 0.2056921
0.0948482 0.1201449 0.1497114
0.1134667 0.1335763 0.1729741
0.1755356 0.1771718 0.2143238
0.2078269 0.1789133 0.2119049
0.2581003 0.1896343 0.2234732
0.3475347 0.2243627 0.2539561
0.4487647 0.2575813 0.2848440
0.5587095 0.2902083 0.3172335
0.1265461 0.2252276 0.2470466
0.1128172 0.1781775 0.1898975
0.1294600 0.1765093 0.1844572
0.1804714 0.2110516 0.2121486
0.2233362 0.2223901 0.2210290
0.2385989 0.2043393 0.2094558
0.3206309 0.2336390 0.2316268
0.4550801 0.2891297 0.2775312
0.5486896 0.3016147 0.2986227
0.1118575 0.2428459 0.2436716
0.1178584 0.2242659 0.2111220
0.1455154 0.2312653 0.2061506
0.1929347 0.2590098 0.2226528
0.2554498 0.2947033 0.2467535
0.3379509 0.3430985 0.2891097
0.3025100 0.2658249 0.2309161
0.4316425 0.3146342 0.2686983
0.5139665 0.3220416 0.2907049
0.0944681 0.2590657 0.2365771
0.1092173 0.2555737 0.2125027
0.1346618 0.2634827 0.2006242
0.1807247 0.2907640 0.2100827
0.2552182 0.3419301 0.2433104
0.3565292 0.4128527 0.2991751
0.3843224 0.3965595 0.2926771
0.3678834 0.3230737 0.2476682
0.4613769 0.3399004 0.2813928
0.0781783 0.2770861 0.2274389
0.0952469 0.2818928 0.2049747
0.1172878 0.2912359 0.1873149
0.1550205 0.3143725 0.1853375
0.2166143 0.3560644 0.2060594
0.2959165 0.4048553 0.2402456
0.3706217 0.4322651 0.2626506
0.4456654 0.4268973 0.2672367
0.5665350 0.4145649 0.2997213
0.0616967 0.2954125 0.2163554
0.0790163 0.3058426 0.1919687
0.0983656 0.3178464 0.1698999
0.1233293 0.3332024 0.1546894
0.1610726 0.3549677 0.1532280
0.2257513 0.3881834 0.1717375
0.3468246 0.4458077 0.2157547
0.5580453 0.5533906 0.2925705
0.8649759 0.7731283 0.4348074
0.0938955 0.0923938 0.2755725
0.0646153 0.0581032 0.1746068
0.0495259 0.0323240 0.1098194
0.0686563 0.0295450 0.0968503
0.1289813 0.0542769 0.1328118
0.2189966 0.0986762 0.1990294
0.3219999 0.1507581 0.2755018
0.4258164 0.2026029 0.3502733
0.5283301 0.2533707 0.4225501
0.0858695 0.0974761 0.2422865
0.0855975 0.0898958 0.2005086
0.0929213 0.0835825 0.1720442
0.1194781 0.0873723 0.1677694
0.1769001 0.1109150 0.1962248
0.2593684 0.1498542 0.2465571
0.3540337 0.1956856 0.3049351
0.4530291 0.2436776 0.3647050
0.5533523 0.2921971 0.4243834
0.0596341 0.0881796 0.1762908
0.1071023 0.1222856 0.2148231
0.1401940 0.1422471 0.2329261
0.1753781 0.1564683 0.2456204
0.2237702 0.1712456 0.2608660
0.2942808 0.1984458 0.2894773
0.3825468 0.2380835 0.3301476
0.4789519 0.2825192 0.3755698
0.5779907 0.3278180 0.4218850
0.0483735 0.0824013 0.1133994
0.1099430 0.1370811 0.1993585
0.1709558 0.1951218 0.2746195
0.2320411 0.2364245 0.3256083
0.2658952 0.2343649 0.3184976
0.3155186 0.2410242 0.3195827
0.3960237 0.2711023 0.3415606
0.4958319 0.3135132 0.3749305
0.6008050 0.3576922 0.4108500
0.1381974 0.2342354 0.2791794
0.1189692 0.1783908 0.2221847
0.1717413 0.2273123 0.2821071
0.2427407 0.2806509 0.3393952
0.2989647 0.2992578 0.3539380
0.3271154 0.2857518 0.3366405
0.3766204 0.2841254 0.3263465
0.4895444 0.3283562 0.3523934
0.6178272 0.3830390 0.3913002
0.1501655 0.2769736 0.3027741
0.1321664 0.2304606 0.2540074
0.1521874 0.2353492 0.2495831
0.2482722 0.3296256 0.3349489
0.3586321 0.4127246 0.4121912
0.3758343 0.3812561 0.3787390
0.3390871 0.2939438 0.2971957
0.4603887 0.3325708 0.3131666
0.6086246 0.4026226 0.3677349
0.1409690 0.2907062 0.3008356
0.1395390 0.2749334 0.2737166
0.1520095 0.2748223 0.2563411
0.2030982 0.3157881 0.2769650
0.3117288 0.4082980 0.3531734
0.4399490 0.5005258 0.4324096
0.4884014 0.4945260 0.4260827
0.4161267 0.3540536 0.2977856
0.5158510 0.3825453 0.3290305
0.1274060 0.3056010 0.2964564
0.1331112 0.3044649 0.2709730
0.1447254 0.3087456 0.2492342
0.1761677 0.3313042 0.2447379
0.2468422 0.3881761 0.2781910
0.3611388 0.4758778 0.3493781
0.4841409 0.5519791 0.4191558
0.5233341 0.5201822 0.3997037
0.5538104 0.4179004 0.3257545
0.1134050 0.3242324 0.2946505
0.1206285 0.3282313 0.2604821
0.1299190 0.3341570 0.2290332
0.1450489 0.3444658 0.2046445
0.1763767 0.3671592 0.1992334
0.2459023 0.4181625 0.2336875
0.3767848 0.5037192 0.3127357
0.5851309 0.6144885 0.4126128
0.8739685 0.7815591 0.5396196
0.1636981 0.1625727 0.4185852
0.1327834 0.1188084 0.3129613
0.1203571 0.0890079 0.2380720
0.1332424 0.0779211 0.2044832
0.1737275 0.0873204 0.2117257
0.2369718 0.1136609 0.2508607
0.3107423 0.1479187 0.3052871
0.3856166 0.1835542 0.3626666
0.4590643 0.2184185 0.4189626
0.1375605 0.1525942 0.3592819
0.1384610 0.1408698 0.3109693
0.1503065 0.1329612 0.2760200
0.1769915 0.1339791 0.2635375
0.2232796 0.1488627 0.2772266
0.2893183 0.1780557 0.3127112
0.3683264 0.2172872 0.3613680
0.4520063 0.2607358 0.4150565
0.5361422 0.3049529 0.4695156
0.1100344 0.1507790 0.3145283
0.1363029 0.1547728 0.2950867
0.1761869 0.1740202 0.3045747
0.2206811 0.1948797 0.3250169
0.2707624 0.2132692 0.3443914
0.3372863 0.2413311 0.3723236
0.4219929 0.2842353 0.4140841
0.5152369 0.3345978 0.4629120
0.6096679 0.3859512 0.5129467
0.0972972 0.1686262 0.3041633
0.1193215 0.1474676 0.2454332
0.1937227 0.2142214 0.3254913
0.2678615 0.2714335 0.4005232
0.3228469 0.2922486 0.4231444
0.3821390 0.3093563 0.4330832
0.4655920 0.3465673 0.4586935
0.5658733 0.3977725 0.4966566
0.6700456 0.4515136 0.5370575
0.0714513 0.1355139 0.1869073
0.1262777 0.1702783 0.2462208
0.1683822 0.2119476 0.2973661
0.3084056 0.3544079 0.4722923
0.4039462 0.4172324 0.5417171
0.4449551 0.4084262 0.5154479
0.4972650 0.4065607 0.4934069
0.5887900 0.4389684 0.5030652
0.7071108 0.4941484 0.5325197
0.1564831 0.2598234 0.2973239
0.1677860 0.2544361 0.3335207
0.1564032 0.2304659 0.3010554
0.2366646 0.3051235 0.3637121
0.4698340 0.5442101 0.6258693
0.5889881 0.6041996 0.6713236
0.5202815 0.4707860 0.5208164
0.5667261 0.4464758 0.4704087
0.7275213 0.5282006 0.5139763
0.1797568 0.3056875 0.3419290
0.1726726 0.2928022 0.3359390
0.1791246 0.2927368 0.3295930
0.2194393 0.3282947 0.3451665
0.3489173 0.4550338 0.4570145
0.5923122 0.6650221 0.6626584
0.5723141 0.5785311 0.5754652
0.5211283 0.4511955 0.4311742
0.7260110 0.5666551 0.5043058
0.1740411 0.3316583 0.3670538
0.1702984 0.3238477 0.3402318
0.1743802 0.3241004 0.3190893
0.1972720 0.3428125 0.3121590
0.2636350 0.4017765 0.3468010
0.4027880 0.5241333 0.4556763
0.5699450 0.6444605 0.5724999
0.6391000 0.6426867 0.5721108
0.5450766 0.4484637 0.3823519
0.1696721 0.3607936 0.3967792
0.1689644 0.3574078 0.3555611
0.1699235 0.3562956 0.3172180
0.1761266 0.3605096 0.2855074
0.1959266 0.3776826 0.2679440
0.2538753 0.4278733 0.2895617
0.3747996 0.5207288 0.3714053
0.5407598 0.6047801 0.4599053
0.8673552 0.8076255 0.6419105
0.2165957 0.2181412 0.5263768
0.2098236 0.1889489 0.4546482
0.2088749 0.1635994 0.3903943
0.2163933 0.1439121 0.3411118
0.2347049 0.1333467 0.3150225
0.2661916 0.1353679 0.3167891
0.3052968 0.1460263 0.3380006
0.3455107 0.1598100 0.3670751
0.3853899 0.1743400 0.3982161
0.1837273 0.2061599 0.4721190
0.1937730 0.1938121 0.4269763
0.2123894 0.1867146 0.3913479
0.2409918 0.1871298 0.3726741
0.2799703 0.1965741 0.3735097
0.3298688 0.2157706 0.3919763
0.3888549 0.2437606 0.4237611
0.4531516 0.2776759 0.4635327
0.5191607 0.3138692 0.5062203
0.1563530 0.2033043 0.4336611
0.1737491 0.1933486 0.3914810
0.2104762 0.2037007 0.3822264
0.2623778 0.2298642 0.4022946
0.3217246 0.2602109 0.4314613
0.3907596 0.2964792 0.4665227
0.4710860 0.3419756 0.5093481
0.5590813 0.3947531 0.5583213
0.6497375 0.4503795 0.6099062
0.1460315 0.2191679 0.4232782
0.1535517 0.1863784 0.3443031
0.1945522 0.2053660 0.3515751
0.2723440 0.2670849 0.4235641
0.3603772 0.3288284 0.4923786
0.4503624 0.3830980 0.5444328
0.5500045 0.4423720 0.5942236
0.6580755 0.5081995 0.6465626
0.7672590 0.5746348 0.6981564
0.1563825 0.2364646 0.4018334
0.1685376 0.2152838 0.3520474
0.1802836 0.2146916 0.3381431
0.2486290 0.2737746 0.4063747
0.3888539 0.3973005 0.5480250
0.5176057 0.4888839 0.6357803
0.6274755 0.5508222 0.6811592
0.7402079 0.6114848 0.7197351
0.8553242 0.6717169 0.7544386
0.1397482 0.2062654 0.2674886
0.1994523 0.2732773 0.3924950
0.2282237 0.3038954 0.4326383
0.2332164 0.2930261 0.4007975
0.3511428 0.4022357 0.5205707
0.5777300 0.6011212 0.7230288
0.7014619 0.6695009 0.7715057
0.7817065 0.6847345 0.7584213
0.9070853 0.7397728 0.7757392
0.1886855 0.2924606 0.3566386
0.1898885 0.2908591 0.3652238
0.2008082 0.2975513 0.3721568
0.2274908 0.3188483 0.3850545
0.3200467 0.4044433 0.4676934
0.5415084 0.6201734 0.7012829
0.7075062 0.7359151 0.8070411
0.7558809 0.7037224 0.7409359
0.9123749 0.7851664 0.7766511
0.2111456 0.3508134 0.4411414
0.2061512 0.3414171 0.4169201
0.2077493 0.3397542 0.4001501
0.2243338 0.3529580 0.3946150
0.2703447 0.3922073 0.4124524
0.3780952 0.4900057 0.5002969
0.5671896 0.6575470 0.6709725
0.6850549 0.6913443 0.6817182
0.7236845 0.6550851 0.6276891
0.2331975 0.4051530 0.5253559
0.2306127 0.4016002 0.4924120
0.2293832 0.3996284 0.4623286
0.2331248 0.4026622 0.4356807
0.2475629 0.4167802 0.4144368
0.2878026 0.4530991 0.4087432
0.3724917 0.5114012 0.4378713
0.4697988 0.5473889 0.4722500
0.8159752 0.7870227 0.7072374
0.2599475 0.2665585 0.6250239
0.2851620 0.2592096 0.5921612
0.3018456 0.2434591 0.5469792
0.3060217 0.2164614 0.4875684
0.3028042 0.1855635 0.4294640
0.2996578 0.1599137 0.3891699
0.3003306 0.1432789 0.3707825
0.3042662 0.1331522 0.3671119
0.3096296 0.1254650 0.3691502
0.2240415 0.2549572 0.5815352
0.2483334 0.2457980 0.5420494
0.2762295 0.2418099 0.5096884
0.3087999 0.2444527 0.4889307
0.3422257 0.2502367 0.4784402
0.3756422 0.2586622 0.4779947
0.4126360 0.2729888 0.4893206
0.4548512 0.2943714 0.5109927
0.5001931 0.3198026 0.5378923
0.1993925 0.2519475 0.5474591
0.2150392 0.2340758 0.4945276
0.2445596 0.2324379 0.4644350
0.3013166 0.2620159 0.4784498
0.3753616 0.3105621 0.5216739
0.4508849 0.3591686 0.5678062
0.5264761 0.4064890 0.6110061
0.6069405 0.4590124 0.6575902
0.6912632 0.5161263 0.7080885
0.1840100 0.2505451 0.5048597
0.1931003 0.2309178 0.4556964
0.2103115 0.2188097 0.4155026
0.2671964 0.2517216 0.4358225
0.3788606 0.3432960 0.5317133
0.5128544 0.4515126 0.6454236
0.6403846 0.5463940 0.7368346
0.7611068 0.6315486 0.8102483
0.8795687 0.7137953 0.8774535
0.1477140 0.2145310 0.3933666
0.1749861 0.2264480 0.3989064
0.1873773 0.2159002 0.3721382
0.2075358 0.2145718 0.3590846
0.3169800 0.3077636 0.4607708
0.5284626 0.5023341 0.6734022
0.7430035 0.6860372 0.8590454
0.9104988 0.8096461 0.9660042
1.0000000 0.8981714 1.0000000
0.0960140 0.1889804 0.3005594
0.1655434 0.2260462 0.3404435
0.1755471 0.2231604 0.3319831
0.1740793 0.2061715 0.3128013
0.2213872 0.2346937 0.3472730
0.4716222 0.4830643 0.6208881
0.8128825 0.8055223 0.9544774
1.0000000 0.9628155 1.0000000
1.0000000 1.0000000 1.0000000
0.1728375 0.2781769 0.3813241
0.1928448 0.2766452 0.3815803
0.2053989 0.2806929 0.3836714
0.2160772 0.2837792 0.3910173
0.2311650 0.2838722 0.3843798
0.3356313 0.3778330 0.4781578
0.7800235 0.8182337 0.9254996
1.0000000 1.0000000 1.0000000
1.0000000 1.0000000 1.0000000
0.2431060 0.3637190 0.5345277
0.2443487 0.3618404 0.5035944
0.2459026 0.3610970 0.4939372
0.2554486 0.3659815 0.4950025
0.2801552 0.3754450 0.4983151
0.3079880 0.3810608 0.4791869
0.4118454 0.4665165 0.5361165
0.8692814 0.8763191 0.9214378
0.7995543 0.7463930 0.7816462
0.3005732 0.4545300 0.6642036
0.3055154 0.4609977 0.6658790
0.3111287 0.4682764 0.6648417
0.3237037 0.4766043 0.6655670
0.3352290 0.4841327 0.6450047
0.3612569 0.5020144 0.6255656
0.4177803 0.5228939 0.6389415
0.5377857 0.6119962 0.6808852
0.9665361 0.9688835 0.9674510
