catalog/styles/experimental/experimental-nightstreet/look.cube
# experimental-nightstreet iteration 20
LUT_3D_SIZE 5
DOMAIN_MIN 0 0 0
DOMAIN_MAX 1 1 1
0.1222687 0.1222448 0.1228179
0.2055608 0.1999264 0.2028065
0.3619347 0.3662560 0.3632574
0.5048230 0.5092204 0.5032775
0.5978138 0.5981420 0.5967235
0.1774637 0.1954388 0.1802926
0.2776922 0.2770948 0.2768253
0.2879626 0.2889105 0.2874694
0.5363590 0.5385418 0.5350958
0.7284566 0.7302809 0.7246031
0.2018938 0.2326120 0.2028656
0.3177480 0.3232266 0.3190086
0.3820129 0.3775017 0.3816266
0.5924670 0.5906263 0.5902472
0.8051768 0.8052284 0.7994424
0.2118876 0.2562913 0.2137758
0.2983042 0.3190235 0.2979057
0.4033638 0.4074607 0.4010100
0.5547531 0.5519566 0.5507148
0.7426326 0.7363349 0.7365369
0.1981447 0.2561407 0.1993202
0.3087767 0.3481677 0.3060219
0.4279384 0.4474904 0.4224679
0.5726153 0.5730926 0.5663022
0.7421405 0.7260520 0.7362443
0.1662382 0.1681471 0.1683216
0.1154206 0.1069550 0.1098936
0.2296715 0.2204926 0.2250387
0.3939234 0.3890727 0.3938967
0.6352696 0.6331077 0.6378886
0.2007618 0.2061054 0.2024001
0.2504087 0.2531563 0.2487756
0.2836532 0.2813455 0.2826250
0.3899492 0.3853253 0.3885523
0.5749538 0.5725329 0.5738721
0.2962604 0.3082093 0.2961980
0.3224586 0.3262809 0.3225323
0.3934894 0.3920088 0.3935291
0.4743026 0.4721855 0.4726807
0.6152516 0.6115688 0.6114391
0.3539860 0.3790326 0.3537208
0.4078250 0.4216381 0.4069191
0.4719963 0.4777617 0.4699918
0.5829479 0.5840142 0.5805422
0.7418928 0.7376280 0.7376260
0.4116333 0.4514866 0.4102857
0.4812161 0.5090052 0.4786802
0.5614688 0.5773127 0.5580920
0.6772441 0.6820603 0.6732581
0.8336249 0.8289564 0.8296070
0.2888446 0.2937041 0.2883006
0.1646855 0.1467899 0.1684685
0.1848075 0.1505299 0.1902184
0.3941758 0.3740350 0.3978268
0.5741391 0.5640745 0.5780951
0.2362160 0.2424750 0.2371177
0.2640510 0.2643124 0.2670508
0.3092610 0.3005680 0.3102232
0.4613311 0.4495401 0.4619705
0.6252518 0.6149294 0.6262082
0.4041372 0.4068080 0.4042784
0.3505235 0.3536970 0.3509503
0.4540210 0.4554550 0.4538243
0.5443007 0.5386477 0.5421778
0.6919115 0.6859072 0.6921369
0.5222174 0.5328021 0.5205394
0.5042776 0.5127809 0.5033929
0.5718914 0.5779363 0.5712210
0.6830152 0.6855101 0.6815098
0.7690822 0.7646253 0.7665377
0.6071263 0.6298592 0.6040339
0.6313477 0.6484116 0.6291995
0.6652546 0.6776196 0.6637243
0.7548995 0.7627045 0.7526157
0.8626824 0.8663587 0.8600812
0.3651744 0.3692946 0.3660091
0.2912410 0.2731424 0.3027440
0.2719412 0.2394224 0.2868699
0.4061265 0.3732050 0.4171563
0.5622349 0.5344335 0.5685634
0.3976842 0.3982830 0.4003406
0.3808596 0.3728507 0.3876879
0.4182804 0.4024034 0.4258228
0.5301219 0.5091406 0.5354341
0.6737686 0.6492731 0.6770898
0.4185911 0.4190744 0.4195683
0.4638447 0.4635309 0.4668211
0.6325206 0.6287380 0.6356601
0.6502485 0.6401128 0.6516545
0.7640290 0.7463179 0.7641493
0.6645051 0.6682789 0.6633984
0.5847605 0.5890726 0.5848478
0.6617687 0.6651828 0.6628161
0.7703392 0.7703269 0.7715457
0.8422309 0.8321312 0.8376587
0.7847424 0.7936325 0.7825153
0.7504216 0.7588650 0.7493566
0.7212618 0.7301225 0.7213757
0.7713359 0.7798269 0.7709617
0.8346658 0.8395080 0.8319932
0.5531200 0.5413835 0.5588363
0.5002340 0.4809008 0.5168883
0.4541813 0.4262292 0.4754273
0.4680751 0.4276357 0.4865374
0.5322273 0.4782762 0.5439210
0.5959882 0.5903639 0.5996486
0.5047623 0.4916817 0.5154477
0.5647075 0.5437937 0.5780392
0.6365352 0.6058352 0.6475334
0.6974832 0.6552503 0.7033418
0.5931329 0.5924671 0.5973661
0.4840368 0.4788487 0.4891586
0.6166067 0.6063320 0.6228749
0.8010590 0.7823307 0.8056386
0.8579711 0.8269871 0.8580661
0.5572670 0.5577373 0.5602548
0.6166669 0.6163017 0.6187923
0.6554569 0.6550603 0.6584492
0.8324974 0.8248682 0.8344842
1.0000000 0.9930668 1.0000000
0.9966516 0.9952931 0.9977587
0.9051758 0.9057963 0.9059980
0.8393586 0.8435584 0.8413845
0.7707603 0.7795987 0.7772324
1.0000000 1.0000000 1.0000000
