catalog/styles/experimental/experimental-nightstreet/look.cube
# experimental-nightstreet iteration 20
LUT_3D_SIZE 9
DOMAIN_MIN 0 0 0
DOMAIN_MAX 1 1 1
0.1222687 0.1222448 0.1228179
0.1749811 0.1755677 0.1728962
0.2055608 0.1999264 0.2028065
0.2640689 0.2619448 0.2651891
0.3619347 0.3662560 0.3632574
0.4393318 0.4455612 0.4390286
0.5048230 0.5092204 0.5032775
0.5598219 0.5619628 0.5582156
0.5978138 0.5981420 0.5967235
0.1696385 0.1755713 0.1740181
0.1803834 0.1827834 0.1778863
0.3164512 0.3193090 0.3161617
0.1733669 0.1746798 0.1730371
0.3022302 0.3057314 0.3023733
0.4276858 0.4319323 0.4273768
0.5026005 0.5062255 0.5013553
0.5793025 0.5818210 0.5773194
0.6625725 0.6639005 0.6600806
0.1774637 0.1954388 0.1802926
0.2765658 0.2801132 0.2744313
0.2776922 0.2770948 0.2768253
0.4143001 0.4137355 0.4131336
0.2879626 0.2889105 0.2874694
0.4220595 0.4239578 0.4217850
0.5363590 0.5385418 0.5350958
0.6361121 0.6382275 0.6335756
0.7284566 0.7302809 0.7246031
0.1801878 0.2054430 0.1809983
0.2673202 0.2785291 0.2682753
0.3627222 0.3638940 0.3635689
0.3683653 0.3650329 0.3678563
0.3793633 0.3764174 0.3786174
0.4492262 0.4480856 0.4485798
0.5936844 0.5939262 0.5921138
0.7030865 0.7040772 0.6999384
0.7841841 0.7856081 0.7791754
0.2018938 0.2326120 0.2028656
0.2597533 0.2771583 0.2611833
0.3177480 0.3232266 0.3190086
0.3490065 0.3467806 0.3494860
0.3820129 0.3775017 0.3816266
0.4678768 0.4643661 0.4667197
0.5924670 0.5906263 0.5902472
0.7135069 0.7128469 0.7097315
0.8051768 0.8052284 0.7994424
0.2133720 0.2506168 0.2149683
0.2567694 0.2810197 0.2579861
0.2971753 0.3093880 0.2978348
0.3369134 0.3399748 0.3367974
0.3897344 0.3878587 0.3887648
0.4678839 0.4646047 0.4659651
0.5646866 0.5616346 0.5616274
0.6727387 0.6700771 0.6683031
0.7806518 0.7781392 0.7746058
0.2118876 0.2562913 0.2137758
0.2549137 0.2871128 0.2556496
0.2983042 0.3190235 0.2979057
0.3457486 0.3568278 0.3442952
0.4033638 0.4074607 0.4010100
0.4744495 0.4742063 0.4712849
0.5547531 0.5519566 0.5507148
0.6435274 0.6389142 0.6384964
0.7426326 0.7363349 0.7365369
0.2051270 0.2565525 0.2068047
0.2538301 0.2943686 0.2538365
0.3034996 0.3334778 0.3019315
0.3565884 0.3768003 0.3536858
0.4166108 0.4282436 0.4126954
0.4852717 0.4897369 0.4806393
0.5618269 0.5604414 0.5566674
0.6451379 0.6387816 0.6395398
0.7326903 0.7217039 0.7266863
0.1981447 0.2561407 0.1993202
0.2531691 0.3019703 0.2523117
0.3087767 0.3481677 0.3060219
0.3663685 0.3959666 0.3620350
0.4279384 0.4474904 0.4224679
0.4960162 0.5057062 0.4898952
0.5726153 0.5730926 0.5663022
0.6561410 0.6481431 0.6499666
0.7421405 0.7260520 0.7362443
0.1856844 0.1812368 0.1854861
0.1704157 0.1665241 0.1685675
0.1246501 0.1205574 0.1195498
0.1450822 0.1420566 0.1394330
0.2524763 0.2521011 0.2493811
0.3272733 0.3280609 0.3257279
0.3944633 0.3947747 0.3937356
0.5072506 0.5067779 0.5072403
0.6271303 0.6263600 0.6282150
0.1710028 0.1701471 0.1736124
0.2017511 0.1996483 0.2009661
0.1680069 0.1677760 0.1652389
0.1903302 0.1919062 0.1873354
0.2475593 0.2480097 0.2454916
0.3284307 0.3280090 0.3271673
0.4050645 0.4044659 0.4039689
0.5019807 0.5015122 0.5009818
0.6133102 0.6131192 0.6125552
0.1862675 0.1927955 0.1875722
0.2245811 0.2273684 0.2240372
0.2351481 0.2371333 0.2343729
0.2318985 0.2341360 0.2321435
0.2686425 0.2686731 0.2690533
0.3274256 0.3260276 0.3266306
0.4176262 0.4163126 0.4160783
0.5240478 0.5232760 0.5220498
0.6316195 0.6314491 0.6292217
0.2178501 0.2319744 0.2181081
0.2564416 0.2642710 0.2562740
0.2700724 0.2720195 0.2704437
0.2842685 0.2821620 0.2860347
0.3248217 0.3224397 0.3263950
0.3687395 0.3669733 0.3683383
0.4474103 0.4458175 0.4457130
0.5902857 0.5889557 0.5874808
0.6739856 0.6730728 0.6700368
0.2524249 0.2733544 0.2527196
0.2826649 0.2952154 0.2831118
0.3039643 0.3081974 0.3047086
0.3258650 0.3234656 0.3267288
0.3591719 0.3552162 0.3592256
0.4295343 0.4271325 0.4288639
0.5038140 0.5021183 0.5023365
0.6132693 0.6112972 0.6100000
0.6893310 0.6872440 0.6841683
0.2705153 0.2980400 0.2711836
0.3010136 0.3194266 0.3015372
0.3344900 0.3442611 0.3346986
0.3735550 0.3764302 0.3730491
0.4078793 0.4071472 0.4065051
0.4568109 0.4553973 0.4551890
0.5439936 0.5423929 0.5420061
0.6235859 0.6211709 0.6200672
0.6927774 0.6893960 0.6872460
0.2817192 0.3162302 0.2825078
0.3174567 0.3430207 0.3175525
0.3558405 0.3730035 0.3551435
0.3958694 0.4059841 0.3942922
0.4360407 0.4410022 0.4337494
0.4887743 0.4903724 0.4860800
0.5695300 0.5687679 0.5664092
0.6596852 0.6567580 0.6556842
0.7355570 0.7304184 0.7303320
0.2930438 0.3347670 0.2935109
0.3340322 0.3673925 0.3334173
0.3755284 0.4008116 0.3738610
0.4178087 0.4356479 0.4152117
0.4636155 0.4748707 0.4603085
0.5207582 0.5263657 0.5169510
0.5954780 0.5962834 0.5912844
0.6831685 0.6796989 0.6785976
0.7737213 0.7661505 0.7687388
0.3056492 0.3545431 0.3055418
0.3506813 0.3919616 0.3492515
0.3956348 0.4292035 0.3929899
0.4425938 0.4682699 0.4389473
0.4953087 0.5130056 0.4909077
0.5557641 0.5657028 0.5508543
0.6249217 0.6276269 0.6197800
0.7050178 0.7010674 0.6999126
0.7934283 0.7831157 0.7884984
0.1662382 0.1681471 0.1683216
0.1431078 0.1386449 0.1418375
0.1154206 0.1069550 0.1098936
0.1298437 0.1194529 0.1227194
0.2296715 0.2204926 0.2250387
0.3371577 0.3306723 0.3353794
0.3939234 0.3890727 0.3938967
0.4860100 0.4822773 0.4872702
0.6352696 0.6331077 0.6378886
0.1701472 0.1709965 0.1730879
0.1876055 0.1866456 0.1870763
0.1762459 0.1753709 0.1734455
0.1799093 0.1776660 0.1762688
0.2421333 0.2373354 0.2393038
0.3199072 0.3144476 0.3183534
0.3905703 0.3856507 0.3898587
0.4756027 0.4717999 0.4755269
0.5828792 0.5806366 0.5835135
0.2007618 0.2061054 0.2024001
0.2336196 0.2357873 0.2328631
0.2504087 0.2531563 0.2487756
0.2600570 0.2614526 0.2586561
0.2836532 0.2813455 0.2826250
0.3285897 0.3241530 0.3274255
0.3899492 0.3853253 0.3885523
0.4774180 0.4736517 0.4760807
0.5749538 0.5725329 0.5738721
0.2454183 0.2526534 0.2457487
0.2870936 0.2925237 0.2866390
0.2882136 0.2910323 0.2877155
0.3056661 0.3056949 0.3059333
0.3264334 0.3242236 0.3269575
0.3594498 0.3561913 0.3586468
0.4103486 0.4066455 0.4084840
0.4946935 0.4911140 0.4923754
0.5939704 0.5909787 0.5913902
0.2962604 0.3082093 0.2961980
0.3131494 0.3213794 0.3130333
0.3224586 0.3262809 0.3225323
0.3425710 0.3426703 0.3429102
0.3934894 0.3920088 0.3935291
0.4495756 0.4480473 0.4487739
0.4743026 0.4721855 0.4726807
0.5117258 0.5085277 0.5089449
0.6152516 0.6115688 0.6114391
0.3278853 0.3460916 0.3277730
0.3441942 0.3571111 0.3440872
0.3663054 0.3740913 0.3661065
0.3984369 0.4020430 0.3978347
0.4372335 0.4385393 0.4359622
0.4844979 0.4849981 0.4829659
0.5420405 0.5415857 0.5404757
0.6051806 0.6029176 0.6024742
0.6648715 0.6608640 0.6604799
0.3539860 0.3790326 0.3537208
0.3790052 0.3982592 0.3784785
0.4078250 0.4216381 0.4069191
0.4407040 0.4499229 0.4392392
0.4719963 0.4777617 0.4699918
0.5103728 0.5136367 0.5081193
0.5829479 0.5840142 0.5805422
0.6788121 0.6773653 0.6757358
0.7418928 0.7376280 0.7376260
0.3824285 0.4147813 0.3817057
0.4134038 0.4398199 0.4121963
0.4454877 0.4661834 0.4437705
0.4787780 0.4942166 0.4765513
0.5141456 0.5248932 0.5114887
0.5596139 0.5662122 0.5566418
0.6276843 0.6305344 0.6244425
0.7126632 0.7118741 0.7090582
0.8011656 0.7966488 0.7970655
0.4116333 0.4514866 0.4102857
0.4464361 0.4802555 0.4444631
0.4812161 0.5090052 0.4786802
0.5180195 0.5397960 0.5150284
0.5614688 0.5773127 0.5580920
0.6147240 0.6248573 0.6109952
0.6772441 0.6820603 0.6732581
0.7508851 0.7508254 0.7468195
0.8336249 0.8289564 0.8296070
0.2076847 0.2090632 0.2092355
0.1631334 0.1590245 0.1629530
0.1266949 0.1122043 0.1249059
0.1249662 0.1011914 0.1225504
0.1947853 0.1714115 0.1934284
0.3076424 0.2904388 0.3077505
0.4023292 0.3902405 0.4036020
0.4902641 0.4817266 0.4926116
0.5924994 0.5874239 0.5959388
0.2006485 0.2056601 0.2021681
0.1971816 0.1985944 0.1978874
0.1710637 0.1679330 0.1708125
0.1739198 0.1648630 0.1727542
0.2382829 0.2258231 0.2371586
0.3293609 0.3174941 0.3289262
0.4128488 0.4028051 0.4131374
0.4933886 0.4854066 0.4942957
0.5866975 0.5811523 0.5882223
0.2412733 0.2475358 0.2419147
0.2552118 0.2598481 0.2562179
0.2706678 0.2740773 0.2708544
0.2595992 0.2590718 0.2585973
0.2980335 0.2928515 0.2968254
0.3589733 0.3514385 0.3580441
0.4261258 0.4181537 0.4254371
0.5006253 0.4934586 0.5001973
0.5912327 0.5855932 0.5911564
0.2964439 0.3017548 0.2967311
0.3094149 0.3139400 0.3098522
0.3491001 0.3529064 0.3489946
0.3428655 0.3447816 0.3418795
0.3573134 0.3557731 0.3561247
0.3916182 0.3871558 0.3902149
0.4617342 0.4557653 0.4600072
0.5279386 0.5219364 0.5264154
0.6014232 0.5962938 0.6004322
0.3432692 0.3491458 0.3431958
0.3407333 0.3458054 0.3406174
0.3490448 0.3528260 0.3488309
0.3711082 0.3736683 0.3707611
0.3976791 0.3985667 0.3969930
0.4464399 0.4448858 0.4445458
0.5138675 0.5101769 0.5112423
0.5862502 0.5817637 0.5841240
0.6398274 0.6353086 0.6382925
0.3894221 0.3998790 0.3888315
0.3879727 0.3963790 0.3874566
0.3960256 0.4023728 0.3955848
0.4202635 0.4249182 0.4198023
0.4677220 0.4709466 0.4668352
0.5311083 0.5325493 0.5292812
0.5615815 0.5610425 0.5592265
0.6135685 0.6111032 0.6114449
0.6923803 0.6878507 0.6901077
0.4330308 0.4498502 0.4318910
0.4420321 0.4558172 0.4409982
0.4561262 0.4670418 0.4551480
0.4809156 0.4893104 0.4798308
0.5211241 0.5273892 0.5197125
0.5674557 0.5717737 0.5656701
0.6127320 0.6149709 0.6107178
0.6707313 0.6702770 0.6683960
0.7471472 0.7429174 0.7438270
0.4740447 0.4978572 0.4722801
0.4908696 0.5109277 0.4891733
0.5107657 0.5271872 0.5090945
0.5369520 0.5500026 0.5352078
0.5710068 0.5810363 0.5690972
0.6134551 0.6207260 0.6113498
0.6681831 0.6726737 0.6658257
0.7331139 0.7344764 0.7303147
0.7997838 0.7976194 0.7962834
0.5130960 0.5441376 0.5106761
0.5369167 0.5635042 0.5345010
0.5611385 0.5833471 0.5587469
0.5876558 0.6056671 0.5852881
0.6204615 0.6344993 0.6180411
0.6652289 0.6754689 0.6625860
0.7237457 0.7303402 0.7207608
0.7900531 0.7933166 0.7868526
0.8596559 0.8599949 0.8565013
0.2888446 0.2937041 0.2883006
0.2169755 0.2128711 0.2185732
0.1646855 0.1467899 0.1684685
0.1396644 0.1077308 0.1453561
0.1848075 0.1505299 0.1902184
0.2875867 0.2605537 0.2917267
0.3941758 0.3740350 0.3978268
0.4876849 0.4727098 0.4914472
0.5741391 0.5640745 0.5780951
0.2506000 0.2576317 0.2511513
0.2242379 0.2250443 0.2266262
0.1935335 0.1864534 0.1970329
0.1908528 0.1755014 0.1943531
0.2438026 0.2245115 0.2466526
0.3321799 0.3137609 0.3345177
0.4255384 0.4096284 0.4277151
0.5128425 0.4995347 0.5150781
0.5982593 0.5877244 0.6005848
0.2362160 0.2424750 0.2371177
0.2481290 0.2515508 0.2507464
0.2640510 0.2643124 0.2670508
0.2754109 0.2710595 0.2773930
0.3092610 0.3005680 0.3102232
0.3802395 0.3691537 0.3808476
0.4613311 0.4495401 0.4619705
0.5405690 0.5291976 0.5413655
0.6252518 0.6149294 0.6262082
0.3608709 0.3640113 0.3614122
0.2780951 0.2810377 0.2798583
0.3521484 0.3547761 0.3539664
0.3741461 0.3752781 0.3750916
0.3893771 0.3870936 0.3893315
0.4303973 0.4244097 0.4296939
0.5055548 0.4971284 0.5047064
0.5807546 0.5716511 0.5803262
0.6565573 0.6478809 0.6568749
0.4041372 0.4068080 0.4042784
0.3509311 0.3538031 0.3513161
0.3505235 0.3536970 0.3509503
0.4003660 0.4036802 0.4006646
0.4540210 0.4554550 0.4538243
0.4805044 0.4778416 0.4790458
0.5443007 0.5386477 0.5421778
0.6419332 0.6352670 0.6406139
0.6919115 0.6859072 0.6921369
0.4690487 0.4745893 0.4682866
0.4387109 0.4440389 0.4381465
0.4273828 0.4325438 0.4270690
0.4566340 0.4615713 0.4565214
0.5045061 0.5082392 0.5041610
0.5999061 0.6007745 0.5984934
0.5788830 0.5769487 0.5765400
0.6861604 0.6825300 0.6844882
0.7268783 0.7215385 0.7259562
0.5222174 0.5328021 0.5205394
0.5063859 0.5159407 0.5051096
0.5042776 0.5127809 0.5033929
0.5249769 0.5323359 0.5243588
0.5718914 0.5779363 0.5712210
0.6525633 0.6570359 0.6515138
0.6830152 0.6855101 0.6815098
0.6836106 0.6833268 0.6817290
0.7690822 0.7646253 0.7665377
0.5659965 0.5825305 0.5635761
0.5647888 0.5793671 0.5628385
0.5693335 0.5819608 0.5678213
0.5875835 0.5983259 0.5863970
0.6242124 0.6332572 0.6231579
0.6742307 0.6816701 0.6730557
0.7226500 0.7280607 0.7210366
0.7582044 0.7607804 0.7558881
0.8038578 0.8032062 0.8007493
0.6071263 0.6298592 0.6040339
0.6195524 0.6393981 0.6169325
0.6313477 0.6484116 0.6291995
0.6446732 0.6592324 0.6429338
0.6652546 0.6776196 0.6637243
0.7003380 0.7105270 0.6986262
0.7548995 0.7627045 0.7526157
0.8158828 0.8213923 0.8131328
0.8626824 0.8663587 0.8600812
0.3254437 0.3325331 0.3250580
0.2761878 0.2715506 0.2800370
0.2219207 0.2036209 0.2302593
0.1796091 0.1484104 0.1913473
0.2091466 0.1732997 0.2205345
0.2945751 0.2621748 0.3035653
0.3925434 0.3651451 0.3996753
0.4842949 0.4617174 0.4901654
0.5691460 0.5515771 0.5738694
0.3145883 0.3208826 0.3155021
0.2821621 0.2801625 0.2862216
0.2527414 0.2421160 0.2593470
0.2417964 0.2232635 0.2495349
0.2768889 0.2540170 0.2841628
0.3520113 0.3287927 0.3580383
0.4416361 0.4199718 0.4465289
0.5284688 0.5087501 0.5325571
0.6115476 0.5940296 0.6149145
0.2882166 0.2915591 0.2898935
0.3006758 0.3005241 0.3045050
0.3122779 0.3080198 0.3173279
0.3224237 0.3137666 0.3274897
0.3502787 0.3378096 0.3545474
0.4124025 0.3974825 0.4157232
0.4924550 0.4763871 0.4951142
0.5733747 0.5567615 0.5757318
0.6536510 0.6369644 0.6557989
0.3171747 0.3177458 0.3190811
0.3358911 0.3363327 0.3386646
0.3651701 0.3646704 0.3686802
0.4422741 0.4401146 0.4457773
0.4484318 0.4433010 0.4508870
0.4776977 0.4691266 0.4790143
0.5415759 0.5301758 0.5423433
0.6175429 0.6042943 0.6184040
0.6961961 0.6817594 0.6974159
0.4834486 0.4846788 0.4840926
0.4039866 0.4052237 0.4051317
0.3879464 0.3895407 0.3896049
0.4697975 0.4714783 0.4719339
0.5460677 0.5456270 0.5475625
0.5481799 0.5440372 0.5485211
0.5821735 0.5747300 0.5818268
0.6549536 0.6452257 0.6546958
0.7387547 0.7275292 0.7390610
0.5680113 0.5710692 0.5672534
0.4847884 0.4882542 0.4846030
0.4619737 0.4658471 0.4622926
0.5068799 0.5107560 0.5075446
0.6115683 0.6140871 0.6121843
0.6365209 0.6362023 0.6366914
0.6159031 0.6127611 0.6154591
0.6845433 0.6786084 0.6835298
0.7772316 0.7686777 0.7759493
0.6111712 0.6176020 0.6094482
0.5664180 0.5729281 0.5653073
0.5415095 0.5479055 0.5409519
0.5674496 0.5733559 0.5673282
0.6281865 0.6331655 0.6283618
0.7074032 0.7111056 0.7076217
0.7562235 0.7580166 0.7559302
0.7189955 0.7173560 0.7173763
0.7991857 0.7929538 0.7959020
0.6518185 0.6625398 0.6493650
0.6342476 0.6443054 0.6324439
0.6221320 0.6314564 0.6209416
0.6275369 0.6360566 0.6269017
0.6602585 0.6679989 0.6600705
0.7160091 0.7229880 0.7158933
0.7747187 0.7802057 0.7739349
0.7908008 0.7932907 0.7886113
0.8271041 0.8256503 0.8232875
0.6951752 0.7104401 0.6920925
0.6944873 0.7083059 0.6920729
0.6920819 0.7045878 0.6903556
0.6889857 0.7004857 0.6879003
0.6946213 0.7053596 0.6939160
0.7200443 0.7298730 0.7191726
0.7674013 0.7757682 0.7657221
0.8221197 0.8286455 0.8195477
0.8534312 0.8583899 0.8506277
0.3651744 0.3692946 0.3660091
0.3355033 0.3283375 0.3419783
0.2912410 0.2731424 0.3027440
0.2573022 0.2300438 0.2719599
0.2719412 0.2394224 0.2868699
0.3290728 0.2951863 0.3423524
0.4061265 0.3732050 0.4171563
0.4859746 0.4552334 0.4946673
0.5622349 0.5344335 0.5685634
0.3883149 0.3906764 0.3899438
0.3610321 0.3555368 0.3668437
0.3320709 0.3190850 0.3411581
0.3197208 0.3002291 0.3306144
0.3406159 0.3165727 0.3516183
0.3956130 0.3692935 0.4054376
0.4683292 0.4413484 0.4764770
0.5443086 0.5174338 0.5507627
0.6191866 0.5926745 0.6240026
0.3976842 0.3982830 0.4003406
0.3780293 0.3743224 0.3830223
0.3808596 0.3728507 0.3876879
0.3918401 0.3796797 0.3995579
0.4182804 0.4024034 0.4258228
0.4658635 0.4470607 0.4723989
0.5301219 0.5091406 0.5354341
0.6014734 0.5786684 0.6057272
0.6737686 0.6492731 0.6770898
0.3267455 0.3268471 0.3296669
0.3902252 0.3883695 0.3939733
0.4323038 0.4285472 0.4371658
0.4918733 0.4858086 0.4972499
0.5218250 0.5128940 0.5267248
0.5429312 0.5308156 0.5467742
0.5894273 0.5741184 0.5923149
0.6535906 0.6351344 0.6558806
0.7226346 0.7011449 0.7244676
0.4185911 0.4190744 0.4195683
0.3864410 0.3866150 0.3885600
0.4638447 0.4635309 0.4668211
0.5983065 0.5966674 0.6018270
0.6325206 0.6287380 0.6356601
0.6306914 0.6240848 0.6328972
0.6502485 0.6401128 0.6516545
0.6982351 0.6842827 0.6989888
0.7640290 0.7463179 0.7641493
0.6073121 0.6089556 0.6070466
0.5096914 0.5119121 0.5102877
0.4949727 0.4972843 0.4962314
0.5495088 0.5509475 0.5512071
0.6962181 0.6961476 0.6981555
0.7379819 0.7360223 0.7399353
0.7182781 0.7130962 0.7193872
0.7331008 0.7237151 0.7326827
0.8054758 0.7916326 0.8033838
0.6645051 0.6682789 0.6633984
0.6190001 0.6231994 0.6185661
0.5847605 0.5890726 0.5848478
0.5861996 0.5901447 0.5866650
0.6617687 0.6651828 0.6628161
0.7861464 0.7885269 0.7880026
0.7703392 0.7703269 0.7715457
0.7620303 0.7576180 0.7606223
0.8422309 0.8321312 0.8376587
0.7235237 0.7297960 0.7218060
0.6936544 0.6999674 0.6925280
0.6695071 0.6758361 0.6689144
0.6623886 0.6687203 0.6623340
0.6804389 0.6866911 0.6810140
0.7308431 0.7367697 0.7318699
0.7855660 0.7902968 0.7860362
0.8064223 0.8076240 0.8045305
0.8453385 0.8407306 0.8399437
0.7847424 0.7936325 0.7825153
0.7682747 0.7768393 0.7665843
0.7504216 0.7588650 0.7493566
0.7319607 0.7405695 0.7315807
0.7212618 0.7301225 0.7213757
0.7327981 0.7417626 0.7329491
0.7713359 0.7798269 0.7709617
0.8093450 0.8162403 0.8078598
0.8346658 0.8395080 0.8319932
0.4500909 0.4468780 0.4532408
0.4213085 0.4101177 0.4304090
0.3879203 0.3694429 0.4020117
0.3625133 0.3379789 0.3795650
0.3595443 0.3299057 0.3774221
0.3855140 0.3515690 0.4025105
0.4341919 0.3971898 0.4490143
0.4915156 0.4525814 0.5034333
0.5493048 0.5088216 0.5581197
0.4884826 0.4853879 0.4911515
0.4470956 0.4380598 0.4547332
0.4194049 0.4046514 0.4308086
0.4090903 0.3891887 0.4227302
0.4221481 0.3977085 0.4363739
0.4571618 0.4288209 0.4705152
0.5063057 0.4747216 0.5177872
0.5619415 0.5275640 0.5710824
0.6193594 0.5823463 0.6260466
0.4964453 0.4940495 0.4994864
0.4582623 0.4516226 0.4644976
0.4447783 0.4339761 0.4535362
0.4592862 0.4444893 0.4695291
0.4915541 0.4729274 0.5020742
0.5324978 0.5101910 0.5421939
0.5796533 0.5537376 0.5878234
0.6321602 0.6026217 0.6385403
0.6870130 0.6538140 0.6915618
0.4905794 0.4892762 0.4936299
0.4313435 0.4274334 0.4361598
0.4572492 0.4506236 0.4635444
0.5193186 0.5097983 0.5265129
0.5724951 0.5598590 0.5797012
0.6119582 0.5958658 0.6183808
0.6529527 0.6329419 0.6581510
0.7002927 0.6759128 0.7040997
0.7492120 0.7202634 0.7515699
0.4081988 0.4078417 0.4107142
0.4188519 0.4177050 0.4220790
0.4657995 0.4631551 0.4698669
0.5828452 0.5780428 0.5875298
0.6580971 0.6509219 0.6628063
0.6969884 0.6868921 0.7010373
0.7286011 0.7144656 0.7316136
0.7657491 0.7466496 0.7673980
0.8029357 0.7786071 0.8030165
0.4355605 0.4363329 0.4367298
0.5418875 0.5428327 0.5436598
0.5995570 0.5999700 0.6017279
0.6156065 0.6144050 0.6182195
0.7055348 0.7030139 0.7085874
0.7848705 0.7805191 0.7879745
0.8095484 0.8009407 0.8115052
0.8183443 0.8044616 0.8183751
0.8541880 0.8348175 0.8520104
0.6534878 0.6554734 0.6538512
0.6301012 0.6322138 0.6308757
0.6283664 0.6304355 0.6293952
0.6374817 0.6392305 0.6388052
0.6826442 0.6842422 0.6845247
0.8008092 0.8013927 0.8036188
0.8358960 0.8326749 0.8377400
0.8369987 0.8288498 0.8361723
0.9072063 0.8932920 0.9031734
0.7713598 0.7741916 0.7712791
0.7372189 0.7402511 0.7372980
0.7105931 0.7139390 0.7109304
0.6980925 0.7019696 0.6988764
0.7016262 0.7059811 0.7030735
0.7236695 0.7277852 0.7257332
0.7710770 0.7738383 0.7729965
0.8201343 0.8194435 0.8201060
0.9130039 0.9056990 0.9085318
0.8851429 0.8886741 0.8844738
0.8523994 0.8563159 0.8518819
0.8215768 0.8261218 0.8213988
0.7943318 0.7998058 0.7947185
0.7699203 0.7765247 0.7709497
0.7574578 0.7652903 0.7591806
0.7756443 0.7842037 0.7780684
0.8102973 0.8177346 0.8123261
0.8254969 0.8296097 0.8246030
0.5531200 0.5413835 0.5588363
0.5259215 0.5103100 0.5375181
0.5002340 0.4809008 0.5168883
0.4746144 0.4513969 0.4945934
0.4541813 0.4262292 0.4754273
0.4510973 0.4172439 0.4717218
0.4680751 0.4276357 0.4865374
0.4977220 0.4505238 0.5130094
0.5322273 0.4782762 0.5439210
0.5762526 0.5675739 0.5806723
0.5362097 0.5236689 0.5456723
0.5097919 0.4934035 0.5234827
0.5023049 0.4819608 0.5186936
0.5093601 0.4845910 0.5267173
0.5257925 0.4958493 0.5425000
0.5500290 0.5142456 0.5647719
0.5810651 0.5391124 0.5929984
0.6157182 0.5675529 0.6245054
0.5959882 0.5903639 0.5996486
0.5342291 0.5248982 0.5417467
0.5047623 0.4916817 0.5154477
0.5229495 0.5060480 0.5356317
0.5647075 0.5437937 0.5780392
0.6045590 0.5791152 0.6172505
0.6365352 0.6058352 0.6475334
0.6662637 0.6298541 0.6748453
0.6974832 0.6552503 0.7033418
0.6188308 0.6159856 0.6227245
0.5193778 0.5134111 0.5252679
0.4832400 0.4740366 0.4909649
0.5275822 0.5150571 0.5366004
0.6097744 0.5937779 0.6192259
0.6806767 0.6606661 0.6895964
0.7246394 0.6997264 0.7321328
0.7537631 0.7232123 0.7591100
0.7786115 0.7420960 0.7814864
0.5931329 0.5924671 0.5973661
0.4987151 0.4957960 0.5032098
0.4840368 0.4788487 0.4891586
0.5250913 0.5175288 0.5309578
0.6166067 0.6063320 0.6228749
0.7239453 0.7100868 0.7298586
0.8010590 0.7823307 0.8056386
0.8404308 0.8158045 0.8429173
0.8579711 0.8269871 0.8580661
0.4756413 0.4761106 0.4795292
0.5060463 0.5051974 0.5092934
0.5218209 0.5198034 0.5250414
0.5480929 0.5452088 0.5517660
0.5845158 0.5800523 0.5886467
0.6981203 0.6901521 0.7020051
0.8443525 0.8313982 0.8469515
0.9120950 0.8933156 0.9125860
0.9331757 0.9083256 0.9313986
0.5572670 0.5577373 0.5602548
0.6048201 0.6047945 0.6071162
0.6166669 0.6163017 0.6187923
0.6323353 0.6322581 0.6349391
0.6554569 0.6550603 0.6584492
0.6819943 0.6787387 0.6848743
0.8324974 0.8248682 0.8344842
0.9395132 0.9271737 0.9397994
1.0000000 0.9930668 1.0000000
0.7964291 0.7965639 0.7990580
0.7728520 0.7727500 0.7744234
0.7651495 0.7652967 0.7666338
0.7633897 0.7640914 0.7654189
0.7634579 0.7649849 0.7659703
0.7613777 0.7630304 0.7643164
0.7902935 0.7897115 0.7935453
0.9169848 0.9130455 0.9198507
1.0000000 1.0000000 1.0000000
0.9966516 0.9952931 0.9977587
0.9467687 0.9463221 0.9476384
0.9051758 0.9057963 0.9059980
0.8747405 0.8768074 0.8759032
0.8393586 0.8435584 0.8413845
0.7899691 0.7968592 0.7937698
0.7707603 0.7795987 0.7772324
0.8594053 0.8668025 0.8656559
1.0000000 1.0000000 1.0000000
