catalog/styles/experimental/experimental-nightstreet/look.cube
# experimental-nightstreet iteration 20
LUT_3D_SIZE 33
DOMAIN_MIN 0 0 0
DOMAIN_MAX 1 1 1
0.1222687 0.1222448 0.1228179
0.1942949 0.1863139 0.1853322
0.1957974 0.1885010 0.1866537
0.1808095 0.1776372 0.1751853
0.1749811 0.1755677 0.1728962
0.1836597 0.1853978 0.1832462
0.2010259 0.2009269 0.2001810
0.2112784 0.2079074 0.2090754
0.2055608 0.1999264 0.2028065
0.1983565 0.1923047 0.1962670
0.2076224 0.2023435 0.2067194
0.2326228 0.2287543 0.2328743
0.2640689 0.2619448 0.2651891
0.2954229 0.2951334 0.2970245
0.3222446 0.3237107 0.3239656
0.3437053 0.3467331 0.3452989
0.3619347 0.3662560 0.3632574
0.3800424 0.3853370 0.3810057
0.4005325 0.4064590 0.4010852
0.4206540 0.4268802 0.4207763
0.4393318 0.4455612 0.4390286
0.4563494 0.4623364 0.4556477
0.4727672 0.4783256 0.4717144
0.4889764 0.4939841 0.4876379
0.5048230 0.5092204 0.5032775
0.5204122 0.5241924 0.5187446
0.5350380 0.5382286 0.5333289
0.5481961 0.5508403 0.5465129
0.5598219 0.5619628 0.5582156
0.5702209 0.5718900 0.5687248
0.5797954 0.5810110 0.5784282
0.5888945 0.5896652 0.5876645
0.5978138 0.5981420 0.5967235
0.1904123 0.1961718 0.1891229
0.2094366 0.2088623 0.2055188
0.2028026 0.2005231 0.1982547
0.1892307 0.1885021 0.1857542
0.1871810 0.1888011 0.1852889
0.2020083 0.2049468 0.2012285
0.2226172 0.2249693 0.2220617
0.2305947 0.2308140 0.2295961
0.2194906 0.2175508 0.2180928
0.2031391 0.2000709 0.2018332
0.1990431 0.1959340 0.1982345
0.2119180 0.2095730 0.2117611
0.2359299 0.2348345 0.2363678
0.2645941 0.2649531 0.2654445
0.2931639 0.2949718 0.2942097
0.3194116 0.3225230 0.3204627
0.3434479 0.3476329 0.3443618
0.3665672 0.3715542 0.3672431
0.3897552 0.3952597 0.3901276
0.4120556 0.4178062 0.4120884
0.4325463 0.4383021 0.4322279
0.4511039 0.4566656 0.4504450
0.4683957 0.4736118 0.4674259
0.4851133 0.4898807 0.4838785
0.5015801 0.5058420 0.5001374
0.5178300 0.5215689 0.5162420
0.5336188 0.5368444 0.5319468
0.5486606 0.5513978 0.5469589
0.5628360 0.5651129 0.5611476
0.5762289 0.5780689 0.5745839
0.5890522 0.5904703 0.5874686
0.6015494 0.6025531 0.6000359
0.6139248 0.6145163 0.6124843
0.1860553 0.1917966 0.1860760
0.2003301 0.2031571 0.1995906
0.1988329 0.2000377 0.1972817
0.1886990 0.1900831 0.1868044
0.1873354 0.1900267 0.1856922
0.2058864 0.2099078 0.2048522
0.2352571 0.2395388 0.2347992
0.2524511 0.2553719 0.2521554
0.2422017 0.2430909 0.2416947
0.2146196 0.2140216 0.2139316
0.1948764 0.1937080 0.1942381
0.1953885 0.1944759 0.1950077
0.2123651 0.2122656 0.2123313
0.2385678 0.2395557 0.2388547
0.2688196 0.2709457 0.2693289
0.2991042 0.3022695 0.2997067
0.3279893 0.3320110 0.3285590
0.3554729 0.3601311 0.3559055
0.3820110 0.3870787 0.3822317
0.4068535 0.4121170 0.4068140
0.4288878 0.4341583 0.4285624
0.4482656 0.4533876 0.4476495
0.4659177 0.4707714 0.4650241
0.4828699 0.4873706 0.4817266
0.4996861 0.5037818 0.4983312
0.5165108 0.5201771 0.5149878
0.5333373 0.5365702 0.5316910
0.5500531 0.5528612 0.5483250
0.5665317 0.5689285 0.5647562
0.5827084 0.5847077 0.5809113
0.5986225 0.6002348 0.5968206
0.6143764 0.6156072 0.6125784
0.6300679 0.6309192 0.6282770
0.1715115 0.1764891 0.1739760
0.1906386 0.1945899 0.1917341
0.1934275 0.1963005 0.1931346
0.1847389 0.1872132 0.1833642
0.1796654 0.1827113 0.1778670
0.1958259 0.1999537 0.1942914
0.2367633 0.2415435 0.2358916
0.2768367 0.2809703 0.2765355
0.2783201 0.2808159 0.2781416
0.2398140 0.2408500 0.2394941
0.1993254 0.1996058 0.1988837
0.1831666 0.1834191 0.1827466
0.1912302 0.1919801 0.1909668
0.2140969 0.2156188 0.2140523
0.2461017 0.2484696 0.2462600
0.2807324 0.2838852 0.2810185
0.3146697 0.3184738 0.3149850
0.3468358 0.3511250 0.3470856
0.3769577 0.3815614 0.3770661
0.4043471 0.4091041 0.4042587
0.4279697 0.4327378 0.4276476
0.4479611 0.4526229 0.4473870
0.4657816 0.4702444 0.4649538
0.4828422 0.4870387 0.4817730
0.4999365 0.5038211 0.4986478
0.5173374 0.5208825 0.5158578
0.5351483 0.5383410 0.5335089
0.5533350 0.5561717 0.5515659
0.5717844 0.5742663 0.5699117
0.5903640 0.5924956 0.5884085
0.6089909 0.6107764 0.6069668
0.6276314 0.6290736 0.6255471
0.6462726 0.6473729 0.6441311
0.1696385 0.1755713 0.1740181
0.1925776 0.1974734 0.1945831
0.1989641 0.2025672 0.1988402
0.1910928 0.1936720 0.1893566
0.1803834 0.1827834 0.1778863
0.1854045 0.1884230 0.1830216
0.2234697 0.2272235 0.2217833
0.2843689 0.2881538 0.2835256
0.3164512 0.3193090 0.3161617
0.2831071 0.2848434 0.2829288
0.2219166 0.2230045 0.2216396
0.1814947 0.1824888 0.1811348
0.1733669 0.1746798 0.1730371
0.1888057 0.1906578 0.1886040
0.2206057 0.2230615 0.2205645
0.2611015 0.2641248 0.2611868
0.3022302 0.3057314 0.3023733
0.3400768 0.3439401 0.3402016
0.3734698 0.3775732 0.3735051
0.4025946 0.4068213 0.4024805
0.4276858 0.4319323 0.4273768
0.4487765 0.4529559 0.4482424
0.4672921 0.4713344 0.4665183
0.4849287 0.4887818 0.4839144
0.5026005 0.5062255 0.5013553
0.5207851 0.5241548 0.5193255
0.5396490 0.5427455 0.5379950
0.5591892 0.5620003 0.5573612
0.5793025 0.5818210 0.5773194
0.5998334 0.6020557 0.5977107
0.6206320 0.6225564 0.6183809
0.6415763 0.6432025 0.6392036
0.6625725 0.6639005 0.6600806
0.1764694 0.1851361 0.1814856
0.2029587 0.2095655 0.2051796
0.2149898 0.2194375 0.2146630
0.2114365 0.2139269 0.2091189
0.1989783 0.2003217 0.1956164
0.1912128 0.1925011 0.1878712
0.2081937 0.2100967 0.2056320
0.2641928 0.2666085 0.2626763
0.3301701 0.3324421 0.3295493
0.3340224 0.3356582 0.3338259
0.2734725 0.2747158 0.2732776
0.2059092 0.2071273 0.2055955
0.1690202 0.1704875 0.1686545
0.1675189 0.1693823 0.1672141
0.1943111 0.1966131 0.1941304
0.2408861 0.2436071 0.2408243
0.2910052 0.2940870 0.2910229
0.3347658 0.3381301 0.3348044
0.3706553 0.3742146 0.3706469
0.4003545 0.4040240 0.4002333
0.4262879 0.4299921 0.4259986
0.4490551 0.4527300 0.4485569
0.4694297 0.4730240 0.4686975
0.4886184 0.4920915 0.4876409
0.5076074 0.5109277 0.5063845
0.5270247 0.5301670 0.5255632
0.5471444 0.5500879 0.5454552
0.5680031 0.5707312 0.5660988
0.5895140 0.5920141 0.5874071
0.6115237 0.6137863 0.6092248
0.6338679 0.6358867 0.6313849
0.6564003 0.6581721 0.6537377
0.6790028 0.6805263 0.6761623
0.1817273 0.1936900 0.1863242
0.2114472 0.2203904 0.2134522
0.2310295 0.2369652 0.2305951
0.2373038 0.2403909 0.2348377
0.2315068 0.2324099 0.2277963
0.2193624 0.2193023 0.2154788
0.2143046 0.2144381 0.2111771
0.2389208 0.2397090 0.2369401
0.3017032 0.3028870 0.3007532
0.3598307 0.3608931 0.3594964
0.3464164 0.3473020 0.3461764
0.2719745 0.2729039 0.2715929
0.2046003 0.2057493 0.2041011
0.1750052 0.1764806 0.1745156
0.1869548 0.1887975 0.1865766
0.2300703 0.2322732 0.2298345
0.2830445 0.2855653 0.2829333
0.3297174 0.3324936 0.3296784
0.3667620 0.3697231 0.3667211
0.3970217 0.4001006 0.3969007
0.4239576 0.4270950 0.4236880
0.4487877 0.4519357 0.4483182
0.4719132 0.4750335 0.4712095
0.4936923 0.4967532 0.4927348
0.5148454 0.5178209 0.5136257
0.5360651 0.5389319 0.5345822
0.5577242 0.5604614 0.5559819
0.5799098 0.5824988 0.5779142
0.6025619 0.6049869 0.6003197
0.6255621 0.6278102 0.6230793
0.6487916 0.6508536 0.6460727
0.6721488 0.6740191 0.6691963
0.6955537 0.6972300 0.6923685
0.1814372 0.1965690 0.1851697
0.2127581 0.2242216 0.2143948
0.2380917 0.2460156 0.2377487
0.2547973 0.2593942 0.2527632
0.2620049 0.2637535 0.2588218
0.2586789 0.2585529 0.2551592
0.2471861 0.2464681 0.2441875
0.2434395 0.2430423 0.2414359
0.2734773 0.2735726 0.2724111
0.3399078 0.3402059 0.3393994
0.3863996 0.3866468 0.3859856
0.3638466 0.3640912 0.3632446
0.3008628 0.3012719 0.3000718
0.2450091 0.2457183 0.2441830
0.2238205 0.2249024 0.2231204
0.2407820 0.2422464 0.2402916
0.2795911 0.2813974 0.2793070
0.3226210 0.3247049 0.3224820
0.3607527 0.3630471 0.3606672
0.3928567 0.3952997 0.3927265
0.4219680 0.4245072 0.4217080
0.4494970 0.4520925 0.4490435
0.4756751 0.4782954 0.4749850
0.5004926 0.5031118 0.4995385
0.5243549 0.5269501 0.5231214
0.5478598 0.5504093 0.5463392
0.5713062 0.5737899 0.5694964
0.5947829 0.5971813 0.5926842
0.6182791 0.6205745 0.6158928
0.6417624 0.6439406 0.6390902
0.6652249 0.6672750 0.6622681
0.6886731 0.6905886 0.6854327
0.7121157 0.7138942 0.7085920
0.1774637 0.1954388 0.1802926
0.2089103 0.2228258 0.2102051
0.2366190 0.2467042 0.2364864
0.2591929 0.2657821 0.2578665
0.2765658 0.2801132 0.2744313
0.2879493 0.2891312 0.2855333
0.2897143 0.2894746 0.2875783
0.2803015 0.2796109 0.2788065
0.2776922 0.2770948 0.2768253
0.3060129 0.3055452 0.3054764
0.3629652 0.3624573 0.3623876
0.4120293 0.4114151 0.4111542
0.4143001 0.4137355 0.4131336
0.3726605 0.3723721 0.3714185
0.3177201 0.3178370 0.3166388
0.2855648 0.2861156 0.2847745
0.2879626 0.2889105 0.2874694
0.3150119 0.3162905 0.3147392
0.3522870 0.3538289 0.3521239
0.3890357 0.3907812 0.3888677
0.4220595 0.4239578 0.4217850
0.4527443 0.4547549 0.4522859
0.4818136 0.4839060 0.4811179
0.5095819 0.5117310 0.5086137
0.5363590 0.5385418 0.5350958
0.5623369 0.5645325 0.5607651
0.5875883 0.5897766 0.5856996
0.6121567 0.6143176 0.6099459
0.6361121 0.6382275 0.6335756
0.6595676 0.6616228 0.6567033
0.6826790 0.6846626 0.6794855
0.7056015 0.7075066 0.7020781
0.7284566 0.7302809 0.7246031
0.1743730 0.1947455 0.1764229
0.2042240 0.2203909 0.2052694
0.2316990 0.2439348 0.2318345
0.2562249 0.2649191 0.2556344
0.2781660 0.2837785 0.2771190
0.2979959 0.3010650 0.2968201
0.3143726 0.3155212 0.3133684
0.3199973 0.3199169 0.3193177
0.3120607 0.3113618 0.3116448
0.3086130 0.3076154 0.3082417
0.3334033 0.3321810 0.3328208
0.3912433 0.3898197 0.3902659
0.4576937 0.4561943 0.4563108
0.4821181 0.4807934 0.4805688
0.4278497 0.4269227 0.4264815
0.3531325 0.3526694 0.3521097
0.3168464 0.3168263 0.3161657
0.3210003 0.3213704 0.3205819
0.3498023 0.3505023 0.3495318
0.3878142 0.3887889 0.3875708
0.4250298 0.4262310 0.4247050
0.4591765 0.4605612 0.4586830
0.4909839 0.4925160 0.4902577
0.5214192 0.5230684 0.5204164
0.5508940 0.5526346 0.5495848
0.5790932 0.5809025 0.5774572
0.6058182 0.6076742 0.6038409
0.6310745 0.6329567 0.6287451
0.6550423 0.6569323 0.6523527
0.6780210 0.6799036 0.6749652
0.7003560 0.7022201 0.6969302
0.7223557 0.7241945 0.7185577
0.7442416 0.7460525 0.7400705
0.1740715 0.1963757 0.1755243
0.2011856 0.2193485 0.2020786
0.2269873 0.2412571 0.2273930
0.2514309 0.2621692 0.2514770
0.2750785 0.2827004 0.2749332
0.2986335 0.3035874 0.2984740
0.3217155 0.3244581 0.3216707
0.3405066 0.3415000 0.3405942
0.3469993 0.3467106 0.3470983
0.3394253 0.3382660 0.3393487
0.3389292 0.3371941 0.3385126
0.3673655 0.3652592 0.3665178
0.4250144 0.4227319 0.4237561
0.4728584 0.4706382 0.4713752
0.4549899 0.4530705 0.4536017
0.3945835 0.3930895 0.3934863
0.3519708 0.3509294 0.3511813
0.3433140 0.3427067 0.3427718
0.3609362 0.3607246 0.3605460
0.3937376 0.3938773 0.3933898
0.4308099 0.4312568 0.4303995
0.4673239 0.4680356 0.4667606
0.5021178 0.5030524 0.5013315
0.5353005 0.5364186 0.5342391
0.5670463 0.5683153 0.5656723
0.5969090 0.5983015 0.5951948
0.6245529 0.6260441 0.6224776
0.6500030 0.6515708 0.6475502
0.6735943 0.6752192 0.6707510
0.6958305 0.6974965 0.6925871
0.7172309 0.7189267 0.7135809
0.7382188 0.7399375 0.7341583
0.7590739 0.7608127 0.7546014
0.1762556 0.2001361 0.1773008
0.2004058 0.2203236 0.2012257
0.2240373 0.2401766 0.2246781
0.2473662 0.2600135 0.2479025
0.2710144 0.2805043 0.2715303
0.2955684 0.3022533 0.2961304
0.3208811 0.3251161 0.3215100
0.3449903 0.3471241 0.3456348
0.3629768 0.3633652 0.3635074
0.3679512 0.3669755 0.3682075
0.3633496 0.3613977 0.3632177
0.3659407 0.3633601 0.3653891
0.3851306 0.3822199 0.3842113
0.4077085 0.4047353 0.4065681
0.4100998 0.4072999 0.4089461
0.3916365 0.3891738 0.3906297
0.3736240 0.3715826 0.3728177
0.3697431 0.3681512 0.3691187
0.3817516 0.3806031 0.3812490
0.4067819 0.4060522 0.4063157
0.4392406 0.4388947 0.4387192
0.4752666 0.4752655 0.4746035
0.5121864 0.5124863 0.5113096
0.5482803 0.5488352 0.5471335
0.5822981 0.5830665 0.5808374
0.6135528 0.6145004 0.6117441
0.6417093 0.6428066 0.6395254
0.6670165 0.6682381 0.6644354
0.6900806 0.6914049 0.6870844
0.7116094 0.7130188 0.7081845
0.7322412 0.7337232 0.7283780
0.7524512 0.7539985 0.7481441
0.7725316 0.7741413 0.7677785
0.1801878 0.2054430 0.1809983
0.2016776 0.2231721 0.2024865
0.2231012 0.2409536 0.2239308
0.2447756 0.2591849 0.2456566
0.2673202 0.2785291 0.2682753
0.2911463 0.2994184 0.2921727
0.3160043 0.3216155 0.3170623
0.3407307 0.3439679 0.3417404
0.3627222 0.3638940 0.3635689
0.3777113 0.3771664 0.3782732
0.3806773 0.3788077 0.3808721
0.3741158 0.3713290 0.3739326
0.3683653 0.3650329 0.3678563
0.3683810 0.3648190 0.3676479
0.3716088 0.3680771 0.3707770
0.3749192 0.3716150 0.3740990
0.3793633 0.3764174 0.3786174
0.3882381 0.3857246 0.3875788
0.4021056 0.4000560 0.4015101
0.4221858 0.4206005 0.4216007
0.4492262 0.4480856 0.4485798
0.4823894 0.4816606 0.4816049
0.5193767 0.5190183 0.5183842
0.5574018 0.5573670 0.5561436
0.5936844 0.5939262 0.5921138
0.6264305 0.6269077 0.6245089
0.6551112 0.6557884 0.6528064
0.6803392 0.6811859 0.6776241
0.7030865 0.7040772 0.6999384
0.7242513 0.7253663 0.7206523
0.7445355 0.7457601 0.7404726
0.7644198 0.7657455 0.7598854
0.7841841 0.7856081 0.7791754
0.1852757 0.2118319 0.1859963
0.2044680 0.2274360 0.2053131
0.2237971 0.2432428 0.2247722
0.2436411 0.2596877 0.2447466
0.2644587 0.2772682 0.2656795
0.2864782 0.2962405 0.2877752
0.3093458 0.3162765 0.3106549
0.3322367 0.3365836 0.3334724
0.3536272 0.3556730 0.3546953
0.3709164 0.3709904 0.3717293
0.3797138 0.3781929 0.3802121
0.3764516 0.3737460 0.3766241
0.3653287 0.3618391 0.3652084
0.3563036 0.3523844 0.3559514
0.3560120 0.3519572 0.3555005
0.3647682 0.3608103 0.3641672
0.3793901 0.3757000 0.3787517
0.3976497 0.3943427 0.3969977
0.4161768 0.4133213 0.4155144
0.4348083 0.4324342 0.4341150
0.4583715 0.4564776 0.4575959
0.4884867 0.4870510 0.4875654
0.5238604 0.5228477 0.5227309
0.5620526 0.5614194 0.5606595
0.5996702 0.5993697 0.5979667
0.6338293 0.6338164 0.6317752
0.6633795 0.6636133 0.6609397
0.6889955 0.6894400 0.6861389
0.7119169 0.7125422 0.7086167
0.7332121 0.7339948 0.7294459
0.7536378 0.7545608 0.7493896
0.7736781 0.7747315 0.7689381
0.7936043 0.7947850 0.7883686
0.1909321 0.2188044 0.1916730
0.2081498 0.2325568 0.2090657
0.2256015 0.2465746 0.2266883
0.2435839 0.2611903 0.2448255
0.2623753 0.2767180 0.2637381
0.2820571 0.2932719 0.2834895
0.3023084 0.3105664 0.3037428
0.3224355 0.3279532 0.3237943
0.3412792 0.3443189 0.3424871
0.3569531 0.3578280 0.3579458
0.3667574 0.3658272 0.3674908
0.3682530 0.3659111 0.3687096
0.3622866 0.3589314 0.3624768
0.3551899 0.3511922 0.3551433
0.3544459 0.3501282 0.3542017
0.3630756 0.3587031 0.3626756
0.3794364 0.3752157 0.3789172
0.4002654 0.3963476 0.3996511
0.4218038 0.4182912 0.4211058
0.4416062 0.4385578 0.4408220
0.4644454 0.4618818 0.4635430
0.4926867 0.4906016 0.4916189
0.5260949 0.5244633 0.5248106
0.5630979 0.5618831 0.5615487
0.6006767 0.5998355 0.5988187
0.6356611 0.6351485 0.6334551
0.6663349 0.6661072 0.6637449
0.6928946 0.6929116 0.6898874
0.7165335 0.7167609 0.7130788
0.7384239 0.7388345 0.7344964
0.7593939 0.7599680 0.7549742
0.7799609 0.7806872 0.7750373
0.8004105 0.8012847 0.7949784
0.1966755 0.2259294 0.1975108
0.2121217 0.2379852 0.2131300
0.2278637 0.2503486 0.2290373
0.2440722 0.2632128 0.2453891
0.2608690 0.2767298 0.2622915
0.2781794 0.2908592 0.2796564
0.2957061 0.3053457 0.2971770
0.3128584 0.3196469 0.3142591
0.3287286 0.3329084 0.3299993
0.3420449 0.3439100 0.3431356
0.3513985 0.3512890 0.3522727
0.3558686 0.3541570 0.3565048
0.3560568 0.3531267 0.3564498
0.3548915 0.3511128 0.3550494
0.3569989 0.3527082 0.3569395
0.3653543 0.3608405 0.3651005
0.3803488 0.3758475 0.3799235
0.3999684 0.3956622 0.3993902
0.4214362 0.4174564 0.4207154
0.4432912 0.4397227 0.4424264
0.4671491 0.4640367 0.4661221
0.4947234 0.4920794 0.4935026
0.5263983 0.5242118 0.5249462
0.5615144 0.5597589 0.5597914
0.5978751 0.5965141 0.5958435
0.6327996 0.6317913 0.6304235
0.6643850 0.6636859 0.6616297
0.6922152 0.6917835 0.6890471
0.7170394 0.7168377 0.7134266
0.7399300 0.7399276 0.7358449
0.7617580 0.7619333 0.7571793
0.7831092 0.7834493 0.7780237
0.8043192 0.8048188 0.7987215
0.2018938 0.2326120 0.2028656
0.2158782 0.2432452 0.2169904
0.2301450 0.2541649 0.2313886
0.2447685 0.2654598 0.2461223
0.2597533 0.2771583 0.2611833
0.2749403 0.2891355 0.2764024
0.2899970 0.3011013 0.2914418
0.3044689 0.3126502 0.3058454
0.3177480 0.3232266 0.3190086
0.3291260 0.3321747 0.3302300
0.3380767 0.3390129 0.3389919
0.3445011 0.3436742 0.3452050
0.3490065 0.3467806 0.3494860
0.3529924 0.3497275 0.3532442
0.3586957 0.3547296 0.3587243
0.3680475 0.3636811 0.3678628
0.3820129 0.3775017 0.3816266
0.4000015 0.3955515 0.3994238
0.4207101 0.4164776 0.4199456
0.4433035 0.4393982 0.4423489
0.4678768 0.4643661 0.4667197
0.4950995 0.4920156 0.4937190
0.5252061 0.5225550 0.5235760
0.5580940 0.5558618 0.5561844
0.5924670 0.5906263 0.5902472
0.6264353 0.6249499 0.6238742
0.6583149 0.6571447 0.6553811
0.6872856 0.6863897 0.6839467
0.7135069 0.7128469 0.7097315
0.7376999 0.7372438 0.7334598
0.7606579 0.7603824 0.7559310
0.7830136 0.7829046 0.7777858
0.8051768 0.8052284 0.7994424
0.2061807 0.2384397 0.2073123
0.2190785 0.2480077 0.2202996
0.2321447 0.2577461 0.2334478
0.2454260 0.2677120 0.2467937
0.2588619 0.2778652 0.2602671
0.2722683 0.2880527 0.2736765
0.2853362 0.2980055 0.2867089
0.2977410 0.3074455 0.2990386
0.3091638 0.3161034 0.3103485
0.3193168 0.3237408 0.3203550
0.3281371 0.3303373 0.3290006
0.3358809 0.3361816 0.3365481
0.3430675 0.3418110 0.3435237
0.3504331 0.3479640 0.3506704
0.3590026 0.3556512 0.3590188
0.3698804 0.3659495 0.3696769
0.3838228 0.3795774 0.3834028
0.4009622 0.3966244 0.4003280
0.4209526 0.4166988 0.4201031
0.4433525 0.4393130 0.4422816
0.4677875 0.4640507 0.4664843
0.4942635 0.4908816 0.4927126
0.5228375 0.5198334 0.5210199
0.5534603 0.5508347 0.5513541
0.5855122 0.5832487 0.5830934
0.6178672 0.6159381 0.6151104
0.6492816 0.6476521 0.6461592
0.6788484 0.6774810 0.6753312
0.7062757 0.7051336 0.7023342
0.7318386 0.7308902 0.7274458
0.7561026 0.7553244 0.7512370
0.7796589 0.7790364 0.7743067
0.8029657 0.8024928 0.7971211
0.2095135 0.2433799 0.2108106
0.2215672 0.2521203 0.2228951
0.2336908 0.2609328 0.2350441
0.2458919 0.2698345 0.2472580
0.2580864 0.2787593 0.2594453
0.2701078 0.2875686 0.2714342
0.2817417 0.2960838 0.2830067
0.2927877 0.3041470 0.2939612
0.3031035 0.3116610 0.3041559
0.3126542 0.3186355 0.3135582
0.3215837 0.3252545 0.3223158
0.3302470 0.3319053 0.3307885
0.3390514 0.3390146 0.3393889
0.3484359 0.3470283 0.3485612
0.3589212 0.3564598 0.3588298
0.3711281 0.3679099 0.3708175
0.3855680 0.3818600 0.3850361
0.4025250 0.3985577 0.4017685
0.4220070 0.4179697 0.4210203
0.4438240 0.4398638 0.4425987
0.4675605 0.4637844 0.4660853
0.4929535 0.4894314 0.4912151
0.5199035 0.5166752 0.5178867
0.5483423 0.5454232 0.5460305
0.5780175 0.5754036 0.5753920
0.6083765 0.6060501 0.6054166
0.6386510 0.6365852 0.6353338
0.6680840 0.6662467 0.6643841
0.6961859 0.6945445 0.6920772
0.7228735 0.7213992 0.7183317
0.7484176 0.7470879 0.7434229
0.7732618 0.7720628 0.7678015
0.7978353 0.7967614 0.7919041
0.2119095 0.2474406 0.2133646
0.2233008 0.2555379 0.2247264
0.2347074 0.2636543 0.2360999
0.2460998 0.2717693 0.2474507
0.2573922 0.2798140 0.2586878
0.2684630 0.2876917 0.2696855
0.2791846 0.2953069 0.2803133
0.2894592 0.3025987 0.2904718
0.2992499 0.3095704 0.3001239
0.3086537 0.3163586 0.3093680
0.3178843 0.3232143 0.3184206
0.3272562 0.3304816 0.3275999
0.3370855 0.3384971 0.3372264
0.3476836 0.3475821 0.3476152
0.3593678 0.3580522 0.3590864
0.3724951 0.3702504 0.3719972
0.3874229 0.3845115 0.3867044
0.4044186 0.4010722 0.4034737
0.4235654 0.4199803 0.4223862
0.4447257 0.4410610 0.4433021
0.4675378 0.4639146 0.4658582
0.4916984 0.4882028 0.4897499
0.5170254 0.5137125 0.5147945
0.5434358 0.5403350 0.5409085
0.5708558 0.5679762 0.5680170
0.5990953 0.5964303 0.5959280
0.6277812 0.6253129 0.6242664
0.6564137 0.6541176 0.6525302
0.6845234 0.6823730 0.6802493
0.7118436 0.7098144 0.7071580
0.7383894 0.7364619 0.7332752
0.7643958 0.7625578 0.7588422
0.7901738 0.7884203 0.7841762
0.2133720 0.2506168 0.2149683
0.2242944 0.2582722 0.2258022
0.2352032 0.2659186 0.2366205
0.2460516 0.2735191 0.2473730
0.2567694 0.2810197 0.2579861
0.2672802 0.2883667 0.2683802
0.2775235 0.2955270 0.2784924
0.2874758 0.3025099 0.2882980
0.2971753 0.3093880 0.2978348
0.3067473 0.3163226 0.3072292
0.3163932 0.3235469 0.3166845
0.3263616 0.3313375 0.3264525
0.3369134 0.3399748 0.3367974
0.3482973 0.3497196 0.3479712
0.3607372 0.3607971 0.3601991
0.3744649 0.3734311 0.3737128
0.3897344 0.3878587 0.3887648
0.4067406 0.4042500 0.4055477
0.4255445 0.4226370 0.4241203
0.4460205 0.4428613 0.4443548
0.4678839 0.4646047 0.4659651
0.4908349 0.4875347 0.4886503
0.5146618 0.5114087 0.5121987
0.5392764 0.5361130 0.5365219
0.5646866 0.5616346 0.5616274
0.5909011 0.5879651 0.5875228
0.6178237 0.6149960 0.6141105
0.6452128 0.6424779 0.6411473
0.6727387 0.6700771 0.6683031
0.7001083 0.6975015 0.6952857
0.7271784 0.7246110 0.7219552
0.7539804 0.7514424 0.7483476
0.7806518 0.7781392 0.7746058
0.2139699 0.2529693 0.2156840
0.2246155 0.2603840 0.2261851
0.2352350 0.2677779 0.2366592
0.2457844 0.2751170 0.2470601
0.2562140 0.2823677 0.2573358
0.2664855 0.2895117 0.2674458
0.2765850 0.2965602 0.2773746
0.2865369 0.3035657 0.2871459
0.2964134 0.3106306 0.2968316
0.3063354 0.3179058 0.3065536
0.3164659 0.3255827 0.3164766
0.3269961 0.3338772 0.3267943
0.3381334 0.3430156 0.3377170
0.3500827 0.3532149 0.3494518
0.3630307 0.3646655 0.3621863
0.3771537 0.3775395 0.3760962
0.3926218 0.3919950 0.3913501
0.4095565 0.4081351 0.4080668
0.4279807 0.4259584 0.4262665
0.4477830 0.4453268 0.4458355
0.4687383 0.4659859 0.4665469
0.4905794 0.4876383 0.4881322
0.5130957 0.5100454 0.5103804
0.5361967 0.5330914 0.5332011
0.5599170 0.5567895 0.5566289
0.5843572 0.5812234 0.5807638
0.6095847 0.6064476 0.6056727
0.6355571 0.6324103 0.6313124
0.6621093 0.6589413 0.6575176
0.6890105 0.6858091 0.6840590
0.7160553 0.7128100 0.7107336
0.7431222 0.7398257 0.7374235
0.7701772 0.7668266 0.7640988
0.2138250 0.2546109 0.2156290
0.2243694 0.2619699 0.2259766
0.2348888 0.2693092 0.2362989
0.2453498 0.2766055 0.2465614
0.2557233 0.2838450 0.2567336
0.2659981 0.2910354 0.2668028
0.2761898 0.2982148 0.2767840
0.2863471 0.3054560 0.2867256
0.2965505 0.3128652 0.2967082
0.3069067 0.3205748 0.3068397
0.3175449 0.3287390 0.3172508
0.3286134 0.3375270 0.3280921
0.3402748 0.3471189 0.3395283
0.3526950 0.3576915 0.3517270
0.3660319 0.3694082 0.3648466
0.3804270 0.3824087 0.3790280
0.3959944 0.3968000 0.3943836
0.4128021 0.4126363 0.4109787
0.4308446 0.4298927 0.4288050
0.4500235 0.4484494 0.4477613
0.4701590 0.4681012 0.4676655
0.4910310 0.4886027 0.4882959
0.5124526 0.5097417 0.5094649
0.5343358 0.5314054 0.5310841
0.5567150 0.5536084 0.5531879
0.5797158 0.5764596 0.5759020
0.6034811 0.6000880 0.5993691
0.6280887 0.6245618 0.6236670
0.6535030 0.6498391 0.6487608
0.6795792 0.6757723 0.6745069
0.7061109 0.7021549 0.7007010
0.7328914 0.7287819 0.7271392
0.7597598 0.7554947 0.7536632
0.2130811 0.2556735 0.2149438
0.2236787 0.2631398 0.2252966
0.2342586 0.2705935 0.2356316
0.2448004 0.2780240 0.2459281
0.2552920 0.2854335 0.2561736
0.2657408 0.2928475 0.2663749
0.2761779 0.3003166 0.2765631
0.2866587 0.3079170 0.2867936
0.2972597 0.3157470 0.2971437
0.3080732 0.3239217 0.3077069
0.3192058 0.3325684 0.3185919
0.3307769 0.3418246 0.3299195
0.3429152 0.3518335 0.3418203
0.3557539 0.3627386 0.3544287
0.3694214 0.3746736 0.3678733
0.3840272 0.3877495 0.3822631
0.3996490 0.4020394 0.3976742
0.4163202 0.4175669 0.4141375
0.4340188 0.4342958 0.4316278
0.4526601 0.4521236 0.4500577
0.4721025 0.4708886 0.4692828
0.4921739 0.4903974 0.4891291
0.5127239 0.5104771 0.5094449
0.5336751 0.5310288 0.5301519
0.5550516 0.5520578 0.5512744
0.5769684 0.5736629 0.5729273
0.5995810 0.5959859 0.5952664
0.6230165 0.6191437 0.6184192
0.6473134 0.6431676 0.6424253
0.6723939 0.6679749 0.6672081
0.6980794 0.6933851 0.6925908
0.7241359 0.7191644 0.7183413
0.7503385 0.7450886 0.7442366
0.2118876 0.2562913 0.2137758
0.2226652 0.2639999 0.2242651
0.2334326 0.2717033 0.2347442
0.2441812 0.2794024 0.2452047
0.2549137 0.2871128 0.2556496
