presets/film/film-kodak/look.cube
# film-kodak tuned
LUT_3D_SIZE 33
DOMAIN_MIN 0 0 0
DOMAIN_MAX 1 1 1
0.1325248 0.1373157 0.1289952
0.1747559 0.1627089 0.1327714
0.0851011 0.0828909 0.0580105
0.1050928 0.0870540 0.0516596
0.1265411 0.1055547 0.0787458
0.1357054 0.1306596 0.1102135
0.1359890 0.1385955 0.1161072
0.1420349 0.1406928 0.1169171
0.1432736 0.1366369 0.1147175
0.1512891 0.1313540 0.1074974
0.1641911 0.1267174 0.0927100
0.1665485 0.1042920 0.0552346
0.1866844 0.0850228 0.0259560
0.2205229 0.0785571 0.0192656
0.2524969 0.0652704 0.0077697
0.2783860 0.0513315 0.0044854
0.3053777 0.0476404 0.0041992
0.3332871 0.0450010 0.0042174
0.3776172 0.0502209 0.0197172
0.4289099 0.0502861 0.0297017
0.4684520 0.0463676 0.0322507
0.4958980 0.0454390 0.0361578
0.5342613 0.0414139 0.0325182
0.5881670 0.0315051 0.0245242
0.6203885 0.0184024 0.0179936
0.6363221 0.0102495 0.0171044
0.6729444 0.0077174 0.0178024
0.6976999 0.0086389 0.0165934
0.7194711 0.0094251 0.0186410
0.7518794 0.0032856 0.0211680
0.7790812 0.0024645 0.0184106
0.8061777 0.0014537 0.0151625
0.8568153 0.0001205 0.0272519
0.1213149 0.1350301 0.0967720
0.1269408 0.1426670 0.1089183
0.0897547 0.1107660 0.0872291
0.0801371 0.0938491 0.0461980
0.0909990 0.1000352 0.0757257
0.1102131 0.1167999 0.0957483
0.1197179 0.1229925 0.0990980
0.1281724 0.1191041 0.1016400
0.1343175 0.1271455 0.1197540
0.1361797 0.1217993 0.1173347
0.1492522 0.1212402 0.1114819
0.1584422 0.1135158 0.0858596
0.1712214 0.0981992 0.0560848
0.2044562 0.0950778 0.0438304
0.2303795 0.0870098 0.0291201
0.2566051 0.0813675 0.0224735
0.2775803 0.0778594 0.0224753
0.2977841 0.0740259 0.0252652
0.3228304 0.0743437 0.0316762
0.3499210 0.0723778 0.0354253
0.3772115 0.0663519 0.0342737
0.4051121 0.0629221 0.0325388
0.4393632 0.0592287 0.0309147
0.4838054 0.0542391 0.0276735
0.5174522 0.0462409 0.0227668
0.5468790 0.0370065 0.0183646
0.5879911 0.0297314 0.0162042
0.6373232 0.0289067 0.0155755
0.6748935 0.0236732 0.0162053
0.7168280 0.0178965 0.0171944
0.7549530 0.0045726 0.0173871
0.7909322 0.0020158 0.0188681
0.8341372 0.0014138 0.0269631
0.0617790 0.0772140 0.0595576
0.0649082 0.0830228 0.0450999
0.0582075 0.0723890 0.0379061
0.0773044 0.0894310 0.0459933
0.0862089 0.0988116 0.0793127
0.1116892 0.1174670 0.0935939
0.1257915 0.1226604 0.0908234
0.1249764 0.1213027 0.0882180
0.1218149 0.1228095 0.1011984
0.1251447 0.1164385 0.1012738
0.1344263 0.1122889 0.1006467
0.1389736 0.1054392 0.0823489
0.1467131 0.0958828 0.0586753
0.1798085 0.0972934 0.0493965
0.2110417 0.1026785 0.0440903
0.2407490 0.1016644 0.0390143
0.2636131 0.0985176 0.0370896
0.2856978 0.0974025 0.0408979
0.3110066 0.0965967 0.0443725
0.3278788 0.0923091 0.0446649
0.3451828 0.0862715 0.0411241
0.3604740 0.0782264 0.0357513
0.3793407 0.0714396 0.0312992
0.4165272 0.0685359 0.0306755
0.4542521 0.0653942 0.0293389
0.4913363 0.0602254 0.0264112
0.5359635 0.0523452 0.0230122
0.5879846 0.0466787 0.0201671
0.6333707 0.0381919 0.0182313
0.6761528 0.0307200 0.0174107
0.7188407 0.0223080 0.0188881
0.7628753 0.0119438 0.0220091
0.8118609 0.0059469 0.0287317
0.0763363 0.0828762 0.0683004
0.0704258 0.0820315 0.0663669
0.0674521 0.0755501 0.0698576
0.0884442 0.1001159 0.0788680
0.1082396 0.1214386 0.0998278
0.1269812 0.1371727 0.1097026
0.1423326 0.1484133 0.1047455
0.1413217 0.1419311 0.0904173
0.1285537 0.1347451 0.0975063
0.1200231 0.1195396 0.0958779
0.1228230 0.1037867 0.0887897
0.1303488 0.0975849 0.0728734
0.1309723 0.0898159 0.0578172
0.1509834 0.0894385 0.0482461
0.1819242 0.1039382 0.0476808
0.2236026 0.1122833 0.0482910
0.2588961 0.1150841 0.0495711
0.2889758 0.1186819 0.0545529
0.3122922 0.1167982 0.0562192
0.3248448 0.1117570 0.0540917
0.3428099 0.1066325 0.0490772
0.3463695 0.0943547 0.0408500
0.3417370 0.0797485 0.0317751
0.3582551 0.0722326 0.0297988
0.3912309 0.0711567 0.0318320
0.4361710 0.0716000 0.0315639
0.4899863 0.0675820 0.0286663
0.5491015 0.0626561 0.0252551
0.6015924 0.0548482 0.0223692
0.6442323 0.0457475 0.0203262
0.6958860 0.0332152 0.0205802
0.7449763 0.0214928 0.0240264
0.7960825 0.0137463 0.0323505
0.0930265 0.0878422 0.0683238
0.0937465 0.0813559 0.0730065
0.0967855 0.0769134 0.0753024
0.1040390 0.1029895 0.0825772
0.1353749 0.1324765 0.0957786
0.1482992 0.1520200 0.1137145
0.1625863 0.1640942 0.1066713
0.1737718 0.1522183 0.0613447
0.1547842 0.1359999 0.0484785
0.1094547 0.1131174 0.0587389
0.0938520 0.0887943 0.0579071
0.1304703 0.0972524 0.0630089
0.1441073 0.0950364 0.0595348
0.1481443 0.0905846 0.0501457
0.1563664 0.0948035 0.0416891
0.2018175 0.1080624 0.0499045
0.2526921 0.1220159 0.0579580
0.2943510 0.1343935 0.0645379
0.3206215 0.1369374 0.0663632
0.3372291 0.1333338 0.0635225
0.3588516 0.1292468 0.0566616
0.3708665 0.1197531 0.0460612
0.3645383 0.1040456 0.0366090
0.3455777 0.0819750 0.0294310
0.3516328 0.0704415 0.0278958
0.4044413 0.0752656 0.0309922
0.4577149 0.0757164 0.0299986
0.5179061 0.0732104 0.0270714
0.5755360 0.0672011 0.0242907
0.6325123 0.0579791 0.0222847
0.6917128 0.0413270 0.0215949
0.7478130 0.0271878 0.0248327
0.8158048 0.0168227 0.0329700
0.0560007 0.0900246 0.0418740
0.0677682 0.0748559 0.0659349
0.0640465 0.0611560 0.0695616
0.0809937 0.0732453 0.0687880
0.1139283 0.1009305 0.0713695
0.1282932 0.1210163 0.0761945
0.1279125 0.1250237 0.0577671
0.1518364 0.1209328 0.0132259
0.1579119 0.1089868 0.0113694
0.1418200 0.1052071 0.0105769
0.1282118 0.1033369 0.0289733
0.1181629 0.0980617 0.0643608
0.1423007 0.1044108 0.0675145
0.1729994 0.1058322 0.0593362
0.1794048 0.1014412 0.0468118
0.1933445 0.1012365 0.0489082
0.2377112 0.1123719 0.0557147
0.2926153 0.1368685 0.0682478
0.3291824 0.1504933 0.0750611
0.3533386 0.1544069 0.0728619
0.3867656 0.1587713 0.0684351
0.4137486 0.1552386 0.0562613
0.4221871 0.1459268 0.0489578
0.3900954 0.1161659 0.0400247
0.3731123 0.0941430 0.0325283
0.4062628 0.0905958 0.0326642
0.4454683 0.0902564 0.0315577
0.4899961 0.0849861 0.0281286
0.5390256 0.0764643 0.0233409
0.6071454 0.0659852 0.0202663
0.6770259 0.0477930 0.0193529
0.7466198 0.0317052 0.0224639
0.8306236 0.0186207 0.0308710
0.0252053 0.0784895 0.0208368
0.0235815 0.0750865 0.0412918
0.0257228 0.0516312 0.0564853
0.0347877 0.0391122 0.0567623
0.0498878 0.0472494 0.0510898
0.0720393 0.0705865 0.0358682
0.0739331 0.0799129 0.0150815
0.1093406 0.1072253 0.0100895
0.1374605 0.1128441 0.0094763
0.1414980 0.1006380 0.0089901
0.1556898 0.1064687 0.0092581
0.1259888 0.0996827 0.0370920
0.1180432 0.0972107 0.0641522
0.1675161 0.1169479 0.0731665
0.1960249 0.1097251 0.0534804
0.2082867 0.1056934 0.0542421
0.2298293 0.1081818 0.0583933
0.2557993 0.1145000 0.0598642
0.2970458 0.1368291 0.0714685
0.3401592 0.1601024 0.0780827
0.3841984 0.1774093 0.0787971
0.4101277 0.1742388 0.0691659
0.4349416 0.1711949 0.0629174
0.4336510 0.1541218 0.0531449
0.4229975 0.1330947 0.0433291
0.4388702 0.1240019 0.0390822
0.4612408 0.1118462 0.0325493
0.4899454 0.1029737 0.0292374
0.5125007 0.0933969 0.0233662
0.5814685 0.0813411 0.0172632
0.6589303 0.0604884 0.0137653
0.7344366 0.0415147 0.0160279
0.8300558 0.0242578 0.0245512
0.0113824 0.0719948 0.0086076
0.0115615 0.0914225 0.0127370
0.0263559 0.0777817 0.0411507
0.0399338 0.0618278 0.0563257
0.0475689 0.0499984 0.0555988
0.0542816 0.0529095 0.0359378
0.0716329 0.0751338 0.0208141
0.0780682 0.0865907 0.0118593
0.1035208 0.1105555 0.0088182
0.1245272 0.1101540 0.0076550
0.1449030 0.1076383 0.0092021
0.1948362 0.1442785 0.0137881
0.1686600 0.1352611 0.0754611
0.1585249 0.1201576 0.0867435
0.1985300 0.1260973 0.0776513
0.2043844 0.1201556 0.0747027
0.2330096 0.1185261 0.0720816
0.2518276 0.1108754 0.0618370
0.2524508 0.1081452 0.0638396
0.3009820 0.1311107 0.0701546
0.3555785 0.1580828 0.0751853
0.3863107 0.1694196 0.0768965
0.4151568 0.1757751 0.0745951
0.4457897 0.1780510 0.0634842
0.4615650 0.1732152 0.0512264
0.4831925 0.1709409 0.0479646
0.5014542 0.1526867 0.0389767
0.5236718 0.1385775 0.0362520
0.5469593 0.1250047 0.0283972
0.5980903 0.1096921 0.0200071
0.6674646 0.0840783 0.0122589
0.7429876 0.0600468 0.0134728
0.8418820 0.0352487 0.0204187
0.0075579 0.0909069 0.0049002
0.0083085 0.1149599 0.0059405
0.0239331 0.0986987 0.0239206
0.0382871 0.0791642 0.0443232
0.0564226 0.0739322 0.0582401
0.0720747 0.0818200 0.0542334
0.0815449 0.0918199 0.0397438
0.0955420 0.1065214 0.0145351
0.0999855 0.1115638 0.0080850
0.1405164 0.1457615 0.0086069
0.2248218 0.2001164 0.0131139
0.2828998 0.2214433 0.0179790
0.3184815 0.2394757 0.0839266
0.2819634 0.2144484 0.1347538
0.2478744 0.1833743 0.1251162
0.2248530 0.1531769 0.1012768
0.2383269 0.1417259 0.0881326
0.2676108 0.1370308 0.0815890
0.2924027 0.1315429 0.0730871
0.3223494 0.1345629 0.0749590
0.3581434 0.1426646 0.0713597
0.3764031 0.1477051 0.0667445
0.4020724 0.1615661 0.0713157
0.4367205 0.1774340 0.0670599
0.4672720 0.1872980 0.0567531
0.5009164 0.1992331 0.0558554
0.5291976 0.1956289 0.0475906
0.5591537 0.1940085 0.0478384
0.5853248 0.1796497 0.0419367
0.6239881 0.1622173 0.0337764
0.6764999 0.1247268 0.0169308
0.7498264 0.0926281 0.0133836
0.8494681 0.0559042 0.0110841
0.0031429 0.1240676 0.0009094
0.0139831 0.1486752 0.0030368
0.0300973 0.1345911 0.0124542
0.0376328 0.1090081 0.0263714
0.0437248 0.0864222 0.0364327
0.0620491 0.0877806 0.0450732
0.0831745 0.1075189 0.0500712
0.1021287 0.1272111 0.0409654
0.1229401 0.1443187 0.0203324
0.1272241 0.1418672 0.0141182
0.2073582 0.2072137 0.0391043
0.3648203 0.3169831 0.0937715
0.3957425 0.3110520 0.0735236
0.3893408 0.3003755 0.1146778
0.3402722 0.2645605 0.1481811
0.2860256 0.2127725 0.1404354
0.2530284 0.1735909 0.1215459
0.2544066 0.1533044 0.1040421
0.2778641 0.1458732 0.0862544
0.3290344 0.1499289 0.0651482
0.3810867 0.1571767 0.0548461
0.4127246 0.1623761 0.0594819
0.4170809 0.1589747 0.0596382
0.4516353 0.1759555 0.0657435
0.4858069 0.1893699 0.0608945
0.4956397 0.1927536 0.0515474
0.5130710 0.1946202 0.0415884
0.5577964 0.2229732 0.0571366
0.5969969 0.2331173 0.0610951
0.6381505 0.2340569 0.0606371
0.6779139 0.1915497 0.0380114
0.7431597 0.1473686 0.0230511
0.8419448 0.0973571 0.0070993
0.0000000 0.1607697 0.0000000
0.0272316 0.1892269 0.0007395
0.0440196 0.1788351 0.0106070
0.0518395 0.1577020 0.0202473
0.0555846 0.1324305 0.0279823
0.0681450 0.1206088 0.0427375
0.0833410 0.1219405 0.0532109
0.1002720 0.1350794 0.0554522
0.1213166 0.1530933 0.0497827
0.1497927 0.1727287 0.0425596
0.1718914 0.1838944 0.0375654
0.2563955 0.2469406 0.0813151
0.3637173 0.3211254 0.1175170
0.4226734 0.3516351 0.1130502
0.4178730 0.3382740 0.1447657
0.3550070 0.2752039 0.1533798
0.3033090 0.2159368 0.1223177
0.2956945 0.1982546 0.1268601
0.2943689 0.1822622 0.1208805
0.3167529 0.1728842 0.0984074
0.3458665 0.1721662 0.0822374
0.4111446 0.1825606 0.0618582
0.4640952 0.1878281 0.0473255
0.4929154 0.1928603 0.0482545
0.5011293 0.1895576 0.0483230
0.5209462 0.1952759 0.0444337
0.5078774 0.1855326 0.0316901
0.5401485 0.2096052 0.0464482
0.5814252 0.2291861 0.0535663
0.6267432 0.2513345 0.0596650
0.6704462 0.2492508 0.0583558
0.7227018 0.2230283 0.0506457
0.8248627 0.1817065 0.0306519
0.0000000 0.2000197 0.0000000
0.0462024 0.2335731 0.0080098
0.0667092 0.2291381 0.0238977
0.0776967 0.2133897 0.0337294
0.0849991 0.1909956 0.0420967
0.0966149 0.1746741 0.0563423
0.1223534 0.1778776 0.0768106
0.1634359 0.2063832 0.0983352
0.1673428 0.2065354 0.0865531
0.1600851 0.1934240 0.0565473
0.1742524 0.1932247 0.0471019
0.2055663 0.2106917 0.0598300
0.2692257 0.2615069 0.0941484
0.3837635 0.3510263 0.1396350
0.4432122 0.3833316 0.1546550
0.4351258 0.3603625 0.1800165
0.3675242 0.2850864 0.1549226
0.3257699 0.2303751 0.1164006
0.3460343 0.2335281 0.1385011
0.3537855 0.2186145 0.1259329
0.3587981 0.1980144 0.0929651
0.4098667 0.2016213 0.0598263
0.4626999 0.2083352 0.0456289
0.5214795 0.2211344 0.0494762
0.5684320 0.2281869 0.0301287
0.6452126 0.2483449 0.0377143
0.5752032 0.2140936 0.0287233
0.5371138 0.2050124 0.0426475
0.5738818 0.2222114 0.0457721
0.6145428 0.2366691 0.0446355
0.6517122 0.2444389 0.0460679
0.6966030 0.2597102 0.0621513
0.7997759 0.2733198 0.0744381
0.0167429 0.2525864 0.0000000
0.0654388 0.2792535 0.0251615
0.0896006 0.2800115 0.0407684
0.1060724 0.2699997 0.0525777
0.1191492 0.2530351 0.0658224
0.1345923 0.2354927 0.0826116
0.1570126 0.2291479 0.0993379
0.2071735 0.2607334 0.1287567
0.2519532 0.2994607 0.1441505
0.2498765 0.2948923 0.1165187
0.2209536 0.2536517 0.0816753
0.2075009 0.2246483 0.0662968
0.2233298 0.2289972 0.0703278
0.2931170 0.2862490 0.0939129
0.3707168 0.3456308 0.1209490
0.4034495 0.3586795 0.1553970
0.4027496 0.3390783 0.1766065
0.3800792 0.2946735 0.1344804
0.3646714 0.2587953 0.1109087
0.3860290 0.2564762 0.1301537
0.3964026 0.2455581 0.1226790
0.4060491 0.2283622 0.0780830
0.4403153 0.2285978 0.0451411
0.4793529 0.2374038 0.0804982
0.5218764 0.2437470 0.0598826
0.6359544 0.2587277 0.0155952
0.6740209 0.2737266 0.0316697
0.5547106 0.2215621 0.0474443
0.5705074 0.2243357 0.0398861
0.6220538 0.2392913 0.0341006
0.6674720 0.2515181 0.0338289
0.6930477 0.2611586 0.0424505
0.7744182 0.3151464 0.0877955
0.0413358 0.3038588 0.0148873
0.0814070 0.3246183 0.0389619
0.1043983 0.3252231 0.0507846
0.1243711 0.3178515 0.0642357
0.1437531 0.3065806 0.0824277
0.1634925 0.2915520 0.1032669
0.1826348 0.2743474 0.1198896
0.2133516 0.2781080 0.1390086
0.2572509 0.3071191 0.1557181
0.2993064 0.3463790 0.1562185
0.3044324 0.3494249 0.1377781
0.2706992 0.3052348 0.1059844
0.2424492 0.2633359 0.0790432
0.2528607 0.2623409 0.0764808
0.2944114 0.2924923 0.0845613
0.3428941 0.3246299 0.1052900
0.3898695 0.3492618 0.1376928
0.4069593 0.3404128 0.1502781
0.3965482 0.3065277 0.1290207
0.3979469 0.2796782 0.1031149
0.4106509 0.2693912 0.0989145
0.4440270 0.2806116 0.1121261
0.4562488 0.2730053 0.0764410
0.4703252 0.2660321 0.0768472
0.5020794 0.2731341 0.0971165
0.5382154 0.2649390 0.0352189
0.6799501 0.3201583 0.0355416
0.6356178 0.2922255 0.0519390
0.6267553 0.2684577 0.0341641
0.6378799 0.2533553 0.0142958
0.7055194 0.2794696 0.0221028
0.7142379 0.2816583 0.0323284
0.7640481 0.3079203 0.0580724
0.0550686 0.3472582 0.0267559
0.0880331 0.3617232 0.0427349
0.1125939 0.3643202 0.0534163
0.1338213 0.3584918 0.0660192
0.1550881 0.3496787 0.0841287
0.1746933 0.3342154 0.1048106
0.1911541 0.3124067 0.1237751
0.2137539 0.2991225 0.1425245
0.2442970 0.3043887 0.1546871
0.2860495 0.3373060 0.1613666
0.3195699 0.3684370 0.1584607
0.3339904 0.3799777 0.1475482
0.3210858 0.3630597 0.1164759
0.2998152 0.3303004 0.0886549
0.2949796 0.3104489 0.0753895
0.3237636 0.3242963 0.0812285
0.3609123 0.3424567 0.0974332
0.3916333 0.3496333 0.1102516
0.4180840 0.3487230 0.1104332
0.4425049 0.3424577 0.0901158
0.4419616 0.3170954 0.0719090
0.4597602 0.3108348 0.0927441
0.4959371 0.3256539 0.0889204
0.5127082 0.3252208 0.0739138
0.5281214 0.3178710 0.1031414
0.5811869 0.3092138 0.0703709
0.6479276 0.3168779 0.0132645
0.6548495 0.3262755 0.0454702
0.6988304 0.3276993 0.0547946
0.7322432 0.3129942 0.0217914
0.8027310 0.3402940 0.0141529
0.7414094 0.3080022 0.0320215
0.7688603 0.3081804 0.0410326
0.0603541 0.3853918 0.0283177
0.0898300 0.3958123 0.0395878
0.1139096 0.3978368 0.0483618
0.1351060 0.3926191 0.0592671
0.1555845 0.3831608 0.0742429
0.1752080 0.3682420 0.0940297
0.1918926 0.3471792 0.1153515
0.2082554 0.3227383 0.1350352
0.2247846 0.3068277 0.1470697
0.2525025 0.3152034 0.1495249
0.2916153 0.3485351 0.1512624
0.3236791 0.3770187 0.1427282
0.3499111 0.4020681 0.1288749
0.3475583 0.3981648 0.1074690
0.3397258 0.3778097 0.0946346
0.3378269 0.3565728 0.0952652
0.3656303 0.3649869 0.1019607
0.3975781 0.3739432 0.0971437
0.4345223 0.3911311 0.0913196
0.4673045 0.3965536 0.0767618
0.4909741 0.3890911 0.0691314
0.4958897 0.3685784 0.0831122
0.5196950 0.3659955 0.0971588
0.5520999 0.3781501 0.0855743
0.5670904 0.3742413 0.0903584
0.6125148 0.3592075 0.1158745
0.6275543 0.3333370 0.0855801
0.6164517 0.3345138 0.0671734
0.6058068 0.3245577 0.1067760
0.6274236 0.3236954 0.1182627
0.6598699 0.3260673 0.0879017
0.7203203 0.3273744 0.0608934
0.7736909 0.3249788 0.0454475
0.0606045 0.4191389 0.0249479
0.0887577 0.4279357 0.0331156
0.1123183 0.4293769 0.0404921
0.1331314 0.4243946 0.0490829
0.1535124 0.4156854 0.0610330
0.1722946 0.4010343 0.0774549
0.1898238 0.3818359 0.0979352
0.2053956 0.3564216 0.1197455
0.2186030 0.3310637 0.1366998
0.2368514 0.3200104 0.1441122
0.2637379 0.3374270 0.1430814
0.2922939 0.3619160 0.1363860
0.3269102 0.3955773 0.1300109
0.3453613 0.4100150 0.1153638
0.3586463 0.4155434 0.1112840
0.3719893 0.4086829 0.1171047
0.3913640 0.4038017 0.1288141
0.4185339 0.4109233 0.1195976
0.4479100 0.4261006 0.1031205
0.4773700 0.4389573 0.0791618
0.5056980 0.4392068 0.0805754
0.5297132 0.4318088 0.0960238
0.5510313 0.4220632 0.1133970
0.5825048 0.4284514 0.0881854
0.5942222 0.4208804 0.1066586
0.6135966 0.4195467 0.0953105
0.6220097 0.3982258 0.0799102
0.6239281 0.3733815 0.0701274
0.6292055 0.3581100 0.0827424
0.6489387 0.3596032 0.1244303
0.6836987 0.3650149 0.1216730
0.7403325 0.3719655 0.1033632
0.7941546 0.3576740 0.0611778
0.0619147 0.4533321 0.0211666
0.0877966 0.4596885 0.0263081
0.1111180 0.4610685 0.0316628
0.1322525 0.4572057 0.0381019
0.1537511 0.4511781 0.0485879
0.1736381 0.4398014 0.0625882
0.1918333 0.4232733 0.0806135
0.2074451 0.4004382 0.1017913
0.2176704 0.3699063 0.1203764
0.2334604 0.3487325 0.1397536
0.2607666 0.3533430 0.1594750
0.2788500 0.3669069 0.1504645
0.2979767 0.3863513 0.1350466
0.3240841 0.4071666 0.1284483
0.3483490 0.4224913 0.1260354
0.3761659 0.4323062 0.1297596
0.3992322 0.4339555 0.1410424
0.4234601 0.4351860 0.1436039
0.4518920 0.4464524 0.1232415
0.4830406 0.4635362 0.1061499
0.5217908 0.4819548 0.1018164
0.5440036 0.4792871 0.1023822
0.5677349 0.4697830 0.1170452
0.6007475 0.4685472 0.0939232
0.6170905 0.4615347 0.1002784
0.6356307 0.4565467 0.1161244
0.6556080 0.4507638 0.0972942
0.6648480 0.4299492 0.0580955
0.6755218 0.4073061 0.0565339
0.6782428 0.3976860 0.0869106
0.7063366 0.3970529 0.1212619
0.7658598 0.4051182 0.1282807
0.8221059 0.3949710 0.0870857
0.0624446 0.4865603 0.0169512
0.0867906 0.4910496 0.0196452
0.1100290 0.4924880 0.0232488
0.1319914 0.4902538 0.0284771
0.1539834 0.4860678 0.0369477
0.1743895 0.4772019 0.0482442
0.1924464 0.4625102 0.0622467
0.2089089 0.4429938 0.0802753
0.2198965 0.4163592 0.0973600
0.2304663 0.3893325 0.1162425
0.2484850 0.3748695 0.1422927
0.2699619 0.3779775 0.1565175
0.2960956 0.4008511 0.1555399
0.3161497 0.4171814 0.1444644
0.3460823 0.4355194 0.1439020
0.3733138 0.4453929 0.1422169
0.3991483 0.4552500 0.1492807
0.4238081 0.4587536 0.1489539
0.4456485 0.4601587 0.1368030
0.4854945 0.4844820 0.1219109
0.5205291 0.5018623 0.1034636
0.5482418 0.5127890 0.1016412
0.5749379 0.5118558 0.1260465
0.6085863 0.5098582 0.1272716
0.6390287 0.5119601 0.1152422
0.6585253 0.5032209 0.1260925
0.6848062 0.4994549 0.1190090
0.7074701 0.4863761 0.0920972
0.7160523 0.4599343 0.0446663
0.7116245 0.4436986 0.0475389
0.7387043 0.4385607 0.0787728
0.8046807 0.4381149 0.1206658
0.8590854 0.4303784 0.0918118
0.0639817 0.5199568 0.0140278
0.0874058 0.5232160 0.0146031
0.1106534 0.5248085 0.0168920
0.1330774 0.5238938 0.0209217
0.1551654 0.5208451 0.0271738
0.1759038 0.5140065 0.0356152
0.1950220 0.5029990 0.0464254
0.2122584 0.4872948 0.0602175
0.2266609 0.4665871 0.0762721
0.2373538 0.4406462 0.0931093
0.2453669 0.4125307 0.1100018
0.2581650 0.3965314 0.1230561
0.2833053 0.4084588 0.1355242
0.3089165 0.4255429 0.1416087
0.3396202 0.4458447 0.1489158
0.3645711 0.4548659 0.1471346
0.3934048 0.4675770 0.1516208
0.4221454 0.4777269 0.1509494
0.4461269 0.4796689 0.1421240
0.4740878 0.4873922 0.1358065
0.5121520 0.5078327 0.1249202
0.5449656 0.5278715 0.1329766
0.5795248 0.5452383 0.1425245
0.6145515 0.5541922 0.1131575
0.6460381 0.5578529 0.1136535
0.6685208 0.5468841 0.1240247
0.6949813 0.5374842 0.1384025
0.7252731 0.5315660 0.1189671
0.7413493 0.5284152 0.0577565
0.7437545 0.4968349 0.0393971
0.7627291 0.4845357 0.0235247
0.8135526 0.4818725 0.0414416
0.8742997 0.4745287 0.0435756
0.0656189 0.5522316 0.0107460
0.0888717 0.5550270 0.0107366
0.1120946 0.5567794 0.0121503
0.1348878 0.5568738 0.0149477
0.1573330 0.5552127 0.0194503
0.1789813 0.5509089 0.0258902
0.1992181 0.5432418 0.0343268
0.2182482 0.5323153 0.0451721
0.2345457 0.5164719 0.0579612
0.2470299 0.4946090 0.0713897
0.2538865 0.4655043 0.0839106
0.2630082 0.4396496 0.0998806
0.2864960 0.4355227 0.1253152
0.3117531 0.4446943 0.1372603
0.3328205 0.4549375 0.1370038
0.3518496 0.4603242 0.1349133
0.3864207 0.4794416 0.1459341
0.4187323 0.4931269 0.1487932
0.4454934 0.4983166 0.1423681
0.4667923 0.5004669 0.1357315
0.4951636 0.5096887 0.1315785
0.5374212 0.5378994 0.1392608
0.5747874 0.5612822 0.1565792
0.6100732 0.5787562 0.1469486
0.6441014 0.5910930 0.1329768
0.6713283 0.5908146 0.1268123
0.7067326 0.5868733 0.1506655
0.7350343 0.5692125 0.1572177
0.7598480 0.5755270 0.0938235
0.7734235 0.5493720 0.0584459
0.7884942 0.5313799 0.0254410
0.8179550 0.5273473 0.0000000
0.8736357 0.5260817 0.0000000
0.0676555 0.5833747 0.0082266
0.0910603 0.5863527 0.0079443
0.1144122 0.5884977 0.0087057
0.1375038 0.5894745 0.0105656
0.1603272 0.5890775 0.0137617
0.1825640 0.5866826 0.0184281
0.2038782 0.5819223 0.0247411
0.2239426 0.5742534 0.0328727
0.2420291 0.5628394 0.0427022
0.2576217 0.5471672 0.0539447
0.2693121 0.5261267 0.0659480
0.2786924 0.5018127 0.0803237
0.2912227 0.4809492 0.1010826
0.3107496 0.4728264 0.1211074
0.3337556 0.4779516 0.1275531
0.3522588 0.4823180 0.1233909
0.3799314 0.4931517 0.1295511
0.4121497 0.5064550 0.1364249
0.4355056 0.5101480 0.1287285
0.4592686 0.5154990 0.1208152
0.4901870 0.5285343 0.1206035
0.5241618 0.5460249 0.1262450
0.5721447 0.5793878 0.1366289
0.6092785 0.6010081 0.1449491
0.6467717 0.6208460 0.1423093
0.6825108 0.6370205 0.1153620
0.7162981 0.6285420 0.1535331
0.7375370 0.6090596 0.2080690
0.7702592 0.6087429 0.1621693
0.7916528 0.5984590 0.0883529
0.8121889 0.5831970 0.0337514
0.8454148 0.5800835 0.0000000
0.8820086 0.5764154 0.0000000
0.0704032 0.6140243 0.0068213
0.0936910 0.6171084 0.0061004
0.1170823 0.6196270 0.0063089
0.1403884 0.6213524 0.0074238
0.1635020 0.6219933 0.0095466
0.1862170 0.6211401 0.0127935
0.2082711 0.6185319 0.0173192
0.2293839 0.6136692 0.0232702
0.2492018 0.6061464 0.0307472
0.2672870 0.5955404 0.0396424
0.2829312 0.5812478 0.0497178
0.2962018 0.5635990 0.0607815
0.3074410 0.5438734 0.0723042
0.3184666 0.5257357 0.0818985
0.3318936 0.5142214 0.0880327
0.3475635 0.5100008 0.0864937
0.3754014 0.5188828 0.0931480
0.4063779 0.5304988 0.1026367
0.4348659 0.5375806 0.1039347
0.4643680 0.5485203 0.1016918
0.4957031 0.5612320 0.1013580
0.5283446 0.5763004 0.1066912
0.5661883 0.5971178 0.1218733
0.6171353 0.6324125 0.1406607
0.6538504 0.6520781 0.1609376
0.7046345 0.6842372 0.1994136
0.7229049 0.6698395 0.1986105
0.7389145 0.6493544 0.2209345
0.7788287 0.6503217 0.2001230
0.8056691 0.6440668 0.1147335
0.8304427 0.6355115 0.0299095
0.8703818 0.6370547 0.0000000
0.9033810 0.6227437 0.0000000
0.0736184 0.6439295 0.0060048
0.0967012 0.6474600 0.0049080
0.1201084 0.6503909 0.0046654
0.1435597 0.6527228 0.0051968
0.1669065 0.6541899 0.0065070
0.1899965 0.6545484 0.0086639
0.2126163 0.6535955 0.0117793
0.2345684 0.6509497 0.0159916
0.2556323 0.6463732 0.0213680
0.2755331 0.6395880 0.0278962
0.2939909 0.6304033 0.0354302
0.3108460 0.6188953 0.0435633
0.3257788 0.6052281 0.0512803
0.3392682 0.5909337 0.0572503
0.3513628 0.5768967 0.0594321
0.3652766 0.5668996 0.0581039
0.3874234 0.5671240 0.0616695
0.4145135 0.5735291 0.0680479
0.4428220 0.5800236 0.0715818
0.4751561 0.5916153 0.0753010
0.5077951 0.6040987 0.0801203
0.5420087 0.6185406 0.0893921
0.5811743 0.6387367 0.1100270
0.6237291 0.6634931 0.1404150
0.6898859 0.7140506 0.1924694
0.7489897 0.7549316 0.2688358
0.7270090 0.7008062 0.2232825
0.7460900 0.6881449 0.2062385
0.7868146 0.6946616 0.1653644
0.8217882 0.6957115 0.0887413
0.8520462 0.6919404 0.0143319
0.8844182 0.6843839 0.0000000
0.9247343 0.6693941 0.0000000
0.0770407 0.6738079 0.0061563
0.0997838 0.6774974 0.0041580
0.1231711 0.6807217 0.0035256
0.1467083 0.6835085 0.0036386
0.1702575 0.6856329 0.0043685
