presets/film/film-kodak/look.cube
# film-kodak tuned
LUT_3D_SIZE 9
DOMAIN_MIN 0 0 0
DOMAIN_MAX 1 1 1
0.1325248 0.1373157 0.1289952
0.1265411 0.1055547 0.0787458
0.1432736 0.1366369 0.1147175
0.1866844 0.0850228 0.0259560
0.3053777 0.0476404 0.0041992
0.4684520 0.0463676 0.0322507
0.6203885 0.0184024 0.0179936
0.7194711 0.0094251 0.0186410
0.8568153 0.0001205 0.0272519
0.0930265 0.0878422 0.0683238
0.1353749 0.1324765 0.0957786
0.1547842 0.1359999 0.0484785
0.1441073 0.0950364 0.0595348
0.2526921 0.1220159 0.0579580
0.3588516 0.1292468 0.0566616
0.3516328 0.0704415 0.0278958
0.5755360 0.0672011 0.0242907
0.8158048 0.0168227 0.0329700
0.0075579 0.0909069 0.0049002
0.0564226 0.0739322 0.0582401
0.0999855 0.1115638 0.0080850
0.3184815 0.2394757 0.0839266
0.2383269 0.1417259 0.0881326
0.3581434 0.1426646 0.0713597
0.4672720 0.1872980 0.0567531
0.5853248 0.1796497 0.0419367
0.8494681 0.0559042 0.0110841
0.0167429 0.2525864 0.0000000
0.1191492 0.2530351 0.0658224
0.2519532 0.2994607 0.1441505
0.2233298 0.2289972 0.0703278
0.4027496 0.3390783 0.1766065
0.3964026 0.2455581 0.1226790
0.5218764 0.2437470 0.0598826
0.5705074 0.2243357 0.0398861
0.7744182 0.3151464 0.0877955
0.0606045 0.4191389 0.0249479
0.1535124 0.4156854 0.0610330
0.2186030 0.3310637 0.1366998
0.3269102 0.3955773 0.1300109
0.3913640 0.4038017 0.1288141
0.5056980 0.4392068 0.0805754
0.5942222 0.4208804 0.1066586
0.6292055 0.3581100 0.0827424
0.7941546 0.3576740 0.0611778
0.0656189 0.5522316 0.0107460
0.1573330 0.5552127 0.0194503
0.2345457 0.5164719 0.0579612
0.2864960 0.4355227 0.1253152
0.3864207 0.4794416 0.1459341
0.4951636 0.5096887 0.1315785
0.6441014 0.5910930 0.1329768
0.7598480 0.5755270 0.0938235
0.8736357 0.5260817 0.0000000
0.0770407 0.6738079 0.0061563
0.1702575 0.6856329 0.0043685
0.2613985 0.6840435 0.0143092
0.3405616 0.6590933 0.0350450
0.4116246 0.6295934 0.0428618
0.5237694 0.6518877 0.0604094
0.7239555 0.7756050 0.2018930
0.7975173 0.7340312 0.1341531
0.9480768 0.7385510 0.0000000
0.0878995 0.7920193 0.0016477
0.1831670 0.8068621 0.0007956
0.2792111 0.8174285 0.0019625
0.3736670 0.8212580 0.0049015
0.4683509 0.8202782 0.0073953
0.5706796 0.8222259 0.0150095
0.6842673 0.8312801 0.0423773
0.8101393 0.8501544 0.0871628
0.9636210 0.8973399 0.1347315
0.0991458 0.9082589 0.0003530
0.1949849 0.9234351 0.0001862
0.2919074 0.9364356 0.0002131
0.3889922 0.9462848 0.0005039
0.4867204 0.9520286 0.0009580
0.5870349 0.9538514 0.0034628
0.6924879 0.9540802 0.0151777
0.8108893 0.9633405 0.0532389
0.9251785 0.9651445 0.0849933
0.0500133 0.0597912 0.1004218
0.0352988 0.0586874 0.0784184
0.1129026 0.0565282 0.0760182
0.2230353 0.0296398 0.0169616
0.4069689 0.0658936 0.0330937
0.6507775 0.0862140 0.0570671
0.7434202 0.0840159 0.0472829
0.7715434 0.0342772 0.0164692
0.8900698 0.0551458 0.0328708
0.0872389 0.0947767 0.0581139
0.0220147 0.0241176 0.0221966
0.0915974 0.0971909 0.1296422
0.1051472 0.0596869 0.0508868
0.2928329 0.1032721 0.0753201
0.4250115 0.1094395 0.0852434
0.5594172 0.1118497 0.0733150
0.7056232 0.1232677 0.0660477
0.8021668 0.1052244 0.0677322
0.0124631 0.0886664 0.0307604
0.1130744 0.1438551 0.1194977
0.1002172 0.1328559 0.0997080
0.2742403 0.2257840 0.1685118
0.2534795 0.1502853 0.1330265
0.3008179 0.1454573 0.1149550
0.4871227 0.1734864 0.1015151
0.6664106 0.1865726 0.0774699
0.8038488 0.1592314 0.0716958
0.0139168 0.2460165 0.0433514
0.1494175 0.2747267 0.1410018
0.2672882 0.3222633 0.2010655
0.2913932 0.3096524 0.1595665
0.5364412 0.4332892 0.1389873
0.3668680 0.2283520 0.1437984
0.5129104 0.2529755 0.1325652
0.6282363 0.2504524 0.1326903
0.7953954 0.2878190 0.1248428
0.0184536 0.3988468 0.0539345
0.1543187 0.4157102 0.1294124
0.2459773 0.4027848 0.1705619
0.3468088 0.4146936 0.1910128
0.3773929 0.4054041 0.1847201
0.4640068 0.3942098 0.2105201
0.5585288 0.3816758 0.1961312
0.6285755 0.3610625 0.1918299
0.8595964 0.3271013 0.1030071
0.0073753 0.5318371 0.0344680
0.1470062 0.5454498 0.0970551
0.2364593 0.5359992 0.1229344
0.3126294 0.4861009 0.1922444
0.4001210 0.4957357 0.2217805
0.5025314 0.5173790 0.2091518
0.6345862 0.5637356 0.2498921
0.7596003 0.5331277 0.2645540
0.9019418 0.4978652 0.1512240
0.0043313 0.6550234 0.0204810
0.1517580 0.6716160 0.0781487
0.2462733 0.6797690 0.0837451
0.3266289 0.6681398 0.0856718
0.4031917 0.6475611 0.0819674
0.5107293 0.6570203 0.0868106
0.6809001 0.7225603 0.2019550
0.8051970 0.7234478 0.2074749
0.9703925 0.7312739 0.1663113
0.0036519 0.7736899 0.0100545
0.1585270 0.7916530 0.0670360
0.2564340 0.8075484 0.0659493
0.3459605 0.8167699 0.0515821
0.4361371 0.8199083 0.0356640
0.5395058 0.8231207 0.0269396
0.6626298 0.8303164 0.0450451
0.8060744 0.8470350 0.0987693
1.0000000 0.9134481 0.1853006
0.0031189 0.8901673 0.0004263
0.1648875 0.9078984 0.0590328
0.2636777 0.9251228 0.0572854
0.3556824 0.9389945 0.0428084
0.4479682 0.9487549 0.0270768
0.5467875 0.9540364 0.0123843
0.6606407 0.9562560 0.0158857
0.7953093 0.9659448 0.0581736
0.9460098 0.9886848 0.1148400
0.1178646 0.1307170 0.2187433
0.0845861 0.0701832 0.1861689
0.0710660 0.0658796 0.0952076
0.1035619 0.0317246 0.0653961
0.2519165 0.0456331 0.1216556
0.5009421 0.0815861 0.2318012
0.6780955 0.1098218 0.2611669
0.8221154 0.1480792 0.2689687
0.9245522 0.2582420 0.2678243
0.0596970 0.0970859 0.0657711
0.0698726 0.0729586 0.1026687
0.1308846 0.1277238 0.2017022
0.1612776 0.0892374 0.1212159
0.3214836 0.1414941 0.1715857
0.4810907 0.1850738 0.2200727
0.6514827 0.1947679 0.2343608
0.7836412 0.2116150 0.2393481
0.8749510 0.2105948 0.2228455
0.0449213 0.1207784 0.0801126
0.1153457 0.1656918 0.1540238
0.1582268 0.1458298 0.1642321
0.2164402 0.1873970 0.1844360
0.2392302 0.1447361 0.1628131
0.3947359 0.2050050 0.2134677
0.5516485 0.2230188 0.2097571
0.7208442 0.2410918 0.2054269
0.8631394 0.2444555 0.1939327
0.0451229 0.2038071 0.0995231
0.1289555 0.2052733 0.1522399
0.2605045 0.3123754 0.2508627
0.2556337 0.2694568 0.2064793
0.3719240 0.3062017 0.2539802
0.3333227 0.2088171 0.1432793
0.4828016 0.2611069 0.2213602
0.6745824 0.2808317 0.2118731
0.8251970 0.2887395 0.2190578
0.0316494 0.3467108 0.1115391
0.1146056 0.3669529 0.1466314
0.2274539 0.3634632 0.2145233
0.3296729 0.3993473 0.2578619
0.3727729 0.3936416 0.2438670
0.4426894 0.3689787 0.2655747
0.5336781 0.3684742 0.2440033
0.6689253 0.3544439 0.2164969
0.8263194 0.3268994 0.1866776
0.0134818 0.5010982 0.1086073
0.0970683 0.5159933 0.1290010
0.2458880 0.5252900 0.2178446
0.3221474 0.5047136 0.2400787
0.4071370 0.4969392 0.2766924
0.5199075 0.5400471 0.3137874
0.6166664 0.5391863 0.3253840
0.7561419 0.5214735 0.2985208
0.9119251 0.4791308 0.2285401
0.0083724 0.6312799 0.0982478
0.0894746 0.6481190 0.1095936
0.2573617 0.6659818 0.2033191
0.3485038 0.6669822 0.2132793
0.4090793 0.6379625 0.1926677
0.5073509 0.6414317 0.2035742
0.6758639 0.7125242 0.3216909
0.7864562 0.7004118 0.3463167
0.9493060 0.6834040 0.3401863
0.0050643 0.7513353 0.0839060
0.0839092 0.7694948 0.0899551
0.2660198 0.7900921 0.1915621
0.3667954 0.8062297 0.1967000
0.4532638 0.8128429 0.1788742
0.5481602 0.8175291 0.1619706
0.6666116 0.8272213 0.1737063
0.8071680 0.8421389 0.2377017
0.9845471 0.8938724 0.3759314
0.0034556 0.8685497 0.0710821
0.0784123 0.8865906 0.0714054
0.2730284 0.9069839 0.1838002
0.3761640 0.9262989 0.1886426
0.4681200 0.9407500 0.1733627
0.5627741 0.9505942 0.1521204
0.6699371 0.9569167 0.1413559
0.8024915 0.9706554 0.1774363
0.9652368 1.0000000 0.2665383
0.0838010 0.1195240 0.2199761
0.0568814 0.0838110 0.2060809
0.0404863 0.0606636 0.0970537
0.0615386 0.0609940 0.0747896
0.2326178 0.0459960 0.1950625
0.4931020 0.0608759 0.3534481
0.6846194 0.0875952 0.4302316
0.8155095 0.1037852 0.4429766
0.9136924 0.1166208 0.4358598
0.0375038 0.0807528 0.1315574
0.1138708 0.1476917 0.2451611
0.1305400 0.1591074 0.2226827
0.1430794 0.1269103 0.1728208
0.3178748 0.1302267 0.2594840
0.5090127 0.1660283 0.3440274
0.6615713 0.1847839 0.3867375
0.7860527 0.2052574 0.4026413
0.8852762 0.2182951 0.4019056
0.0259195 0.1383728 0.0828433
0.1245727 0.1556648 0.1732288
0.1932688 0.2203061 0.2884637
0.2785684 0.2596351 0.3129024
0.3088138 0.1812897 0.2288607
0.4695072 0.2284057 0.2840359
0.6142800 0.2603972 0.3206301
0.7551767 0.3066771 0.3807739
0.8716206 0.3362079 0.3973907
0.0804513 0.1976964 0.1526340
0.1608428 0.2086293 0.2143902
0.2677295 0.3451982 0.3482340
0.2471144 0.2547726 0.2602801
0.3572989 0.3058137 0.2947410
0.3803471 0.2368298 0.2432986
0.5796664 0.3241602 0.3335406
0.7437768 0.3597183 0.3675484
0.8389866 0.3348032 0.3404840
0.0730311 0.2709398 0.1817723
0.1289822 0.3070629 0.2071887
0.2134058 0.3142762 0.2573858
0.2928388 0.3586355 0.2856730
0.3389919 0.3501524 0.2684349
0.4644517 0.4014648 0.3598388
0.5473502 0.3560833 0.2669109
0.7499906 0.4019547 0.3316847
0.8666765 0.3746714 0.3100029
0.0315915 0.4626425 0.1849445
0.0960540 0.4772379 0.1997434
0.2178687 0.4960319 0.2640058
0.3485516 0.5178139 0.3482159
0.3680515 0.4639362 0.2865608
0.5154433 0.5232505 0.3588474
0.6168840 0.5271714 0.3658892
0.7424393 0.5084875 0.3372148
0.9008540 0.4611343 0.2895948
0.0151755 0.6036366 0.1762693
0.0815500 0.6177636 0.1851681
0.2098112 0.6389196 0.2431701
0.3563893 0.6558823 0.3243673
0.4276582 0.6391568 0.3119463
0.4899382 0.6155180 0.2875771
0.6825647 0.7153593 0.4515092
0.7660448 0.6839117 0.4410716
0.9515006 0.6627597 0.3961691
0.0088923 0.7253099 0.1646728
0.0749657 0.7418318 0.1696275
0.2037997 0.7630720 0.2230288
0.3685285 0.7855167 0.3128789
0.4693804 0.7997881 0.3206189
0.5570342 0.8075331 0.3058683
0.6713504 0.8237792 0.3214639
0.8085050 0.8398781 0.3959209
0.9815289 0.8734259 0.5140699
0.0051513 0.8430656 0.1532133
0.0703186 0.8605110 0.1544889
0.1995377 0.8813540 0.2061221
0.3776435 0.9046033 0.3062514
0.4850551 0.9258494 0.3178370
0.5789468 0.9418630 0.3050871
0.6832195 0.9558382 0.2995082
0.8165846 0.9775791 0.3493654
0.9780047 1.0000000 0.5031922
0.0734120 0.0878291 0.2790203
0.0616461 0.1021542 0.2565406
0.0561412 0.0651330 0.1495047
0.0756558 0.0602654 0.1304478
0.2050255 0.0600046 0.2347078
0.5144494 0.0700427 0.4810463
0.7317628 0.1090421 0.6029840
0.8658563 0.1175325 0.6278251
0.9609356 0.1095934 0.6131941
0.0430756 0.0963509 0.2480311
0.0950182 0.1294684 0.2744800
0.1093990 0.1262871 0.2337792
0.1526325 0.1247913 0.2307244
0.2867289 0.1338639 0.3153713
0.5351652 0.1699764 0.4860467
0.7243475 0.2120498 0.5754919
0.8400294 0.2190750 0.5863432
0.9250994 0.2071203 0.5654791
0.0180667 0.1310517 0.1534636
0.1246924 0.1820884 0.2819413
0.1842554 0.2247161 0.3350946
0.2223964 0.2239973 0.3111125
0.2600036 0.1696769 0.2732571
0.4624699 0.2079300 0.3900709
0.6866133 0.2970242 0.5148812
0.8054900 0.3217160 0.5427445
0.8866732 0.3085702 0.5248083
0.0958447 0.2337281 0.2514912
0.1909652 0.2472119 0.2900470
0.1587897 0.1823659 0.2416660
0.2673567 0.2901429 0.3475765
0.2986565 0.2534906 0.2950303
0.4487879 0.2719261 0.3630963
0.6548283 0.3785262 0.4713151
0.7821738 0.4236132 0.5182743
0.8593996 0.4112813 0.5045242
0.0977572 0.2644585 0.2417966
0.1633106 0.3151793 0.3020742
0.2308533 0.3398190 0.3497966
0.3449313 0.4253031 0.4327441
0.4059879 0.4205688 0.4160811
0.5020452 0.4453395 0.4534602
0.6271240 0.4404411 0.4401269
0.7705038 0.4601483 0.4755413
0.8818243 0.4603967 0.4774869
0.0690442 0.4322269 0.2744073
0.1161945 0.4563097 0.2899262
0.2364253 0.4821039 0.3602699
0.3642196 0.5200721 0.4561409
0.4240677 0.5085993 0.4369438
0.6513050 0.6706399 0.5861754
0.6043485 0.5255734 0.4645171
0.7710467 0.5184281 0.4277222
0.9060462 0.4988413 0.4271480
0.0303856 0.5793264 0.2550116
0.0775373 0.5873400 0.2579144
0.2014888 0.6067394 0.3158847
0.3309636 0.6332151 0.3897557
0.4581150 0.6534610 0.4602813
0.5406801 0.6562824 0.4621655
0.7284650 0.7589788 0.6031486
0.7551626 0.6681738 0.5036565
0.9401379 0.6477145 0.4684748
0.0151081 0.6988150 0.2403821
0.0637485 0.7101169 0.2394860
0.1895585 0.7287385 0.2933639
0.3185587 0.7536801 0.3549880
0.4670068 0.7798803 0.4367614
0.5743192 0.8005434 0.4558592
0.6824343 0.8257468 0.4698281
0.8165770 0.8500837 0.5451361
0.9909208 0.8878613 0.6318668
0.0079814 0.8153605 0.2289862
0.0583812 0.8299986 0.2267356
0.1861880 0.8491526 0.2803295
0.3154185 0.8735891 0.3374350
0.4783830 0.9011984 0.4285344
0.5934059 0.9278417 0.4515794
0.6990165 0.9543421 0.4582138
0.8362751 0.9929931 0.5219262
0.9948388 1.0000000 0.7084834
0.0955506 0.0954706 0.3558544
0.1137551 0.1497429 0.4541086
0.1101968 0.0569113 0.2975089
0.1425860 0.0423395 0.2755190
0.2758983 0.0625350 0.3837969
0.4871145 0.0900405 0.5500728
0.7817026 0.1398958 0.7684297
0.9122545 0.1522637 0.8018926
0.9752216 0.1408095 0.7666713
0.0864694 0.1216519 0.3578891
0.1358423 0.1483260 0.3950816
0.1751965 0.1446861 0.3895244
0.2366652 0.1450653 0.4025046
0.3495927 0.1559633 0.4683109
0.5179832 0.1905118 0.5715448
0.7794261 0.2508594 0.7518840
0.9087792 0.2625253 0.7821077
0.9823324 0.2450084 0.7523475
0.0923348 0.1746360 0.3527818
0.1466552 0.1979956 0.3991440
0.1831102 0.2047986 0.4077558
0.2316744 0.2060192 0.4006729
0.2935356 0.1839381 0.3991977
0.4600855 0.2291089 0.5010141
0.7550823 0.3481146 0.7122013
0.8864260 0.3646964 0.7443109
0.9650477 0.3435234 0.7171121
0.1054901 0.2026012 0.2620476
0.1698023 0.2656196 0.4045638
0.1886723 0.2684369 0.4344160
0.2349090 0.2666499 0.4177928
0.2990884 0.2611835 0.4048340
0.4416795 0.3009992 0.4753060
0.7270252 0.4450086 0.6690937
0.8486451 0.4523608 0.6914912
0.9208160 0.4286696 0.6618243
0.1758893 0.4029067 0.4934927
0.1208359 0.2994687 0.3791190
0.2657385 0.3846358 0.4834720
0.2755039 0.3260087 0.4105517
0.4301050 0.4546277 0.5476150
0.4948901 0.4368314 0.5195999
0.6812535 0.5067713 0.6202278
0.7904318 0.5069522 0.6177544
0.8750133 0.4937893 0.6043360
0.1463417 0.4783458 0.4209790
0.1724867 0.4695876 0.4168246
0.2756424 0.5015939 0.4812145
0.4017981 0.5685843 0.5801172
0.6146900 0.7166053 0.7232661
0.5657525 0.5883623 0.5866033
0.6404812 0.5971889 0.6256110
0.7663923 0.5654243 0.5537852
0.8625749 0.5586189 0.5760312
0.0536097 0.5645998 0.3418099
0.0900471 0.5653729 0.3439582
0.2037503 0.5797643 0.3944894
0.3285774 0.6085874 0.4725937
0.4677662 0.6471854 0.5751466
0.5977747 0.7039171 0.6294645
0.7880163 0.8123011 0.7278582
0.7818236 0.6786703 0.5935425
0.9463297 0.6909281 0.6048091
0.0240270 0.6739737 0.3144543
0.0569249 0.6791164 0.3099135
0.1755080 0.6916054 0.3572799
0.2997130 0.7134172 0.4193860
0.4319919 0.7470176 0.4979553
0.5727771 0.7894224 0.5808072
0.7012252 0.8348548 0.6204086
0.8360803 0.8770897 0.6900839
0.9761276 0.8572607 0.6780397
0.0118205 0.7878833 0.3013547
0.0468346 0.7979083 0.2949322
0.1694720 0.8123613 0.3443137
0.2952528 0.8340887 0.4024461
0.4253199 0.8642461 0.4688515
0.5800954 0.9036085 0.5588076
0.7162033 0.9513535 0.6105226
0.8613638 1.0000000 0.6805987
1.0000000 1.0000000 0.7970143
0.1148265 0.1076939 0.3966967
0.1809707 0.1176926 0.5288224
0.2484428 0.1042924 0.5739341
0.3263050 0.0988832 0.6072733
0.4395205 0.1139470 0.6710261
0.5840848 0.1412247 0.7561220
0.7291422 0.1653619 0.8207755
0.9352755 0.1807346 0.9425557
0.9727150 0.1706296 0.8890198
0.1303108 0.1436298 0.4399760
0.1978937 0.1799022 0.5536919
0.2665642 0.1867489 0.5971391
0.3515837 0.1958886 0.6309332
0.4574457 0.2118815 0.6798607
0.6000019 0.2478975 0.7585592
0.7438154 0.2806043 0.8232825
0.9511802 0.2991202 0.9445793
0.9828041 0.2753042 0.8841847
0.1624095 0.2128412 0.5286156
0.1925394 0.2370157 0.5506412
0.2496492 0.2483615 0.5721659
0.3203459 0.2541708 0.5889716
0.4129131 0.2668724 0.6173838
0.5818410 0.3314471 0.7264674
0.7481997 0.3913580 0.8150314
0.9504316 0.4144214 0.9298268
0.9848814 0.3796537 0.8703383
0.1640028 0.2663851 0.5000420
0.1872680 0.3020719 0.5465342
0.2304391 0.3087717 0.5673704
0.3040724 0.3240735 0.5931925
0.3956561 0.3420956 0.6027029
0.5648605 0.4159326 0.7034714
0.7533480 0.5045285 0.8106411
0.9412607 0.5253609 0.9072450
0.9854484 0.4817350 0.8526916
0.1640826 0.3701525 0.4814877
0.2503031 0.4156824 0.5883900
0.3092132 0.4509042 0.7255937
0.3543563 0.4541032 0.6456012
0.4646603 0.5025251 0.6843581
0.5898953 0.5479117 0.7223446
0.7636391 0.6224943 0.8162111
0.9238287 0.6264901 0.8781532
0.9811525 0.5779769 0.8265402
0.3158426 0.6514647 0.7338422
0.2551287 0.5532241 0.6333126
0.3385342 0.5822507 0.6861485
0.3201592 0.4960622 0.6081238
0.4028687 0.5330343 0.6983891
0.6476451 0.6794342 0.7682524
0.7602789 0.7250959 0.8170711
0.8874060 0.7153223 0.8345271
0.9207451 0.6399692 0.7536299
0.1025360 0.5537122 0.4435002
0.1252383 0.5446453 0.4442298
0.2241927 0.5575473 0.4903251
0.3199836 0.5730982 0.5473469
0.4459441 0.6114202 0.6159569
0.5793408 0.6680701 0.6682239
0.7576643 0.7834229 0.7970689
0.8531010 0.8099826 0.7965443
0.9058098 0.7400546 0.7423584
0.0345140 0.6501034 0.3906939
0.0607550 0.6494845 0.3882650
0.1704726 0.6558716 0.4275669
0.2829431 0.6701439 0.4800594
0.4071768 0.7010562 0.5568893
0.5614133 0.7787627 0.6838017
0.7016023 0.8396201 0.7500568
0.8672884 0.9245996 0.8472170
1.0000000 0.8798178 0.7989659
0.0159398 0.7622276 0.3736773
0.0402237 0.7675056 0.3668854
0.1562068 0.7757639 0.4087835
0.2734867 0.7905097 0.4593527
0.3965704 0.8162899 0.5242079
0.5337373 0.8631243 0.6096115
0.7003248 0.9369099 0.7181972
0.8892987 1.0000000 0.8281653
1.0000000 1.0000000 0.8788610
0.2221601 0.2284689 0.6399645
0.2635564 0.1637052 0.7354052
0.3379230 0.1454561 0.7950788
0.4337440 0.1479055 0.8423158
0.5382182 0.1611640 0.8860245
0.6492027 0.1782942 0.9288665
0.7629697 0.1923597 0.9661053
0.8594829 0.1940412 0.9738724
0.9519250 0.1868953 0.9748569
0.2103674 0.2078061 0.6523482
0.2537820 0.2188711 0.7194026
0.3304811 0.2236284 0.7722683
0.4298325 0.2407324 0.8183416
0.5372142 0.2620001 0.8650581
0.6559357 0.2869766 0.9183258
0.7763885 0.3091326 0.9644419
0.8740286 0.3130560 0.9742607
0.9656655 0.2947613 0.9758961
0.2042247 0.2485850 0.6644635
0.2329179 0.2756176 0.6973777
0.3117355 0.2948544 0.7342400
0.4104978 0.3181295 0.7802859
0.5204767 0.3476294 0.8266489
0.6486406 0.3848850 0.8915302
0.7842523 0.4220502 0.9566060
0.8887030 0.4310359 0.9752045
0.9795348 0.4013536 0.9772422
0.2046287 0.3280045 0.7235404
0.2155079 0.3430820 0.6808658
0.2825640 0.3576872 0.7034134
0.3832100 0.3841323 0.7400994
0.5003787 0.4251947 0.7910866
0.6398553 0.4786656 0.8671133
0.7884652 0.5305870 0.9468309
0.9036511 0.5479449 0.9775049
0.9867792 0.5066392 0.9720515
0.1585209 0.3994675 0.6135846
0.2104283 0.4163432 0.6626697
0.2791601 0.4377920 0.7080245
0.3544272 0.4403981 0.7135600
0.4845652 0.4958025 0.7667500
0.6347897 0.5709753 0.8506904
0.7886684 0.6334568 0.9365387
0.9203568 0.6658123 0.9839004
0.9892759 0.6130106 0.9627245
0.0738856 0.3559459 0.4611588
0.2481712 0.4706963 0.6311138
0.3132900 0.5128488 0.7176653
0.3387218 0.4736795 0.6369551
0.4453486 0.5334802 0.7243900
0.6179953 0.6498185 0.8420862
0.7938336 0.7491535 0.9368490
0.9475737 0.8017968 0.9687696
0.9864081 0.7362209 0.9718846
0.1521268 0.5712828 0.5717879
0.1734784 0.5757960 0.5938000
0.2528823 0.5912354 0.6403791
0.3340531 0.5975706 0.6800367
0.4435148 0.6228454 0.7255354
0.6312510 0.7207890 0.8054256
0.8036606 0.8620766 0.9159614
0.9341921 0.9443929 0.9611799
0.9863582 0.9226287 1.0000000
0.0479899 0.6281733 0.4749877
0.0789018 0.6280247 0.4854053
0.1813515 0.6315602 0.5215386
0.2821233 0.6388546 0.5659691
0.3885771 0.6579208 0.6239046
0.5224777 0.7170671 0.7156179
0.6798632 0.8022957 0.8164378
0.8458904 0.8943472 0.8983890
0.9915277 0.9637509 0.9656990
0.0214819 0.7389633 0.4502733
0.0426081 0.7409308 0.4490308
0.1527489 0.7441129 0.4843833
0.2604627 0.7509506 0.5258958
0.3700244 0.7660084 0.5779773
0.4923789 0.8036072 0.6526226
0.6482058 0.8845184 0.7665662
0.8781683 1.0000000 0.9288754
1.0000000 1.0000000 0.9331626
0.3301870 0.3342212 0.8842098
0.3026013 0.1917239 0.8847175
0.3690184 0.1637531 0.9224389
0.4620909 0.1680156 0.9589317
0.5455757 0.1744465 0.9628708
0.6275347 0.1823324 0.9671388
0.7086074 0.1894356 0.9713891
0.7890479 0.1936050 0.9745002
0.8714683 0.1931634 0.9760577
0.2741093 0.3085784 0.8066469
0.2861752 0.2506559 0.8445082
0.3570767 0.2434404 0.8882707
0.4576243 0.2617369 0.9340758
0.5542606 0.2765866 0.9607783
0.6389595 0.2856921 0.9660650
0.7216942 0.2943172 0.9713854
0.8023391 0.2995990 0.9748711
0.8843325 0.2996205 0.9764534
0.2148809 0.3097856 0.8101755
0.2576436 0.3040589 0.8120343
0.3393851 0.3179758 0.8458935
0.4400041 0.3406667 0.8947891
0.5537039 0.3726185 0.9472349
0.6475786 0.3870557 0.9636765
0.7342341 0.3983726 0.9715508
0.8159095 0.4045133 0.9757340
0.8973681 0.4048896 0.9773532
0.1998773 0.3839764 0.7974451
0.2344711 0.3720710 0.7822715
0.3083208 0.3805134 0.8038247
0.4129274 0.4066153 0.8447209
0.5302884 0.4460862 0.9041611
0.6560001 0.4887060 0.9649128
0.7471136 0.5020918 0.9737704
0.8298709 0.5085627 0.9775653
0.9107958 0.5091925 0.9788831
0.1940974 0.4636872 0.7833017
0.2121872 0.4345238 0.7421825
0.2816065 0.4422655 0.7710572
0.3712118 0.4492571 0.7950817
0.4887479 0.4920546 0.8409668
0.6374369 0.5647561 0.9319223
0.7621615 0.6065358 0.9818814
0.8464008 0.6136741 0.9835178
0.9266252 0.6147446 0.9837900
0.1644269 0.4826624 0.6819542
0.2249550 0.4881297 0.7115687
0.2750783 0.4965911 0.7446665
0.3344258 0.4775705 0.7561740
0.4272425 0.5036662 0.7706946
0.5872791 0.6021191 0.8682801
0.7754904 0.7127424 0.9676700
0.8741624 0.7338794 0.9890199
0.9525402 0.7343309 0.9978358
0.1980945 0.5937796 0.7321095
0.2314263 0.5856102 0.7501384
0.2882734 0.5853040 0.7710562
0.3530040 0.5900655 0.8410123
0.4217746 0.5992500 0.8184521
0.5293930 0.6325908 0.8460418
0.7369065 0.7689518 0.9413180
0.9419488 0.9078701 0.9933030
0.9958863 0.9178460 1.0000000
0.0644832 0.6958920 0.6231180
0.0995354 0.6972353 0.6450436
0.2010114 0.6990794 0.6825828
0.2988869 0.7089928 0.7376730
0.3982743 0.7235965 0.7975450
0.4987903 0.7342622 0.8353324
0.6692890 0.8020694 0.9016911
0.9479640 1.0000000 1.0000000
0.9999377 1.0000000 1.0000000
0.0283374 0.7231046 0.5251922
0.0537680 0.7232405 0.5327681
0.1603768 0.7238918 0.5655071
0.2614700 0.7272724 0.6041490
0.3611948 0.7363964 0.6500081
0.4694873 0.7615758 0.7082288
0.6141444 0.8266876 0.8006654
0.8095257 0.9545648 0.9592677
0.9973674 1.0000000 1.0000000
