presets/film/film-kodak/look.cube
# film-kodak tuned
LUT_3D_SIZE 5
DOMAIN_MIN 0 0 0
DOMAIN_MAX 1 1 1
0.1325248 0.1373157 0.1289952
0.1432736 0.1366369 0.1147175
0.3053777 0.0476404 0.0041992
0.6203885 0.0184024 0.0179936
0.8568153 0.0001205 0.0272519
0.0075579 0.0909069 0.0049002
0.0999855 0.1115638 0.0080850
0.2383269 0.1417259 0.0881326
0.4672720 0.1872980 0.0567531
0.8494681 0.0559042 0.0110841
0.0606045 0.4191389 0.0249479
0.2186030 0.3310637 0.1366998
0.3913640 0.4038017 0.1288141
0.5942222 0.4208804 0.1066586
0.7941546 0.3576740 0.0611778
0.0770407 0.6738079 0.0061563
0.2613985 0.6840435 0.0143092
0.4116246 0.6295934 0.0428618
0.7239555 0.7756050 0.2018930
0.9480768 0.7385510 0.0000000
0.0991458 0.9082589 0.0003530
0.2919074 0.9364356 0.0002131
0.4867204 0.9520286 0.0009580
0.6924879 0.9540802 0.0151777
0.9251785 0.9651445 0.0849933
0.1178646 0.1307170 0.2187433
0.0710660 0.0658796 0.0952076
0.2519165 0.0456331 0.1216556
0.6780955 0.1098218 0.2611669
0.9245522 0.2582420 0.2678243
0.0449213 0.1207784 0.0801126
0.1582268 0.1458298 0.1642321
0.2392302 0.1447361 0.1628131
0.5516485 0.2230188 0.2097571
0.8631394 0.2444555 0.1939327
0.0316494 0.3467108 0.1115391
0.2274539 0.3634632 0.2145233
0.3727729 0.3936416 0.2438670
0.5336781 0.3684742 0.2440033
0.8263194 0.3268994 0.1866776
0.0083724 0.6312799 0.0982478
0.2573617 0.6659818 0.2033191
0.4090793 0.6379625 0.1926677
0.6758639 0.7125242 0.3216909
0.9493060 0.6834040 0.3401863
0.0034556 0.8685497 0.0710821
0.2730284 0.9069839 0.1838002
0.4681200 0.9407500 0.1733627
0.6699371 0.9569167 0.1413559
0.9652368 1.0000000 0.2665383
0.0734120 0.0878291 0.2790203
0.0561412 0.0651330 0.1495047
0.2050255 0.0600046 0.2347078
0.7317628 0.1090421 0.6029840
0.9609356 0.1095934 0.6131941
0.0180667 0.1310517 0.1534636
0.1842554 0.2247161 0.3350946
0.2600036 0.1696769 0.2732571
0.6866133 0.2970242 0.5148812
0.8866732 0.3085702 0.5248083
0.0977572 0.2644585 0.2417966
0.2308533 0.3398190 0.3497966
0.4059879 0.4205688 0.4160811
0.6271240 0.4404411 0.4401269
0.8818243 0.4603967 0.4774869
0.0303856 0.5793264 0.2550116
0.2014888 0.6067394 0.3158847
0.4581150 0.6534610 0.4602813
0.7284650 0.7589788 0.6031486
0.9401379 0.6477145 0.4684748
0.0079814 0.8153605 0.2289862
0.1861880 0.8491526 0.2803295
0.4783830 0.9011984 0.4285344
0.6990165 0.9543421 0.4582138
0.9948388 1.0000000 0.7084834
0.1148265 0.1076939 0.3966967
0.2484428 0.1042924 0.5739341
0.4395205 0.1139470 0.6710261
0.7291422 0.1653619 0.8207755
0.9727150 0.1706296 0.8890198
0.1624095 0.2128412 0.5286156
0.2496492 0.2483615 0.5721659
0.4129131 0.2668724 0.6173838
0.7481997 0.3913580 0.8150314
0.9848814 0.3796537 0.8703383
0.1640826 0.3701525 0.4814877
0.3092132 0.4509042 0.7255937
0.4646603 0.5025251 0.6843581
0.7636391 0.6224943 0.8162111
0.9811525 0.5779769 0.8265402
0.1025360 0.5537122 0.4435002
0.2241927 0.5575473 0.4903251
0.4459441 0.6114202 0.6159569
0.7576643 0.7834229 0.7970689
0.9058098 0.7400546 0.7423584
0.0159398 0.7622276 0.3736773
0.1562068 0.7757639 0.4087835
0.3965704 0.8162899 0.5242079
0.7003248 0.9369099 0.7181972
1.0000000 1.0000000 0.8788610
0.3301870 0.3342212 0.8842098
0.3690184 0.1637531 0.9224389
0.5455757 0.1744465 0.9628708
0.7086074 0.1894356 0.9713891
0.8714683 0.1931634 0.9760577
0.2148809 0.3097856 0.8101755
0.3393851 0.3179758 0.8458935
0.5537039 0.3726185 0.9472349
0.7342341 0.3983726 0.9715508
0.8973681 0.4048896 0.9773532
0.1940974 0.4636872 0.7833017
0.2816065 0.4422655 0.7710572
0.4887479 0.4920546 0.8409668
0.7621615 0.6065358 0.9818814
0.9266252 0.6147446 0.9837900
0.1980945 0.5937796 0.7321095
0.2882734 0.5853040 0.7710562
0.4217746 0.5992500 0.8184521
0.7369065 0.7689518 0.9413180
0.9958863 0.9178460 1.0000000
0.0283374 0.7231046 0.5251922
0.1603768 0.7238918 0.5655071
0.3611948 0.7363964 0.6500081
0.6141444 0.8266876 0.8006654
0.9973674 1.0000000 1.0000000
