catalog/styles/series/late-summer/series-late-summer-contrast/look.cube
# series-late-summer-contrast iteration 4
LUT_3D_SIZE 5
DOMAIN_MIN 0 0 0
DOMAIN_MAX 1 1 1
0.0416531 0.0452362 0.0422787
0.4468303 0.0502588 0.0226370
0.8228531 0.0395624 0.0000000
0.9106696 0.0499111 0.0000000
0.9638367 0.0958477 0.0870860
0.0909244 0.2111970 0.0637381
0.2838723 0.2459215 0.0432675
0.6341439 0.2669468 0.0291398
0.8297708 0.2983634 0.0425559
0.9512275 0.2660653 0.0837700
0.0736134 0.3453832 0.0515899
0.2364744 0.3644002 0.0143660
0.5032146 0.3972530 0.0000000
0.7905010 0.4636152 0.0000000
0.9453777 0.5195254 0.0650914
0.0484257 0.4400754 0.0298938
0.2465865 0.4929229 0.0000000
0.4841236 0.5593901 0.0000000
0.7315941 0.6282781 0.0000000
0.9274332 0.7060933 0.0008741
0.0572543 0.5337066 0.0000000
0.2424932 0.6182225 0.0000000
0.4363954 0.7039200 0.0000000
0.6589361 0.7968401 0.0000000
0.9414226 0.8892793 0.0000000
0.0451340 0.0925652 0.5126663
0.2976480 0.0157594 0.2120052
0.7568309 0.1369941 0.2870271
0.9272655 0.2842878 0.3482557
0.9954875 0.4425228 0.4232514
0.0124132 0.2990053 0.2980196
0.2170332 0.2229420 0.2402116
0.5619736 0.2501587 0.2195324
0.8328502 0.3770562 0.3013159
0.9779115 0.4530979 0.3525312
0.0205084 0.4769720 0.2900624
0.2271931 0.4213843 0.2260283
0.4620741 0.4211274 0.1642708
0.7584995 0.4883759 0.2202313
0.9252821 0.5653714 0.2804954
0.0000000 0.5810692 0.2506306
0.2081681 0.5729317 0.1733603
0.4404980 0.5813514 0.1113820
0.7089865 0.6591149 0.1385811
0.9292507 0.7412185 0.2053261
0.0000000 0.6680278 0.1714775
0.1824969 0.7016928 0.1033745
0.4217600 0.7494542 0.0724344
0.6620549 0.8154022 0.0898544
0.9338288 0.9064735 0.1457016
0.1860141 0.2557332 0.7865651
0.3900276 0.1462247 0.5734925
0.6561228 0.2078444 0.5537604
0.9034430 0.3641469 0.6252763
1.0000000 0.5309685 0.6687802
0.0371550 0.3429944 0.6726593
0.3652913 0.4258271 0.6894768
0.6476882 0.4003490 0.6095416
0.8685243 0.4768021 0.5966283
1.0000000 0.5673920 0.6242310
0.0286199 0.6034119 0.5809506
0.1752999 0.5293624 0.5649986
0.5786271 0.5853040 0.6125385
0.8281955 0.6252091 0.5579191
0.9438101 0.6468065 0.5947641
0.0000000 0.7149237 0.4865751
0.1499053 0.6591739 0.4441451
0.4657866 0.6682359 0.4673404
0.7154215 0.7162508 0.5024285
0.9064163 0.7949918 0.5557549
0.0000000 0.7969219 0.3707646
0.1170525 0.7903827 0.3690520
0.3991491 0.7885958 0.3799957
0.6681146 0.8340433 0.4366978
0.9315535 0.9126940 0.5177513
0.4725178 0.5120143 0.9117999
0.6109628 0.4257115 0.9655396
0.7263987 0.3933811 0.9174483
0.8895994 0.4319140 0.8969679
1.0000000 0.5036528 0.8806623
0.2991282 0.5967945 0.9574679
0.4639590 0.5675237 0.9413972
0.6849258 0.5703010 0.9304733
0.8873888 0.5820825 0.8982405
1.0000000 0.6191185 0.8814413
0.1247203 0.7189686 0.8408812
0.2494709 0.6792408 0.8650032
0.6477058 0.7351079 0.9009498
0.8699824 0.7268880 0.8801147
1.0000000 0.7421207 0.8744837
0.0000000 0.8227265 0.7431264
0.1062821 0.7843008 0.7314788
0.4874456 0.7987096 0.7778919
0.8010240 0.8273409 0.8316615
0.9568479 0.8613904 0.8581554
0.0000000 0.9128408 0.6168102
0.0406213 0.8912452 0.6333152
0.3966157 0.8608806 0.6552170
0.6847295 0.8678805 0.7125920
0.9191020 0.9293671 0.8152458
0.8274546 0.7594989 1.0000000
0.8294348 0.7009241 1.0000000
0.8469696 0.6258461 1.0000000
0.9054667 0.5362062 1.0000000
1.0000000 0.4516615 1.0000000
0.5432340 0.8185586 1.0000000
0.5809649 0.7434422 1.0000000
0.6905169 0.6960714 1.0000000
0.8912854 0.6793821 1.0000000
1.0000000 0.6599019 1.0000000
0.1818052 0.8693841 1.0000000
0.3457631 0.8142811 1.0000000
0.5429730 0.7628891 1.0000000
0.8674292 0.7961259 1.0000000
1.0000000 0.8301796 1.0000000
0.0000000 0.9277197 1.0000000
0.1316378 0.9150221 1.0000000
0.5005201 0.8813180 0.9750390
0.8227556 0.8813699 0.9982107
1.0000000 0.9402748 1.0000000
0.0000000 1.0000000 0.8783362
0.0000000 1.0000000 0.9242030
0.4294364 0.9944947 0.9507673
0.7483950 0.9651423 0.9389586
0.9463002 0.9706488 0.9710088
