catalog/styles/series/late-summer/series-late-summer-contrast/look.cube
# series-late-summer-contrast iteration 4
LUT_3D_SIZE 33
DOMAIN_MIN 0 0 0
DOMAIN_MAX 1 1 1
0.0416531 0.0452362 0.0422787
0.0369722 0.0216803 0.0145114
0.0459505 0.0138403 0.0032880
0.0773601 0.0164278 0.0037651
0.1245401 0.0207933 0.0095672
0.1894091 0.0274949 0.0171410
0.2702196 0.0362276 0.0231125
0.3590332 0.0444295 0.0250315
0.4468303 0.0502588 0.0226370
0.5262687 0.0529630 0.0167380
0.5937682 0.0527081 0.0084350
0.6493624 0.0505632 0.0000000
0.6951811 0.0474853 0.0000000
0.7339241 0.0443616 0.0000000
0.7675336 0.0418628 0.0000000
0.7970910 0.0402838 0.0000000
0.8228531 0.0395624 0.0000000
0.8446946 0.0396563 0.0000000
0.8623234 0.0404068 0.0000000
0.8757504 0.0415352 0.0000000
0.8858137 0.0428926 0.0000000
0.8935210 0.0443974 0.0000000
0.8997351 0.0460122 0.0000000
0.9052527 0.0478046 0.0000000
0.9106696 0.0499111 0.0000000
0.9164677 0.0526062 0.0000000
0.9227396 0.0560820 0.0000000
0.9294090 0.0605098 0.0041482
0.9363543 0.0659992 0.0181594
0.9433914 0.0725391 0.0340082
0.9503041 0.0799263 0.0511136
0.9570554 0.0878604 0.0689399
0.9638367 0.0958477 0.0870860
0.0140108 0.0215559 0.0111462
0.0217411 0.0154239 0.0038153
0.0385984 0.0194208 0.0037958
0.0707962 0.0292120 0.0049481
0.1215406 0.0428995 0.0081535
0.1870878 0.0574623 0.0145444
0.2593983 0.0688810 0.0209792
0.3320948 0.0757126 0.0247063
0.4015835 0.0786583 0.0245938
0.4658052 0.0790329 0.0209133
0.5241246 0.0780626 0.0147754
0.5764816 0.0764807 0.0073942
0.6227931 0.0745024 0.0000000
0.6640593 0.0724157 0.0000000
0.7014430 0.0704773 0.0000000
0.7351215 0.0688407 0.0000000
0.7651366 0.0675818 0.0000000
0.7915231 0.0667857 0.0000000
0.8142910 0.0665266 0.0000000
0.8335864 0.0668100 0.0000000
0.8498546 0.0675871 0.0000000
0.8636006 0.0687937 0.0000000
0.8753953 0.0703955 0.0000000
0.8858015 0.0724025 0.0000000
0.8953152 0.0748648 0.0000000
0.9043302 0.0778472 0.0000000
0.9130782 0.0813910 0.0000000
0.9216388 0.0855137 0.0089885
0.9300218 0.0901869 0.0221256
0.9382165 0.0953181 0.0367199
0.9462225 0.1007891 0.0523331
0.9540627 0.1064546 0.0685247
0.9618540 0.1121567 0.0849491
0.0000000 0.0181209 0.0000000
0.0054614 0.0126511 0.0020241
0.0231487 0.0185178 0.0050559
0.0635002 0.0382339 0.0048863
0.1281252 0.0676972 0.0067442
0.1966982 0.0915120 0.0125954
0.2583903 0.1039335 0.0197549
0.3145761 0.1081551 0.0249632
0.3671974 0.1077680 0.0265890
0.4179761 0.1058143 0.0248068
0.4678272 0.1040405 0.0206283
0.5164066 0.1027690 0.0149093
0.5625545 0.1017747 0.0084292
0.6054452 0.1007497 0.0018391
0.6448583 0.0994182 0.0000000
0.6806743 0.0977573 0.0000000
0.7132512 0.0960003 0.0000000
0.7429207 0.0944380 0.0000000
0.7698605 0.0933494 0.0000000
0.7941659 0.0929193 0.0000000
0.8158566 0.0931712 0.0000000
0.8350140 0.0940796 0.0000000
0.8518862 0.0956240 0.0000000
0.8668388 0.0977824 0.0000000
0.8802460 0.1005031 0.0000000
0.8924269 0.1036761 0.0000000
0.9036626 0.1071740 0.0033618
0.9141529 0.1108550 0.0142325
0.9240339 0.1145861 0.0264503
0.9334248 0.1182320 0.0397805
0.9424779 0.1217651 0.0539043
0.9513059 0.1252135 0.0684686
0.9600521 0.1286245 0.0832125
0.0014282 0.0364209 0.0013048
0.0049705 0.0281333 0.0060424
0.0166541 0.0268916 0.0082535
0.0571383 0.0457240 0.0066542
0.1438389 0.0927549 0.0079128
0.2243394 0.1297709 0.0130760
0.2732311 0.1417381 0.0204861
0.3105962 0.1415949 0.0259896
0.3468981 0.1371811 0.0283685
0.3864361 0.1329716 0.0280965
0.4295145 0.1302564 0.0255904
0.4750652 0.1291367 0.0214807
0.5208762 0.1289795 0.0163148
0.5647041 0.1291545 0.0106922
0.6047531 0.1286917 0.0048609
0.6406730 0.1273113 0.0000000
0.6735449 0.1253206 0.0000000
0.7043791 0.1232642 0.0000000
0.7335147 0.1215927 0.0000000
0.7610299 0.1206410 0.0000000
0.7865319 0.1204856 0.0000000
0.8097190 0.1211504 0.0000000
0.8305892 0.1226424 0.0000000
0.8493047 0.1248935 0.0000000
0.8660839 0.1277441 0.0000000
0.8811589 0.1309311 0.0010021
0.8947613 0.1341683 0.0099738
0.9071321 0.1371881 0.0201712
0.9184879 0.1397704 0.0313728
0.9290597 0.1417876 0.0433745
0.9390900 0.1433318 0.0559654
0.9488093 0.1445582 0.0688867
0.9584059 0.1456401 0.0819482
0.0165446 0.0689331 0.0143191
0.0219904 0.0627108 0.0164340
0.0319105 0.0587137 0.0157908
0.0585837 0.0641428 0.0105233
0.1283370 0.0968096 0.0072879
0.2236570 0.1461874 0.0133489
0.2822585 0.1703005 0.0209194
0.3108706 0.1714454 0.0261876
0.3360541 0.1656402 0.0294747
0.3667297 0.1594217 0.0305701
0.4048825 0.1552064 0.0293989
0.4488901 0.1537840 0.0266531
0.4956243 0.1546248 0.0228945
0.5410794 0.1564050 0.0184712
0.5820627 0.1575693 0.0136138
0.6178132 0.1573079 0.0084127
0.6497841 0.1557591 0.0031083
0.6797137 0.1536671 0.0000000
0.7086487 0.1517044 0.0000000
0.7369172 0.1504012 0.0000000
0.7639998 0.1499580 0.0000000
0.7893645 0.1504760 0.0000000
0.8127573 0.1520003 0.0000000
0.8341585 0.1543886 0.0000000
0.8535546 0.1573106 0.0017464
0.8710051 0.1603499 0.0090552
0.8866516 0.1630898 0.0175259
0.9006946 0.1651970 0.0269014
0.9133776 0.1664187 0.0369658
0.9250190 0.1666644 0.0475434
0.9359565 0.1661628 0.0585601
0.9464988 0.1651976 0.0698708
0.9568709 0.1639802 0.0812837
0.0377019 0.1074723 0.0310045
0.0485688 0.1061396 0.0308248
0.0626584 0.1058491 0.0288360
0.0858778 0.1090419 0.0230676
0.1271627 0.1205338 0.0145192
0.1970424 0.1510545 0.0125793
0.2624558 0.1807285 0.0178686
0.2984299 0.1901200 0.0237463
0.3230058 0.1883398 0.0290235
0.3489812 0.1824835 0.0319944
0.3829863 0.1770057 0.0320385
0.4273706 0.1750152 0.0301923
0.4780402 0.1770098 0.0276476
0.5282398 0.1810960 0.0246422
0.5721952 0.1847461 0.0210668
0.6088638 0.1865675 0.0168787
0.6402663 0.1864893 0.0122686
0.6688113 0.1852321 0.0076876
0.6960754 0.1835075 0.0035988
0.7228782 0.1821003 0.0005144
0.7493219 0.1815842 0.0000000
0.7749339 0.1821416 0.0000000
0.7993396 0.1838803 0.0013263
0.8222220 0.1865336 0.0054369
0.8433039 0.1895532 0.0111687
0.8624326 0.1923296 0.0181313
0.8795965 0.1943851 0.0259440
0.8949214 0.1953950 0.0343411
0.9086688 0.1951198 0.0431407
0.9212213 0.1935355 0.0522528
0.9329683 0.1910095 0.0617006
0.9442828 0.1879738 0.0714447
0.9554032 0.1846401 0.0813076
0.0592788 0.1460058 0.0463684
0.0759012 0.1494517 0.0454163
0.0945977 0.1533575 0.0434602
0.1185737 0.1587548 0.0390813
0.1506523 0.1665037 0.0315688
0.1937011 0.1788758 0.0238217
0.2430270 0.1956939 0.0216249
0.2815205 0.2063287 0.0246373
0.3060117 0.2059283 0.0290047
0.3280031 0.1997075 0.0322965
0.3580018 0.1936978 0.0332537
0.4008381 0.1917008 0.0323443
0.4552358 0.1948593 0.0305932
0.5136778 0.2017711 0.0287661
0.5656454 0.2090248 0.0266304
0.6069967 0.2141019 0.0237741
0.6402706 0.2165534 0.0202669
0.6682950 0.2168303 0.0165549
0.6935091 0.2158797 0.0130700
0.7177574 0.2148342 0.0103571
0.7422000 0.2147236 0.0090472
0.7667071 0.2157938 0.0094750
0.7908598 0.2180849 0.0118666
0.8140761 0.2212150 0.0160133
0.8358346 0.2243908 0.0215350
0.8557658 0.2268201 0.0279518
0.8737437 0.2280731 0.0349267
0.8898400 0.2278818 0.0422083
0.9043467 0.2260518 0.0496664
0.9176241 0.2227317 0.0573148
0.9300838 0.2183705 0.0652455
0.9421192 0.2135185 0.0734921
0.9539673 0.2084522 0.0819016
0.0776420 0.1810571 0.0575505
0.0984053 0.1877015 0.0571273
0.1200519 0.1942621 0.0561494
0.1441369 0.2010415 0.0537468
0.1714522 0.2077131 0.0486276
0.2029965 0.2147008 0.0413386
0.2379790 0.2221611 0.0352816
0.2700769 0.2272169 0.0332712
0.2927298 0.2249809 0.0337809
0.3107872 0.2167456 0.0344440
0.3357987 0.2090523 0.0343141
0.3744294 0.2063589 0.0334096
0.4262526 0.2094204 0.0321468
0.4856154 0.2168132 0.0308019
0.5460271 0.2269750 0.0295031
0.6001324 0.2373496 0.0281309
0.6427452 0.2448381 0.0262867
0.6734884 0.2478726 0.0239879
0.6974004 0.2480151 0.0214856
0.7191765 0.2477356 0.0195959
0.7413048 0.2485155 0.0189895
0.7641818 0.2507074 0.0200448
0.7873322 0.2540853 0.0228964
0.8099228 0.2578388 0.0271030
0.8313627 0.2611347 0.0323111
0.8511631 0.2631147 0.0379780
0.8691670 0.2634744 0.0439157
0.8855193 0.2620536 0.0499566
0.9004622 0.2588694 0.0560932
0.9142726 0.2541339 0.0623815
0.9273342 0.2483361 0.0689113
0.9400058 0.2420742 0.0757598
0.9525631 0.2356609 0.0828284
0.0909244 0.2111970 0.0637381
0.1136454 0.2191137 0.0643730
0.1363773 0.2265729 0.0647366
0.1595664 0.2333259 0.0643415
0.1833869 0.2388388 0.0620347
0.2085847 0.2434013 0.0572524
0.2357110 0.2473595 0.0513556
0.2622000 0.2491127 0.0465087
0.2838723 0.2459215 0.0432675
0.3020148 0.2379328 0.0405759
0.3244108 0.2296308 0.0379786
0.3572628 0.2249870 0.0354500
0.4014969 0.2250891 0.0331118
0.4552407 0.2300223 0.0312341
0.5151561 0.2395067 0.0299370
0.5770637 0.2527677 0.0292797
0.6341439 0.2669468 0.0291398
0.6762891 0.2763857 0.0289735
0.7029160 0.2793433 0.0281118
0.7238305 0.2805460 0.0275701
0.7448909 0.2831425 0.0283505
0.7665657 0.2869983 0.0305577
0.7884215 0.2914220 0.0339372
0.8096549 0.2954558 0.0380554
0.8297708 0.2983634 0.0425559
0.8485668 0.2996622 0.0472005
0.8658688 0.2990313 0.0518781
0.8819940 0.2966030 0.0566887
0.8970476 0.2924947 0.0616707
0.9112100 0.2869161 0.0668180
0.9247879 0.2803269 0.0721904
0.9380563 0.2732777 0.0778742
0.9512275 0.2660653 0.0837700
0.0988557 0.2365082 0.0656351
0.1216986 0.2441288 0.0672811
0.1441795 0.2512136 0.0688420
0.1660386 0.2571751 0.0700249
0.1872489 0.2615228 0.0700866
0.2082749 0.2642721 0.0681128
0.2304251 0.2663468 0.0641414
0.2537461 0.2674670 0.0591475
0.2762663 0.2658356 0.0541561
0.2974698 0.2607019 0.0491832
0.3206339 0.2540210 0.0441070
0.3494920 0.2481522 0.0391160
0.3857266 0.2444897 0.0345197
0.4305638 0.2448135 0.0308064
0.4848070 0.2511884 0.0285778
0.5453344 0.2632320 0.0277579
0.6063242 0.2787623 0.0280593
0.6597647 0.2940027 0.0292449
0.6991799 0.3049068 0.0309247
0.7265567 0.3115522 0.0330259
0.7500598 0.3179922 0.0362507
0.7720964 0.3244714 0.0404065
0.7927804 0.3296758 0.0444704
0.8121369 0.3330095 0.0480301
0.8304347 0.3345733 0.0512177
0.8477016 0.3344580 0.0542866
0.8638692 0.3326344 0.0574439
0.8793122 0.3295129 0.0610922
0.8941594 0.3252323 0.0652608
0.9085388 0.3197899 0.0697812
0.9225625 0.3133122 0.0744808
0.9363588 0.3062855 0.0794331
0.9500783 0.2991258 0.0846014
0.1020432 0.2578360 0.0647065
0.1240619 0.2643350 0.0670419
0.1455326 0.2702809 0.0692980
0.1660673 0.2751734 0.0714029
0.1854677 0.2785578 0.0729092
0.2040680 0.2803116 0.0730042
0.2232347 0.2813157 0.0712336
0.2445634 0.2824655 0.0676684
0.2678224 0.2828142 0.0626648
0.2919953 0.2810521 0.0567145
0.3171600 0.2769436 0.0499817
0.3447610 0.2714947 0.0428825
0.3765889 0.2661963 0.0360475
0.4147880 0.2632819 0.0302839
0.4614410 0.2654649 0.0262886
0.5159296 0.2738609 0.0242966
0.5735415 0.2869138 0.0240343
0.6284215 0.3021945 0.0253031
0.6764094 0.3178646 0.0282929
0.7166108 0.3333856 0.0333515
0.7499336 0.3482341 0.0403142
0.7764620 0.3599445 0.0476289
0.7971197 0.3660877 0.0526010
0.8151158 0.3684630 0.0555195
0.8318793 0.3682930 0.0571210
0.8475984 0.3660240 0.0580659
0.8626298 0.3627588 0.0594990
0.8773230 0.3591564 0.0620177
0.8919000 0.3553679 0.0657046
0.9064596 0.3511152 0.0702092
0.9207986 0.3459330 0.0750381
0.9350157 0.3400112 0.0799790
0.9492096 0.3338350 0.0849966
0.1014810 0.2761479 0.0624803
0.1223091 0.2812064 0.0648732
0.1426554 0.2858463 0.0672460
0.1620945 0.2896666 0.0695644
0.1804155 0.2923026 0.0715389
0.1979684 0.2937607 0.0726827
0.2159271 0.2946432 0.0724300
0.2359764 0.2958307 0.0703451
0.2589486 0.2972340 0.0661875
0.2842823 0.2976635 0.0602096
0.3109127 0.2958627 0.0527687
0.3389434 0.2919800 0.0445664
0.3696715 0.2872564 0.0363522
0.4049269 0.2836534 0.0290370
0.4462636 0.2832855 0.0233925
0.4939828 0.2877604 0.0197684
0.5458338 0.2970560 0.0182641
0.5984334 0.3103126 0.0189878
0.6486891 0.3265289 0.0221472
0.6946246 0.3449021 0.0280823
0.7351838 0.3642789 0.0366282
0.7689738 0.3816611 0.0461489
0.7945806 0.3925098 0.0533700
0.8148377 0.3973395 0.0574107
0.8318096 0.3970247 0.0583681
0.8467364 0.3929639 0.0573844
0.8612547 0.3888669 0.0574917
0.8757844 0.3855865 0.0594707
0.8904013 0.3828467 0.0631047
0.9050253 0.3800932 0.0678679
0.9195658 0.3769034 0.0733009
0.9340818 0.3730646 0.0789080
0.9485760 0.3687192 0.0843327
0.0981574 0.2922675 0.0599464
0.1179319 0.2959877 0.0617878
0.1373453 0.2994396 0.0636392
0.1560371 0.3023371 0.0654842
0.1738897 0.3044772 0.0671418
0.1912694 0.3059604 0.0683053
0.2091585 0.3072455 0.0685221
0.2287726 0.3087545 0.0672194
0.2509657 0.3104340 0.0638509
0.2759636 0.3117068 0.0582816
0.3031119 0.3115345 0.0509398
0.3320578 0.3096090 0.0425786
0.3632813 0.3066311 0.0340126
0.3977839 0.3039270 0.0260009
0.4364559 0.3030056 0.0192876
0.4796180 0.3052773 0.0143882
0.5265020 0.3115671 0.0116615
0.5755386 0.3221225 0.0113945
0.6247414 0.3366985 0.0139063
0.6719188 0.3544111 0.0193644
0.7149135 0.3734414 0.0272284
0.7521823 0.3912671 0.0360830
0.7827503 0.4050147 0.0438560
0.8073392 0.4133740 0.0491640
0.8271472 0.4159347 0.0513574
0.8436505 0.4138620 0.0511683
0.8590103 0.4111657 0.0516492
0.8740829 0.4092750 0.0539582
0.8890526 0.4080539 0.0579857
0.9039061 0.4070213 0.0632613
0.9186515 0.4058006 0.0693090
0.9334083 0.4042414 0.0756961
0.9481625 0.4023662 0.0820549
0.0929696 0.3068251 0.0575516
0.1120888 0.3095471 0.0583379
0.1309694 0.3121222 0.0591570
0.1493755 0.3143981 0.0599815
0.1672616 0.3163002 0.0606890
0.1849787 0.3179558 0.0610623
0.2032286 0.3196099 0.0607502
0.2228364 0.3213966 0.0592536
0.2445554 0.3232368 0.0560769
0.2689003 0.3248274 0.0509353
0.2960280 0.3257554 0.0441739
0.3256203 0.3256030 0.0363063
0.3576928 0.3246866 0.0281295
0.3924581 0.3236963 0.0202846
0.4301939 0.3236013 0.0133371
0.4710380 0.3254602 0.0078481
0.5147484 0.3302328 0.0042986
0.5606222 0.3385857 0.0030788
0.6074245 0.3506919 0.0044978
0.6533652 0.3659037 0.0085569
0.6963328 0.3825807 0.0147231
0.7347656 0.3987069 0.0219428
0.7679153 0.4124520 0.0289628
0.7957363 0.4223848 0.0345533
0.8187569 0.4279167 0.0381681
0.8381596 0.4298808 0.0403428
0.8554481 0.4303473 0.0426179
0.8716601 0.4307381 0.0460729
0.8873134 0.4314189 0.0509383
0.9026250 0.4322511 0.0569686
0.9177437 0.4330182 0.0637667
0.9327971 0.4336198 0.0709642
0.9478411 0.4340978 0.0782914
0.0867303 0.3203087 0.0554067
0.1056596 0.3224466 0.0547855
0.1244499 0.3245283 0.0541705
0.1429779 0.3265046 0.0535452
0.1612593 0.3283820 0.0528263
0.1795631 0.3302376 0.0518352
0.1983651 0.3321616 0.0502967
0.2182726 0.3341703 0.0478609
0.2399582 0.3362177 0.0442140
0.2640781 0.3381865 0.0392049
0.2910215 0.3398808 0.0329639
0.3208723 0.3411614 0.0258857
0.3535460 0.3421319 0.0185430
0.3887965 0.3430823 0.0114276
0.4264329 0.3445277 0.0049517
0.4663426 0.3471569 0.0000000
0.5083185 0.3516906 0.0000000
0.5518992 0.3587285 0.0000000
0.5962612 0.3685545 0.0000000
0.6400520 0.3807910 0.0000000
0.6817313 0.3944204 0.0006546
0.7199654 0.4080917 0.0060444
0.7538949 0.4204376 0.0119104
0.7834996 0.4306346 0.0175284
0.8090155 0.4383253 0.0224928
0.8310781 0.4437378 0.0269129
0.8505154 0.4475067 0.0313059
0.8682099 0.4505201 0.0363667
0.8848226 0.4533301 0.0424522
0.9008036 0.4561006 0.0495071
0.9164556 0.4588138 0.0572644
0.9319645 0.4614534 0.0654411
0.9474294 0.4640492 0.0737987
0.0801126 0.3330752 0.0534696
0.0992583 0.3350209 0.0511646
0.1183357 0.3369698 0.0488568
0.1373029 0.3389367 0.0465156
0.1562139 0.3409524 0.0440613
0.1752599 0.3430500 0.0413608
0.1947876 0.3452437 0.0382258
0.2152713 0.3475237 0.0344498
0.2373272 0.3498773 0.0298990
0.2615755 0.3522776 0.0245499
0.2884752 0.3546532 0.0185068
0.3183930 0.3570924 0.0120948
0.3512659 0.3596049 0.0056570
0.3867684 0.3623282 0.0000000
0.4244573 0.3654706 0.0000000
0.4639902 0.3693699 0.0000000
0.5050052 0.3744119 0.0000000
0.5470116 0.3809256 0.0000000
0.5893390 0.3891079 0.0000000
0.6310219 0.3988197 0.0000000
0.6710131 0.4095874 0.0000000
0.7082908 0.4206973 0.0000000
0.7421579 0.4313761 0.0000000
0.7724453 0.4411534 0.0000000
0.7993448 0.4498391 0.0058810
0.8232502 0.4574335 0.0121396
0.8445082 0.4638155 0.0185254
0.8636864 0.4692583 0.0253604
0.8814221 0.4741895 0.0329378
0.8982471 0.4788805 0.0413104
0.9145768 0.4834517 0.0502981
0.9306651 0.4879595 0.0596768
0.9466857 0.4924460 0.0692298
0.0736134 0.3453832 0.0515899
0.0932646 0.3474512 0.0474447
0.1129007 0.3495527 0.0432894
0.1325206 0.3517315 0.0390916
0.1522115 0.3540257 0.0347647
0.1721202 0.3564466 0.0302165
0.1925199 0.3589874 0.0253469
0.2137952 0.3616377 0.0200678
0.2364744 0.3644002 0.0143660
0.2610997 0.3672969 0.0083369
0.2881699 0.3703703 0.0021483
0.3180783 0.3737587 0.0000000
0.3508518 0.3775049 0.0000000
0.3862471 0.3816724 0.0000000
0.4237748 0.3863060 0.0000000
0.4629321 0.3914661 0.0000000
0.5032146 0.3972530 0.0000000
0.5440255 0.4037301 0.0000000
0.5847671 0.4109900 0.0000000
0.6247304 0.4190168 0.0000000
0.6631338 0.4276360 0.0000000
0.6992520 0.4366033 0.0000000
0.7325899 0.4456817 0.0000000
0.7629723 0.4547226 0.0000000
0.7905010 0.4636152 0.0000000
0.8154028 0.4722344 0.0000000
0.8379176 0.4803185 0.0047908
0.8583358 0.4876708 0.0134775
0.8771753 0.4944882 0.0227667
0.8949216 0.5009526 0.0327185
0.9119997 0.5072133 0.0432233
0.9287407 0.5133820 0.0540895
0.9453777 0.5195254 0.0650914
0.0675781 0.3574235 0.0496343
0.0879059 0.3598309 0.0435905
0.1082499 0.3622812 0.0375310
0.1286488 0.3648276 0.0314153
0.1491920 0.3675096 0.0251875
0.1700249 0.3703420 0.0187902
0.1913649 0.3733184 0.0121926
0.2135477 0.3764365 0.0053889
0.2369940 0.3797122 0.0000000
0.2621709 0.3831981 0.0000000
0.2895391 0.3869938 0.0000000
0.3194408 0.3912250 0.0000000
0.3519803 0.3959692 0.0000000
0.3869635 0.4012422 0.0000000
0.4239985 0.4070039 0.0000000
0.4625308 0.4131590 0.0000000
0.5019818 0.4196196 0.0000000
0.5417338 0.4263114 0.0000000
0.5811955 0.4332052 0.0000000
0.6197716 0.4403085 0.0000000
0.6568674 0.4476174 0.0000000
0.6919524 0.4551505 0.0000000
0.7246501 0.4629702 0.0000000
0.7548595 0.4711966 0.0000000
0.7826210 0.4798379 0.0000000
0.8080245 0.4887585 0.0000000
0.8312555 0.4977091 0.0000000
0.8525946 0.5064385 0.0008908
0.8723747 0.5147630 0.0121555
0.8909689 0.5227228 0.0239745
0.9087581 0.5304152 0.0362779
0.9261143 0.5379806 0.0489167
0.9433308 0.5455052 0.0616938
0.0622413 0.3693239 0.0475409
0.0833219 0.3722054 0.0395966
0.1044304 0.3751276 0.0316343
0.1256343 0.3781421 0.0236133
0.1470364 0.3812911 0.0155247
0.1687846 0.3845989 0.0073467
0.1910670 0.3880746 0.0000000
0.2141591 0.3917305 0.0000000
0.2384073 0.3955975 0.0000000
0.2641946 0.3997428 0.0000000
0.2919004 0.4042661 0.0000000
0.3218115 0.4092745 0.0000000
0.3540261 0.4148295 0.0000000
0.3884290 0.4209315 0.0000000
0.4246991 0.4274857 0.0000000
0.4623514 0.4343438 0.0000000
0.5008063 0.4413356 0.0000000
0.5394893 0.4483134 0.0000000
0.5778008 0.4551816 0.0000000
0.6152223 0.4619334 0.0000000
0.6512643 0.4686343 0.0000000
0.6854969 0.4754009 0.0000000
0.7176328 0.4824390 0.0000000
0.7475965 0.4899929 0.0000000
0.7754049 0.4982087 0.0000000
0.8011018 0.5070409 0.0000000
0.8248368 0.5163469 0.0000000
0.8468563 0.5259346 0.0000000
0.8673843 0.5354113 0.0009997
0.8866456 0.5445460 0.0150559
0.9049935 0.5533595 0.0294909
0.9228381 0.5619951 0.0442213
0.9405132 0.5705697 0.0590968
0.0577576 0.3811606 0.0452479
0.0795732 0.3845903 0.0354594
0.1014290 0.3880526 0.0256502
0.1234056 0.3915959 0.0158036
0.1456117 0.3952619 0.0059289
0.1681898 0.3990856 0.0000000
0.1913344 0.4030963 0.0000000
0.2152627 0.4073236 0.0000000
0.2402488 0.4118146 0.0000000
0.2666069 0.4166364 0.0000000
0.2946209 0.4218679 0.0000000
0.3245162 0.4275811 0.0000000
0.3563676 0.4338140 0.0000000
0.3901025 0.4405355 0.0000000
0.4254586 0.4476452 0.0000000
0.4620542 0.4549895 0.0000000
0.4993977 0.4623806 0.0000000
0.5369511 0.4696490 0.0000000
0.5741684 0.4766829 0.0000000
0.6105655 0.4834552 0.0000000
0.6457099 0.4900332 0.0000000
0.6792472 0.4965597 0.0000000
0.7109380 0.5032722 0.0000000
0.7406892 0.5104366 0.0000000
0.7685180 0.5182772 0.0000000
0.7944690 0.5268904 0.0000000
0.8186571 0.5362533 0.0000000
0.8412515 0.5462353 0.0000000
0.8623865 0.5564870 0.0000000
0.8821568 0.5665437 0.0055263
0.9008935 0.5762273 0.0225798
0.9190751 0.5855989 0.0397491
0.9370668 0.5948500 0.0569845
0.0542003 0.3929746 0.0426826
0.0766769 0.3969854 0.0311570
0.0991914 0.4010208 0.0196159
0.1218487 0.4051222 0.0080675
0.1447543 0.4093326 0.0000000
0.1680556 0.4136965 0.0000000
0.1919236 0.4182571 0.0000000
0.2165439 0.4230607 0.0000000
0.2421462 0.4281649 0.0000000
0.2689603 0.4336312 0.0000000
0.2972010 0.4395144 0.0000000
0.3270196 0.4458515 0.0000000
0.3584735 0.4526495 0.0000000
0.3915064 0.4598602 0.0000000
0.4259063 0.4673827 0.0000000
0.4613852 0.4750830 0.0000000
0.4975563 0.4827939 0.0000000
0.5339571 0.4903557 0.0000000
0.5700949 0.4976569 0.0000000
0.6055149 0.5046575 0.0000000
0.6398588 0.5114110 0.0000000
0.6728094 0.5180574 0.0000000
0.7041581 0.5248048 0.0000000
0.7337842 0.5318920 0.0000000
0.7617020 0.5395598 0.0000000
0.7879379 0.5479831 0.0000000
0.8125610 0.5572324 0.0000000
0.8356674 0.5672503 0.0000000
0.8573221 0.5778123 0.0000000
0.8776241 0.5885657 0.0000000
0.8967100 0.5989790 0.0147148
0.9150955 0.6088336 0.0347667
0.9333145 0.6184098 0.0545244
0.0515813 0.4047816 0.0398244
0.0745871 0.4093795 0.0266976
0.0976400 0.4139973 0.0135736
0.1208436 0.4186682 0.0004576
0.1443230 0.4234367 0.0000000
0.1682005 0.4283511 0.0000000
0.1926360 0.4334649 0.0000000
0.2177906 0.4388329 0.0000000
0.2438308 0.4445134 0.0000000
0.2709469 0.4505621 0.0000000
0.2992929 0.4570163 0.0000000
0.3289617 0.4638892 0.0000000
0.3599811 0.4711589 0.0000000
0.3923005 0.4787706 0.0000000
0.4257656 0.4866340 0.0000000
0.4601448 0.4946333 0.0000000
0.4951560 0.5026319 0.0000000
0.5304163 0.5104941 0.0000000
0.5654915 0.5181201 0.0000000
0.5999736 0.5254668 0.0000000
0.6335657 0.5325746 0.0000000
0.6659965 0.5395576 0.0000000
0.6970685 0.5465819 0.0000000
0.7266560 0.5538428 0.0000000
0.7547365 0.5615544 0.0000000
0.7812997 0.5699017 0.0000000
0.8063694 0.5789966 0.0000000
0.8299938 0.5888538 0.0000000
0.8522214 0.5993761 0.0000000
0.8731077 0.6103498 0.0000000
0.8927434 0.6213418 0.0042634
0.9113428 0.6315624 0.0277208
0.9297747 0.6412450 0.0501341
0.0498183 0.4165767 0.0367079
0.0732321 0.4217579 0.0221229
0.0966882 0.4269559 0.0075463
0.1203097 0.4322008 0.0000000
0.1442199 0.4375328 0.0000000
0.1685263 0.4430008 0.0000000
0.1933564 0.4486588 0.0000000
0.2188589 0.4545657 0.0000000
0.2451655 0.4607786 0.0000000
0.2724154 0.4673420 0.0000000
0.3007247 0.4742865 0.0000000
0.3301521 0.4816082 0.0000000
0.3606985 0.4892765 0.0000000
0.3923152 0.4972326 0.0000000
0.4248856 0.5053988 0.0000000
0.4582261 0.5136769 0.0000000
0.4921195 0.5219574 0.0000000
0.5262841 0.5301336 0.0000000
0.5603305 0.5381188 0.0000000
0.5939198 0.5458779 0.0000000
0.6267911 0.5534371 0.0000000
0.6587348 0.5608763 0.0000000
0.6895625 0.5683196 0.0000000
0.7191564 0.5759197 0.0000000
0.7474478 0.5838460 0.0000000
0.7743890 0.5922558 0.0000000
0.7999623 0.6012606 0.0000000
0.8241953 0.6109119 0.0000000
0.8471101 0.6211766 0.0000000
0.8687172 0.6319110 0.0000000
0.8890601 0.6428189 0.0000000
0.9083186 0.6534102 0.0158801
0.9272688 0.6633735 0.0412973
0.0487952 0.4283435 0.0333728
0.0725116 0.4341070 0.0174678
0.0962699 0.4398847 0.0015889
0.1201862 0.4457014 0.0000000
0.1443902 0.4515944 0.0000000
0.1689744 0.4576103 0.0000000
0.1940319 0.4637989 0.0000000
0.2196961 0.4702179 0.0000000
0.2460838 0.4769177 0.0000000
0.2733109 0.4839400 0.0000000
0.3014527 0.4913053 0.0000000
0.3305453 0.4990089 0.0000000
0.3605796 0.5070164 0.0000000
0.3915050 0.5152786 0.0000000
0.4232294 0.5237258 0.0000000
0.4555915 0.5322783 0.0000000
0.4884327 0.5408480 0.0000000
0.5215485 0.5493501 0.0000000
0.5546182 0.5577195 0.0000000
0.5873605 0.5659251 0.0000000
0.6195493 0.5739779 0.0000000
0.6510193 0.5819291 0.0000000
0.6816104 0.5898640 0.0000000
0.7112178 0.5978957 0.0000000
0.7397359 0.6061463 0.0000000
0.7671011 0.6147333 0.0000000
0.7932636 0.6237468 0.0000000
0.8182273 0.6332324 0.0000000
0.8419926 0.6431810 0.0000000
0.8645738 0.6535062 0.0000000
0.8860090 0.6640323 0.0000000
0.9065002 0.6745392 0.0000000
0.9265296 0.6848801 0.0249479
0.0484257 0.4400754 0.0298938
0.0723519 0.4464172 0.0127923
0.0963220 0.4527707 0.0000000
0.1204302 0.4591560 0.0000000
