catalog/styles/series/late-summer/series-late-summer-contrast/look.cube
# series-late-summer-contrast iteration 4
LUT_3D_SIZE 9
DOMAIN_MIN 0 0 0
DOMAIN_MAX 1 1 1
0.0416531 0.0452362 0.0422787
0.1245401 0.0207933 0.0095672
0.4468303 0.0502588 0.0226370
0.6951811 0.0474853 0.0000000
0.8228531 0.0395624 0.0000000
0.8858137 0.0428926 0.0000000
0.9106696 0.0499111 0.0000000
0.9363543 0.0659992 0.0181594
0.9638367 0.0958477 0.0870860
0.0165446 0.0689331 0.0143191
0.1283370 0.0968096 0.0072879
0.3360541 0.1656402 0.0294747
0.4956243 0.1546248 0.0228945
0.6497841 0.1557591 0.0031083
0.7639998 0.1499580 0.0000000
0.8535546 0.1573106 0.0017464
0.9133776 0.1664187 0.0369658
0.9568709 0.1639802 0.0812837
0.0909244 0.2111970 0.0637381
0.1833869 0.2388388 0.0620347
0.2838723 0.2459215 0.0432675
0.4014969 0.2250891 0.0331118
0.6341439 0.2669468 0.0291398
0.7448909 0.2831425 0.0283505
0.8297708 0.2983634 0.0425559
0.8970476 0.2924947 0.0616707
0.9512275 0.2660653 0.0837700
0.0981574 0.2922675 0.0599464
0.1738897 0.3044772 0.0671418
0.2509657 0.3104340 0.0638509
0.3632813 0.3066311 0.0340126
0.5265020 0.3115671 0.0116615
0.7149135 0.3734414 0.0272284
0.8271472 0.4159347 0.0513574
0.8890526 0.4080539 0.0579857
0.9481625 0.4023662 0.0820549
0.0736134 0.3453832 0.0515899
0.1522115 0.3540257 0.0347647
0.2364744 0.3644002 0.0143660
0.3508518 0.3775049 0.0000000
0.5032146 0.3972530 0.0000000
0.6631338 0.4276360 0.0000000
0.7905010 0.4636152 0.0000000
0.8771753 0.4944882 0.0227667
0.9453777 0.5195254 0.0650914
0.0542003 0.3929746 0.0426826
0.1447543 0.4093326 0.0000000
0.2421462 0.4281649 0.0000000
0.3584735 0.4526495 0.0000000
0.4975563 0.4827939 0.0000000
0.6398588 0.5114110 0.0000000
0.7617020 0.5395598 0.0000000
0.8573221 0.5778123 0.0000000
0.9333145 0.6184098 0.0545244
0.0484257 0.4400754 0.0298938
0.1447922 0.4656054 0.0000000
0.2465865 0.4929229 0.0000000
0.3596761 0.5244436 0.0000000
0.4841236 0.5593901 0.0000000
0.6118728 0.5942101 0.0000000
0.7315941 0.6282781 0.0000000
0.8368567 0.6653421 0.0000000
0.9274332 0.7060933 0.0008741
0.0514737 0.4868984 0.0151134
0.1475089 0.5210588 0.0000000
0.2455068 0.5558995 0.0000000
0.3503424 0.5926432 0.0000000
0.4620185 0.6318363 0.0000000
0.5778681 0.6727438 0.0000000
0.6958947 0.7140299 0.0000000
0.8159192 0.7545449 0.0000000
0.9356274 0.7942172 0.0000000
0.0572543 0.5337066 0.0000000
0.1502641 0.5759494 0.0000000
0.2424932 0.6182225 0.0000000
0.3374324 0.6605614 0.0000000
0.4363954 0.7039200 0.0000000
0.5416032 0.7495274 0.0000000
0.6589361 0.7968401 0.0000000
0.7941765 0.8436471 0.0000000
0.9414226 0.8892793 0.0000000
0.0180354 0.0408525 0.2051340
0.0775111 0.0102232 0.0826460
0.3445152 0.0196389 0.1033779
0.6552088 0.0643278 0.1282242
0.8323086 0.1079175 0.1382253
0.9016252 0.1433330 0.1432237
0.9233091 0.1805565 0.1574301
0.9374374 0.2370583 0.2003686
0.9647581 0.2963815 0.2640974
0.0165468 0.1352165 0.1205680
0.0794786 0.0804169 0.0909739
0.1878572 0.0786292 0.0929897
0.4463720 0.1205061 0.1144208
0.6466096 0.1701380 0.1279801
0.7794907 0.2142392 0.1434566
0.8677845 0.2544517 0.1662517
0.9256144 0.2868220 0.1981413
0.9719484 0.3173242 0.2355779
0.0166621 0.2217923 0.1293323
0.1429561 0.2253746 0.1197315
0.2944539 0.2624633 0.1087761
0.3476323 0.2159719 0.1160183
0.5090088 0.2184859 0.1125377
0.6971108 0.2717740 0.1296087
0.8259559 0.3297498 0.1638430
0.9062823 0.3597838 0.1925675
0.9641920 0.3665944 0.2137943
0.0388378 0.3317690 0.1605783
0.1446884 0.3189424 0.1394651
0.2339487 0.3067009 0.1242336
0.3251952 0.2988459 0.1107060
0.4900031 0.3191314 0.1192874
0.6560329 0.3373529 0.1114749
0.7982028 0.4110537 0.1466891
0.8839069 0.4415589 0.1732094
0.9465841 0.4474172 0.1936004
0.0405281 0.4090203 0.1660823
0.1363569 0.3964946 0.1406281
0.2376340 0.3938659 0.1148148
0.3436276 0.4000632 0.0760833
0.4760415 0.4052922 0.0590157
0.6540145 0.4424967 0.0810861
0.7729038 0.4650635 0.0886460
0.8580054 0.5043278 0.1236010
0.9338970 0.5381502 0.1620992
0.0267023 0.4637594 0.1584584
0.1286690 0.4635959 0.1196447
0.2344629 0.4673418 0.0773696
0.3447929 0.4745364 0.0332126
0.4714596 0.4900855 0.0067607
0.6245272 0.5259771 0.0174482
0.7595056 0.5634647 0.0436766
0.8475234 0.5905716 0.0754677
0.9281796 0.6264927 0.1194451
0.0134965 0.5112456 0.1397426
0.1204464 0.5218424 0.0877820
0.2278769 0.5325478 0.0365180
0.3393186 0.5461634 0.0000000
0.4605005 0.5687560 0.0000000
0.5916469 0.6032351 0.0000000
0.7217353 0.6448928 0.0000000
0.8344354 0.6835991 0.0287667
0.9324046 0.7173495 0.0678245
0.0051480 0.5563304 0.1130191
0.1126493 0.5760832 0.0534044
0.2208052 0.5964048 0.0000000
0.3311564 0.6193447 0.0000000
0.4451551 0.6475567 0.0000000
0.5640447 0.6827318 0.0000000
0.6879881 0.7242859 0.0000000
0.8134363 0.7681798 0.0000000
0.9374922 0.8098343 0.0173998
0.0000000 0.6009173 0.0845611
0.1052796 0.6297826 0.0191763
0.2132743 0.6598696 0.0000000
0.3210886 0.6922747 0.0000000
0.4289114 0.7271049 0.0000000
0.5396174 0.7644160 0.0000000
0.6593299 0.8053652 0.0000000
0.7931539 0.8509946 0.0000000
0.9375269 0.8999502 0.0000000
0.0451340 0.0925652 0.5126663
0.1117748 0.0273947 0.2778845
0.2976480 0.0157594 0.2120052
0.5523329 0.0606130 0.2413055
0.7568309 0.1369941 0.2870271
0.8708990 0.2130618 0.3205864
0.9272655 0.2842878 0.3482557
0.9637698 0.3587066 0.3807985
0.9954875 0.4425228 0.4232514
0.0266484 0.1917621 0.3759929
0.1063735 0.1443698 0.2946675
0.2040891 0.0723704 0.1871586
0.4662561 0.1237774 0.2266268
0.6637514 0.1966327 0.2684829
0.7892826 0.2649377 0.2974104
0.8787783 0.3308341 0.3277867
0.9411383 0.3869493 0.3574285
0.9942929 0.4363756 0.3844520
0.0124132 0.2990053 0.2980196
0.1147705 0.2669997 0.2929102
0.2170332 0.2229420 0.2402116
0.3598698 0.2065793 0.2061215
0.5619736 0.2501587 0.2195324
0.7172040 0.3144751 0.2617137
0.8328502 0.3770562 0.3013159
0.9126075 0.4211235 0.3301286
0.9779115 0.4530979 0.3525312
0.0245269 0.3959334 0.2824809
0.1184754 0.3578833 0.2611286
0.2222323 0.3200612 0.2261656
0.3306522 0.3122490 0.2013697
0.5005831 0.3397988 0.2094831
0.6609973 0.3708643 0.2229132
0.7851254 0.4229254 0.2605554
0.8741777 0.4658045 0.2939424
0.9502144 0.4964978 0.3204707
0.0205084 0.4769720 0.2900624
0.1173769 0.4440468 0.2570574
0.2271931 0.4213843 0.2260283
0.3462029 0.4204425 0.1916381
0.4620741 0.4211274 0.1642708
0.6382150 0.4611380 0.2039492
0.7584995 0.4883759 0.2202313
0.8424216 0.5244203 0.2476506
0.9252821 0.5653714 0.2804954
0.0000000 0.5339767 0.2790279
0.1079226 0.5166316 0.2430682
0.2211069 0.5044598 0.2059065
0.3328160 0.4968734 0.1632789
0.4483573 0.4985041 0.1280432
0.5994264 0.5333590 0.1407737
0.7487484 0.5849777 0.1804126
0.8380625 0.6147000 0.2094880
0.9196417 0.6497334 0.2392084
0.0000000 0.5810692 0.2506306
0.0924084 0.5764213 0.2118453
0.2081681 0.5729317 0.1733603
0.3224333 0.5723188 0.1373664
0.4404980 0.5813514 0.1113820
0.5714299 0.6110727 0.1106531
0.7089865 0.6591149 0.1385811
0.8274493 0.7035157 0.1737541
0.9292507 0.7412185 0.2053261
0.0000000 0.6249568 0.2126801
0.0759828 0.6307020 0.1738800
0.1948376 0.6373883 0.1381627
0.3134482 0.6479642 0.1099297
0.4322671 0.6662451 0.0935882
0.5539430 0.6950291 0.0932006
0.6807445 0.7349349 0.1113879
0.8090924 0.7811644 0.1420492
0.9351655 0.8271328 0.1746595
0.0000000 0.6680278 0.1714775
0.0598388 0.6840663 0.1354243
0.1824969 0.7016928 0.1033745
0.3039100 0.7231924 0.0813264
0.4217600 0.7494542 0.0724344
0.5393681 0.7799495 0.0758833
0.6620549 0.8154022 0.0898544
0.7936121 0.8580632 0.1140806
0.9338288 0.9064735 0.1457016
0.1052538 0.1656128 0.6938605
0.1847907 0.0831880 0.4908609
0.3185340 0.0522120 0.3727057
0.5010338 0.0857743 0.3673560
0.6823090 0.1586461 0.4130703
0.8231922 0.2477045 0.4621498
0.9192481 0.3367634 0.4988567
0.9890234 0.4229651 0.5269605
1.0000000 0.5085757 0.5526792
0.0676151 0.2520331 0.6361832
0.1578293 0.2049443 0.5032267
0.2741729 0.1557571 0.4029964
0.4617885 0.1697996 0.3849369
0.6548539 0.2377135 0.4171994
0.7890734 0.3097386 0.4471687
0.8843194 0.3810686 0.4746546
0.9590348 0.4486397 0.4996659
1.0000000 0.5122886 0.5220622
0.0092098 0.2527520 0.3690223
0.1538586 0.3580218 0.5334082
0.2604085 0.2997867 0.4702793
0.4232821 0.2730760 0.4140480
0.6163682 0.3145075 0.4061784
0.7535662 0.3701020 0.4200123
0.8490977 0.4259361 0.4464228
0.9257302 0.4755528 0.4704914
0.9958467 0.5221651 0.4928732
0.0527310 0.4532832 0.4256996
0.1174619 0.4294577 0.4476246
0.1862364 0.3707459 0.4176267
0.3772352 0.3818963 0.4122241
0.5340222 0.3768082 0.3733391
0.7214301 0.4395959 0.3777403
0.8150551 0.4762982 0.4112967
0.8880833 0.5088334 0.4364589
0.9593719 0.5476848 0.4636510
0.0227825 0.5488053 0.4343029
0.0965023 0.4988210 0.4016233
0.1997108 0.4639194 0.3756742
0.3435253 0.4471669 0.3537467
0.5067725 0.4838320 0.3684106
0.6403687 0.4960039 0.3521485
0.7821409 0.5459132 0.3867773
0.8556033 0.5689899 0.4055602
0.9255617 0.6024824 0.4319655
0.0000000 0.6038656 0.4075192
0.0783287 0.5677969 0.3713981
0.1969787 0.5438906 0.3431167
0.3305375 0.5343272 0.3228518
0.4580591 0.5365515 0.3084157
0.5869948 0.5555643 0.3087007
0.7365194 0.6075751 0.3438206
0.8354440 0.6502005 0.3764625
0.9114595 0.6830987 0.4014665
0.0000000 0.6492092 0.3658348
0.0585150 0.6292324 0.3347665
0.1827085 0.6139386 0.3082002
0.3116571 0.6076512 0.2897852
0.4397739 0.6122886 0.2800863
0.5671686 0.6329175 0.2820603
0.6981995 0.6753012 0.3048244
0.8177704 0.7255604 0.3414305
0.9195368 0.7706151 0.3788892
0.0000000 0.6918364 0.3172282
0.0363554 0.6850946 0.2934889
0.1663438 0.6797267 0.2728176
0.2966506 0.6801115 0.2599092
0.4270926 0.6916120 0.2587072
0.5551543 0.7156653 0.2680384
0.6799163 0.7508876 0.2873640
0.8038030 0.7946525 0.3165233
0.9273274 0.8417667 0.3488840
0.0000000 0.7337950 0.2653853
0.0130944 0.7390420 0.2515355
0.1501621 0.7448712 0.2385518
0.2835932 0.7537005 0.2320407
0.4123786 0.7691448 0.2359930
0.5391416 0.7935147 0.2501689
0.6663255 0.8260555 0.2719209
0.7970561 0.8652921 0.2989304
0.9324061 0.9090297 0.3305789
0.1860141 0.2557332 0.7865651
0.2846320 0.1888255 0.6734673
0.3900276 0.1462247 0.5734925
0.5163610 0.1563168 0.5358970
0.6561228 0.2078444 0.5537604
0.7896960 0.2815736 0.5917567
0.9034430 0.3641469 0.6252763
0.9994461 0.4480208 0.6496136
1.0000000 0.5309685 0.6687802
0.1335282 0.3116157 0.7635584
0.2501176 0.2957967 0.6844147
0.3761634 0.2796683 0.6269893
0.5080426 0.2721518 0.5860096
0.6523733 0.3026010 0.5802895
0.7828774 0.3579005 0.5948898
0.8864233 0.4201916 0.6125056
0.9737513 0.4840371 0.6290106
1.0000000 0.5477971 0.6455762
0.0371550 0.3429944 0.6726593
0.2069599 0.3979944 0.6700192
0.3652913 0.4258271 0.6894768
0.5050903 0.4011387 0.6476728
0.6476882 0.4003490 0.6095416
0.7741584 0.4335375 0.5942450
0.8685243 0.4768021 0.5966283
0.9467479 0.5221978 0.6090165
1.0000000 0.5673920 0.6242310
0.0218349 0.4254431 0.5455759
0.1459272 0.4891063 0.6310239
0.2724968 0.4963682 0.6636807
0.5035523 0.5518869 0.7078461
0.6276628 0.4982707 0.6296135
0.7500173 0.5063646 0.5839624
0.8494456 0.5409727 0.5764478
0.9186237 0.5693831 0.5903886
0.9816756 0.5972798 0.6079629
0.0286199 0.6034119 0.5809506
0.0797897 0.5511519 0.5613881
0.1752999 0.5293624 0.5649986
0.3891998 0.5742872 0.6064365
0.5786271 0.5853040 0.6125385
0.6709156 0.5488485 0.5461653
0.8281955 0.6252091 0.5579191
0.8896181 0.6336511 0.5769643
0.9438101 0.6468065 0.5947641
0.0000000 0.6720291 0.5419170
0.0471818 0.6201372 0.5083599
0.1584661 0.5888216 0.4911750
0.3334438 0.5974281 0.5017629
0.5177280 0.6269886 0.5340823
0.6496929 0.6502578 0.5519956
0.7479041 0.6554772 0.5273343
0.8572753 0.7074737 0.5636610
0.9178532 0.7214647 0.5783050
0.0000000 0.7149237 0.4865751
0.0219651 0.6835590 0.4619731
0.1499053 0.6591739 0.4441451
0.2995847 0.6510622 0.4430304
0.4657866 0.6682359 0.4673404
0.6128180 0.6991464 0.4991467
0.7154215 0.7162508 0.5024285
0.8178903 0.7553370 0.5241231
0.9064163 0.7949918 0.5557549
0.0000000 0.7553138 0.4290160
0.0000000 0.7400366 0.4158566
0.1352034 0.7262961 0.4057662
0.2806390 0.7187623 0.4047449
0.4293920 0.7251769 0.4195280
0.5731195 0.7491986 0.4477625
0.6970543 0.7808178 0.4752817
0.8034101 0.8122577 0.4977302
0.9120571 0.8523077 0.5283392
0.0000000 0.7969219 0.3707646
0.0000000 0.7941869 0.3703731
0.1170525 0.7903827 0.3690520
0.2624599 0.7867086 0.3707075
0.3991491 0.7885958 0.3799957
0.5328968 0.8034332 0.4017504
0.6681146 0.8340433 0.4366978
0.8015888 0.8730610 0.4772300
0.9315535 0.9126940 0.5177513
0.3065164 0.3764778 0.8398410
0.4089083 0.3217754 0.8233146
0.4964099 0.2816039 0.7801662
0.5815729 0.2689664 0.7382520
0.6774140 0.2891019 0.7249640
0.7834061 0.3335556 0.7356989
0.8914414 0.3920655 0.7532297
0.9962880 0.4570990 0.7665031
1.0000000 0.5246726 0.7757350
0.2437075 0.4181639 0.8647414
0.3547911 0.4057205 0.8343778
0.4658100 0.3936822 0.8057777
0.5684660 0.3835710 0.7760819
0.6729404 0.3888048 0.7540825
0.7828794 0.4178260 0.7489391
0.8869607 0.4607145 0.7521653
0.9827317 0.5091601 0.7575122
1.0000000 0.5595158 0.7638383
0.1587631 0.4859883 0.8659743
0.2818983 0.4799489 0.8224156
0.4172710 0.4939522 0.8188153
0.5493203 0.4954253 0.8094662
0.6719074 0.4924745 0.7845074
0.7841580 0.5041098 0.7613917
0.8816323 0.5298962 0.7492771
0.9673285 0.5623889 0.7482659
1.0000000 0.5968722 0.7520086
0.0576945 0.5309888 0.7753310
0.1807644 0.5439948 0.7758077
0.3070590 0.5502056 0.7920719
0.5135656 0.6002395 0.8203513
0.6820100 0.6115437 0.8149324
0.7809316 0.5892441 0.7664862
0.8688601 0.5992786 0.7412607
0.9464182 0.6202988 0.7382511
1.0000000 0.6416205 0.7436985
0.0503795 0.6480702 0.7190019
0.0751741 0.6028120 0.7047696
0.1865440 0.5936550 0.7275458
0.3742439 0.6057685 0.7322482
0.7150586 0.7563706 0.8419558
0.7591860 0.6671905 0.7568876
0.8334360 0.6604950 0.7220108
0.9164961 0.6857480 0.7277098
0.9838927 0.6989498 0.7413630
0.0000000 0.7296161 0.6742433
0.0343687 0.6804156 0.6517060
0.1345238 0.6503345 0.6439072
0.3021408 0.6522302 0.6632394
0.6040161 0.7608934 0.7552615
0.7346330 0.7551317 0.7601140
0.7670795 0.6993471 0.6848629
0.8825428 0.7584203 0.7204558
0.9482153 0.7659156 0.7378346
0.0000000 0.7728886 0.6132651
0.0000000 0.7411722 0.5961256
0.1194283 0.7165440 0.5863546
0.2869276 0.7120156 0.5974657
0.4891337 0.7319121 0.6367744
0.6899278 0.7861346 0.7099886
0.7777404 0.7950824 0.7164505
0.8346460 0.7974149 0.6976884
0.9153430 0.8239188 0.7224670
0.0000000 0.8139028 0.5507967
0.0000000 0.7957075 0.5438898
0.1034924 0.7795508 0.5409317
0.2656553 0.7685228 0.5482967
0.4335221 0.7691309 0.5721118
0.6004389 0.7909288 0.6154128
0.7353766 0.8252879 0.6595659
0.8175859 0.8405206 0.6722941
0.8988012 0.8603856 0.6911157
0.0000000 0.8568132 0.4899423
0.0000000 0.8489611 0.4945554
0.0819678 0.8387653 0.4991018
0.2442183 0.8262199 0.5050138
0.3907086 0.8167124 0.5164623
0.5294365 0.8194896 0.5393645
0.6687332 0.8423861 0.5799115
0.8040180 0.8809417 0.6341143
0.9279939 0.9206157 0.6885872
0.4725178 0.5120143 0.9117999
0.5462121 0.4623546 0.9607494
0.6109628 0.4257115 0.9655396
0.6665279 0.4007620 0.9423681
0.7263987 0.3933811 0.9174483
0.8010056 0.4053683 0.9037533
0.8895994 0.4319140 0.8969679
0.9863605 0.4663481 0.8895994
1.0000000 0.5036528 0.8806623
0.3831118 0.5451657 0.9615058
0.4650098 0.5213674 0.9616621
0.5452655 0.5015205 0.9569068
0.6232455 0.4874683 0.9435765
0.7041139 0.4814239 0.9253564
0.7932774 0.4881580 0.9095434
0.8888655 0.5069694 0.8985854
0.9858678 0.5327169 0.8900240
1.0000000 0.5609632 0.8822784
0.2991282 0.5967945 0.9574679
0.3717810 0.5764372 0.9472374
0.4639590 0.5675237 0.9413972
0.5749944 0.5699238 0.9401294
0.6849258 0.5703010 0.9304733
0.7882842 0.5719426 0.9133009
0.8873888 0.5820825 0.8982405
0.9826172 0.5993013 0.8884650
1.0000000 0.6191185 0.8814413
0.2281933 0.6558394 0.8979538
0.2561558 0.6277562 0.9056710
0.3600201 0.6227414 0.9131925
0.5143283 0.6389866 0.9232068
0.6721711 0.6607846 0.9276730
0.7884397 0.6579682 0.9112558
0.8825351 0.6560679 0.8926875
0.9718273 0.6656236 0.8830742
1.0000000 0.6792293 0.8784575
0.1247203 0.7189686 0.8408812
0.1282716 0.6822184 0.8502821
0.2494709 0.6792408 0.8650032
0.4373723 0.6945127 0.8884499
0.6477058 0.7351079 0.9009498
0.8027904 0.7536667 0.9075021
0.8699824 0.7268880 0.8801147
0.9478725 0.7286112 0.8711300
1.0000000 0.7421207 0.8744837
0.0000000 0.7742492 0.7998237
0.0360277 0.7447901 0.7938048
0.1522198 0.7306445 0.7933049
0.3336937 0.7433612 0.8154270
0.5834972 0.7771113 0.8471144
0.7997234 0.8369741 0.8974963
0.8459068 0.7903294 0.8615362
0.9069403 0.7823357 0.8492467
0.9971210 0.8067089 0.8700380
0.0000000 0.8227265 0.7431264
0.0000000 0.8005217 0.7339997
0.1062821 0.7843008 0.7314788
0.2785743 0.7835421 0.7454394
0.4874456 0.7987096 0.7778919
0.7176075 0.8430221 0.8380634
0.8010240 0.8273409 0.8316615
0.8637803 0.8294490 0.8241517
0.9568479 0.8613904 0.8581554
0.0000000 0.8678069 0.6803502
0.0000000 0.8520807 0.6779810
0.0746587 0.8383122 0.6800836
0.2556071 0.8296440 0.6918054
0.4400323 0.8281001 0.7157918
0.6177204 0.8355844 0.7508494
0.7625737 0.8588027 0.7929360
0.8348319 0.8666681 0.8018589
0.9190779 0.8900232 0.8294612
0.0000000 0.9128408 0.6168102
0.0000000 0.9031979 0.6249619
0.0406213 0.8912452 0.6333152
0.2292624 0.8757578 0.6421193
0.3966157 0.8608806 0.6552170
0.5469197 0.8557336 0.6774956
0.6847295 0.8678805 0.7125920
0.8079851 0.8954854 0.7603004
0.9191020 0.9293671 0.8152458
0.6477366 0.6359447 1.0000000
0.6868495 0.5991625 1.0000000
0.7218530 0.5651374 1.0000000
0.7519835 0.5341708 1.0000000
0.7856641 0.5082581 1.0000000
0.8322990 0.4907846 1.0000000
0.8960079 0.4818605 1.0000000
0.9734591 0.4788227 1.0000000
1.0000000 0.4779721 0.9875717
0.5339137 0.6686011 1.0000000
0.5785804 0.6376736 1.0000000
0.6241572 0.6101980 1.0000000
0.6757140 0.5887859 1.0000000
0.7370096 0.5727569 1.0000000
0.8095278 0.5619893 1.0000000
0.8933197 0.5572982 1.0000000
0.9850412 0.5573755 1.0000000
1.0000000 0.5594328 1.0000000
0.4251966 0.7072978 1.0000000
0.4670441 0.6777028 1.0000000
0.5210849 0.6538691 1.0000000
0.5976210 0.6412654 1.0000000
0.6897942 0.6358845 1.0000000
0.7877924 0.6321809 1.0000000
0.8898102 0.6315907 1.0000000
0.9939812 0.6347979 1.0000000
1.0000000 0.6395941 1.0000000
0.3216607 0.7533859 1.0000000
0.3439115 0.7210435 1.0000000
0.4104477 0.6989106 1.0000000
0.5161704 0.6891378 1.0000000
0.6420198 0.6924100 1.0000000
0.7686386 0.6995536 1.0000000
0.8857249 0.7037921 1.0000000
0.9972189 0.7089553 1.0000000
1.0000000 0.7150272 1.0000000
0.1686885 0.7938981 0.9690144
0.2024111 0.7661049 0.9773884
0.2968211 0.7495997 0.9776841
0.4289849 0.7348720 0.9709899
0.5786447 0.7312246 0.9699438
0.7478074 0.7590042 0.9911354
0.8838011 0.7741844 1.0000000
0.9898635 0.7762156 1.0000000
1.0000000 0.7822832 1.0000000
0.0000000 0.8297811 0.9280611
0.0666366 0.8128015 0.9269791
0.1929209 0.8025034 0.9253813
0.3464026 0.7919670 0.9203725
0.5016610 0.7673308 0.9067830
0.7229127 0.8106436 0.9436476
0.8762584 0.8364891 0.9753750
0.9627601 0.8298077 0.9805716
1.0000000 0.8428273 0.9973942
0.0000000 0.8730036 0.8743499
0.0000000 0.8610100 0.8722165
0.1144480 0.8519642 0.8720648
0.2937764 0.8494393 0.8761768
0.4862367 0.8501305 0.8859162
0.6619357 0.8433047 0.8900153
0.8248548 0.8653302 0.9203643
0.9174958 0.8684172 0.9395590
1.0000000 0.8959710 0.9714102
0.0000000 0.9185736 0.8121335
0.0000000 0.9089542 0.8164709
0.0512608 0.9002454 0.8223438
0.2545014 0.8943839 0.8319415
0.4545869 0.8907116 0.8464135
0.6293776 0.8844673 0.8597374
0.7665313 0.8835829 0.8719980
0.8685730 0.8980758 0.8992228
0.9611072 0.9268491 0.9293244
0.0000000 0.9643244 0.7469964
0.0000000 0.9571754 0.7613037
0.0000000 0.9485185 0.7751454
0.2141832 0.9364845 0.7882410
0.4120861 0.9222939 0.8000104
0.5802457 0.9124387 0.8141839
0.7173561 0.9132599 0.8344454
0.8235147 0.9240851 0.8579780
0.9138350 0.9372595 0.8883775
0.8274546 0.7594989 1.0000000
0.8269123 0.7314749 1.0000000
0.8294348 0.7009241 1.0000000
0.8354006 0.6661044 1.0000000
0.8469696 0.6258461 1.0000000
0.8680512 0.5812362 1.0000000
0.9054667 0.5362062 1.0000000
0.9598889 0.4931254 1.0000000
1.0000000 0.4516615 1.0000000
0.6886402 0.7895935 1.0000000
0.6942964 0.7542134 1.0000000
0.7041704 0.7202641 1.0000000
0.7282157 0.6897916 1.0000000
0.7696832 0.6626130 1.0000000
0.8272067 0.6360026 1.0000000
0.8992828 0.6090395 1.0000000
0.9831813 0.5828679 1.0000000
1.0000000 0.5575899 1.0000000
0.5432340 0.8185586 1.0000000
0.5597078 0.7799877 1.0000000
0.5809649 0.7434422 1.0000000
0.6210017 0.7139377 1.0000000
0.6905169 0.6960714 1.0000000
0.7840849 0.6869915 1.0000000
0.8912854 0.6793821 1.0000000
1.0000000 0.6701521 1.0000000
1.0000000 0.6599019 1.0000000
0.3733690 0.8447117 1.0000000
0.4193616 0.8107890 1.0000000
0.4607460 0.7742198 1.0000000
0.5173840 0.7418758 1.0000000
0.6092280 0.7254537 1.0000000
0.7372195 0.7298685 1.0000000
0.8813001 0.7431145 1.0000000
1.0000000 0.7506063 1.0000000
1.0000000 0.7525600 1.0000000
0.1818052 0.8693841 1.0000000
0.2702271 0.8457941 1.0000000
0.3457631 0.8142811 1.0000000
0.4290298 0.7816339 1.0000000
0.5429730 0.7628891 1.0000000
0.6933137 0.7681923 1.0000000
0.8674292 0.7961259 1.0000000
1.0000000 0.8194574 1.0000000
1.0000000 0.8301796 1.0000000
0.0000000 0.8956855 1.0000000
0.1100507 0.8830094 1.0000000
0.2368351 0.8631002 1.0000000
0.3684679 0.8375036 1.0000000
0.5154216 0.8197612 1.0000000
0.6670187 0.8118617 1.0000000
0.8452265 0.8385310 1.0000000
1.0000000 0.8740509 1.0000000
1.0000000 0.8914626 1.0000000
0.0000000 0.9277197 1.0000000
0.0000000 0.9229107 1.0000000
0.1316378 0.9150221 1.0000000
0.3169545 0.9006711 0.9922582
0.5005201 0.8813180 0.9750390
0.6647302 0.8669005 0.9710340
0.8227556 0.8813699 0.9982107
0.9757269 0.9151044 1.0000000
1.0000000 0.9402748 1.0000000
0.0000000 0.9682872 0.9448634
0.0000000 0.9662189 0.9563736
0.0322610 0.9633806 0.9659637
0.2587994 0.9566482 0.9686150
0.4691289 0.9418362 0.9614997
0.6458639 0.9252957 0.9527397
0.7884690 0.9227246 0.9595890
0.9186736 0.9453843 0.9927465
1.0000000 0.9677287 1.0000000
0.0000000 1.0000000 0.8783362
0.0000000 1.0000000 0.9013151
0.0000000 1.0000000 0.9242030
0.1976002 1.0000000 0.9430391
0.4294364 0.9944947 0.9507673
0.6134374 0.9792619 0.9467078
0.7483950 0.9651423 0.9389586
0.8539514 0.9612602 0.9402002
0.9463002 0.9706488 0.9710088
