catalog/styles/experimental/experimental-portrait/look.cube
# experimental-portrait iteration 5
LUT_3D_SIZE 33
DOMAIN_MIN 0 0 0
DOMAIN_MAX 1 1 1
0.0356461 0.0356819 0.0410370
0.0710801 0.0664966 0.0754818
0.0744979 0.0706065 0.0811786
0.0676756 0.0658486 0.0764066
0.0601149 0.0597009 0.0693743
0.0551719 0.0552718 0.0637670
0.0540418 0.0542539 0.0616783
0.0564136 0.0567427 0.0631307
0.0614427 0.0618913 0.0674412
0.0690257 0.0693854 0.0750027
0.0785421 0.0785765 0.0856596
0.0903966 0.0901305 0.0997610
0.1067093 0.1064599 0.1189962
0.1284394 0.1285843 0.1440334
0.1531940 0.1539274 0.1723893
0.1790961 0.1804549 0.2019323
0.2037929 0.2057715 0.2299179
0.2263226 0.2289840 0.2551508
0.2472562 0.2506937 0.2780604
0.2680418 0.2722747 0.3000220
0.2900352 0.2949241 0.3224941
0.3134178 0.3186738 0.3457065
0.3380935 0.3433047 0.3696629
0.3630305 0.3677482 0.3934809
0.3870966 0.3909551 0.4161587
0.4097266 0.4125228 0.4372187
0.4310835 0.4327690 0.4568656
0.4515521 0.4521787 0.4755303
0.4715315 0.4711897 0.4936484
0.4913066 0.4900847 0.5115236
0.5110356 0.5090005 0.5293250
0.5307897 0.5279813 0.5471348
0.5505686 0.5470019 0.5649630
0.0534999 0.0573195 0.0591473
0.0794998 0.0790910 0.0859937
0.0850215 0.0832608 0.0928021
0.0809261 0.0794190 0.0899309
0.0745350 0.0734798 0.0842275
0.0699770 0.0690696 0.0797998
0.0679080 0.0669762 0.0773617
0.0670741 0.0661849 0.0756868
0.0669604 0.0661627 0.0746230
0.0681810 0.0673911 0.0753954
0.0718910 0.0710167 0.0796050
0.0794447 0.0785393 0.0886476
0.0920291 0.0912817 0.1035024
0.1097069 0.1093343 0.1239939
0.1311653 0.1313012 0.1486313
0.1546385 0.1553415 0.1753842
0.1786204 0.1799272 0.2024560
0.2021407 0.2040859 0.2286368
0.2252405 0.2278393 0.2538244
0.2484717 0.2516733 0.2785081
0.2724496 0.2761075 0.3033104
0.2974056 0.3012808 0.3285024
0.3231716 0.3269640 0.3539824
0.3492381 0.3526406 0.3793314
0.3749754 0.3777338 0.4040184
0.3999702 0.4019232 0.4277152
0.4241340 0.4252170 0.4503975
0.4476179 0.4478383 0.4722684
0.4706621 0.4700634 0.4936089
0.4934883 0.4921210 0.5146703
0.5162429 0.5141486 0.5356205
0.5389961 0.5361999 0.5565475
0.5617599 0.5582719 0.5774777
0.0448006 0.0480313 0.0487025
0.0687743 0.0699383 0.0752578
0.0795394 0.0793479 0.0874383
0.0806819 0.0799096 0.0894451
0.0786215 0.0775553 0.0881938
0.0777360 0.0763060 0.0881557
0.0782265 0.0764266 0.0891376
0.0775587 0.0756065 0.0881511
0.0743631 0.0724735 0.0840549
0.0703365 0.0685777 0.0792542
0.0687014 0.0670823 0.0775145
0.0719250 0.0704876 0.0814964
0.0807061 0.0795176 0.0918572
0.0947424 0.0938990 0.1081392
0.1129890 0.1125896 0.1291103
0.1342960 0.1344263 0.1533617
0.1574162 0.1581379 0.1793750
0.1814589 0.1827842 0.2060308
0.2060208 0.2079013 0.2327744
0.2310646 0.2333861 0.2594847
0.2567885 0.2593850 0.2863212
0.2832053 0.2858769 0.3133041
0.3101694 0.3127070 0.3403266
0.3374163 0.3396266 0.3671878
0.3646333 0.3663598 0.3936536
0.3915974 0.3927307 0.4195779
0.4181753 0.4186542 0.4448957
0.4443644 0.4441677 0.4696594
0.4702605 0.4693926 0.4940102
0.4959895 0.4944657 0.5181111
0.5216520 0.5194877 0.5420937
0.5472994 0.5445049 0.5660340
0.5729483 0.5695280 0.5899667
0.0377928 0.0393783 0.0411391
0.0582556 0.0593884 0.0645219
0.0685396 0.0691086 0.0762644
0.0721726 0.0722041 0.0804919
0.0741476 0.0736282 0.0831406
0.0781830 0.0769381 0.0884451
0.0847602 0.0826977 0.0965786
0.0888541 0.0862373 0.1016229
0.0855745 0.0828805 0.0981777
0.0775690 0.0751713 0.0893040
0.0709688 0.0689801 0.0819325
0.0694682 0.0677985 0.0803309
0.0738509 0.0723852 0.0854628
0.0838888 0.0826480 0.0970406
0.0989775 0.0981024 0.1143140
0.1181790 0.1178332 0.1361041
0.1402330 0.1405121 0.1608555
0.1642729 0.1651570 0.1874658
0.1897530 0.1911163 0.2152024
0.2162409 0.2178933 0.2435143
0.2435302 0.2452780 0.2721235
0.2714768 0.2731543 0.3008602
0.2998633 0.3013369 0.3295356
0.3284565 0.3296256 0.3579802
0.3571065 0.3578969 0.3861137
0.3857251 0.3860807 0.4139125
0.4142458 0.4141239 0.4413705
0.4426577 0.4420265 0.4685306
0.4709884 0.4698259 0.4954684
0.4992781 0.4975697 0.5222673
0.5275561 0.5252934 0.5489929
0.5558332 0.5530116 0.5756858
0.5841113 0.5807292 0.6023689
0.0408377 0.0413002 0.0454461
0.0567488 0.0574466 0.0638111
0.0645781 0.0653410 0.0729299
0.0676009 0.0682077 0.0762360
0.0703721 0.0705799 0.0792034
0.0759731 0.0754352 0.0858960
0.0868733 0.0852506 0.0991360
0.0985271 0.0958624 0.1136652
0.1003527 0.0973289 0.1170930
0.0923832 0.0899040 0.1085996
0.0823553 0.0806054 0.0970601
0.0753396 0.0738411 0.0888969
0.0735257 0.0719400 0.0867518
0.0778830 0.0762851 0.0916602
0.0887020 0.0873952 0.1039034
0.1052005 0.1044898 0.1225277
0.1258561 0.1258834 0.1456714
0.1495304 0.1502094 0.1718832
0.1755477 0.1766314 0.2002384
0.2033387 0.2045331 0.2299766
0.2322990 0.2333822 0.2603809
0.2620367 0.2628895 0.2910141
0.2922427 0.2928091 0.3216246
0.3225537 0.3228136 0.3519292
0.3527759 0.3527245 0.3817939
0.3828994 0.3825293 0.4112591
0.4129998 0.4122907 0.4404508
0.4431654 0.4420846 0.4695090
0.4734371 0.4719466 0.4985250
0.5038090 0.5018731 0.5275390
0.5342479 0.5318386 0.5565563
0.5647175 0.5618176 0.5855714
0.5951953 0.5917979 0.6145832
0.0525071 0.0523911 0.0593036
0.0642477 0.0645885 0.0730024
0.0703043 0.0710186 0.0802602
0.0722468 0.0731547 0.0824316
0.0733732 0.0742083 0.0832757
0.0765801 0.0769334 0.0868284
0.0853803 0.0847737 0.0977960
0.1007862 0.0990436 0.1174421
0.1134212 0.1111987 0.1341507
0.1158446 0.1144051 0.1374789
0.1077434 0.1070406 0.1278620
0.0947211 0.0936672 0.1128152
0.0839364 0.0822504 0.1003322
0.0795346 0.0775816 0.0950441
0.0830186 0.0813404 0.0987954
0.0946000 0.0936528 0.1118045
0.1128668 0.1128436 0.1323017
0.1358433 0.1365499 0.1578101
0.1623013 0.1633017 0.1867096
0.1914661 0.1923498 0.2179303
0.2224872 0.2230216 0.2504440
0.2545849 0.2547229 0.2834405
0.2871741 0.2869441 0.3164602
0.3195866 0.3190420 0.3489261
0.3515636 0.3507570 0.3806242
0.3831749 0.3821359 0.4116647
0.4146591 0.4133851 0.4423339
0.4462310 0.4446909 0.4729005
0.4779816 0.4761278 0.5035085
0.5099009 0.5076840 0.5341943
0.5419314 0.5393114 0.5649370
0.5740128 0.5709638 0.5957026
0.6061073 0.6026190 0.6264718
0.0684479 0.0680293 0.0775374
0.0771346 0.0772657 0.0878750
0.0827703 0.0834149 0.0947454
0.0853815 0.0864342 0.0978755
0.0852372 0.0865216 0.0974247
0.0842160 0.0854058 0.0959435
0.0863444 0.0870139 0.0989915
0.0980970 0.0981531 0.1141748
0.1217360 0.1218639 0.1429255
0.1451533 0.1461894 0.1703195
0.1490018 0.1497005 0.1753019
0.1331855 0.1323461 0.1576023
0.1119064 0.1100472 0.1331215
0.0951823 0.0929853 0.1136774
0.0864955 0.0845797 0.1036909
0.0880738 0.0869972 0.1056389
0.1004899 0.1005117 0.1198310
0.1214840 0.1223083 0.1433230
0.1485943 0.1495684 0.1730021
0.1798881 0.1804917 0.2064694
0.2136697 0.2136903 0.2417440
0.2489481 0.2484283 0.2779049
0.2844653 0.2835165 0.3138427
0.3192629 0.3180015 0.3486815
0.3531352 0.3516550 0.3822640
0.3862976 0.3846505 0.4148564
0.4191241 0.4173141 0.4468910
0.4518932 0.4498877 0.4787085
0.4847312 0.4824779 0.5104908
0.5176611 0.5151047 0.5423031
0.5506557 0.5477507 0.5741468
0.5836780 0.5803965 0.6060033
0.6167061 0.6130366 0.6378606
0.0840172 0.0834335 0.0952555
0.0921221 0.0921317 0.1048736
0.0986473 0.0992366 0.1126896
0.1030535 0.1041620 0.1179422
0.1047639 0.1062787 0.1198113
0.1022558 0.1039995 0.1167579
0.0969835 0.0986850 0.1111522
0.0983978 0.0999263 0.1141208
0.1182611 0.1197686 0.1383052
0.1552451 0.1566294 0.1814002
0.1855918 0.1857295 0.2167008
0.1841217 0.1828803 0.2147652
0.1630861 0.1612294 0.1898738
0.1354042 0.1332817 0.1581097
0.1084812 0.1065464 0.1282576
0.0921143 0.0909730 0.1108308
0.0915970 0.0915736 0.1111619
0.1066022 0.1073738 0.1283305
0.1333652 0.1341502 0.1577021
0.1677204 0.1679255 0.1943773
0.2058040 0.2052768 0.2340871
0.2451540 0.2440053 0.2743941
0.2838795 0.2822812 0.3135183
0.3211359 0.3192475 0.3507243
0.3570192 0.3549522 0.3862060
0.3918842 0.3896927 0.4204103
0.4261119 0.4237964 0.4538022
0.4599430 0.4574670 0.4866948
0.4935194 0.4908298 0.5192832
0.5269358 0.5239796 0.5516944
0.5602589 0.5569943 0.5840100
0.5935328 0.5899343 0.6162789
0.6267883 0.6228455 0.6485311
0.0974180 0.0967260 0.1106550
0.1063021 0.1062075 0.1209992
0.1143172 0.1148128 0.1303496
0.1210867 0.1221346 0.1382242
0.1259809 0.1274933 0.1438519
0.1269568 0.1288121 0.1449887
0.1209228 0.1229631 0.1385605
0.1122724 0.1142755 0.1299700
0.1164831 0.1180929 0.1364414
0.1413869 0.1420807 0.1660395
0.1802687 0.1798166 0.2101071
0.2121816 0.2112182 0.2442942
0.2231929 0.2218459 0.2540000
0.2034670 0.2017135 0.2309727
0.1601680 0.1584152 0.1839741
0.1184288 0.1172660 0.1396369
0.0957189 0.0954737 0.1162322
0.0967409 0.0971330 0.1183723
0.1193981 0.1197548 0.1433504
0.1568664 0.1565891 0.1833877
0.2002032 0.1991245 0.2287200
0.2435716 0.2418457 0.2732063
0.2850944 0.2829394 0.3150746
0.3247074 0.3222992 0.3544622
0.3627734 0.3602169 0.3919252
0.3995467 0.3968790 0.4278772
0.4352198 0.4324290 0.4626286
0.4699382 0.4669858 0.4964029
0.5038844 0.5007240 0.5294257
0.5372818 0.5338713 0.5619344
0.5703456 0.5666538 0.5941414
0.6032437 0.5992527 0.6262036
0.6360878 0.6317903 0.6582203
0.1090580 0.1082543 0.1242656
0.1186459 0.1184162 0.1352739
0.1277977 0.1281289 0.1457692
0.1363053 0.1371685 0.1555283
0.1437435 0.1450689 0.1641019
0.1490096 0.1506809 0.1702775
0.1493297 0.1511664 0.1710406
0.1418754 0.1436152 0.1635254
0.1328406 0.1341328 0.1548131
0.1361020 0.1365267 0.1598733
0.1599127 0.1594526 0.1866752
0.2023844 0.2014938 0.2319873
0.2460815 0.2449071 0.2772752
0.2601726 0.2587215 0.2909313
0.2323851 0.2309002 0.2607494
0.1810035 0.1798830 0.2063356
0.1335422 0.1330378 0.1565361
0.1110950 0.1110474 0.1334094
0.1193402 0.1192652 0.1429351
0.1529998 0.1523577 0.1791705
0.1984217 0.1969412 0.2270181
0.2440735 0.2419248 0.2739883
0.2876584 0.2851044 0.3178455
0.3296180 0.3268358 0.3593625
0.3700850 0.3671528 0.3989908
0.4088654 0.4057932 0.4367751
0.4458531 0.4426184 0.4727583
0.4811496 0.4777194 0.5071174
0.5150557 0.5113993 0.5401771
0.5479765 0.5440715 0.5723357
0.5803049 0.5761371 0.6039634
0.6123471 0.6079087 0.6353403
0.6442984 0.6395867 0.6666397
0.1196919 0.1187594 0.1369528
0.1293716 0.1289712 0.1479895
0.1387282 0.1388332 0.1586423
0.1477665 0.1483424 0.1689496
0.1564878 0.1574818 0.1789528
0.1645071 0.1658282 0.1882406
0.1705164 0.1720019 0.1953268
0.1717810 0.1731840 0.1971400
0.1655557 0.1666186 0.1907969
0.1564122 0.1568233 0.1814941
0.1575870 0.1571719 0.1833155
0.1796824 0.1785982 0.2070471
0.2210572 0.2196416 0.2504542
0.2647822 0.2633866 0.2958529
0.2854727 0.2842422 0.3169905
0.2681043 0.2670583 0.2982111
0.2210688 0.2203457 0.2482404
0.1743234 0.1739629 0.1988267
0.1533319 0.1530223 0.1772675
0.1650470 0.1643181 0.1907086
0.2006608 0.1991549 0.2287392
0.2450803 0.2428532 0.2747214
0.2906397 0.2879580 0.3205872
0.3354056 0.3324491 0.3647612
0.3785021 0.3753278 0.4068459
0.4191450 0.4157483 0.4463792
0.4570766 0.4534380 0.4832771
0.4925172 0.4886226 0.5178259
0.5259842 0.5218286 0.5505468
0.5580905 0.5536769 0.5820255
0.5893928 0.5847269 0.6127802
0.6203114 0.6153983 0.6431947
0.6511103 0.6459525 0.6735051
0.1298293 0.1287891 0.1492989
0.1388829 0.1383167 0.1595981
0.1476650 0.1475345 0.1695726
0.1563368 0.1565982 0.1794282
0.1651673 0.1657756 0.1894922
0.1742473 0.1751400 0.1998615
0.1828879 0.1839634 0.2097410
0.1897747 0.1908865 0.2175580
0.1927292 0.1936900 0.2208258
0.1887362 0.1892737 0.2164378
0.1798616 0.1796858 0.2069884
0.1785591 0.1775654 0.2057719
0.1957470 0.1941865 0.2240219
0.2336358 0.2320185 0.2637265
0.2829994 0.2816920 0.3150408
0.3186492 0.3176452 0.3514405
0.3182226 0.3174513 0.3488365
0.2833900 0.2829700 0.3102950
0.2363573 0.2361139 0.2613788
0.2082480 0.2077469 0.2338655
0.2146483 0.2135041 0.2419469
0.2480200 0.2461446 0.2767052
0.2939155 0.2914514 0.3229623
0.3416816 0.3387845 0.3701434
0.3872182 0.3839474 0.4146522
0.4292119 0.4255805 0.4555492
0.4675480 0.4635639 0.4929092
0.5027177 0.4983986 0.5272826
0.5354852 0.5308586 0.5594242
0.5666399 0.5617367 0.5900845
0.5968527 0.5917003 0.6198876
0.6266161 0.6212336 0.6492859
0.6562380 0.6506330 0.6785580
0.1396915 0.1386316 0.1615452
0.1474747 0.1468119 0.1704059
0.1551586 0.1548494 0.1791221
0.1629600 0.1629574 0.1879459
0.1712174 0.1714828 0.1972648
0.1800790 0.1805783 0.2072383
0.1893184 0.1900149 0.2175928
0.1983037 0.1991441 0.2275673
0.2059657 0.2068588 0.2358875
0.2102937 0.2110229 0.2403024
0.2080387 0.2082648 0.2375072
0.2002127 0.1996526 0.2290021
0.1972943 0.1959931 0.2259686
0.2120186 0.2103014 0.2414213
0.2513469 0.2496820 0.2820043
0.3091256 0.3079024 0.3404628
0.3615268 0.3609069 0.3913485
0.3765983 0.3764345 0.4035796
0.3347195 0.3347366 0.3602838
0.2734179 0.2733126 0.2993379
0.2465672 0.2459545 0.2734095
0.2615658 0.2602678 0.2891786
0.3015685 0.2995573 0.3293038
0.3491274 0.3464669 0.3763020
0.3953707 0.3921274 0.4216387
0.4376789 0.4339073 0.4629949
0.4758339 0.4715825 0.5003169
0.5104710 0.5057959 0.5342937
0.5424954 0.5374588 0.5658189
0.5727842 0.5674455 0.5957305
0.6020526 0.5964603 0.6246992
0.6308226 0.6250089 0.6532093
0.6594300 0.6534095 0.6815704
0.1489460 0.1480264 0.1733275
0.1551581 0.1545348 0.1803975
0.1615029 0.1611356 0.1875656
0.1682023 0.1680508 0.1950729
0.1755066 0.1755439 0.2031989
0.1835822 0.1837994 0.2121238
0.1925038 0.1929079 0.2219132
0.2020204 0.2026212 0.2322687
0.2116529 0.2124240 0.2426078
0.2204374 0.2212446 0.2518037
0.2265921 0.2271291 0.2578544
0.2259698 0.2258910 0.2566093
0.2186341 0.2177991 0.2484901
0.2167092 0.2152426 0.2460428
0.2337864 0.2320690 0.2628617
0.2773552 0.2758883 0.3059328
0.3394625 0.3386474 0.3667963
0.3843315 0.3841536 0.4102066
0.3701262 0.3702918 0.3956353
0.3182322 0.3184745 0.3443495
0.2845381 0.2844465 0.3111125
0.2872314 0.2865057 0.3139189
0.3171331 0.3155919 0.3435482
0.3591424 0.3567611 0.3849530
0.4027945 0.3996405 0.4278477
0.4437708 0.4399332 0.4680750
0.4810554 0.4766188 0.5047138
0.5149880 0.5100430 0.5381378
0.5463643 0.5410036 0.5691319
0.5760014 0.5703089 0.5984816
0.6045798 0.5986237 0.6268334
0.6326154 0.6264415 0.6546741
0.6604635 0.6540914 0.6823384
0.1570322 0.1564561 0.1840127
0.1617469 0.1613434 0.1893340
0.1667672 0.1665076 0.1949355
0.1723035 0.1721605 0.2010315
0.1785712 0.1785319 0.2078526
0.1857368 0.1858114 0.2155793
0.1939685 0.1941856 0.2243891
0.2033651 0.2037614 0.2343714
0.2138234 0.2144035 0.2453861
0.2248118 0.2255059 0.2568064
0.2351614 0.2357669 0.2672809
0.2422279 0.2424419 0.2739483
0.2415380 0.2411090 0.2722938
0.2363777 0.2352875 0.2658947
0.2378649 0.2363532 0.2661170
0.2571407 0.2555853 0.2841548
0.2931052 0.2919036 0.3190452
0.3274816 0.3268482 0.3527970
0.3368615 0.3367825 0.3622654
0.3231865 0.3234782 0.3491170
0.3105180 0.3107365 0.3366654
0.3146909 0.3143501 0.3405731
0.3370590 0.3358449 0.3623926
0.3712302 0.3690548 0.3958995
0.4096787 0.4066012 0.4336913
0.4476402 0.4437676 0.4710747
0.4832359 0.4786777 0.5061948
0.5162111 0.5110808 0.5387955
0.5469851 0.5413945 0.5692781
0.5761481 0.5701999 0.5982103
0.6042633 0.5980413 0.6261337
0.6318060 0.6253666 0.6535059
0.6591394 0.6525073 0.6806765
0.1635132 0.1634953 0.1930916
0.1670295 0.1670462 0.1969459
0.1709120 0.1709508 0.2011504
0.1754101 0.1754582 0.2059483
0.1807009 0.1807582 0.2115218
0.1869571 0.1870429 0.2180542
0.1944137 0.1945650 0.2257953
0.2033447 0.2036018 0.2350269
0.2137949 0.2141759 0.2457843
0.2254948 0.2259677 0.2577326
0.2376035 0.2380504 0.2698902
0.2485395 0.2487678 0.2804774
0.2551372 0.2549259 0.2861536
0.2549724 0.2541907 0.2845688
0.2512541 0.2499980 0.2792875
0.2530219 0.2515466 0.2796696
0.2642107 0.2628471 0.2899158
0.2815095 0.2805520 0.3068268
0.2982798 0.2978920 0.3236849
0.3104057 0.3105138 0.3360683
0.3202993 0.3205096 0.3459717
0.3333575 0.3330997 0.3586235
0.3539398 0.3528329 0.3785566
0.3823144 0.3802219 0.4062360
0.4153504 0.4123004 0.4386549
0.4495619 0.4456576 0.4723753
0.4828818 0.4782456 0.5053196
0.5145800 0.5093370 0.5367248
0.5446454 0.5389179 0.5665489
0.5733644 0.5672643 0.5950571
0.6011231 0.5947435 0.6226228
0.6283190 0.6217232 0.6496354
0.6552971 0.6485125 0.6764338
0.1682565 0.1689924 0.2003592
0.1709322 0.1715714 0.2031090
0.1739716 0.1745095 0.2062118
0.1776369 0.1780711 0.2099212
0.1820895 0.1824279 0.2143966
0.1875071 0.1877705 0.2198232
0.1941651 0.1943886 0.2264883
0.2023464 0.2025656 0.2346864
0.2121389 0.2123769 0.2445018
0.2233418 0.2235923 0.2556854
0.2353873 0.2355955 0.2675635
0.2473254 0.2473879 0.2790427
0.2574791 0.2572511 0.2883230
0.2626947 0.2620527 0.2922640
0.2609891 0.2599307 0.2891411
0.2561359 0.2548212 0.2830548
0.2548020 0.2534899 0.2808884
0.2614930 0.2604523 0.2871974
0.2768788 0.2762798 0.3025060
0.2975955 0.2974014 0.3232085
0.3194052 0.3193164 0.3448346
0.3405560 0.3400962 0.3655223
0.3631071 0.3619069 0.3874197
0.3891109 0.3869915 0.4127270
0.4183849 0.4153242 0.4413790
0.4492911 0.4453662 0.4717936
0.4802819 0.4756116 0.5024158
0.5105126 0.5052264 0.5323600
0.5397029 0.5339271 0.5613046
0.5678881 0.5617384 0.5892586
0.5952770 0.5888484 0.6164185
0.6221646 0.6155208 0.6430759
0.6488482 0.6420173 0.6695285
0.1714547 0.1731323 0.2059633
0.1735551 0.1750102 0.2078882
0.1760178 0.1772497 0.2101684
0.1790631 0.1800762 0.2130159
0.1828524 0.1836564 0.2165870
0.1875486 0.1881610 0.2210480
0.1933938 0.1938430 0.2266492
0.2006255 0.2009431 0.2336354
0.2093154 0.2095268 0.2420747
0.2193060 0.2194234 0.2517783
0.2302513 0.2302640 0.2623311
0.2415053 0.2413708 0.2730043
0.2518457 0.2514934 0.2825166
0.2591499 0.2585135 0.2887679
0.2611873 0.2602530 0.2896755
0.2580832 0.2569439 0.2855689
0.2545771 0.2534151 0.2813465
0.2571754 0.2561796 0.2835266
0.2693947 0.2686724 0.2955048
0.2898968 0.2894047 0.3157856
0.3144317 0.3139543 0.3399895
0.3395019 0.3387121 0.3645581
0.3644422 0.3630373 0.3888555
0.3902863 0.3880744 0.4140024
0.4176959 0.4146133 0.4407551
0.4463175 0.4424035 0.4688222
0.4753531 0.4707078 0.4974170
0.5041515 0.4988991 0.5258601
0.5323707 0.5266363 0.5537688
0.5599157 0.5538129 0.5810162
0.5868668 0.5804866 0.6076658
0.6134171 0.6068193 0.6339065
0.6397970 0.6330071 0.6599721
0.1731997 0.1759936 0.2099715
0.1750370 0.1774873 0.2114055
0.1771595 0.1792674 0.2131190
0.1797656 0.1815361 0.2153047
0.1830335 0.1844765 0.2181363
0.1871019 0.1882324 0.2217522
0.1921286 0.1929679 0.2263143
0.1982978 0.1988729 0.2320107
0.2056656 0.2060045 0.2388955
0.2141662 0.2142959 0.2468867
0.2235430 0.2234823 0.2556956
0.2332644 0.2330190 0.2647579
0.2424051 0.2419671 0.2731325
0.2496736 0.2490324 0.2795504
0.2538848 0.2530504 0.2828950
0.2547767 0.2538075 0.2830045
0.2545971 0.2536018 0.2822138
0.2580312 0.2571135 0.2852069
0.2685828 0.2677880 0.2954091
0.2865634 0.2858390 0.3130381
0.3096025 0.3087961 0.3356495
0.3348373 0.3337326 0.3603422
0.3605868 0.3589612 0.3854394
0.3865970 0.3842809 0.4107337
0.4131723 0.4100831 0.4365963
0.4403798 0.4365243 0.4631530
0.4679424 0.4633933 0.4901538
0.4954891 0.4903546 0.5172196
0.5227490 0.5171440 0.5440495
0.5495986 0.5436278 0.5704889
0.5760487 0.5697944 0.5965275
0.6022121 0.5957267 0.6222706
0.6282491 0.6215538 0.6478813
0.1737486 0.1778165 0.2126314
0.1755493 0.1791549 0.2138238
0.1775227 0.1806682 0.2151858
0.1798513 0.1825412 0.2168954
0.1826944 0.1849372 0.2191090
0.1861825 0.1879904 0.2219560
0.1904360 0.1918273 0.2255585
0.1955668 0.1965657 0.2300312
0.2016223 0.2022604 0.2354234
0.2085705 0.2088848 0.2417012
0.2162368 0.2162673 0.2486855
0.2242315 0.2240183 0.2559846
0.2319709 0.2315513 0.2630192
0.2388024 0.2382103 0.2691513
0.2442652 0.2435364 0.2739449
0.2484150 0.2475942 0.2774879
0.2523978 0.2515411 0.2809521
0.2585974 0.2577470 0.2867116
0.2692943 0.2684531 0.2970033
0.2853455 0.2844585 0.3126288
0.3059534 0.3049114 0.3327451
0.3294659 0.3281230 0.3556724
0.3543629 0.3525625 0.3798870
0.3798208 0.3774295 0.4045897
0.4056302 0.4025686 0.4296171
0.4317765 0.4280314 0.4550043
0.4581704 0.4537866 0.4806961
0.4846331 0.4796928 0.5065215
0.5109881 0.5055861 0.5322897
0.5371284 0.5313532 0.5578698
0.5630334 0.5569533 0.5832207
0.5887586 0.5824152 0.6083876
0.6144006 0.6078115 0.6334674
0.1734882 0.1789657 0.2143252
0.1753295 0.1802293 0.2153807
0.1772667 0.1815904 0.2165304
0.1794332 0.1831847 0.2179059
0.1819573 0.1851436 0.2196342
0.1849507 0.1875834 0.2218275
0.1885076 0.1906034 0.2245820
0.1926987 0.1942829 0.2279728
0.1975656 0.1986727 0.2320478
0.2030959 0.2037710 0.2368031
0.2091963 0.2094937 0.2421562
0.2156678 0.2156495 0.2479199
0.2222576 0.2219881 0.2538523
0.2287655 0.2283067 0.2597595
0.2351465 0.2345526 0.2655971
0.2416153 0.2409290 0.2715757
0.2487684 0.2480194 0.2782819
0.2576098 0.2568082 0.2867008
0.2692628 0.2683903 0.2979265
0.2844280 0.2834343 0.3126250
0.3030506 0.3018552 0.3307098
0.3244148 0.3229168 0.3514446
0.3475489 0.3456390 0.3738528
0.3716563 0.3692372 0.3971530
0.3962971 0.3933023 0.4209371
0.4212942 0.4177004 0.4450677
0.4465549 0.4423828 0.4694861
0.4719729 0.4672747 0.4941038
0.4974293 0.4922721 0.5188015
0.5228313 0.5172791 0.5434733
0.5481360 0.5422390 0.5680611
0.5733524 0.5671422 0.5925640
0.5985259 0.5920130 0.6170227
0.1727049 0.1797030 0.2153444
0.1746034 0.1809119 0.2163073
0.1765517 0.1821718 0.2173198
0.1786302 0.1835651 0.2184629
0.1809296 0.1851855 0.2198280
0.1835321 0.1871206 0.2215007
0.1865097 0.1894488 0.2235572
0.1899167 0.1922338 0.2260593
0.1937951 0.1955285 0.2290590
0.1981657 0.1993658 0.2325910
0.2030267 0.2037568 0.2366696
0.2083612 0.2086945 0.2412932
0.2141754 0.2141902 0.2464775
0.2205403 0.2203117 0.2522931
0.2276042 0.2271971 0.2588782
0.2355856 0.2350458 0.2664307
0.2447553 0.2441061 0.2751953
0.2554467 0.2546886 0.2854784
0.2680636 0.2671757 0.2976571
0.2829619 0.2819028 0.3120602
0.3002607 0.2989723 0.3287826
0.3197351 0.3181470 0.3475834
0.3409020 0.3389389 0.3679759
0.3632266 0.3608191 0.3894365
0.3863020 0.3833977 0.4115818
0.4098953 0.4064665 0.4342097
0.4338797 0.4299270 0.4572243
0.4581584 0.4537045 0.4805507
0.4826309 0.4777110 0.5040980
0.5072010 0.5018530 0.5277683
0.5317993 0.5260535 0.5514841
0.5563915 0.5502660 0.5752021
0.5809734 0.5744761 0.5989128
0.1715981 0.1802033 0.2158982
0.1735503 0.1813590 0.2167930
0.1755244 0.1825372 0.2177109
0.1775608 0.1837804 0.2186943
0.1797110 0.1851440 0.2197989
0.1820300 0.1866887 0.2210852
0.1845691 0.1884738 0.2226124
0.1873807 0.1905615 0.2244434
0.1905190 0.1930171 0.2266445
0.1940503 0.1959199 0.2292974
0.1980606 0.1993690 0.2325037
0.2026713 0.2034958 0.2363974
0.2080480 0.2084712 0.2411497
0.2143929 0.2144944 0.2469586
0.2219129 0.2217616 0.2540155
0.2307714 0.2304174 0.2624584
0.2410547 0.2405259 0.2723427
0.2527925 0.2520949 0.2836670
0.2660223 0.2651422 0.2964394
0.2808189 0.2797280 0.3107097
0.2972392 0.2958987 0.3265145
0.3152329 0.3135956 0.3437903
0.3346092 0.3326242 0.3623435
0.3550942 0.3527123 0.3819091
0.3764268 0.3736064 0.4022446
0.3984203 0.3951313 0.4231876
0.4209558 0.4171822 0.4446453
0.4439392 0.4396779 0.4665467
0.4672730 0.4625312 0.4888099
0.4908516 0.4856407 0.5113358
0.5145753 0.5089065 0.5340234
0.5383669 0.5322482 0.5567904
0.5621791 0.5556134 0.5795825
0.1703032 0.1805792 0.2161341
0.1723042 0.1816823 0.2169834
0.1743104 0.1827914 0.2178396
0.1763350 0.1839218 0.2187196
0.1783995 0.1850995 0.2196516
0.1805362 0.1863627 0.2206762
0.1827844 0.1877598 0.2218436
0.1852003 0.1893570 0.2232226
0.1878599 0.1912413 0.2249026
0.1908746 0.1935365 0.2270086
0.1943980 0.1964080 0.2297065
0.1986335 0.2000686 0.2332081
0.2038201 0.2047616 0.2377540
0.2102016 0.2107284 0.2435806
0.2179768 0.2181584 0.2508698
0.2272515 0.2271424 0.2597024
0.2380180 0.2376539 0.2700397
0.2501780 0.2495757 0.2817521
0.2636063 0.2627652 0.2946846
0.2782112 0.2771181 0.3087202
0.2939478 0.2925809 0.3237955
0.3107847 0.3091156 0.3398677
0.3286586 0.3266549 0.3568712
0.3474672 0.3450937 0.3747102
0.3670937 0.3643159 0.3932822
0.3874384 0.3842238 0.4125075
0.4084242 0.4047446 0.4323310
0.4299779 0.4258115 0.4527010
0.4520090 0.4473407 0.4735453
0.4744060 0.4692268 0.4947641
0.4970473 0.4913526 0.5162399
0.5198218 0.5136098 0.5378592
0.5426437 0.5359135 0.5595308
0.1689121 0.1809009 0.2161612
0.1709636 0.1819605 0.2169899
0.1730104 0.1830164 0.2178162
0.1750487 0.1840674 0.2186415
0.1770834 0.1851230 0.2194785
