catalog/styles/experimental/experimental-portrait/look.cube
# experimental-portrait iteration 5
LUT_3D_SIZE 5
DOMAIN_MIN 0 0 0
DOMAIN_MAX 1 1 1
0.0356461 0.0356819 0.0410370
0.0614427 0.0618913 0.0674412
0.2037929 0.2057715 0.2299179
0.3870966 0.3909551 0.4161587
0.5505686 0.5470019 0.5649630
0.0974180 0.0967260 0.1106550
0.1164831 0.1180929 0.1364414
0.0957189 0.0954737 0.1162322
0.3627734 0.3602169 0.3919252
0.6360878 0.6317903 0.6582203
0.1682565 0.1689924 0.2003592
0.2121389 0.2123769 0.2445018
0.2548020 0.2534899 0.2808884
0.4183849 0.4153242 0.4413790
0.6488482 0.6420173 0.6695285
0.1689121 0.1809009 0.2161612
0.1858639 0.1902280 0.2238556
0.2357485 0.2356054 0.2683648
0.3584643 0.3556583 0.3848186
0.5228803 0.5158877 0.5392599
0.1582264 0.1840318 0.2148185
0.1854632 0.1995861 0.2308489
0.2336060 0.2365878 0.2670798
0.3060453 0.3007275 0.3281019
0.3833906 0.3724977 0.3949315
0.0677739 0.0690759 0.0815883
0.1022050 0.1036407 0.1163298
0.1269047 0.1223033 0.1439948
0.3058919 0.3036429 0.3337947
0.5390353 0.5404084 0.5585276
0.1780991 0.1774249 0.2045241
0.1744332 0.1746335 0.2017931
0.1741164 0.1734263 0.1999394
0.2605412 0.2621289 0.2913343
0.5245110 0.5276709 0.5470289
0.2310088 0.2327060 0.2667639
0.2642263 0.2637700 0.2957473
0.2721041 0.2730241 0.3042062
0.3021462 0.3042258 0.3369120
0.5133683 0.5120359 0.5308768
0.3186597 0.3271450 0.3543804
0.3235254 0.3273120 0.3544112
0.3287136 0.3277797 0.3532942
0.4156708 0.4131964 0.4340483
0.5781180 0.5744143 0.5894513
0.3756347 0.3935684 0.4106041
0.3683863 0.3778352 0.3946158
0.3895324 0.3909539 0.4056220
0.4806294 0.4777017 0.4874075
0.6579741 0.6553545 0.6598809
0.2238992 0.2288107 0.2612101
0.1542074 0.1548916 0.1790832
0.1377255 0.1328287 0.1561604
0.2684174 0.2662811 0.2953506
0.4674270 0.4720107 0.4985096
0.2217213 0.2213900 0.2528201
0.2124178 0.2110416 0.2423442
0.2096628 0.2076185 0.2435213
0.3436902 0.3438486 0.3739418
0.5155665 0.5180137 0.5361035
0.3996899 0.3987070 0.4242687
0.3776937 0.3774500 0.4079913
0.4079479 0.4085546 0.4350902
0.4555948 0.4550486 0.4791373
0.5682234 0.5672913 0.5817341
0.4953760 0.5011943 0.5159708
0.4658721 0.4691323 0.4873484
0.4919489 0.4922086 0.5068957
0.5782513 0.5768836 0.5854215
0.6408010 0.6410647 0.6479708
0.5665313 0.5761152 0.5821726
0.5235696 0.5287638 0.5349829
0.5166528 0.5185630 0.5228790
0.6116274 0.6129903 0.6115042
0.8571387 0.8579250 0.8544780
0.3674006 0.3712541 0.3935255
0.2302038 0.2296249 0.2574460
0.1808098 0.1781764 0.2072342
0.2578768 0.2571692 0.2877975
0.4000950 0.4028679 0.4303573
0.3989867 0.3988563 0.4208902
0.3335286 0.3322921 0.3581049
0.3058224 0.3036966 0.3323637
0.4192330 0.4169207 0.4422102
0.5684255 0.5662690 0.5854408
0.3751604 0.3754319 0.4056332
0.5030906 0.5035185 0.5219247
0.5848657 0.5833701 0.5961409
0.5952516 0.5921003 0.6061803
0.6888425 0.6838331 0.6970182
0.6334595 0.6355790 0.6413618
0.5990873 0.6000330 0.6109103
0.6382486 0.6374393 0.6462334
0.7806894 0.7801666 0.7831373
0.7473123 0.7447305 0.7492358
0.7412078 0.7454004 0.7425425
0.6659634 0.6691564 0.6683857
0.6182226 0.6222529 0.6212008
0.6655376 0.6705876 0.6642483
0.8724661 0.8742830 0.8708451
0.5932858 0.5951264 0.5980785
0.3865689 0.3875388 0.4075980
0.2778916 0.2783708 0.3088267
0.2891918 0.2891033 0.3191028
0.3342894 0.3333993 0.3600565
0.6827852 0.6839754 0.6853490
0.5164380 0.5157424 0.5298935
0.4983964 0.4962096 0.5128852
0.5423388 0.5382325 0.5552615
0.6033287 0.5967471 0.6161369
0.6911497 0.6891362 0.6949728
0.5525647 0.5491624 0.5648742
0.6408185 0.6373585 0.6484303
0.7872404 0.7810623 0.7892470
0.8521999 0.8413056 0.8522003
0.5851960 0.5838441 0.5979131
0.6330301 0.6315523 0.6416428
0.6612734 0.6612096 0.6703934
0.8144788 0.8094946 0.8146077
1.0000000 1.0000000 1.0000000
0.9530563 0.9566507 0.9432531
0.8680704 0.8704035 0.8613299
0.8406532 0.8445723 0.8351594
0.8147296 0.8244186 0.8153445
0.9675263 0.9675172 0.9673634
