catalog/styles/experimental/experimental-portrait/look.cube
# experimental-portrait iteration 5
LUT_3D_SIZE 9
DOMAIN_MIN 0 0 0
DOMAIN_MAX 1 1 1
0.0356461 0.0356819 0.0410370
0.0601149 0.0597009 0.0693743
0.0614427 0.0618913 0.0674412
0.1067093 0.1064599 0.1189962
0.2037929 0.2057715 0.2299179
0.2900352 0.2949241 0.3224941
0.3870966 0.3909551 0.4161587
0.4715315 0.4711897 0.4936484
0.5505686 0.5470019 0.5649630
0.0408377 0.0413002 0.0454461
0.0703721 0.0705799 0.0792034
0.1003527 0.0973289 0.1170930
0.0735257 0.0719400 0.0867518
0.1258561 0.1258834 0.1456714
0.2322990 0.2333822 0.2603809
0.3527759 0.3527245 0.3817939
0.4734371 0.4719466 0.4985250
0.5951953 0.5917979 0.6145832
0.0974180 0.0967260 0.1106550
0.1259809 0.1274933 0.1438519
0.1164831 0.1180929 0.1364414
0.2231929 0.2218459 0.2540000
0.0957189 0.0954737 0.1162322
0.2002032 0.1991245 0.2287200
0.3627734 0.3602169 0.3919252
0.5038844 0.5007240 0.5294257
0.6360878 0.6317903 0.6582203
0.1396915 0.1386316 0.1615452
0.1712174 0.1714828 0.1972648
0.2059657 0.2068588 0.2358875
0.1972943 0.1959931 0.2259686
0.3615268 0.3609069 0.3913485
0.2465672 0.2459545 0.2734095
0.3953707 0.3921274 0.4216387
0.5424954 0.5374588 0.5658189
0.6594300 0.6534095 0.6815704
0.1682565 0.1689924 0.2003592
0.1820895 0.1824279 0.2143966
0.2121389 0.2123769 0.2445018
0.2574791 0.2572511 0.2883230
0.2548020 0.2534899 0.2808884
0.3194052 0.3193164 0.3448346
0.4183849 0.4153242 0.4413790
0.5397029 0.5339271 0.5613046
0.6488482 0.6420173 0.6695285
0.1734882 0.1789657 0.2143252
0.1819573 0.1851436 0.2196342
0.1975656 0.1986727 0.2320478
0.2222576 0.2219881 0.2538523
0.2487684 0.2480194 0.2782819
0.3030506 0.3018552 0.3307098
0.3962971 0.3933023 0.4209371
0.4974293 0.4922721 0.5188015
0.5985259 0.5920130 0.6170227
0.1689121 0.1809009 0.2161612
0.1770834 0.1851230 0.2194785
0.1858639 0.1902280 0.2238556
0.2012346 0.2027903 0.2359860
0.2357485 0.2356054 0.2683648
0.2905118 0.2891329 0.3207137
0.3584643 0.3556583 0.3848186
0.4373340 0.4326086 0.4587651
0.5228803 0.5158877 0.5392599
0.1633410 0.1822877 0.2155063
0.1728844 0.1867388 0.2196824
0.1834892 0.1924693 0.2252809
0.2009341 0.2056330 0.2384032
0.2326134 0.2338590 0.2662343
0.2778231 0.2763877 0.3074642
0.3300563 0.3263151 0.3550919
0.3873139 0.3811894 0.4070733
0.4486006 0.4398550 0.4627733
0.1582264 0.1840318 0.2148185
0.1704750 0.1904495 0.2215044
0.1854632 0.1995861 0.2308489
0.2061837 0.2145319 0.2456974
0.2336060 0.2365878 0.2670798
0.2675376 0.2659210 0.2951187
0.3060453 0.3007275 0.3281019
0.3452799 0.3369769 0.3620656
0.3833906 0.3724977 0.3949315
0.0680574 0.0675914 0.0792431
0.1073682 0.1086934 0.1216600
0.0944502 0.0954863 0.1060832
0.0875481 0.0865515 0.0986537
0.1261326 0.1240921 0.1451637
0.2044972 0.2032304 0.2324825
0.3295229 0.3289969 0.3580385
0.4498581 0.4490991 0.4724998
0.5448732 0.5433238 0.5598789
0.0986955 0.0998920 0.1132535
0.1114531 0.1118465 0.1257250
0.1101465 0.1105523 0.1237353
0.1040598 0.1020767 0.1183055
0.1192267 0.1164254 0.1374406
0.1880907 0.1864204 0.2136233
0.2886651 0.2884834 0.3176762
0.4217417 0.4220976 0.4482211
0.5630629 0.5630697 0.5834924
0.1543617 0.1561517 0.1791005
0.1460234 0.1471150 0.1686312
0.1251968 0.1253322 0.1438258
0.1207454 0.1193382 0.1387333
0.1165342 0.1134178 0.1339561
0.1533778 0.1523097 0.1764370
0.2668939 0.2676432 0.2968011
0.4135184 0.4137966 0.4420455
0.5739666 0.5738489 0.5967404
0.1662467 0.1660450 0.1955807
0.1950942 0.1946784 0.2252743
0.1863706 0.1849482 0.2125900
0.1760252 0.1754587 0.1996313
0.1661116 0.1659799 0.1888598
0.1633816 0.1648358 0.1882066
0.2851171 0.2857795 0.3155274
0.4477187 0.4458429 0.4745209
0.5794805 0.5782422 0.6010937
0.1971469 0.1986081 0.2318760
0.2168568 0.2171630 0.2503344
0.2186676 0.2172914 0.2486639
0.2067748 0.2043393 0.2330276
0.2162558 0.2158467 0.2447014
0.2572961 0.2586831 0.2874415
0.3479733 0.3480359 0.3779974
0.4869788 0.4841778 0.5103472
0.5737125 0.5705677 0.5922860
0.2238071 0.2290191 0.2628544
0.2342307 0.2373558 0.2701815
0.2409209 0.2418792 0.2737544
0.2397545 0.2386539 0.2702726
0.2494960 0.2476695 0.2801761
0.2951967 0.2944501 0.3255632
0.3793593 0.3797910 0.4074485
0.4672028 0.4659521 0.4900944
0.5581346 0.5528697 0.5744049
0.2418230 0.2520586 0.2835132
0.2480980 0.2551951 0.2860488
0.2546138 0.2586612 0.2891895
0.2613863 0.2626465 0.2932023
0.2743717 0.2734599 0.3035527
0.3120873 0.3103082 0.3384542
0.3825810 0.3806576 0.4059075
0.4652162 0.4620025 0.4845359
0.5467587 0.5410102 0.5609758
0.2558825 0.2718439 0.2996008
0.2603806 0.2721955 0.2998653
0.2663432 0.2741161 0.3016808
0.2760336 0.2799904 0.3071658
0.2937519 0.2943468 0.3204727
0.3289305 0.3269172 0.3513115
0.3877043 0.3839445 0.4060567
0.4618128 0.4569158 0.4763199
0.5393394 0.5334988 0.5499340
0.2685080 0.2904346 0.3142327
0.2723504 0.2892365 0.3131236
0.2784630 0.2902795 0.3140467
0.2908314 0.2976356 0.3208621
0.3133524 0.3154743 0.3376405
0.3478362 0.3460491 0.3665583
0.3954353 0.3909682 0.4092247
0.4562245 0.4504108 0.4659811
0.5245117 0.5181528 0.5308375
0.0677739 0.0690759 0.0815883
0.1009096 0.1035838 0.1174066
0.1022050 0.1036407 0.1163298
0.1012571 0.0990196 0.1136114
0.1269047 0.1223033 0.1439948
0.1993105 0.1953713 0.2242882
0.3058919 0.3036429 0.3337947
0.4223105 0.4220360 0.4472776
0.5390353 0.5404084 0.5585276
0.1245994 0.1256159 0.1435780
0.1366169 0.1377675 0.1572981
0.1423314 0.1430897 0.1625449
0.1336884 0.1318015 0.1524561
0.1416166 0.1379610 0.1623025
0.1959452 0.1934256 0.2218774
0.2876286 0.2872771 0.3166240
0.3978445 0.3993038 0.4250543
0.5322668 0.5350848 0.5542759
0.1780991 0.1774249 0.2045241
0.1792497 0.1787620 0.2080598
0.1744332 0.1746335 0.2017931
0.1776915 0.1780599 0.2042267
0.1741164 0.1734263 0.1999394
0.1916376 0.1916312 0.2195790
0.2605412 0.2621289 0.2913343
0.3736294 0.3758962 0.4029381
0.5245110 0.5276709 0.5470289
0.1994809 0.1987861 0.2315011
0.2365582 0.2361091 0.2704006
0.2190368 0.2175886 0.2495744
0.2131612 0.2134507 0.2430735
0.2287385 0.2318197 0.2610910
0.2113715 0.2142302 0.2436615
0.2475752 0.2497365 0.2815689
0.3720599 0.3738240 0.4018135
0.5175954 0.5195949 0.5382866
0.2310088 0.2327060 0.2667639
0.2611916 0.2619021 0.2950375
0.2642263 0.2637700 0.2957473
0.2529976 0.2521124 0.2831868
0.2721041 0.2730241 0.3042062
0.2982065 0.2997987 0.3312083
0.3021462 0.3042258 0.3369120
0.3981311 0.4013011 0.4248476
0.5133683 0.5120359 0.5308768
0.2785078 0.2830797 0.3148968
0.2903809 0.2933347 0.3242651
0.2965739 0.2978194 0.3282632
0.2951683 0.2948135 0.3253012
0.3002986 0.2990828 0.3296042
0.3350775 0.3342708 0.3621851
0.3939005 0.3957892 0.4203614
0.4452823 0.4453451 0.4687404
0.5276807 0.5230608 0.5422594
0.3186597 0.3271450 0.3543804
0.3204020 0.3265401 0.3536905
0.3235254 0.3273120 0.3544112
0.3268362 0.3282523 0.3551036
0.3287136 0.3277797 0.3532942
0.3470613 0.3445930 0.3675213
0.4156708 0.4131964 0.4340483
0.5089650 0.5062000 0.5251513
0.5781180 0.5744143 0.5894513
0.3490745 0.3621520 0.3842889
0.3468873 0.3567310 0.3790179
0.3468812 0.3534855 0.3756940
0.3505556 0.3539071 0.3754181
0.3595047 0.3597258 0.3796741
0.3836546 0.3813770 0.3992823
0.4438527 0.4404246 0.4558953
0.5345798 0.5314899 0.5438143
0.6250017 0.6225537 0.6320859
0.3756347 0.3935684 0.4106041
0.3708392 0.3845639 0.4015961
0.3683863 0.3778352 0.3946158
0.3727086 0.3779158 0.3939394
0.3895324 0.3909539 0.4056220
0.4244799 0.4230705 0.4356031
0.4806294 0.4777017 0.4874075
0.5605770 0.5573972 0.5644004
0.6579741 0.6553545 0.6598809
0.1337910 0.1382029 0.1627593
0.1255201 0.1288190 0.1485452
0.1183130 0.1196276 0.1369132
0.1110597 0.1084618 0.1259083
0.1325512 0.1269798 0.1491273
0.1900614 0.1849244 0.2121438
0.2850695 0.2824782 0.3116733
0.3937804 0.3943156 0.4213678
0.5074001 0.5111963 0.5340852
0.1463440 0.1470950 0.1713357
0.1605459 0.1613511 0.1867990
0.1567457 0.1563951 0.1815977
0.1448120 0.1422737 0.1678772
0.1571989 0.1535284 0.1815504
0.2112547 0.2085994 0.2388558
0.2997801 0.2992019 0.3286000
0.3972978 0.3989832 0.4247469
0.5041021 0.5081795 0.5286176
0.1857983 0.1839252 0.2107441
0.2063177 0.2054675 0.2355987
0.2045673 0.2038899 0.2348910
0.1951607 0.1940585 0.2254903
0.2007261 0.1995612 0.2326958
0.2402977 0.2400277 0.2733457
0.3096511 0.3106953 0.3407349
0.3973373 0.3997333 0.4246942
0.5056334 0.5094662 0.5274439
0.2686002 0.2679781 0.2995540
0.2830740 0.2829155 0.3150850
0.2863208 0.2867516 0.3177342
0.2783298 0.2789696 0.3107419
0.2829136 0.2838818 0.3180545
0.2937376 0.2954239 0.3297294
0.3285630 0.3305807 0.3610760
0.4011631 0.4037263 0.4279890
0.5090096 0.5112449 0.5279150
0.2892066 0.2900579 0.3218371
0.3181046 0.3189924 0.3507395
0.3285214 0.3286427 0.3597963
0.3306309 0.3295969 0.3604166
0.3315972 0.3325201 0.3626171
0.3570735 0.3604165 0.3890413
0.3746439 0.3775729 0.4046716
0.4375332 0.4390603 0.4614779
0.5158354 0.5151579 0.5322583
0.3518749 0.3552506 0.3830880
0.3565388 0.3592788 0.3873194
0.3591909 0.3608105 0.3893920
0.3674352 0.3681370 0.3959767
0.3813346 0.3819517 0.4064927
0.4212659 0.4213056 0.4422809
0.4417041 0.4409530 0.4612147
0.4807575 0.4788107 0.5002212
0.5586672 0.5565529 0.5710725
0.4033781 0.4103197 0.4321828
0.3971670 0.4024755 0.4250095
0.3936506 0.3973493 0.4202856
0.3967166 0.3987837 0.4209259
0.4124723 0.4124881 0.4321773
0.4414822 0.4395122 0.4560059
0.4768375 0.4742152 0.4891716
0.5372592 0.5353669 0.5494548
0.6232106 0.6230681 0.6306620
0.4423323 0.4527476 0.4689438
0.4314119 0.4393359 0.4560911
0.4239232 0.4293654 0.4462363
0.4239139 0.4267909 0.4428917
0.4350387 0.4353836 0.4495852
0.4589935 0.4574757 0.4690003
0.5085281 0.5065719 0.5154040
0.5954451 0.5947172 0.6003282
0.6896148 0.6899460 0.6942627
0.4756089 0.4893488 0.5003464
0.4615582 0.4720406 0.4831011
0.4505010 0.4576185 0.4685079
0.4474236 0.4512846 0.4614169
0.4579937 0.4592475 0.4678559
0.4910788 0.4907891 0.4969615
0.5549287 0.5541609 0.5570974
0.6518916 0.6512024 0.6516360
0.7783784 0.7779601 0.7770415
0.2238992 0.2288107 0.2612101
0.1729391 0.1759016 0.2029248
0.1542074 0.1548916 0.1790832
0.1326212 0.1302055 0.1522818
0.1377255 0.1328287 0.1561604
0.1843921 0.1797947 0.2067461
0.2684174 0.2662811 0.2953506
0.3652262 0.3663171 0.3948451
0.4674270 0.4720107 0.4985096
0.2033539 0.2049100 0.2351301
0.1918558 0.1923884 0.2213127
0.1743070 0.1733400 0.2015392
0.1560936 0.1534303 0.1822049
0.1664662 0.1630430 0.1937141
0.2185740 0.2159156 0.2476244
0.3032846 0.3023949 0.3323725
0.3976780 0.3989862 0.4252853
0.4913886 0.4950545 0.5170227
0.2217213 0.2213900 0.2528201
0.2261855 0.2252285 0.2562455
0.2124178 0.2110416 0.2423442
0.1978700 0.1959664 0.2291050
0.2096628 0.2076185 0.2435213
0.2617592 0.2606268 0.2957513
0.3436902 0.3438486 0.3739418
0.4301315 0.4314845 0.4554669
0.5155665 0.5180137 0.5361035
0.3340919 0.3332203 0.3632522
0.2966540 0.2955749 0.3285909
0.2974348 0.2964514 0.3287610
0.3093537 0.3078745 0.3399965
0.3027133 0.3015907 0.3364502
0.3308919 0.3310374 0.3644216
0.3934534 0.3941776 0.4219843
0.4643924 0.4651002 0.4868594
0.5412823 0.5419371 0.5576683
0.3996899 0.3987070 0.4242687
0.3783005 0.3789067 0.4088273
0.3776937 0.3774500 0.4079913
0.4180582 0.4157420 0.4443295
0.4079479 0.4085546 0.4350902
0.4206020 0.4212572 0.4462779
0.4555948 0.4550486 0.4791373
0.5103312 0.5091256 0.5289593
0.5682234 0.5672913 0.5817341
0.4514898 0.4542721 0.4748691
0.4338261 0.4368363 0.4597627
0.4219598 0.4242297 0.4488724
0.4305849 0.4320115 0.4555094
0.4606548 0.4617241 0.4804406
0.5167468 0.5147676 0.5324189
0.5135439 0.5106193 0.5309881
0.5717819 0.5694137 0.5852061
0.6001474 0.5992594 0.6110125
0.4953760 0.5011943 0.5159708
0.4786273 0.4831919 0.5000710
0.4658721 0.4691323 0.4873484
0.4681154 0.4700534 0.4873969
0.4919489 0.4922086 0.5068957
0.5488028 0.5478280 0.5578879
0.5782513 0.5768836 0.5854215
0.5670281 0.5660416 0.5774368
0.6408010 0.6410647 0.6479708
0.5337452 0.5416087 0.5517332
0.5125861 0.5185580 0.5300405
0.4963918 0.5005495 0.5127158
0.4934360 0.4958331 0.5073162
0.5107700 0.5116406 0.5208151
0.5498549 0.5498777 0.5557858
0.5967221 0.5969238 0.6001571
0.6429995 0.6439139 0.6461435
0.7116849 0.7126602 0.7119303
0.5665313 0.5761152 0.5821726
0.5436645 0.5510476 0.5572687
0.5235696 0.5287638 0.5349829
0.5118681 0.5151180 0.5208218
0.5166528 0.5185630 0.5228790
0.5461431 0.5474982 0.5493528
0.6116274 0.6129903 0.6115042
0.7177274 0.7190504 0.7148896
0.8571387 0.8579250 0.8544780
0.2851047 0.2896496 0.3195973
0.2277990 0.2298828 0.2590505
0.1892973 0.1891271 0.2172789
0.1619547 0.1596452 0.1860420
0.1524481 0.1486134 0.1746753
0.1866156 0.1832445 0.2115300
0.2570740 0.2556994 0.2856802
0.3421547 0.3433762 0.3728055
0.4314268 0.4355223 0.4632342
0.2864931 0.2889616 0.3176408
0.2458152 0.2461468 0.2749288
0.2128238 0.2115809 0.2406760
0.1851007 0.1826205 0.2127024
0.1871485 0.1841698 0.2156534
0.2345223 0.2320612 0.2637656
0.3137075 0.3125379 0.3422812
0.4015150 0.4019661 0.4284731
0.4885792 0.4907187 0.5136361
0.2708640 0.2707775 0.3003957
0.2738353 0.2728534 0.3024979
0.2535268 0.2517889 0.2817362
0.2292921 0.2271337 0.2590354
0.2357000 0.2334803 0.2675084
0.2898281 0.2880674 0.3208717
0.3760897 0.3750660 0.4034231
0.4619607 0.4615645 0.4849427
0.5423514 0.5425200 0.5612120
0.3213940 0.3199418 0.3512470
0.3426264 0.3414175 0.3720322
0.3374377 0.3365597 0.3660036
0.3420397 0.3408660 0.3695924
0.3427103 0.3412575 0.3710831
0.3713645 0.3700321 0.3989017
0.4444042 0.4430058 0.4677249
0.5201970 0.5186488 0.5387157
0.5900733 0.5884788 0.6040745
0.4587304 0.4591253 0.4819771
0.4385858 0.4396906 0.4651787
0.4284252 0.4308110 0.4546368
0.4805411 0.4805830 0.5025908
0.5129243 0.5120457 0.5313239
0.4862914 0.4847907 0.5051420
0.5162518 0.5138588 0.5332041
0.5704453 0.5678145 0.5843996
0.6271348 0.6246855 0.6377996
0.5441367 0.5476911 0.5594499
0.5076308 0.5105810 0.5281379
0.5017636 0.5039037 0.5228731
0.5131787 0.5131783 0.5316412
0.5590508 0.5572617 0.5728881
0.5898406 0.5886467 0.6001726
0.5751436 0.5728413 0.5858506
0.6045773 0.6018588 0.6153986
0.6485864 0.6467101 0.6568621
0.5843101 0.5889132 0.5965780
0.5525501 0.5559745 0.5679070
0.5325684 0.5346753 0.5489730
0.5374344 0.5381382 0.5516827
0.5785926 0.5784146 0.5876845
0.6345260 0.6343355 0.6399439
0.6864572 0.6859192 0.6911626
0.6299975 0.6294522 0.6380932
0.6674187 0.6666612 0.6729167
0.6176275 0.6228861 0.6278554
0.5892113 0.5932804 0.6002392
0.5642153 0.5671021 0.5754902
0.5545177 0.5564589 0.5645369
0.5727306 0.5742079 0.5798337
0.6254682 0.6268046 0.6292693
0.6956646 0.6971775 0.6978839
0.6970923 0.6986830 0.6996477
0.7302325 0.7307394 0.7299235
0.6519265 0.6580799 0.6598115
0.6212467 0.6261709 0.6283433
0.5925104 0.5964489 0.5989208
0.5704770 0.5738215 0.5762587
0.5650080 0.5681041 0.5696548
0.5861339 0.5892730 0.5884420
0.6428754 0.6461165 0.6416371
0.7469813 0.7497996 0.7430045
0.8639710 0.8655426 0.8612130
0.3674006 0.3712541 0.3935255
0.2914795 0.2929196 0.3184516
0.2302038 0.2296249 0.2574460
0.1933071 0.1912863 0.2198402
0.1808098 0.1781764 0.2072342
0.2042766 0.2022046 0.2323904
0.2578768 0.2571692 0.2877975
0.3262760 0.3272234 0.3567418
0.4000950 0.4028679 0.4303573
0.4113578 0.4133104 0.4338062
0.3283242 0.3286093 0.3531056
0.2734717 0.2723359 0.2995319
0.2394346 0.2373703 0.2663538
0.2353181 0.2329129 0.2629875
0.2718191 0.2696526 0.2995798
0.3363372 0.3348094 0.3631767
0.4107172 0.4100202 0.4359749
0.4860402 0.4862182 0.5094867
0.3989867 0.3988563 0.4208902
0.3677386 0.3671040 0.3913638
0.3335286 0.3322921 0.3581049
0.3046064 0.3028453 0.3303705
0.3058224 0.3036966 0.3323637
0.3490328 0.3467307 0.3745844
0.4192330 0.4169207 0.4422102
0.4947948 0.4925560 0.5147575
0.5684255 0.5662690 0.5854408
0.3965559 0.3950196 0.4224682
0.4182481 0.4178363 0.4415218
0.4168455 0.4165006 0.4389797
0.4151346 0.4142326 0.4365283
0.4237360 0.4220386 0.4445402
0.4505555 0.4480872 0.4703263
0.5067208 0.5036828 0.5242107
0.5735519 0.5700332 0.5882011
0.6391574 0.6351449 0.6509662
0.3751604 0.3754319 0.4056332
0.4768852 0.4775206 0.4990221
0.5030906 0.5035185 0.5219247
0.5558053 0.5552674 0.5701830
0.5848657 0.5833701 0.5961409
0.5733361 0.5710291 0.5845331
0.5952516 0.5921003 0.6061803
0.6410678 0.6369229 0.6508229
0.6888425 0.6838331 0.6970182
0.5493124 0.5521730 0.5627159
0.5302286 0.5312564 0.5483920
0.5552608 0.5553188 0.5710477
0.6074161 0.6064693 0.6208019
0.6852196 0.6834398 0.6888128
0.6918853 0.6908901 0.6961356
0.6828768 0.6807073 0.6878680
0.6930053 0.6893896 0.6989134
0.7181024 0.7135074 0.7234213
0.6334595 0.6355790 0.6413618
0.6045266 0.6062595 0.6157362
0.5990873 0.6000330 0.6109103
0.5848156 0.5843319 0.5958806
0.6382486 0.6374393 0.6462334
0.7585957 0.7590025 0.7615696
0.7806894 0.7801666 0.7831373
0.7118451 0.7102042 0.7155157
0.7473123 0.7447305 0.7492358
0.6842420 0.6872144 0.6889289
0.6568848 0.6593667 0.6630659
0.6305819 0.6324934 0.6376327
0.6153435 0.6169537 0.6222454
0.6237142 0.6256716 0.6298664
0.6773729 0.6796237 0.6813460
0.7470659 0.7490128 0.7487467
0.7352596 0.7366457 0.7348993
0.7714592 0.7715199 0.7707026
0.7412078 0.7454004 0.7425425
0.7025334 0.7060357 0.7042452
0.6659634 0.6691564 0.6683857
0.6364274 0.6399201 0.6396441
0.6182226 0.6222529 0.6212008
0.6204975 0.6251130 0.6217876
0.6655376 0.6705876 0.6642483
0.7589029 0.7631729 0.7561988
0.8724661 0.8742830 0.8708451
0.4758334 0.4786771 0.4915146
0.3814818 0.3827768 0.4017986
0.2988161 0.2987478 0.3233096
0.2455408 0.2446032 0.2730045
0.2253069 0.2241499 0.2546156
0.2356945 0.2348381 0.2659254
0.2700970 0.2697866 0.3002909
0.3174808 0.3178119 0.3467968
0.3677989 0.3687805 0.3958809
0.5390321 0.5409062 0.5513297
0.4326842 0.4331974 0.4507564
0.3596075 0.3590803 0.3815794
0.3178926 0.3166408 0.3421634
0.3080929 0.3064179 0.3333458
0.3291534 0.3272864 0.3542797
0.3717430 0.3698294 0.3959475
0.4241271 0.4222460 0.4469970
0.4792508 0.4774389 0.5006657
0.5568534 0.5573899 0.5687126
0.4777171 0.4775262 0.4941799
0.4235118 0.4226931 0.4428047
0.3975668 0.3960881 0.4180533
0.4009736 0.3988591 0.4213859
0.4304639 0.4277296 0.4499095
0.4770074 0.4736990 0.4950253
0.5312175 0.5273646 0.5477066
0.5877619 0.5833774 0.6027409
0.5619045 0.5611993 0.5753167
0.5047738 0.5040747 0.5210398
0.4811871 0.4800583 0.4981227
0.4869812 0.4853000 0.5029666
0.5101629 0.5077708 0.5246314
0.5424630 0.5391786 0.5554155
0.5845144 0.5802524 0.5962274
0.6344300 0.6290884 0.6449380
0.6863702 0.6798632 0.6956119
0.5916499 0.5917413 0.6044923
0.5055529 0.5042990 0.5229189
0.5187841 0.5169749 0.5344544
0.5759699 0.5739472 0.5879536
0.6243647 0.6220097 0.6324859
0.6568145 0.6536041 0.6631488
0.6900399 0.6855265 0.6959892
0.7295684 0.7234102 0.7349227
0.7657889 0.7578727 0.7702901
0.5002079 0.4981482 0.5200061
0.5502896 0.5494654 0.5644211
0.5884318 0.5868205 0.6015594
0.6383194 0.6363392 0.6473894
0.6942078 0.6923261 0.6985840
0.7653185 0.7631623 0.7670782
0.7973672 0.7934425 0.7991008
0.8080882 0.8020776 0.8094671
0.8213748 0.8133452 0.8221978
0.6026307 0.6018209 0.6127217
0.6262395 0.6261698 0.6358202
0.6491283 0.6488800 0.6579547
0.6664742 0.6661571 0.6716578
0.6936253 0.6935472 0.6991322
0.7901465 0.7903935 0.7957977
0.8762751 0.8742328 0.8760648
0.8361526 0.8317462 0.8350661
0.8666396 0.8603812 0.8650682
0.7289413 0.7306839 0.7313225
0.7078330 0.7092351 0.7112592
0.6904256 0.6916746 0.6940943
0.6780821 0.6794586 0.6822173
0.6804663 0.6825486 0.6854021
0.6985790 0.7013930 0.7022879
0.7403214 0.7426033 0.7407849
0.8113359 0.8111754 0.8106028
0.8821697 0.8795633 0.8800944
0.8424290 0.8460530 0.8380791
0.7969865 0.8000351 0.7938085
0.7581921 0.7609213 0.7564109
0.7314290 0.7344884 0.7307462
0.7103018 0.7144554 0.7096971
0.6984217 0.7042491 0.6977053
0.7257280 0.7328435 0.7254848
0.7918908 0.7979806 0.7916105
0.8901013 0.8915939 0.8893211
0.5932858 0.5951264 0.5980785
0.4845675 0.4859536 0.4977266
0.3865689 0.3875388 0.4075980
0.3144649 0.3151382 0.3418234
0.2778916 0.2783708 0.3088267
0.2740757 0.2743284 0.3055054
0.2891918 0.2891033 0.3191028
0.3108594 0.3103637 0.3386759
0.3342894 0.3333993 0.3600565
0.6399726 0.6415852 0.6437688
0.5434173 0.5443672 0.5541290
0.4599145 0.4602383 0.4766927
0.4083801 0.4081198 0.4290864
0.3897649 0.3888904 0.4120009
0.3944024 0.3928471 0.4164878
0.4130239 0.4107329 0.4342454
0.4395788 0.4365529 0.4598243
0.4694877 0.4657209 0.4887864
0.6827852 0.6839754 0.6853490
0.5869922 0.5871605 0.5958319
0.5164380 0.5157424 0.5298935
0.4910345 0.4896172 0.5060861
0.4983964 0.4962096 0.5128852
0.5182783 0.5152108 0.5317295
0.5423388 0.5382325 0.5552615
0.5709548 0.5656533 0.5837917
0.6033287 0.5967471 0.6161369
0.7059165 0.7061426 0.7075014
0.6017374 0.6004698 0.6101050
0.5413168 0.5391240 0.5534568
0.5466375 0.5439184 0.5584208
0.5899998 0.5867591 0.5991909
0.6367007 0.6326547 0.6436034
0.6726529 0.6672754 0.6787643
0.7027639 0.6956366 0.7089101
0.7329861 0.7239455 0.7392441
0.6911497 0.6891362 0.6949728
0.5928228 0.5900040 0.6023684
0.5525647 0.5491624 0.5648742
0.5756616 0.5722030 0.5866472
0.6408185 0.6373585 0.6484303
0.7226704 0.7183438 0.7269012
0.7872404 0.7810623 0.7892470
0.8266418 0.8181692 0.8273829
0.8521999 0.8413056 0.8522003
0.6184066 0.6152621 0.6279254
0.5782726 0.5749633 0.5899263
0.5733952 0.5698332 0.5859032
0.6007658 0.5979842 0.6116285
0.6399694 0.6379238 0.6489531
0.7263749 0.7227526 0.7326358
0.8486973 0.8423362 0.8494236
0.9203767 0.9112600 0.9174835
0.9533157 0.9415056 0.9488464
0.5851960 0.5838441 0.5979131
0.6239487 0.6223184 0.6335487
0.6330301 0.6315523 0.6416428
0.6500972 0.6496256 0.6587315
0.6612734 0.6612096 0.6703934
0.6921844 0.6904426 0.6967700
0.8144788 0.8094946 0.8146077
0.9473987 0.9390970 0.9439960
1.0000000 1.0000000 1.0000000
0.7636172 0.7652275 0.7662000
0.7535115 0.7543657 0.7553966
0.7530940 0.7539337 0.7536270
0.7592457 0.7600459 0.7597488
0.7740662 0.7750042 0.7740391
0.7802927 0.7823166 0.7792283
0.8089538 0.8105286 0.8091940
0.9107919 0.9071278 0.9098784
1.0000000 1.0000000 1.0000000
0.9530563 0.9566507 0.9432531
0.9014572 0.9044704 0.8934546
0.8680704 0.8704035 0.8613299
0.8545012 0.8567214 0.8481198
0.8406532 0.8445723 0.8351594
0.8162249 0.8235361 0.8135944
0.8147296 0.8244186 0.8153445
0.8692468 0.8768925 0.8710678
0.9675263 0.9675172 0.9673634
