catalog/styles/series/late-summer/series-late-summer-cross/look.cube
# series-late-summer-cross iteration 4
LUT_3D_SIZE 33
DOMAIN_MIN 0 0 0
DOMAIN_MAX 1 1 1
0.0000000 0.0000000 0.0000000
0.0000000 0.0000000 0.0000000
0.0000000 0.0000000 0.0000000
0.0000000 0.0000000 0.0000000
0.0231099 0.0000000 0.0000000
0.0830561 0.0000000 0.0000000
0.1428586 0.0000000 0.0000000
0.2025873 0.0000000 0.0000000
0.2622972 0.0000000 0.0000000
0.3219373 0.0000000 0.0000000
0.3813097 0.0000000 0.0000000
0.4400948 0.0000000 0.0000000
0.4978599 0.0000000 0.0000000
0.5540784 0.0000000 0.0000000
0.6082019 0.0000000 0.0000000
0.6596921 0.0000000 0.0000000
0.7080666 0.0000000 0.0000000
0.7528568 0.0000000 0.0000000
0.7936878 0.0000000 0.0000000
0.8302949 0.0000000 0.0000000
0.8625342 0.0000000 0.0000000
0.8904186 0.0000000 0.0000000
0.9141095 0.0000000 0.0000000
0.9339117 0.0000000 0.0000000
0.9502285 0.0000000 0.0000000
0.9635615 0.0000000 0.0000000
0.9744550 0.0000000 0.0000000
0.9834592 0.0000000 0.0000000
0.9910939 0.0000000 0.0000000
0.9978091 0.0000000 0.0000000
1.0000000 0.0000000 0.0000000
1.0000000 0.0000000 0.0000000
1.0000000 0.0000000 0.0000000
0.0000000 0.0000000 0.0000000
0.0000000 0.0000000 0.0000000
0.0000000 0.0000000 0.0000000
0.0000000 0.0000000 0.0000000
0.0434838 0.0000000 0.0000000
0.1045564 0.0000000 0.0000000
0.1653346 0.0000000 0.0000000
0.2257736 0.0000000 0.0000000
0.2857904 0.0000000 0.0000000
0.3452334 0.0000000 0.0000000
0.4038708 0.0000000 0.0000000
0.4613951 0.0000000 0.0000000
0.5174235 0.0000000 0.0000000
0.5715295 0.0000000 0.0000000
0.6232725 0.0000000 0.0000000
0.6722271 0.0000000 0.0000000
0.7179937 0.0000000 0.0000000
0.7602107 0.0000000 0.0000000
0.7985934 0.0000000 0.0000000
0.8329557 0.0000000 0.0000000
0.8632251 0.0000000 0.0000000
0.8894530 0.0000000 0.0000000
0.9118235 0.0000000 0.0000000
0.9306334 0.0000000 0.0000000
0.9462616 0.0000000 0.0000000
0.9591578 0.0000000 0.0000000
0.9698080 0.0000000 0.0000000
0.9787004 0.0000000 0.0000000
0.9862987 0.0000000 0.0000000
0.9930148 0.0000000 0.0000000
0.9991922 0.0000000 0.0000000
1.0000000 0.0000000 0.0000000
1.0000000 0.0000000 0.0000000
0.0000000 0.0000000 0.0000000
0.0000000 0.0000000 0.0000000
0.0000000 0.0000000 0.0000000
0.0015599 0.0000000 0.0000000
0.0639771 0.0000000 0.0000000
0.1262348 0.0000000 0.0000000
0.1880633 0.0000000 0.0000000
0.2492710 0.0000000 0.0000000
0.3096255 0.0000000 0.0000000
0.3688742 0.0000000 0.0000000
0.4267501 0.0000000 0.0000000
0.4829662 0.0000000 0.0000000
0.5372084 0.0000000 0.0000000
0.5891527 0.0000000 0.0000000
0.6384739 0.0000000 0.0000000
0.6848588 0.0000000 0.0000000
0.7279937 0.0000000 0.0000000
0.7676218 0.0000000 0.0000000
0.8035486 0.0000000 0.0000000
0.8356693 0.0000000 0.0000000
0.8639728 0.0000000 0.0000000
0.8885544 0.0000000 0.0000000
0.9096184 0.0000000 0.0000000
0.9274451 0.0000000 0.0000000
0.9423918 0.0000000 0.0000000
0.9548543 0.0000000 0.0000000
0.9652628 0.0000000 0.0000000
0.9740448 0.0000000 0.0000000
0.9816069 0.0000000 0.0000000
0.9883246 0.0000000 0.0000000
0.9945167 0.0000000 0.0000000
1.0000000 0.0000000 0.0000000
1.0000000 0.0000000 0.0000000
0.0000000 0.0000000 0.0000000
0.0000000 0.0000000 0.0000000
0.0000000 0.0000000 0.0000000
0.0210142 0.0000000 0.0000000
0.0847853 0.0000000 0.0000000
0.1483376 0.0000000 0.0000000
0.2113468 0.0000000 0.0000000
0.2734327 0.0000000 0.0000000
0.3341877 0.0000000 0.0000000
0.3932403 0.0000000 0.0000000
0.4502999 0.0000000 0.0000000
0.5051154 0.0000000 0.0000000
0.5574705 0.0000000 0.0000000
0.6071569 0.0000000 0.0000000
0.6539684 0.0000000 0.0000000
0.6977047 0.0000000 0.0000000
0.7381564 0.0000000 0.0000000
0.7751586 0.0000000 0.0000000
0.8086164 0.0000000 0.0000000
0.8384976 0.0000000 0.0000000
0.8648545 0.0000000 0.0000000
0.8878185 0.0000000 0.0000000
0.9075984 0.0000000 0.0000000
0.9244687 0.0000000 0.0000000
0.9387489 0.0000000 0.0000000
0.9507881 0.0000000 0.0000000
0.9609573 0.0000000 0.0000000
0.9696305 0.0000000 0.0000000
0.9771571 0.0000000 0.0000000
0.9838733 0.0000000 0.0000000
0.9900782 0.0000000 0.0000000
0.9960092 0.0000000 0.0000000
1.0000000 0.0000000 0.0000000
0.0000000 0.0000000 0.0000000
0.0000000 0.0000000 0.0000000
0.0000000 0.0000000 0.0000000
0.0410891 0.0011312 0.0000000
0.1061442 0.0039119 0.0000000
0.1710563 0.0068086 0.0000000
0.2353424 0.0095457 0.0000000
0.2983892 0.0119191 0.0000000
0.3595823 0.0136983 0.0000000
0.4184330 0.0147143 0.0000000
0.4746166 0.0148725 0.0000000
0.5279449 0.0141439 0.0000000
0.5783106 0.0125495 0.0000000
0.6256311 0.0101352 0.0000000
0.6698306 0.0069527 0.0000000
0.7108207 0.0030465 0.0000000
0.7485124 0.0000000 0.0000000
0.7828438 0.0000000 0.0000000
0.8138140 0.0000000 0.0000000
0.8414732 0.0000000 0.0000000
0.8659160 0.0000000 0.0000000
0.8873036 0.0000000 0.0000000
0.9058475 0.0000000 0.0000000
0.9217983 0.0000000 0.0000000
0.9354376 0.0000000 0.0000000
0.9470672 0.0000000 0.0000000
0.9570028 0.0000000 0.0000000
0.9655636 0.0000000 0.0000000
0.9730515 0.0000000 0.0000000
0.9797648 0.0000000 0.0000000
0.9859801 0.0000000 0.0000000
0.9919244 0.0000000 0.0000000
0.9977722 0.0000000 0.0000000
0.0000000 0.0130737 0.0000000
0.0000000 0.0166024 0.0000000
0.0000000 0.0201935 0.0000000
0.0620131 0.0238796 0.0000000
0.1282494 0.0276733 0.0000000
0.1944185 0.0315045 0.0000000
0.2598772 0.0352014 0.0000000
0.3237960 0.0385112 0.0000000
0.3853714 0.0411586 0.0000000
0.4439855 0.0429108 0.0000000
0.4992746 0.0436220 0.0000000
0.5511019 0.0432353 0.0000000
0.5994561 0.0417614 0.0000000
0.6443716 0.0392512 0.0000000
0.6858997 0.0357725 0.0000000
0.7240732 0.0314007 0.0000000
0.7589445 0.0262185 0.0000000
0.7905699 0.0203118 0.0000000
0.8190532 0.0137609 0.0000000
0.8445194 0.0066323 0.0000000
0.8671055 0.0000000 0.0000000
0.8869849 0.0000000 0.0000000
0.9043562 0.0000000 0.0000000
0.9194427 0.0000000 0.0000000
0.9324745 0.0000000 0.0000000
0.9437129 0.0000000 0.0000000
0.9534216 0.0000000 0.0000000
0.9618659 0.0000000 0.0000000
0.9693111 0.0000000 0.0000000
0.9760212 0.0000000 0.0000000
0.9822464 0.0000000 0.0000000
0.9882094 0.0000000 0.0000000
0.9940789 0.0000000 0.0000000
0.0000000 0.0345173 0.0000000
0.0000000 0.0390427 0.0000000
0.0171708 0.0435700 0.0000000
0.0840223 0.0481114 0.0000000
0.1511617 0.0526753 0.0000000
0.2181854 0.0572230 0.0000000
0.2843601 0.0616246 0.0000000
0.3487480 0.0656521 0.0000000
0.4104351 0.0690124 0.0000000
0.4687105 0.0714197 0.0000000
0.5231444 0.0726588 0.0000000
0.5735898 0.0726136 0.0000000
0.6200695 0.0712545 0.0000000
0.6626923 0.0686156 0.0000000
0.7016152 0.0647754 0.0000000
0.7370049 0.0598472 0.0000000
0.7690677 0.0539720 0.0000000
0.7980121 0.0473002 0.0000000
0.8240536 0.0399732 0.0000000
0.8473948 0.0321061 0.0000000
0.8682122 0.0237803 0.0000000
0.8866789 0.0150432 0.0000000
0.9029688 0.0059151 0.0000000
0.9172589 0.0000000 0.0000000
0.9297364 0.0000000 0.0000000
0.9406133 0.0000000 0.0000000
0.9501071 0.0000000 0.0000000
0.9584391 0.0000000 0.0000000
0.9658448 0.0000000 0.0000000
0.9725559 0.0000000 0.0000000
0.9788039 0.0000000 0.0000000
0.9848000 0.0000000 0.0000000
0.9907069 0.0000000 0.0000000
0.0000000 0.0569482 0.0000000
0.0000000 0.0625848 0.0000000
0.0395762 0.0681573 0.0000000
0.1070947 0.0735969 0.0000000
0.1746702 0.0788626 0.0000000
0.2418414 0.0839291 0.0000000
0.3078864 0.0887445 0.0000000
0.3719407 0.0931767 0.0000000
0.4331582 0.0969939 0.0000000
0.4908239 0.0998957 0.0000000
0.5444395 0.1015935 0.0000000
0.5937415 0.1018772 0.0000000
0.6386702 0.1006389 0.0000000
0.6793204 0.0978666 0.0000000
0.7159028 0.0936374 0.0000000
0.7487235 0.0881052 0.0000000
0.7781490 0.0814763 0.0000000
0.8045577 0.0739769 0.0000000
0.8282962 0.0658199 0.0000000
0.8496469 0.0571789 0.0000000
0.8688283 0.0481749 0.0000000
0.8860098 0.0388750 0.0000000
0.9013328 0.0293067 0.0000000
0.9149247 0.0194732 0.0000000
0.9269272 0.0093774 0.0000000
0.9374974 0.0000000 0.0000000
0.9468103 0.0000000 0.0000000
0.9550550 0.0000000 0.0000000
0.9624384 0.0000000 0.0000000
0.9691744 0.0000000 0.0000000
0.9754741 0.0000000 0.0000000
0.9815381 0.0000000 0.0000000
0.9875143 0.0000000 0.0000000
0.0000000 0.0801296 0.0000000
0.0000000 0.0869252 0.0000000
0.0629707 0.0935930 0.0000000
0.1307918 0.0999644 0.0000000
0.1982086 0.1059015 0.0000000
0.2646592 0.1113473 0.0000000
0.3294913 0.1163137 0.0000000
0.3921019 0.1208081 0.0000000
0.4519338 0.1247367 0.0000000
0.5084479 0.1278615 0.0000000
0.5611191 0.1298539 0.0000000
0.6094964 0.1303993 0.0000000
0.6532981 0.1292782 0.0000000
0.6924775 0.1264028 0.0000000
0.7272210 0.1218272 0.0000000
0.7579313 0.1157319 0.0000000
0.7851158 0.1083810 0.0000000
0.8093220 0.1000706 0.0000000
0.8310316 0.0910879 0.0000000
0.8506188 0.0816732 0.0000000
0.8683563 0.0719960 0.0000000
0.8844195 0.0621510 0.0000000
0.8989209 0.0521741 0.0000000
0.9119503 0.0420564 0.0000000
0.9235931 0.0317729 0.0000000
0.9339509 0.0213095 0.0000000
0.9431569 0.0106837 0.0000000
0.9513734 0.0000000 0.0000000
0.9587839 0.0000000 0.0000000
0.9655900 0.0000000 0.0000000
0.9720010 0.0000000 0.0000000
0.9781928 0.0000000 0.0000000
0.9843035 0.0000000 0.0000000
0.0000000 0.1038519 0.0000000
0.0186404 0.1116336 0.0000000
0.0866415 0.1192680 0.0000000
0.1542570 0.1265115 0.0000000
0.2208877 0.1331084 0.0000000
0.2857974 0.1388991 0.0000000
0.3484021 0.1438854 0.0000000
0.4084296 0.1481818 0.0000000
0.4657847 0.1518693 0.0000000
0.5203072 0.1548562 0.0000000
0.5715892 0.1568556 0.0000000
0.6190136 0.1574902 0.0000000
0.6620054 0.1564330 0.0000000
0.7002626 0.1535030 0.0000000
0.7338380 0.1487021 0.0000000
0.7631267 0.1421972 0.0000000
0.7887091 0.1342730 0.0000000
0.8112548 0.1252741 0.0000000
0.8313671 0.1155524 0.0000000
0.8495287 0.1054162 0.0000000
0.8660825 0.0950960 0.0000000
0.8812364 0.0847304 0.0000000
0.8951079 0.0743710 0.0000000
0.9077460 0.0639964 0.0000000
0.9191887 0.0535441 0.0000000
0.9294797 0.0429495 0.0000000
0.9387068 0.0321784 0.0000000
0.9470002 0.0212374 0.0000000
0.9545284 0.0101696 0.0000000
0.9614965 0.0000000 0.0000000
0.9681017 0.0000000 0.0000000
0.9745122 0.0000000 0.0000000
0.9808583 0.0000000 0.0000000
0.0000000 0.1279992 0.0000000
0.0423332 0.1363227 0.0000000
0.1096732 0.1445537 0.0000000
0.1764008 0.1524465 0.0000000
0.2416363 0.1596401 0.0000000
0.3044099 0.1658144 0.0000000
0.3641153 0.1708524 0.0000000
0.4207422 0.1748712 0.0000000
0.4746701 0.1780823 0.0000000
0.5262416 0.1805823 0.0000000
0.5753517 0.1822230 0.0000000
0.6213873 0.1826630 0.0000000
0.6635543 0.1815329 0.0000000
0.7012622 0.1785751 0.0000000
0.7343222 0.1737072 0.0000000
0.7629732 0.1670275 0.0000000
0.7877453 0.1587811 0.0000000
0.8093320 0.1493146 0.0000000
0.8284163 0.1390188 0.0000000
0.8455881 0.1282668 0.0000000
0.8612920 0.1173626 0.0000000
0.8758053 0.1065074 0.0000000
0.8892741 0.0957818 0.0000000
0.9017381 0.0851594 0.0000000
0.9131858 0.0745379 0.0000000
0.9236126 0.0637925 0.0000000
0.9330472 0.0528248 0.0000000
0.9415815 0.0415935 0.0000000
0.9493757 0.0301220 0.0000000
0.9566317 0.0184804 0.0000000
0.9635496 0.0067517 0.0000000
0.9702973 0.0000000 0.0000000
0.9769952 0.0000000 0.0000000
0.0000583 0.1525745 0.0004376
0.0656247 0.1608034 0.0000000
0.1312494 0.1690635 0.0000000
0.1962280 0.1771988 0.0000000
0.2594746 0.1848024 0.0000000
0.3197690 0.1913756 0.0000000
0.3763585 0.1965917 0.0000000
0.4292968 0.2004375 0.0000000
0.4792920 0.2031430 0.0000000
0.5271452 0.2049560 0.0000000
0.5731854 0.2059236 0.0000000
0.6170560 0.2058572 0.0000000
0.6579660 0.2044526 0.0000000
0.6951254 0.2014296 0.0000000
0.7280585 0.1966159 0.0000000
0.7567129 0.1899914 0.0000000
0.7814227 0.1816981 0.0000000
0.8027728 0.1720260 0.0000000
0.8214555 0.1613664 0.0000000
0.8381450 0.1501437 0.0000000
0.8533939 0.1387409 0.0000000
0.8675871 0.1274343 0.0000000
0.8809332 0.1163543 0.0000000
0.8934808 0.1054809 0.0000000
0.9051930 0.0946797 0.0000000
0.9160097 0.0837636 0.0000000
0.9258952 0.0725660 0.0000000
0.9348965 0.0609982 0.0000000
0.9431536 0.0490663 0.0000000
0.9508645 0.0368544 0.0000000
0.9582384 0.0244769 0.0000000
0.9654554 0.0120304 0.0000000
0.9726240 0.0000000 0.0000000
0.0254255 0.1776210 0.0022196
0.0881719 0.1851149 0.0000000
0.1509107 0.1927898 0.0000000
0.2131602 0.2006467 0.0000000
0.2737897 0.2083180 0.0000000
0.3313998 0.2151804 0.0000000
0.3849909 0.2206672 0.0000000
0.4344530 0.2245321 0.0000000
0.4805494 0.2268895 0.0000000
0.5243686 0.2280350 0.0000000
0.5666757 0.2282022 0.0000000
0.6075701 0.2274241 0.0000000
0.6465215 0.2255584 0.0000000
0.6827274 0.2223721 0.0000000
0.7154888 0.2176317 0.0000000
0.7444146 0.2111908 0.0000000
0.7695375 0.2030537 0.0000000
0.7912190 0.1934042 0.0000000
0.8100647 0.1825894 0.0000000
0.8267763 0.1710569 0.0000000
0.8420045 0.1592603 0.0000000
0.8562471 0.1475581 0.0000000
0.8697915 0.1361431 0.0000000
0.8827294 0.1250192 0.0000000
0.8950031 0.1140324 0.0000000
0.9065064 0.1029443 0.0000000
0.9171355 0.0915254 0.0000000
0.9268756 0.0796379 0.0000000
0.9358377 0.0672709 0.0000000
0.9442039 0.0545159 0.0000000
0.9521956 0.0415055 0.0000000
0.9600100 0.0283635 0.0000000
0.9677589 0.0151780 0.0000000
0.0511499 0.2031026 0.0013154
0.1098345 0.2094146 0.0000000
0.1686133 0.2160253 0.0000000
0.2271562 0.2231023 0.0000000
0.2844713 0.2303983 0.0000000
0.3391366 0.2372704 0.0000000
0.3899180 0.2429742 0.0000000
0.4363709 0.2470015 0.0000000
0.4790284 0.2492464 0.0000000
0.5190106 0.2499354 0.0000000
0.5574064 0.2494073 0.0000000
0.5948132 0.2479087 0.0000000
0.6311321 0.2454941 0.0000000
0.6657508 0.2420318 0.0000000
0.6978916 0.2372828 0.0000000
0.7269080 0.2310149 0.0000000
0.7525194 0.2231062 0.0000000
0.7748061 0.2136161 0.0000000
0.7942012 0.2028143 0.0000000
0.8113630 0.1911353 0.0000000
0.8269895 0.1790732 0.0000000
0.8416719 0.1670572 0.0000000
0.8557722 0.1553469 0.0000000
0.8694281 0.1439842 0.0000000
0.8825828 0.1328189 0.0000000
0.8950803 0.1215815 0.0000000
0.9067599 0.1099915 0.0000000
0.9175355 0.0978601 0.0000000
0.9274649 0.0851439 0.0000000
0.9367109 0.0719245 0.0000000
0.9454976 0.0583398 0.0000000
0.9540348 0.0445314 0.0000000
0.9624726 0.0306303 0.0000000
0.0766683 0.2288032 0.0000000
0.1305273 0.2337862 0.0000000
0.1845429 0.2391161 0.0000000
0.2385590 0.2450743 0.0000000
0.2918355 0.2515660 0.0000000
0.3431171 0.2580482 0.0000000
0.3910713 0.2637301 0.0000000
0.4349137 0.2679084 0.0000000
0.4747580 0.2702316 0.0000000
0.5114946 0.2707575 0.0000000
0.5463211 0.2698128 0.0000000
0.5802084 0.2677684 0.0000000
0.6135137 0.2648463 0.0000000
0.6459493 0.2610401 0.0000000
0.6768390 0.2561639 0.0000000
0.7054470 0.2499663 0.0000000
0.7312598 0.2422473 0.0000000
0.7541058 0.2329626 0.0000000
0.7742121 0.2222913 0.0000000
0.7921174 0.2106223 0.0000000
0.8085038 0.1984538 0.0000000
0.8239939 0.1862490 0.0000000
0.8389979 0.1743161 0.0000000
0.8536884 0.1627449 0.0000000
0.8680082 0.1514131 0.0000000
0.8817783 0.1400517 0.0000000
0.8947830 0.1283491 0.0000000
0.9068670 0.1160637 0.0000000
0.9180214 0.1030981 0.0000000
0.9283781 0.0894963 0.0000000
0.9381445 0.0753869 0.0000000
0.9475519 0.0609366 0.0000000
0.9568135 0.0463327 0.0000000
0.1014195 0.2543501 0.0000000
0.1500441 0.2581159 0.0000000
0.1988355 0.2622059 0.0000000
0.2477681 0.2669369 0.0000000
0.2963798 0.2723409 0.0000000
0.3437018 0.2780402 0.0000000
0.3885098 0.2833389 0.0000000
0.4298245 0.2874813 0.0000000
0.4673487 0.2899326 0.0000000
0.5015681 0.2905421 0.0000000
0.5335230 0.2895082 0.0000000
0.5643145 0.2871968 0.0000000
0.5946360 0.2839166 0.0000000
0.6245652 0.2797813 0.0000000
0.6536668 0.2747021 0.0000000
0.6812942 0.2684691 0.0000000
0.7068433 0.2608646 0.0000000
0.7299914 0.2517878 0.0000000
0.7507765 0.2413460 0.0000000
0.7695850 0.2298605 0.0000000
0.7870042 0.2177842 0.0000000
0.8036089 0.2055667 0.0000000
0.8198070 0.1935329 0.0000000
0.8357727 0.1818102 0.0000000
0.8514700 0.1703220 0.0000000
0.8667002 0.1588349 0.0000000
0.8812178 0.1470371 0.0000000
0.8948147 0.1346434 0.0000000
0.9074078 0.1214831 0.0000000
0.9190791 0.1075383 0.0000000
0.9300179 0.0929189 0.0000000
0.9404778 0.0778258 0.0000000
0.9507407 0.0625166 0.0000000
0.1246934 0.2793059 0.0000000
0.1679651 0.2821067 0.0000000
0.2113757 0.2851647 0.0000000
0.2549710 0.2887604 0.0000000
0.2985068 0.2929918 0.0000000
0.3413343 0.2976475 0.0000000
0.3824914 0.3022123 0.0000000
0.4210264 0.3060182 0.0000000
0.4563823 0.3084729 0.0000000
0.4886379 0.3092556 0.0000000
0.5184798 0.3083765 0.0000000
0.5468712 0.3060804 0.0000000
0.5746235 0.3026637 0.0000000
0.6021048 0.2983147 0.0000000
0.6291856 0.2930485 0.0000000
0.6554282 0.2867416 0.0000000
0.6803043 0.2792222 0.0000000
0.7034582 0.2703885 0.0000000
0.7248123 0.2603016 0.0000000
0.7445915 0.2492072 0.0000000
0.7632267 0.2374746 0.0000000
0.7811711 0.2254876 0.0000000
0.7987640 0.2135406 0.0000000
0.8161579 0.2017756 0.0000000
0.8333272 0.1901641 0.0000000
0.8500829 0.1785269 0.0000000
0.8661721 0.1665867 0.0000000
0.8813662 0.1540425 0.0000000
0.8955260 0.1406610 0.0000000
0.9086650 0.1263484 0.0000000
0.9209513 0.1111849 0.0000000
0.9326591 0.0954108 0.0000000
0.9441246 0.0793593 0.0000000
0.1456992 0.3033332 0.0000000
0.1837061 0.3054381 0.0000000
0.2218118 0.3077160 0.0000000
0.2600813 0.3103700 0.0000000
0.2984095 0.3135040 0.0000000
0.3364157 0.3170259 0.0000000
0.3734639 0.3206151 0.0000000
0.4087944 0.3237784 0.0000000
0.4417978 0.3259859 0.0000000
0.4722775 0.3268396 0.0000000
0.5005310 0.3261831 0.0000000
0.5272076 0.3240918 0.0000000
0.5530172 0.3207653 0.0000000
0.5784541 0.3163951 0.0000000
0.6036505 0.3110739 0.0000000
0.6284328 0.3047789 0.0000000
0.6524660 0.2974279 0.0000000
0.6754699 0.2889642 0.0000000
0.6973251 0.2794296 0.0000000
0.7181171 0.2689922 0.0000000
0.7380860 0.2579087 0.0000000
0.7575154 0.2464554 0.0000000
0.7766271 0.2348579 0.0000000
0.7955166 0.2232396 0.0000000
0.8141592 0.2116008 0.0000000
0.8323910 0.1998173 0.0000000
0.8499896 0.1876624 0.0000000
0.8667330 0.1748551 0.0000000
0.8824573 0.1611338 0.0000000
0.8971238 0.1463540 0.0000000
0.9108692 0.1305682 0.0000000
0.9239766 0.1140449 0.0000000
0.9368073 0.0971849 0.0000000
0.1636900 0.3262955 0.0000000
0.1966756 0.3279139 0.0000000
0.2297224 0.3296239 0.0000000
0.2628921 0.3315354 0.0000000
0.2961458 0.3337180 0.0000000
0.3293004 0.3361447 0.0000000
0.3620034 0.3386550 0.0000000
0.3937593 0.3409456 0.0000000
0.4240654 0.3426233 0.0000000
0.4526235 0.3433139 0.0000000
0.4794462 0.3427712 0.0000000
0.5048437 0.3409228 0.0000000
0.5292929 0.3378402 0.0000000
0.5532488 0.3336606 0.0000000
0.5769960 0.3285065 0.0000000
0.6005836 0.3224413 0.0000000
0.6239155 0.3154793 0.0000000
0.6468371 0.3076248 0.0000000
0.6692415 0.2989178 0.0000000
0.6911064 0.2894492 0.0000000
0.7124921 0.2793558 0.0000000
0.7334969 0.2687888 0.0000000
0.7541950 0.2578755 0.0000000
0.7746106 0.2466881 0.0000000
0.7946902 0.2352237 0.0000000
0.8143076 0.2233906 0.0000000
0.8332848 0.2110101 0.0000000
0.8514362 0.1978401 0.0000000
0.8686024 0.1836350 0.0000000
0.8847293 0.1682427 0.0000000
0.8999226 0.1517131 0.0000000
0.9144590 0.1343413 0.0000000
0.9287072 0.1165831 0.0000000
0.1781194 0.3483118 0.0000000
0.2064541 0.3495503 0.0000000
0.2348263 0.3508101 0.0000000
0.2632824 0.3521150 0.0000000
0.2918164 0.3534844 0.0000000
0.3203642 0.3549178 0.0000000
0.3487779 0.3563595 0.0000000
0.3768035 0.3576626 0.0000000
0.4041196 0.3585869 0.0000000
0.4304626 0.3588491 0.0000000
0.4557169 0.3582033 0.0000000
0.4799448 0.3564979 0.0000000
0.5033866 0.3537013 0.0000000
0.5263694 0.3498790 0.0000000
0.5492042 0.3451446 0.0000000
0.5720798 0.3396074 0.0000000
0.5950788 0.3333488 0.0000000
0.6181670 0.3264213 0.0000000
0.6412731 0.3188584 0.0000000
0.6643006 0.3106876 0.0000000
0.6871647 0.3019356 0.0000000
0.7098011 0.2926292 0.0000000
0.7321375 0.2827856 0.0000000
0.7541068 0.2723987 0.0000000
0.7756199 0.2614276 0.0000000
0.7965692 0.2497799 0.0000000
0.8168160 0.2372998 0.0000000
0.8362127 0.2237803 0.0000000
0.8546365 0.2090133 0.0000000
0.8720429 0.1928852 0.0000000
0.8885277 0.1754850 0.0000000
0.9043594 0.1571504 0.0000000
0.9199030 0.1383864 0.0000000
0.1887561 0.3696778 0.0000000
0.2129170 0.3705253 0.0000000
0.2371051 0.3713427 0.0000000
0.2613537 0.3720898 0.0000000
0.2856774 0.3727404 0.0000000
0.3100698 0.3732939 0.0000000
0.3345046 0.3737502 0.0000000
0.3589040 0.3740640 0.0000000
0.3831252 0.3741228 0.0000000
0.4070134 0.3737596 0.0000000
0.4304514 0.3727904 0.0000000
0.4533942 0.3710637 0.0000000
0.4759260 0.3685044 0.0000000
0.4982442 0.3651272 0.0000000
0.5206094 0.3610201 0.0000000
0.5432537 0.3562979 0.0000000
0.5663353 0.3510631 0.0000000
0.5898956 0.3453815 0.0000000
0.6138819 0.3392707 0.0000000
0.6381557 0.3327032 0.0000000
0.6625382 0.3256201 0.0000000
0.6868364 0.3179399 0.0000000
0.7108551 0.3095673 0.0000000
0.7344369 0.3004055 0.0000000
0.7574444 0.2903434 0.0000000
0.7797589 0.2792516 0.0000000
0.8012559 0.2669597 0.0000000
0.8218089 0.2532675 0.0000000
0.8413190 0.2380014 0.0000000
0.8597683 0.2211098 0.0000000
0.8772734 0.2027586 0.0000000
0.8941113 0.1833589 0.0000000
0.9106535 0.1634815 0.0000000
0.1957160 0.3907024 0.0000000
0.2162543 0.3910621 0.0000000
0.2368194 0.3913648 0.0000000
0.2574376 0.3915323 0.0000000
0.2781369 0.3915102 0.0000000
0.2989368 0.3912857 0.0000000
0.3198674 0.3908727 0.0000000
0.3409556 0.3902798 0.0000000
0.3622002 0.3894821 0.0000000
0.3835667 0.3884166 0.0000000
0.4050106 0.3869894 0.0000000
0.4264954 0.3851042 0.0000000
0.4480543 0.3827034 0.0000000
0.4698057 0.3797900 0.0000000
0.4919333 0.3764278 0.0000000
0.5146504 0.3727145 0.0000000
0.5381073 0.3687399 0.0000000
0.5623570 0.3645493 0.0000000
0.5873331 0.3601271 0.0000000
0.6128786 0.3554023 0.0000000
0.6387719 0.3502609 0.0000000
0.6647279 0.3445303 0.0000000
0.6904615 0.3380098 0.0000000
0.7157402 0.3305182 0.0000000
0.7403577 0.3218369 0.0000000
0.7641682 0.3117700 0.0000000
0.7870127 0.3000849 0.0000000
0.8087504 0.2865554 0.0000000
0.8292716 0.2710166 0.0000000
0.8485607 0.2534709 0.0000000
0.8667682 0.2341809 0.0000000
0.8842240 0.2136671 0.0000000
0.9013475 0.1926006 0.0000000
0.1994138 0.4115816 0.0000000
0.2169077 0.4113245 0.0000000
0.2344287 0.4110061 0.0000000
0.2520023 0.4105413 0.0000000
0.2696680 0.4098624 0.0000000
0.2874571 0.4089396 0.0000000
0.3054201 0.4077807 0.0000000
0.3236378 0.4064125 0.0000000
0.3421997 0.4048614 0.0000000
0.3611770 0.4031398 0.0000000
0.3806103 0.4012422 0.0000000
0.4005408 0.3991507 0.0000000
0.4210274 0.3968591 0.0000000
0.4421649 0.3943920 0.0000000
0.4640830 0.3918078 0.0000000
0.4869456 0.3891805 0.0000000
0.5108568 0.3865717 0.0000000
0.5358377 0.3839937 0.0000000
0.5617788 0.3813843 0.0000000
0.5885277 0.3786466 0.0000000
0.6158476 0.3756326 0.0000000
0.6433995 0.3720991 0.0000000
0.6708519 0.3677691 0.0000000
0.6978984 0.3623591 0.0000000
0.7242701 0.3555480 0.0000000
0.7497568 0.3470190 0.0000000
0.7741388 0.3364374 0.0000000
0.7972211 0.3235231 0.0000000
0.8188294 0.3080895 0.0000000
0.8388858 0.2901586 0.0000000
0.8575432 0.2700690 0.0000000
0.8752087 0.2484773 0.0000000
0.8924437 0.2262070 0.0000000
0.2004556 0.4323550 0.0000000
0.2154472 0.4313770 0.0000000
0.2304625 0.4303494 0.0000000
0.2455363 0.4292033 0.0000000
0.2607058 0.4278728 0.0000000
0.2760197 0.4263161 0.0000000
0.2915372 0.4245274 0.0000000
0.3073588 0.4225326 0.0000000
0.3236293 0.4203839 0.0000000
0.3404888 0.4181424 0.0000000
0.3580612 0.4158695 0.0000000
0.3764697 0.4136196 0.0000000
0.3958341 0.4114477 0.0000000
0.4162629 0.4094138 0.0000000
0.4378719 0.4075842 0.0000000
0.4607665 0.4060206 0.0000000
0.4850070 0.4047574 0.0000000
0.5105690 0.4037780 0.0000000
0.5373260 0.4029958 0.0000000
0.5651160 0.4022932 0.0000000
0.5936925 0.4014870 0.0000000
0.6227062 0.4002986 0.0000000
0.6518019 0.3983969 0.0000000
0.6806321 0.3954139 0.0000000
0.7088582 0.3909149 0.0000000
0.7361962 0.3844393 0.0000000
0.7623526 0.3755079 0.0000000
0.7870499 0.3637401 0.0000000
0.8099918 0.3489057 0.0000000
0.8309738 0.3310225 0.0000000
0.8500354 0.3104462 0.0000000
0.8676147 0.2879584 0.0000000
0.8844823 0.2645849 0.0000000
0.1995010 0.4529446 0.0000000
0.2124498 0.4512008 0.0000000
0.2254202 0.4494267 0.0000000
0.2384493 0.4475807 0.0000000
0.2515823 0.4456117 0.0000000
