catalog/styles/series/late-summer/series-late-summer-cross/look.cube
# series-late-summer-cross iteration 4
LUT_3D_SIZE 5
DOMAIN_MIN 0 0 0
DOMAIN_MAX 1 1 1
0.0000000 0.0000000 0.0000000
0.2622972 0.0000000 0.0000000
0.7080666 0.0000000 0.0000000
0.9502285 0.0000000 0.0000000
1.0000000 0.0000000 0.0000000
0.0000000 0.0801296 0.0000000
0.4519338 0.1247367 0.0000000
0.7851158 0.1083810 0.0000000
0.9235931 0.0317729 0.0000000
0.9843035 0.0000000 0.0000000
0.1246934 0.2793059 0.0000000
0.4563823 0.3084729 0.0000000
0.6803043 0.2792222 0.0000000
0.8333272 0.1901641 0.0000000
0.9441246 0.0793593 0.0000000
0.1995010 0.4529446 0.0000000
0.3066551 0.4361013 0.0000000
0.4608619 0.4234454 0.0000000
0.6937233 0.4272618 0.0033121
0.8782692 0.3080892 0.0000000
0.1680352 0.6071445 0.0000000
0.2043783 0.5664085 0.0000000
0.3129077 0.5853828 0.0000000
0.5649727 0.6980865 0.1098642
0.9660973 0.8912324 0.2234376
0.0000000 0.0000000 0.1411100
0.2192239 0.0000000 0.0546571
0.5654577 0.0000000 0.0223016
0.8027960 0.0000000 0.0522784
0.8541168 0.1605874 0.1229271
0.0265731 0.0890969 0.0962825
0.1062825 0.1032641 0.1022340
0.4580716 0.1035109 0.0925535
0.6875475 0.1378979 0.0852910
0.8481011 0.2384170 0.1424602
0.1656434 0.2945271 0.1742364
0.2338487 0.3043152 0.1577351
0.4442255 0.3148386 0.1885697
0.6130832 0.3388952 0.2039528
0.8103714 0.4356219 0.2255866
0.2122657 0.5240162 0.1959710
0.3168168 0.4993171 0.1742630
0.4244799 0.4804093 0.1969991
0.6137105 0.5058388 0.2658224
0.8394845 0.5886001 0.3423015
0.2567700 0.6652237 0.2021632
0.3167646 0.6406103 0.2022385
0.4199362 0.6391932 0.2236188
0.6147949 0.7030591 0.3243525
0.9192718 0.8677076 0.5407797
0.0000000 0.0000000 0.4194253
0.1291720 0.0000000 0.2269487
0.3688770 0.0000000 0.1572008
0.5983243 0.1034564 0.2462332
0.7993214 0.3235465 0.4040000
0.0416282 0.1333972 0.3760713
0.1319445 0.1081448 0.2234796
0.3919118 0.1665298 0.2668659
0.6386782 0.2994463 0.3523139
0.8037107 0.4718182 0.4719637
0.1535951 0.3533753 0.3896157
0.2824128 0.3810950 0.3940701
0.4676213 0.4417414 0.4377850
0.6801361 0.4873698 0.4109270
0.8316593 0.5698218 0.5081763
0.2584652 0.5723259 0.5323786
0.3675878 0.5761455 0.4755960
0.5019329 0.6017008 0.4878872
0.6244167 0.5960711 0.5071115
0.8522725 0.6807512 0.5754985
0.3098823 0.7013132 0.5214146
0.3682551 0.6878632 0.4907323
0.4794174 0.7047768 0.4877434
0.6700816 0.7668586 0.5523277
0.8973740 0.8525813 0.6652984
0.0516102 0.0686534 0.6328103
0.1203033 0.0271714 0.4277794
0.2496958 0.0516477 0.3448885
0.4513529 0.1788691 0.4233832
0.6794047 0.3439842 0.5568027
0.0389025 0.2405184 0.6262636
0.2087717 0.2281104 0.4790709
0.4151255 0.3019181 0.5047286
0.6131528 0.4157762 0.5769674
0.7880295 0.5378781 0.6564854
0.1926846 0.5385024 0.6477623
0.4154867 0.5842691 0.6878688
0.5575516 0.5682366 0.6657087
0.7059919 0.6091462 0.6905343
0.8803954 0.6893469 0.7219165
0.3236594 0.6587155 0.6970762
0.4520166 0.7246477 0.7377107
0.6048214 0.7457178 0.7405620
0.7077810 0.7245196 0.7137251
0.8984033 0.7885212 0.7520333
0.3137001 0.7396667 0.7232744
0.3473497 0.7181146 0.6824015
0.4315157 0.7346493 0.6764344
0.6397547 0.7870790 0.6979012
0.9175271 0.8954331 0.7886333
0.2760261 0.1823886 0.7465278
0.1853248 0.1539535 0.6584911
0.2028401 0.1631398 0.5930075
0.3476066 0.2375470 0.5991517
0.5368232 0.3312794 0.6537218
0.2882581 0.7210329 0.9812367
0.3373748 0.4986326 0.8233711
0.4554142 0.4580444 0.7590312
0.5845725 0.5006988 0.7753229
0.7429486 0.5756841 0.8233153
0.1576523 0.9141207 1.0000000
0.4118203 0.6907233 0.8618661
0.6215370 0.7119287 0.8866987
0.7958422 0.7704485 0.9397860
0.9239997 0.8227090 0.9779393
0.0841248 0.6951536 0.8091320
0.3814924 0.7107563 0.8058623
0.5144130 0.7393889 0.8320429
0.8480234 0.9325769 0.9914436
1.0000000 1.0000000 1.0000000
0.4347857 0.9053233 0.9268990
0.3408998 0.9159996 0.9430722
0.4272363 0.8877511 0.9009835
0.5928355 0.8092563 0.8231014
1.0000000 1.0000000 1.0000000
