catalog/styles/series/late-summer/series-late-summer-cross/look.cube
# series-late-summer-cross iteration 4
LUT_3D_SIZE 9
DOMAIN_MIN 0 0 0
DOMAIN_MAX 1 1 1
0.0000000 0.0000000 0.0000000
0.0231099 0.0000000 0.0000000
0.2622972 0.0000000 0.0000000
0.4978599 0.0000000 0.0000000
0.7080666 0.0000000 0.0000000
0.8625342 0.0000000 0.0000000
0.9502285 0.0000000 0.0000000
0.9910939 0.0000000 0.0000000
1.0000000 0.0000000 0.0000000
0.0000000 0.0000000 0.0000000
0.1061442 0.0039119 0.0000000
0.3595823 0.0136983 0.0000000
0.5783106 0.0125495 0.0000000
0.7485124 0.0000000 0.0000000
0.8659160 0.0000000 0.0000000
0.9354376 0.0000000 0.0000000
0.9730515 0.0000000 0.0000000
0.9977722 0.0000000 0.0000000
0.0000000 0.0801296 0.0000000
0.1982086 0.1059015 0.0000000
0.4519338 0.1247367 0.0000000
0.6532981 0.1292782 0.0000000
0.7851158 0.1083810 0.0000000
0.8683563 0.0719960 0.0000000
0.9235931 0.0317729 0.0000000
0.9587839 0.0000000 0.0000000
0.9843035 0.0000000 0.0000000
0.0254255 0.1776210 0.0022196
0.2737897 0.2083180 0.0000000
0.4805494 0.2268895 0.0000000
0.6465215 0.2255584 0.0000000
0.7695375 0.2030537 0.0000000
0.8420045 0.1592603 0.0000000
0.8950031 0.1140324 0.0000000
0.9358377 0.0672709 0.0000000
0.9677589 0.0151780 0.0000000
0.1246934 0.2793059 0.0000000
0.2985068 0.2929918 0.0000000
0.4563823 0.3084729 0.0000000
0.5746235 0.3026637 0.0000000
0.6803043 0.2792222 0.0000000
0.7632267 0.2374746 0.0000000
0.8333272 0.1901641 0.0000000
0.8955260 0.1406610 0.0000000
0.9441246 0.0793593 0.0000000
0.1887561 0.3696778 0.0000000
0.2856774 0.3727404 0.0000000
0.3831252 0.3741228 0.0000000
0.4759260 0.3685044 0.0000000
0.5663353 0.3510631 0.0000000
0.6625382 0.3256201 0.0000000
0.7574444 0.2903434 0.0000000
0.8413190 0.2380014 0.0000000
0.9106535 0.1634815 0.0000000
0.1995010 0.4529446 0.0000000
0.2515823 0.4456117 0.0000000
0.3066551 0.4361013 0.0000000
0.3729968 0.4267385 0.0000000
0.4608619 0.4234454 0.0000000
0.5722264 0.4275783 0.0000000
0.6937233 0.4272618 0.0033121
0.8024402 0.3928746 0.0083261
0.8782692 0.3080892 0.0000000
0.1859175 0.5318916 0.0000000
0.2161490 0.5149814 0.0000000
0.2513488 0.5005675 0.0000000
0.3020753 0.4940511 0.0000000
0.3806948 0.5030995 0.0000000
0.4923213 0.5309079 0.0090660
0.6307488 0.5691260 0.0640337
0.7756315 0.5841459 0.0921056
0.9060285 0.5516758 0.0838279
0.1680352 0.6071445 0.0000000
0.1825613 0.5836265 0.0000000
0.2043783 0.5664085 0.0000000
0.2444739 0.5647178 0.0000000
0.3129077 0.5853828 0.0000000
0.4180312 0.6307454 0.0349141
0.5649727 0.6980865 0.1098642
0.7531824 0.7870548 0.1719263
0.9660973 0.8912324 0.2234376
0.0000000 0.0000000 0.0000000
0.0267806 0.0000000 0.0000000
0.2499014 0.0000000 0.0000000
0.4569477 0.0000000 0.0000000
0.6434068 0.0000000 0.0000000
0.7919527 0.0000000 0.0000000
0.8837671 0.0000000 0.0000000
0.9192614 0.0000000 0.0000000
0.9246364 0.0000000 0.0000000
0.0000000 0.0053137 0.0092157
0.0676510 0.0188004 0.0138410
0.2436091 0.0194522 0.0116644
0.4465063 0.0148765 0.0038954
0.6334928 0.0070490 0.0000000
0.7670350 0.0005413 0.0000000
0.8455315 0.0013518 0.0000000
0.8881902 0.0081170 0.0000000
0.9190438 0.0102319 0.0000000
0.0000000 0.0774997 0.0354676
0.0991893 0.0888979 0.0362729
0.2628502 0.1112820 0.0369925
0.4540959 0.1136029 0.0338499
0.6122703 0.1013865 0.0175992
0.7238536 0.0876205 0.0000000
0.7986603 0.0841877 0.0000000
0.8554040 0.0891018 0.0000000
0.9078488 0.0880083 0.0000000
0.0910173 0.1901038 0.0803580
0.1502116 0.1797813 0.0625585
0.3751851 0.2189266 0.0630147
0.5392506 0.2414007 0.0618585
0.5917394 0.2043649 0.0481272
0.6713533 0.1751465 0.0289716
0.7607429 0.1666698 0.0068834
0.8349250 0.1787176 0.0000000
0.8962614 0.1947136 0.0000000
0.1682428 0.2978151 0.0850684
0.2406830 0.3125998 0.0870249
0.3465852 0.3153840 0.0737207
0.4976916 0.3293488 0.0695866
0.5495749 0.2949229 0.0679201
0.6224167 0.2657625 0.0645131
0.7206822 0.2529717 0.0516159
0.7955284 0.2451768 0.0309715
0.8699730 0.2663828 0.0288631
0.1847820 0.4031404 0.0436655
0.2617203 0.4048249 0.0473807
0.3251781 0.3992785 0.0520458
0.3887223 0.3798026 0.0576984
0.4733217 0.3640944 0.0688331
0.5773684 0.3584937 0.0852795
0.6929255 0.3577157 0.0977633
0.7789720 0.3459629 0.0948125
0.8526924 0.3502750 0.0951393
0.1989373 0.4875237 0.0169215
0.2595554 0.4799408 0.0267721
0.3100565 0.4687925 0.0364124
0.3610188 0.4557789 0.0511439
0.4312052 0.4471161 0.0714439
0.5314493 0.4530461 0.1030176
0.6532922 0.4730500 0.1435336
0.7635215 0.4839443 0.1705210
0.8698821 0.4871723 0.1861204
0.2099707 0.5637652 0.0069111
0.2477958 0.5492421 0.0174480
0.2866954 0.5354240 0.0301789
0.3342014 0.5273214 0.0494108
0.4007918 0.5295996 0.0792633
0.4951609 0.5474135 0.1224600
0.6159263 0.5819809 0.1773469
0.7525652 0.6264419 0.2379439
0.8995211 0.6781404 0.3050034
0.2149602 0.6378916 0.0000000
0.2360489 0.6189217 0.0101307
0.2636639 0.6042574 0.0270399
0.3055188 0.5995196 0.0518964
0.3688888 0.6103658 0.0897543
0.4608491 0.6408242 0.1432327
0.5885270 0.6951642 0.2139706
0.7532884 0.7776166 0.3047074
0.9372125 0.8765334 0.4069933
0.0000000 0.0000000 0.1411100
0.0200752 0.0000000 0.0934501
0.2192239 0.0000000 0.0546571
0.4011306 0.0000000 0.0296058
0.5654577 0.0000000 0.0223016
0.7048858 0.0000000 0.0314842
0.8027960 0.0000000 0.0522784
0.8494390 0.0498777 0.0813441
0.8541168 0.1605874 0.1229271
0.0000000 0.0223939 0.1124006
0.0426002 0.0309015 0.0971834
0.1693246 0.0260341 0.0790388
0.3440366 0.0212908 0.0669928
0.5242196 0.0212905 0.0594017
0.6666583 0.0337018 0.0587455
0.7586942 0.0664144 0.0714206
0.8149769 0.1209002 0.0988380
0.8610287 0.1842988 0.1349212
0.0265731 0.0890969 0.0962825
0.0704007 0.1010898 0.1112109
0.1062825 0.1032641 0.1022340
0.2711604 0.1046628 0.1032126
0.4580716 0.1035109 0.0925535
0.5950119 0.1110167 0.0823681
0.6875475 0.1378979 0.0852910
0.7672361 0.1872707 0.1088289
0.8481011 0.2384170 0.1424602
0.1036109 0.1795963 0.1352778
0.1062258 0.1743895 0.1331469
0.1717807 0.1855566 0.1457888
0.2496082 0.1755943 0.1286677
0.3782602 0.1836144 0.1280409
0.4996711 0.1972196 0.1245996
0.6077895 0.2112504 0.1151460
0.7263812 0.2656601 0.1359079
0.8264401 0.3457141 0.1805484
0.1656434 0.2945271 0.1742364
0.1909531 0.3288202 0.1660896
0.2338487 0.3043152 0.1577351
0.3817807 0.3190326 0.1672940
0.4442255 0.3148386 0.1885697
0.5216700 0.3215309 0.2013778
0.6130832 0.3388952 0.2039528
0.6990177 0.3640654 0.2074931
0.8103714 0.4356219 0.2255866
0.1867195 0.4335111 0.1887208
0.2452537 0.4315707 0.1696200
0.2956594 0.4220653 0.1632301
0.3500283 0.4022982 0.1716945
0.4285050 0.3988147 0.1929134
0.5173512 0.4055736 0.2187780
0.6308090 0.4360572 0.2543709
0.7283431 0.4644672 0.2698017
0.8109134 0.5052403 0.2748895
0.2122657 0.5240162 0.1959710
0.2699211 0.5123568 0.1830711
0.3168168 0.4993171 0.1742630
0.3631679 0.4870259 0.1786927
0.4244799 0.4804093 0.1969991
0.5073178 0.4849754 0.2269892
0.6137105 0.5058388 0.2658224
0.7295483 0.5414373 0.3049083
0.8394845 0.5886001 0.3423015
0.2371543 0.5963066 0.2010758
0.2783596 0.5829480 0.1936539
0.3185544 0.5699105 0.1883597
0.3628402 0.5605739 0.1910402
0.4207334 0.5579240 0.2066696
0.5026086 0.5685731 0.2396123
0.6094985 0.5973567 0.2895387
0.7343440 0.6455531 0.3550254
0.8779505 0.7145114 0.4369929
0.2567700 0.6652237 0.2021632
0.2842283 0.6517673 0.2016211
0.3167646 0.6406103 0.2022385
0.3599444 0.6348227 0.2072151
0.4199362 0.6391932 0.2236188
0.5029784 0.6593992 0.2597629
0.6147949 0.7030591 0.3243525
0.7583641 0.7767446 0.4229393
0.9192718 0.8677076 0.5407797
0.0000000 0.0000000 0.2863352
0.0076238 0.0000000 0.2048372
0.1705502 0.0000000 0.1360521
0.3260835 0.0000000 0.0945484
0.4683794 0.0000000 0.0862065
0.5962120 0.0000000 0.1082300
0.7016606 0.0517758 0.1530054
0.7773424 0.1484797 0.2140863
0.8332831 0.2736533 0.2872485
0.0000000 0.0404057 0.2565090
0.0335071 0.0346511 0.1908985
0.1357358 0.0280713 0.1452397
0.2727925 0.0259192 0.1265110
0.4295402 0.0402888 0.1305479
0.5702000 0.0756944 0.1513847
0.6763443 0.1344834 0.1876287
0.7560681 0.2198679 0.2412719
0.8267404 0.3283022 0.3115476
0.0398545 0.1081166 0.1940124
0.0711957 0.1187371 0.1868137
0.1150151 0.1115819 0.1669646
0.2246621 0.1046099 0.1613805
0.3961015 0.1258352 0.1733367
0.5451864 0.1633198 0.1921761
0.6445563 0.2171532 0.2200334
0.7295731 0.2930582 0.2672219
0.8169287 0.3885887 0.3343526
0.0880819 0.1684438 0.1756829
0.1062481 0.1699750 0.1835472
0.1580982 0.2010696 0.2138978
0.2385151 0.2053919 0.2193375
0.3687036 0.2025941 0.1976637
0.5184571 0.2464324 0.2121958
0.6196982 0.3083339 0.2474800
0.7110277 0.3793865 0.2991093
0.8052009 0.4476595 0.3551573
0.1348730 0.2921131 0.2706256
0.1691244 0.2953028 0.2423772
0.2491530 0.3117584 0.2415658
0.3667910 0.3538952 0.2801034
0.4338292 0.3649040 0.2946219
0.5059812 0.3543216 0.2648879
0.6281009 0.4029347 0.2770639
0.7195941 0.4697700 0.3376890
0.8015710 0.5162016 0.3845880
0.2026295 0.4527605 0.3611014
0.2487752 0.4496024 0.3186082
0.2961904 0.4339343 0.2847988
0.3805708 0.4391686 0.2878939
0.4761243 0.4680285 0.3226957
0.5301274 0.4763575 0.3498953
0.5996430 0.4785398 0.3526002
0.7263440 0.5330955 0.3864381
0.8123614 0.5727752 0.4162433
0.2391362 0.5550313 0.3854939
0.2883428 0.5446355 0.3504255
0.3332299 0.5324978 0.3244629
0.3837226 0.5250618 0.3178613
0.4478432 0.5283100 0.3332511
0.5174355 0.5323823 0.3568090
0.6022402 0.5386685 0.3800077
0.7219011 0.5769386 0.4199103
0.8304611 0.6298169 0.4652033
0.2656613 0.6248717 0.3841273
0.3067014 0.6138227 0.3621877
0.3471057 0.6043702 0.3448769
0.3906519 0.5977944 0.3372065
0.4482234 0.5978984 0.3440741
0.5259198 0.6074635 0.3677222
0.6208219 0.6276712 0.4068824
0.7313185 0.6627420 0.4591484
0.8588033 0.7183755 0.5271453
0.2887546 0.6860997 0.3779213
0.3189899 0.6772180 0.3686670
0.3537731 0.6702499 0.3598433
0.3987601 0.6677562 0.3545200
0.4595761 0.6729376 0.3597459
0.5413462 0.6917044 0.3859643
0.6449029 0.7292095 0.4400892
0.7692313 0.7874435 0.5206839
0.9058614 0.8562639 0.6134167
0.0000000 0.0000000 0.4194253
0.0073606 0.0000000 0.3177377
0.1291720 0.0000000 0.2269487
0.2502289 0.0000000 0.1695239
0.3688770 0.0000000 0.1572008
0.4859222 0.0245647 0.1867437
0.5983243 0.1034564 0.2462332
0.7017192 0.2082048 0.3222999
0.7993214 0.3235465 0.4040000
0.0000000 0.0578155 0.4169334
0.0383734 0.0419210 0.2976045
0.1256909 0.0329904 0.2212800
0.2384878 0.0380895 0.1955806
0.3719944 0.0686167 0.2093996
0.5032577 0.1241787 0.2477838
0.6153976 0.1998921 0.3009250
0.7111034 0.2944086 0.3661320
0.8003318 0.3999416 0.4383496
0.0416282 0.1333972 0.3760713
0.0751698 0.1222937 0.2775716
0.1319445 0.1081448 0.2234796
0.2424950 0.1197099 0.2314550
0.3919118 0.1665298 0.2668659
0.5335536 0.2288011 0.3071220
0.6386782 0.2994463 0.3523139
0.7218868 0.3802066 0.4066325
0.8037107 0.4718182 0.4719637
0.0827872 0.1924293 0.2593381
0.1259431 0.2122836 0.2908852
0.1763613 0.2077122 0.2799731
0.2918601 0.2434609 0.3116803
0.4328740 0.2947837 0.3470373
0.5674966 0.3425070 0.3635246
0.6659730 0.3982520 0.3869706
0.7382124 0.4606672 0.4330693
0.8143532 0.5262651 0.4938002
0.1535951 0.3533753 0.3896157
0.2176226 0.3690285 0.3920523
0.2824128 0.3810950 0.3940701
0.3747030 0.4113136 0.4124640
0.4676213 0.4417414 0.4377850
0.5586046 0.4612816 0.4394467
0.6801361 0.4873698 0.4109270
0.7681873 0.5334474 0.4437287
0.8316593 0.5698218 0.5081763
0.2143454 0.4849330 0.4967614
0.2945052 0.5040018 0.4759927
0.3346629 0.4874535 0.4371634
0.4333393 0.5193349 0.4575362
0.5311301 0.5613194 0.4995780
0.5360396 0.5395333 0.4892376
0.6346163 0.5506624 0.4777095
0.7945443 0.6064543 0.4827433
0.8436177 0.6240967 0.5336611
0.2584652 0.5723259 0.5323786
0.3198144 0.5810548 0.5029807
0.3675878 0.5761455 0.4755960
0.4230351 0.5781074 0.4675770
0.5019329 0.6017008 0.4878872
0.5795535 0.6191651 0.5130028
0.6244167 0.5960711 0.5071115
0.7325689 0.6297544 0.5393061
0.8522725 0.6807512 0.5754985
0.2876267 0.6423548 0.5323785
0.3303548 0.6403615 0.5082094
0.3717388 0.6372863 0.4885304
0.4176159 0.6370808 0.4780132
0.4878596 0.6532364 0.4880775
0.5767750 0.6763922 0.5121458
0.6539274 0.6819169 0.5310537
0.7376941 0.6946939 0.5600774
0.8577982 0.7403151 0.6101089
0.3098823 0.7013132 0.5214146
0.3357677 0.6919298 0.5043533
0.3682551 0.6878632 0.4907323
0.4150087 0.6924881 0.4844531
0.4794174 0.7047768 0.4877434
0.5644859 0.7283029 0.5083392
0.6700816 0.7668586 0.5523277
0.7846719 0.8116252 0.6089184
0.8973740 0.8525813 0.6652984
0.0000000 0.0137328 0.5390711
0.0327884 0.0000000 0.4270461
0.1125976 0.0000000 0.3244913
0.1982566 0.0000000 0.2573223
0.2941668 0.0088609 0.2414920
0.4008310 0.0629086 0.2729182
0.5143204 0.1443384 0.3353742
0.6297557 0.2415913 0.4117230
0.7451775 0.3439578 0.4916629
0.0000000 0.0852553 0.5421214
0.0538232 0.0650464 0.4052481
0.1315150 0.0577931 0.3180005
0.2297397 0.0727106 0.2904098
0.3441121 0.1138704 0.3064430
0.4616978 0.1771414 0.3485531
0.5717512 0.2552978 0.4049804
0.6731742 0.3421244 0.4682597
0.7709524 0.4321936 0.5337384
0.0322921 0.1586353 0.5043921
0.0785604 0.1375192 0.3810028
0.1544964 0.1343599 0.3250766
0.2689607 0.1685389 0.3384782
0.4021743 0.2301002 0.3822438
0.5262407 0.2968642 0.4266569
0.6294238 0.3650730 0.4701090
0.7164991 0.4376212 0.5186348
0.7983731 0.5131541 0.5710022
0.0670079 0.2493738 0.4121430
0.1481671 0.2606776 0.4179220
0.2202193 0.2593009 0.3980617
0.3364836 0.3029477 0.4269660
0.4650696 0.3660634 0.4734322
0.5803513 0.4211737 0.5065765
0.6747951 0.4686783 0.5258368
0.7542106 0.5204192 0.5543271
0.8294747 0.5784132 0.5963520
0.1326489 0.3830171 0.4905836
0.2885799 0.4730057 0.5493017
0.3635865 0.4806055 0.5550872
0.4375342 0.4859588 0.5470960
0.5174810 0.5055757 0.5589676
0.5930227 0.5243981 0.5668197
0.6841139 0.5541138 0.5697061
0.7771828 0.5891667 0.5786743
0.8606715 0.6280639 0.6083463
0.2438933 0.5606453 0.6043219
0.3417182 0.5787862 0.6053199
0.4109046 0.5885378 0.6027812
0.4755256 0.5920869 0.5956614
0.5371937 0.5992014 0.5975282
0.5719689 0.5848503 0.5845486
0.6508338 0.5981616 0.5890787
0.7792469 0.6450140 0.6012864
0.8802851 0.6783319 0.6268003
0.2789771 0.5995367 0.6188312
0.3539607 0.6320085 0.6245295
0.4154501 0.6409083 0.6151517
0.4718367 0.6436227 0.6064305
0.5444016 0.6635861 0.6165304
0.6377013 0.6968845 0.6449534
0.6654077 0.6600521 0.6179089
0.7754255 0.6931042 0.6262038
0.8742111 0.7259606 0.6563768
0.3028123 0.6589869 0.6349712
0.3490053 0.6690633 0.6226010
0.3916100 0.6736555 0.6105473
0.4400394 0.6790625 0.6028240
0.5181042 0.7048806 0.6154958
0.6255299 0.7486033 0.6480245
0.7045478 0.7577477 0.6579246
0.7534278 0.7350132 0.6450614
0.8801776 0.7850480 0.6886917
0.3173399 0.7146144 0.6341119
0.3371459 0.7010864 0.6096631
0.3619445 0.6952065 0.5919826
0.4034587 0.7033933 0.5871597
0.4705465 0.7250964 0.5948662
0.5618679 0.7554837 0.6126343
0.6714647 0.7927581 0.6432710
0.7905247 0.8352965 0.6859830
0.9002851 0.8657477 0.7222583
0.0516102 0.0686534 0.6328103
0.0824455 0.0445488 0.5253289
0.1203033 0.0271714 0.4277794
0.1744825 0.0262949 0.3628210
0.2496958 0.0516477 0.3448885
0.3441157 0.1051000 0.3700336
0.4513529 0.1788691 0.4233832
0.5646886 0.2612202 0.4889619
0.6794047 0.3439842 0.5568027
0.0466952 0.1558252 0.6438970
0.0972432 0.1322123 0.5250987
0.1588018 0.1203852 0.4433941
0.2383263 0.1344063 0.4129028
0.3321890 0.1735311 0.4214203
0.4330460 0.2308209 0.4545098
0.5350084 0.2989554 0.5015066
0.6352016 0.3714474 0.5546425
0.7338757 0.4445755 0.6091326
0.0389025 0.2405184 0.6262636
0.1228103 0.2278177 0.5261122
0.2087717 0.2281104 0.4790709
0.3087084 0.2547055 0.4780741
0.4151255 0.3019181 0.5047286
0.5179859 0.3575351 0.5403347
0.6131528 0.4157762 0.5769674
0.7021169 0.4762838 0.6158145
0.7880295 0.5378781 0.6564854
0.0656389 0.2825241 0.4748014
0.1979369 0.3759095 0.5781135
0.2997044 0.3898979 0.5716004
0.3954214 0.4036559 0.5701080
0.4942648 0.4377644 0.5924244
0.5882385 0.4796346 0.6209340
0.6743771 0.5220918 0.6440973
0.7568160 0.5694589 0.6674830
0.8385489 0.6192926 0.6939081
0.1926846 0.5385024 0.6477623
0.3121778 0.5622141 0.6717001
0.4154867 0.5842691 0.6878688
0.4884903 0.5696804 0.6707946
0.5575516 0.5682366 0.6657087
0.6303202 0.5833210 0.6762065
0.7059919 0.6091462 0.6905343
0.7893122 0.6462627 0.7057079
0.8803954 0.6893469 0.7219165
0.2530673 0.6084672 0.6785726
0.3473001 0.6642047 0.7210021
0.4340579 0.6775860 0.7275882
0.5295514 0.6824568 0.7241244
0.5956088 0.6732793 0.7110380
0.6470754 0.6625119 0.6999108
0.7100946 0.6714418 0.7069894
0.7994202 0.7061569 0.7261848
0.9047436 0.7489219 0.7430123
0.3236594 0.6587155 0.6970762
0.3670326 0.6903981 0.7190219
0.4520166 0.7246477 0.7377107
0.5274995 0.7407393 0.7432935
0.6048214 0.7457178 0.7405620
0.6630373 0.7345279 0.7231858
0.7077810 0.7245196 0.7137251
0.7995424 0.7542788 0.7300101
0.8984033 0.7885212 0.7520333
0.3225883 0.6955718 0.7098177
0.3590808 0.7032941 0.7064243
0.4022994 0.7127021 0.7039354
0.4551972 0.7267203 0.7062128
0.5312445 0.7518773 0.7198929
0.6370791 0.7879678 0.7434744
0.7305756 0.8111057 0.7561519
0.7614846 0.7664568 0.7086619
0.8990472 0.8328188 0.7663969
0.3137001 0.7396667 0.7232744
0.3337402 0.7285065 0.7018147
0.3473497 0.7181146 0.6824015
0.3726389 0.7176781 0.6724167
0.4315157 0.7346493 0.6764344
0.5256153 0.7615123 0.6868979
0.6397547 0.7870790 0.6979012
0.7753661 0.8354606 0.7361262
0.9175271 0.8954331 0.7886333
0.1611471 0.1258933 0.6969186
0.1497919 0.1032635 0.6147497
0.1476301 0.0856867 0.5399321
0.1701618 0.0834966 0.4864001
0.2233858 0.1051060 0.4651616
0.3025069 0.1498141 0.4763844
0.3984744 0.2092760 0.5112700
0.5025954 0.2739223 0.5581090
0.6091315 0.3380159 0.6081715
0.1636220 0.2941250 0.7474315
0.1753257 0.2488208 0.6610903
0.2067637 0.2191563 0.5920104
0.2599637 0.2170027 0.5541827
0.3296503 0.2408519 0.5471643
0.4111042 0.2828266 0.5635664
0.5006645 0.3352066 0.5949868
0.5945021 0.3918615 0.6339821
0.6892416 0.4493125 0.6750122
0.1414982 0.4453120 0.7818391
0.2028612 0.3923602 0.7059944
0.2751467 0.3596814 0.6507172
0.3526637 0.3567882 0.6272965
0.4327609 0.3780503 0.6301403
0.5145188 0.4146136 0.6498378
0.5972519 0.4586635 0.6767741
0.6820912 0.5070948 0.7074247
0.7680946 0.5574630 0.7398384
0.0826226 0.5474887 0.7833549
0.2437604 0.5265329 0.7448685
0.3570800 0.5153019 0.7250612
0.4443902 0.5042220 0.7066230
0.5259242 0.5149032 0.7109202
0.6047487 0.5414976 0.7295308
0.6813199 0.5759015 0.7518132
0.7594864 0.6163243 0.7748720
0.8404539 0.6601870 0.7989839
0.0426686 0.4215496 0.5864810
0.3003357 0.6534865 0.7887625
0.4185964 0.6532319 0.7874620
0.5091861 0.6372982 0.7736247
0.5930129 0.6393619 0.7757913
0.6718111 0.6564241 0.7912998
0.7466781 0.6827380 0.8114194
0.8214760 0.7164901 0.8304998
0.8997679 0.7545217 0.8483296
0.1999913 0.6908804 0.8012446
0.3425040 0.7210490 0.8025771
0.4344928 0.7405707 0.8185781
0.5230357 0.7383110 0.8178947
0.6182588 0.7412514 0.8203902
0.7096413 0.7550201 0.8318439
0.7898787 0.7775537 0.8519183
0.8641137 0.8050217 0.8690501
0.9378708 0.8329906 0.8798463
0.3199647 0.7332467 0.7905496
0.3581006 0.7140882 0.7760116
0.4458563 0.7577786 0.8048169
0.5323967 0.7943150 0.8329422
0.6068480 0.8187819 0.8522684
0.7138187 0.8390754 0.8658295
0.8127436 0.8623325 0.8842433
0.8826563 0.8766916 0.8891201
0.9474535 0.8854217 0.8867368
0.3132751 0.7398598 0.7743897
0.3544079 0.7478894 0.7808975
0.3872648 0.7493455 0.7757282
0.4355112 0.7580157 0.7763703
0.5047693 0.7710927 0.7820697
0.6152922 0.8081003 0.8105055
0.7311903 0.8363528 0.8241522
0.8447720 0.8865826 0.8576807
0.9396689 0.9128294 0.8773430
0.3439289 0.8067333 0.8190572
0.3387382 0.8017470 0.8097084
0.3414945 0.7958278 0.7990157
0.3617640 0.7903108 0.7865492
0.4107157 0.7862022 0.7738771
0.4876151 0.7761630 0.7538514
0.6007394 0.7780369 0.7449414
0.7564836 0.8312195 0.7822342
0.9518094 0.9506953 0.8763969
0.2760261 0.1823886 0.7465278
0.2262833 0.1682320 0.7019193
0.1853248 0.1539535 0.6584911
0.1741316 0.1492237 0.6194443
0.2028401 0.1631398 0.5930075
0.2647306 0.1950468 0.5864510
0.3476066 0.2375470 0.5991517
0.4406792 0.2839583 0.6240906
0.5368232 0.3312794 0.6537218
0.3037379 0.4631683 0.8543242
0.2708250 0.3891526 0.8035842
0.2643579 0.3342788 0.7495327
0.2873428 0.3084995 0.7029183
0.3313791 0.3109464 0.6771224
0.3922695 0.3338906 0.6739613
0.4673322 0.3689823 0.6878273
0.5521517 0.4098367 0.7113515
0.6409827 0.4525150 0.7382467
0.2882581 0.7210329 0.9812367
0.2956229 0.5875043 0.8969456
0.3373748 0.4986326 0.8233711
0.3962366 0.4620848 0.7780261
0.4554142 0.4580444 0.7590312
0.5162158 0.4728377 0.7600182
0.5845725 0.5006988 0.7753229
0.6615278 0.5366325 0.7981268
0.7429486 0.5756841 0.8233153
0.2088672 0.9121476 1.0000000
0.2903997 0.7163006 0.9456669
0.3887032 0.6196736 0.8583052
0.4830856 0.5976828 0.8364689
0.5609224 0.5980987 0.8334060
0.6287623 0.6106945 0.8419288
0.6959346 0.6344236 0.8600105
0.7664993 0.6660257 0.8826071
0.8392458 0.7009668 0.9063038
0.1576523 0.9141207 1.0000000
0.2777784 0.7343086 0.9068963
0.4118203 0.6907233 0.8618661
0.5222704 0.6936066 0.8668154
0.6215370 0.7119287 0.8866987
0.7148069 0.7400554 0.9134163
0.7958422 0.7704485 0.9397860
0.8634849 0.7976065 0.9607297
0.9239997 0.8227090 0.9779393
0.1541344 0.6822243 0.8199971
0.2950558 0.6984196 0.8290297
0.4108209 0.7035075 0.8307574
0.4915462 0.7119782 0.8410246
0.6041420 0.7593679 0.8863368
0.7452635 0.8329911 0.9520750
0.8646370 0.8911176 1.0000000
0.9388038 0.9177848 1.0000000
0.9890709 0.9293415 1.0000000
0.0841248 0.6951536 0.8091320
0.3426103 0.7144479 0.8080137
0.3814924 0.7107563 0.8058623
0.4192035 0.7041444 0.8027098
0.5144130 0.7393889 0.8320429
0.6808638 0.8370723 0.9133790
0.8480234 0.9325769 0.9914436
0.9595671 0.9863370 1.0000000
1.0000000 1.0000000 1.0000000
0.2598070 0.8295705 0.8934232
0.3486902 0.8132359 0.8719406
0.3672881 0.8195936 0.8779667
0.4129651 0.8193782 0.8733630
0.4829812 0.8205572 0.8697911
0.5824714 0.8287165 0.8711678
0.7285171 0.8747600 0.9052074
0.8927682 0.9598037 0.9709831
1.0000000 1.0000000 1.0000000
0.4347857 0.9053233 0.9268990
0.3511273 0.9103677 0.9386102
0.3408998 0.9159996 0.9430722
0.3766459 0.9153775 0.9342061
0.4272363 0.8877511 0.9009835
0.4869366 0.8335580 0.8477899
0.5928355 0.8092563 0.8231014
0.7794061 0.8879612 0.8859051
1.0000000 1.0000000 1.0000000
